%
(Generated by SketchUcam {1.2a})
(File: BallscrewRouter.skp)
(Bit diameter: 4.0mm)
(Feed rate: 100.0mm/min)
(Material Thickness: 6.3mm)
(Material length: 800.0mm X width: 400.0mm)
(Overhead Gantry: true)
(Retract feed rate NOT limited to plunge feed rate)
(Multipass enabled, Depth = 0.8mm)
(Optimization is ON)
(www.PhlatBoyz.com)
G90 G21 G49 
M3 S11000
(Group: Gantry)
(Group: X Axis)
(Group: X Axis Motor)
(Group complete: X Axis Motor)
(Group complete: X Axis)
(Group complete: Gantry)
(Group: Table)
(Group complete: Table)
G0   Z10.000    
(Pass: 1)
   X73.510       Y18.021    
(plungebore    depth=7.875         diam=4.000     )
G00   Z3.333     
G01   Z-0.800     F100 
G00   z3.333     
G01   Z-1.600    
G00   z3.333     
G01   Z-2.400    
G00   z3.333     
G01   Z-3.200    
G00   z3.333     
G01   Z-4.000    
G00   z3.333     
G01   Z-4.800    
G00   z3.333     
G01   Z-5.600    
G00   z3.333     
G01   Z-6.400    
G00   z3.333     
G01   Z-7.200    
G00   z3.333     
G01   Z-7.875    
G00   z3.333     
G00   Y18.021        Z10.000    
(plungebore end)
(BREAK pass 9)
(Pass: 1)
G0   Y31.021    
(plungebore    depth=7.875         diam=4.000     )
G00   Z3.333     
G01   Z-0.800     F100 
G00   z3.333     
G01   Z-1.600    
G00   z3.333     
G01   Z-2.400    
G00   z3.333     
G01   Z-3.200    
G00   z3.333     
G01   Z-4.000    
G00   z3.333     
G01   Z-4.800    
G00   z3.333     
G01   Z-5.600    
G00   z3.333     
G01   Z-6.400    
G00   z3.333     
G01   Z-7.200    
G00   z3.333     
G01   Z-7.875    
G00   z3.333     
G00   Y31.021        Z10.000    
(plungebore end)
(BREAK pass 9)
(Pass: 1)
(plungebore    depth=7.875         diam=4.000     )
G00   Z3.333     
G01   Z-0.800     F100 
G00   z3.333     
G01   Z-1.600    
G00   z3.333     
G01   Z-2.400    
G00   z3.333     
G01   Z-3.200    
G00   z3.333     
G01   Z-4.000    
G00   z3.333     
G01   Z-4.800    
G00   z3.333     
G01   Z-5.600    
G00   z3.333     
G01   Z-6.400    
G00   z3.333     
G01   Z-7.200    
G00   z3.333     
G01   Z-7.875    
G00   z3.333     
G00   Y31.021        Z10.000    
(plungebore end)
(BREAK pass 9)
(Pass: 1)
G0   X27.510    
(plungebore    depth=7.875         diam=4.000     )
G00   Z3.333     
G01   Z-0.800     F100 
G00   z3.333     
G01   Z-1.600    
G00   z3.333     
G01   Z-2.400    
G00   z3.333     
G01   Z-3.200    
G00   z3.333     
G01   Z-4.000    
G00   z3.333     
G01   Z-4.800    
G00   z3.333     
G01   Z-5.600    
G00   z3.333     
G01   Z-6.400    
G00   z3.333     
G01   Z-7.200    
G00   z3.333     
G01   Z-7.875    
G00   z3.333     
G00   Y31.021        Z10.000    
(plungebore end)
(BREAK pass 9)
(Pass: 1)
G0   Y18.007    
(plungebore    depth=7.875         diam=4.000     )
G00   Z3.333     
G01   Z-0.800     F100 
G00   z3.333     
G01   Z-1.600    
G00   z3.333     
G01   Z-2.400    
G00   z3.333     
G01   Z-3.200    
G00   z3.333     
G01   Z-4.000    
G00   z3.333     
G01   Z-4.800    
G00   z3.333     
G01   Z-5.600    
G00   z3.333     
G01   Z-6.400    
G00   z3.333     
G01   Z-7.200    
G00   z3.333     
G01   Z-7.875    
G00   z3.333     
G00   Y18.007        Z10.000    
(plungebore end)
(BREAK pass 9)
(Pass: 1)
G0   X14.239    
G1   Z-0.800     F100 
G17 G2   X14.1995      Y18.3110      R5.2500    
   X14.0789      Y18.6094      R5.2500    
   X13.8852      Y18.8664      R5.2500    
   X13.6316      Y19.0645      R5.2500    
   X13.3354      Y19.1902      R5.2500    
   X13.0167      Y19.2350      R5.2500    
   X12.6973      Y19.1958      R5.2500    
   X12.3989      Y19.0753      R5.2500    
   X12.1419      Y18.8816      R5.2500    
   X11.9438      Y18.6280      R5.2500    
   X11.8181      Y18.3318      R5.2500    
   X11.7733      Y18.0131      R5.2500    
   X11.8125      Y17.6937      R5.2500    
   X11.9330      Y17.3953      R5.2500    
   X12.1267      Y17.1383      R5.2500    
   X12.3803      Y16.9402      R5.2500    
   X12.6765      Y16.8144      R5.2500    
   X12.9952      Y16.7696      R5.2500    
   X13.3146      Y16.8089      R5.2500    
   X13.6130      Y16.9294      R5.2500    
   X13.8700      Y17.1231      R5.2500    
   X14.0681      Y17.3767      R5.2500    
   X14.1939      Y17.6729      R5.2500    
   X14.2387      Y17.9916      R5.2500    
(Pass: 2)
G1   Z-1.600    
G17 G2   X14.1995      Y18.3110      R5.2500    
   X14.0789      Y18.6094      R5.2500    
   X13.8852      Y18.8664      R5.2500    
   X13.6316      Y19.0645      R5.2500    
   X13.3354      Y19.1902      R5.2500    
   X13.0167      Y19.2350      R5.2500    
   X12.6973      Y19.1958      R5.2500    
   X12.3989      Y19.0753      R5.2500    
   X12.1419      Y18.8816      R5.2500    
   X11.9438      Y18.6280      R5.2500    
   X11.8181      Y18.3318      R5.2500    
   X11.7733      Y18.0131      R5.2500    
   X11.8125      Y17.6937      R5.2500    
   X11.9330      Y17.3953      R5.2500    
   X12.1267      Y17.1383      R5.2500    
   X12.3803      Y16.9402      R5.2500    
   X12.6765      Y16.8144      R5.2500    
   X12.9952      Y16.7696      R5.2500    
   X13.3146      Y16.8089      R5.2500    
   X13.6130      Y16.9294      R5.2500    
   X13.8700      Y17.1231      R5.2500    
   X14.0681      Y17.3767      R5.2500    
   X14.1939      Y17.6729      R5.2500    
   X14.2387      Y17.9916      R5.2500    
(Pass: 3)
G1   Z-2.400    
G17 G2   X14.1995      Y18.3110      R5.2500    
   X14.0789      Y18.6094      R5.2500    
   X13.8852      Y18.8664      R5.2500    
   X13.6316      Y19.0645      R5.2500    
   X13.3354      Y19.1902      R5.2500    
   X13.0167      Y19.2350      R5.2500    
   X12.6973      Y19.1958      R5.2500    
   X12.3989      Y19.0753      R5.2500    
   X12.1419      Y18.8816      R5.2500    
   X11.9438      Y18.6280      R5.2500    
   X11.8181      Y18.3318      R5.2500    
   X11.7733      Y18.0131      R5.2500    
   X11.8125      Y17.6937      R5.2500    
   X11.9330      Y17.3953      R5.2500    
   X12.1267      Y17.1383      R5.2500    
   X12.3803      Y16.9402      R5.2500    
   X12.6765      Y16.8144      R5.2500    
   X12.9952      Y16.7696      R5.2500    
   X13.3146      Y16.8089      R5.2500    
   X13.6130      Y16.9294      R5.2500    
   X13.8700      Y17.1231      R5.2500    
   X14.0681      Y17.3767      R5.2500    
   X14.1939      Y17.6729      R5.2500    
   X14.2387      Y17.9916      R5.2500    
(Pass: 4)
G1   Z-3.200    
G17 G2   X14.1995      Y18.3110      R5.2500    
   X14.0789      Y18.6094      R5.2500    
   X13.8852      Y18.8664      R5.2500    
   X13.6316      Y19.0645      R5.2500    
   X13.3354      Y19.1902      R5.2500    
   X13.0167      Y19.2350      R5.2500    
   X12.6973      Y19.1958      R5.2500    
   X12.3989      Y19.0753      R5.2500    
   X12.1419      Y18.8816      R5.2500    
   X11.9438      Y18.6280      R5.2500    
   X11.8181      Y18.3318      R5.2500    
   X11.7733      Y18.0131      R5.2500    
   X11.8125      Y17.6937      R5.2500    
   X11.9330      Y17.3953      R5.2500    
   X12.1267      Y17.1383      R5.2500    
   X12.3803      Y16.9402      R5.2500    
   X12.6765      Y16.8144      R5.2500    
   X12.9952      Y16.7696      R5.2500    
   X13.3146      Y16.8089      R5.2500    
   X13.6130      Y16.9294      R5.2500    
   X13.8700      Y17.1231      R5.2500    
   X14.0681      Y17.3767      R5.2500    
   X14.1939      Y17.6729      R5.2500    
   X14.2387      Y17.9916      R5.2500    
(Pass: 5)
G1   Z-4.000    
G17 G2   X14.1995      Y18.3110      R5.2500    
   X14.0789      Y18.6094      R5.2500    
   X13.8852      Y18.8664      R5.2500    
   X13.6316      Y19.0645      R5.2500    
   X13.3354      Y19.1902      R5.2500    
   X13.0167      Y19.2350      R5.2500    
   X12.6973      Y19.1958      R5.2500    
   X12.3989      Y19.0753      R5.2500    
   X12.1419      Y18.8816      R5.2500    
   X11.9438      Y18.6280      R5.2500    
   X11.8181      Y18.3318      R5.2500    
   X11.7733      Y18.0131      R5.2500    
   X11.8125      Y17.6937      R5.2500    
   X11.9330      Y17.3953      R5.2500    
   X12.1267      Y17.1383      R5.2500    
   X12.3803      Y16.9402      R5.2500    
   X12.6765      Y16.8144      R5.2500    
   X12.9952      Y16.7696      R5.2500    
   X13.3146      Y16.8089      R5.2500    
   X13.6130      Y16.9294      R5.2500    
   X13.8700      Y17.1231      R5.2500    
   X14.0681      Y17.3767      R5.2500    
   X14.1939      Y17.6729      R5.2500    
   X14.2387      Y17.9916      R5.2500    
(Pass: 6)
G1   Z-4.800    
G17 G2   X14.1995      Y18.3110      R5.2500    
   X14.0789      Y18.6094      R5.2500    
   X13.8852      Y18.8664      R5.2500    
   X13.6316      Y19.0645      R5.2500    
   X13.3354      Y19.1902      R5.2500    
   X13.0167      Y19.2350      R5.2500    
   X12.6973      Y19.1958      R5.2500    
   X12.3989      Y19.0753      R5.2500    
   X12.1419      Y18.8816      R5.2500    
   X11.9438      Y18.6280      R5.2500    
   X11.8181      Y18.3318      R5.2500    
   X11.7733      Y18.0131      R5.2500    
   X11.8125      Y17.6937      R5.2500    
   X11.9330      Y17.3953      R5.2500    
   X12.1267      Y17.1383      R5.2500    
   X12.3803      Y16.9402      R5.2500    
   X12.6765      Y16.8144      R5.2500    
   X12.9952      Y16.7696      R5.2500    
   X13.3146      Y16.8089      R5.2500    
   X13.6130      Y16.9294      R5.2500    
   X13.8700      Y17.1231      R5.2500    
   X14.0681      Y17.3767      R5.2500    
   X14.1939      Y17.6729      R5.2500    
   X14.2387      Y17.9916      R5.2500    
(Pass: 7)
G1   Z-5.600    
G17 G2   X14.1995      Y18.3110      R5.2500    
   X14.0789      Y18.6094      R5.2500    
   X13.8852      Y18.8664      R5.2500    
   X13.6316      Y19.0645      R5.2500    
   X13.3354      Y19.1902      R5.2500    
   X13.0167      Y19.2350      R5.2500    
   X12.6973      Y19.1958      R5.2500    
   X12.3989      Y19.0753      R5.2500    
   X12.1419      Y18.8816      R5.2500    
   X11.9438      Y18.6280      R5.2500    
   X11.8181      Y18.3318      R5.2500    
   X11.7733      Y18.0131      R5.2500    
   X11.8125      Y17.6937      R5.2500    
   X11.9330      Y17.3953      R5.2500    
   X12.1267      Y17.1383      R5.2500    
   X12.3803      Y16.9402      R5.2500    
   X12.6765      Y16.8144      R5.2500    
   X12.9952      Y16.7696      R5.2500    
   X13.3146      Y16.8089      R5.2500    
   X13.6130      Y16.9294      R5.2500    
   X13.8700      Y17.1231      R5.2500    
   X14.0681      Y17.3767      R5.2500    
   X14.1939      Y17.6729      R5.2500    
   X14.2387      Y17.9916      R5.2500    
(Pass: 8)
G1   Z-6.400    
G17 G2   X14.1995      Y18.3110      R5.2500    
   X14.0789      Y18.6094      R5.2500    
   X13.8852      Y18.8664      R5.2500    
   X13.6316      Y19.0645      R5.2500    
   X13.3354      Y19.1902      R5.2500    
   X13.0167      Y19.2350      R5.2500    
   X12.6973      Y19.1958      R5.2500    
   X12.3989      Y19.0753      R5.2500    
   X12.1419      Y18.8816      R5.2500    
   X11.9438      Y18.6280      R5.2500    
   X11.8181      Y18.3318      R5.2500    
   X11.7733      Y18.0131      R5.2500    
   X11.8125      Y17.6937      R5.2500    
   X11.9330      Y17.3953      R5.2500    
   X12.1267      Y17.1383      R5.2500    
   X12.3803      Y16.9402      R5.2500    
   X12.6765      Y16.8144      R5.2500    
   X12.9952      Y16.7696      R5.2500    
   X13.3146      Y16.8089      R5.2500    
   X13.6130      Y16.9294      R5.2500    
   X13.8700      Y17.1231      R5.2500    
   X14.0681      Y17.3767      R5.2500    
   X14.1939      Y17.6729      R5.2500    
   X14.2387      Y17.9916      R5.2500    
(Pass: 9)
G1   Z-7.200    
G17 G2   X14.1995      Y18.3110      R5.2500    
   X14.0789      Y18.6094      R5.2500    
   X13.8852      Y18.8664      R5.2500    
   X13.6316      Y19.0645      R5.2500    
   X13.3354      Y19.1902      R5.2500    
   X13.0167      Y19.2350      R5.2500    
   X12.6973      Y19.1958      R5.2500    
   X12.3989      Y19.0753      R5.2500    
   X12.1419      Y18.8816      R5.2500    
   X11.9438      Y18.6280      R5.2500    
   X11.8181      Y18.3318      R5.2500    
   X11.7733      Y18.0131      R5.2500    
   X11.8125      Y17.6937      R5.2500    
   X11.9330      Y17.3953      R5.2500    
   X12.1267      Y17.1383      R5.2500    
   X12.3803      Y16.9402      R5.2500    
   X12.6765      Y16.8144      R5.2500    
   X12.9952      Y16.7696      R5.2500    
   X13.3146      Y16.8089      R5.2500    
   X13.6130      Y16.9294      R5.2500    
   X13.8700      Y17.1231      R5.2500    
   X14.0681      Y17.3767      R5.2500    
   X14.1939      Y17.6729      R5.2500    
   X14.2387      Y17.9916      R5.2500    
(BREAK pass 9)
G0   Z10.000    
(Pass: 1)
   X12.806       Y56.988    
G1   Z-0.800     F100 
G17 G2   X13.1276      Y56.9744      R5.2500    
   X13.4418      Y57.0442      R5.2500    
   X13.7271      Y57.1930      R5.2500    
   X13.9642      Y57.4106      R5.2500    
   X14.1369      Y57.6822      R5.2500    
   X14.2567      Y58.0631      R5.2500    
   X14.2567      Y58.2682      R5.2500    
   X14.1774      Y58.6248      R5.2500    
   X14.0286      Y58.9101      R5.2500    
   X13.8110      Y59.1472      R5.2500    
   X13.5395      Y59.3200      R5.2500    
   X13.2325      Y59.4165      R5.2500    
   X12.9110      Y59.4303      R5.2500    
   X12.5969      Y59.3604      R5.2500    
   X12.3115      Y59.2116      R5.2500    
   X12.0744      Y58.9941      R5.2500    
   X11.9017      Y58.7225      R5.2500    
   X11.8051      Y58.4155      R5.2500    
   X11.7913      Y58.0940      R5.2500    
   X11.8612      Y57.7799      R5.2500    
   X12.0100      Y57.4945      R5.2500    
   X12.2276      Y57.2574      R5.2500    
   X12.4991      Y57.0847      R5.2500    
   X12.8061      Y56.9882      R5.2500    
(Pass: 2)
G1   Z-1.600    
G17 G2   X13.1276      Y56.9744      R5.2500    
   X13.4418      Y57.0442      R5.2500    
   X13.7271      Y57.1930      R5.2500    
   X13.9642      Y57.4106      R5.2500    
   X14.1369      Y57.6822      R5.2500    
   X14.2567      Y58.0631      R5.2500    
   X14.2567      Y58.2682      R5.2500    
   X14.1774      Y58.6248      R5.2500    
   X14.0286      Y58.9101      R5.2500    
   X13.8110      Y59.1472      R5.2500    
   X13.5395      Y59.3200      R5.2500    
   X13.2325      Y59.4165      R5.2500    
   X12.9110      Y59.4303      R5.2500    
   X12.5969      Y59.3604      R5.2500    
   X12.3115      Y59.2116      R5.2500    
   X12.0744      Y58.9941      R5.2500    
   X11.9017      Y58.7225      R5.2500    
   X11.8051      Y58.4155      R5.2500    
   X11.7913      Y58.0940      R5.2500    
   X11.8612      Y57.7799      R5.2500    
   X12.0100      Y57.4945      R5.2500    
   X12.2276      Y57.2574      R5.2500    
   X12.4991      Y57.0847      R5.2500    
   X12.8061      Y56.9882      R5.2500    
(Pass: 3)
G1   Z-2.400    
G17 G2   X13.1276      Y56.9744      R5.2500    
   X13.4418      Y57.0442      R5.2500    
   X13.7271      Y57.1930      R5.2500    
   X13.9642      Y57.4106      R5.2500    
   X14.1369      Y57.6822      R5.2500    
   X14.2567      Y58.0631      R5.2500    
   X14.2567      Y58.2682      R5.2500    
   X14.1774      Y58.6248      R5.2500    
   X14.0286      Y58.9101      R5.2500    
   X13.8110      Y59.1472      R5.2500    
   X13.5395      Y59.3200      R5.2500    
   X13.2325      Y59.4165      R5.2500    
   X12.9110      Y59.4303      R5.2500    
   X12.5969      Y59.3604      R5.2500    
   X12.3115      Y59.2116      R5.2500    
   X12.0744      Y58.9941      R5.2500    
   X11.9017      Y58.7225      R5.2500    
   X11.8051      Y58.4155      R5.2500    
   X11.7913      Y58.0940      R5.2500    
   X11.8612      Y57.7799      R5.2500    
   X12.0100      Y57.4945      R5.2500    
   X12.2276      Y57.2574      R5.2500    
   X12.4991      Y57.0847      R5.2500    
   X12.8061      Y56.9882      R5.2500    
(Pass: 4)
G1   Z-3.200    
G17 G2   X13.1276      Y56.9744      R5.2500    
   X13.4418      Y57.0442      R5.2500    
   X13.7271      Y57.1930      R5.2500    
   X13.9642      Y57.4106      R5.2500    
   X14.1369      Y57.6822      R5.2500    
   X14.2567      Y58.0631      R5.2500    
   X14.2567      Y58.2682      R5.2500    
   X14.1774      Y58.6248      R5.2500    
   X14.0286      Y58.9101      R5.2500    
   X13.8110      Y59.1472      R5.2500    
   X13.5395      Y59.3200      R5.2500    
   X13.2325      Y59.4165      R5.2500    
   X12.9110      Y59.4303      R5.2500    
   X12.5969      Y59.3604      R5.2500    
   X12.3115      Y59.2116      R5.2500    
   X12.0744      Y58.9941      R5.2500    
   X11.9017      Y58.7225      R5.2500    
   X11.8051      Y58.4155      R5.2500    
   X11.7913      Y58.0940      R5.2500    
   X11.8612      Y57.7799      R5.2500    
   X12.0100      Y57.4945      R5.2500    
   X12.2276      Y57.2574      R5.2500    
   X12.4991      Y57.0847      R5.2500    
   X12.8061      Y56.9882      R5.2500    
(Pass: 5)
G1   Z-4.000    
G17 G2   X13.1276      Y56.9744      R5.2500    
   X13.4418      Y57.0442      R5.2500    
   X13.7271      Y57.1930      R5.2500    
   X13.9642      Y57.4106      R5.2500    
   X14.1369      Y57.6822      R5.2500    
   X14.2567      Y58.0631      R5.2500    
   X14.2567      Y58.2682      R5.2500    
   X14.1774      Y58.6248      R5.2500    
   X14.0286      Y58.9101      R5.2500    
   X13.8110      Y59.1472      R5.2500    
   X13.5395      Y59.3200      R5.2500    
   X13.2325      Y59.4165      R5.2500    
   X12.9110      Y59.4303      R5.2500    
   X12.5969      Y59.3604      R5.2500    
   X12.3115      Y59.2116      R5.2500    
   X12.0744      Y58.9941      R5.2500    
   X11.9017      Y58.7225      R5.2500    
   X11.8051      Y58.4155      R5.2500    
   X11.7913      Y58.0940      R5.2500    
   X11.8612      Y57.7799      R5.2500    
   X12.0100      Y57.4945      R5.2500    
   X12.2276      Y57.2574      R5.2500    
   X12.4991      Y57.0847      R5.2500    
   X12.8061      Y56.9882      R5.2500    
(Pass: 6)
G1   Z-4.800    
G17 G2   X13.1276      Y56.9744      R5.2500    
   X13.4418      Y57.0442      R5.2500    
   X13.7271      Y57.1930      R5.2500    
   X13.9642      Y57.4106      R5.2500    
   X14.1369      Y57.6822      R5.2500    
   X14.2567      Y58.0631      R5.2500    
   X14.2567      Y58.2682      R5.2500    
   X14.1774      Y58.6248      R5.2500    
   X14.0286      Y58.9101      R5.2500    
   X13.8110      Y59.1472      R5.2500    
   X13.5395      Y59.3200      R5.2500    
   X13.2325      Y59.4165      R5.2500    
   X12.9110      Y59.4303      R5.2500    
   X12.5969      Y59.3604      R5.2500    
   X12.3115      Y59.2116      R5.2500    
   X12.0744      Y58.9941      R5.2500    
   X11.9017      Y58.7225      R5.2500    
   X11.8051      Y58.4155      R5.2500    
   X11.7913      Y58.0940      R5.2500    
   X11.8612      Y57.7799      R5.2500    
   X12.0100      Y57.4945      R5.2500    
   X12.2276      Y57.2574      R5.2500    
   X12.4991      Y57.0847      R5.2500    
   X12.8061      Y56.9882      R5.2500    
(Pass: 7)
G1   Z-5.600    
G17 G2   X13.1276      Y56.9744      R5.2500    
   X13.4418      Y57.0442      R5.2500    
   X13.7271      Y57.1930      R5.2500    
   X13.9642      Y57.4106      R5.2500    
   X14.1369      Y57.6822      R5.2500    
   X14.2567      Y58.0631      R5.2500    
   X14.2567      Y58.2682      R5.2500    
   X14.1774      Y58.6248      R5.2500    
   X14.0286      Y58.9101      R5.2500    
   X13.8110      Y59.1472      R5.2500    
   X13.5395      Y59.3200      R5.2500    
   X13.2325      Y59.4165      R5.2500    
   X12.9110      Y59.4303      R5.2500    
   X12.5969      Y59.3604      R5.2500    
   X12.3115      Y59.2116      R5.2500    
   X12.0744      Y58.9941      R5.2500    
   X11.9017      Y58.7225      R5.2500    
   X11.8051      Y58.4155      R5.2500    
   X11.7913      Y58.0940      R5.2500    
   X11.8612      Y57.7799      R5.2500    
   X12.0100      Y57.4945      R5.2500    
   X12.2276      Y57.2574      R5.2500    
   X12.4991      Y57.0847      R5.2500    
   X12.8061      Y56.9882      R5.2500    
(Pass: 8)
G1   Z-6.400    
G17 G2   X13.1276      Y56.9744      R5.2500    
   X13.4418      Y57.0442      R5.2500    
   X13.7271      Y57.1930      R5.2500    
   X13.9642      Y57.4106      R5.2500    
   X14.1369      Y57.6822      R5.2500    
   X14.2567      Y58.0631      R5.2500    
   X14.2567      Y58.2682      R5.2500    
   X14.1774      Y58.6248      R5.2500    
   X14.0286      Y58.9101      R5.2500    
   X13.8110      Y59.1472      R5.2500    
   X13.5395      Y59.3200      R5.2500    
   X13.2325      Y59.4165      R5.2500    
   X12.9110      Y59.4303      R5.2500    
   X12.5969      Y59.3604      R5.2500    
   X12.3115      Y59.2116      R5.2500    
   X12.0744      Y58.9941      R5.2500    
   X11.9017      Y58.7225      R5.2500    
   X11.8051      Y58.4155      R5.2500    
   X11.7913      Y58.0940      R5.2500    
   X11.8612      Y57.7799      R5.2500    
   X12.0100      Y57.4945      R5.2500    
   X12.2276      Y57.2574      R5.2500    
   X12.4991      Y57.0847      R5.2500    
   X12.8061      Y56.9882      R5.2500    
(Pass: 9)
G1   Z-7.200    
G17 G2   X13.1276      Y56.9744      R5.2500    
   X13.4418      Y57.0442      R5.2500    
   X13.7271      Y57.1930      R5.2500    
   X13.9642      Y57.4106      R5.2500    
   X14.1369      Y57.6822      R5.2500    
   X14.2567      Y58.0631      R5.2500    
   X14.2567      Y58.2682      R5.2500    
   X14.1774      Y58.6248      R5.2500    
   X14.0286      Y58.9101      R5.2500    
   X13.8110      Y59.1472      R5.2500    
   X13.5395      Y59.3200      R5.2500    
   X13.2325      Y59.4165      R5.2500    
   X12.9110      Y59.4303      R5.2500    
   X12.5969      Y59.3604      R5.2500    
   X12.3115      Y59.2116      R5.2500    
   X12.0744      Y58.9941      R5.2500    
   X11.9017      Y58.7225      R5.2500    
   X11.8051      Y58.4155      R5.2500    
   X11.7913      Y58.0940      R5.2500    
   X11.8612      Y57.7799      R5.2500    
   X12.0100      Y57.4945      R5.2500    
   X12.2276      Y57.2574      R5.2500    
   X12.4991      Y57.0847      R5.2500    
   X12.8061      Y56.9882      R5.2500    
(BREAK pass 9)
G0   Z10.000    
(Pass: 1)
   X86.787       Y58.202    
G1   Z-0.800     F100 
G17 G2   X86.8348      Y57.8841      R5.2500    
   X86.9636      Y57.5892      R5.2500    
   X87.1643      Y57.3376      R5.2500    
   X87.4232      Y57.1465      R5.2500    
   X87.7228      Y57.0290      R5.2500    
   X88.0426      Y56.9931      R5.2500    
   X88.3608      Y57.0411      R5.2500    
   X88.6558      Y57.1699      R5.2500    
   X88.9073      Y57.3706      R5.2500    
   X89.0984      Y57.6295      R5.2500    
   X89.2229      Y57.9470      R5.2500    
   X89.2576      Y58.2107      R5.2500    
   X89.2038      Y58.5671      R5.2500    
   X89.0751      Y58.8620      R5.2500    
   X88.8744      Y59.1136      R5.2500    
   X88.6154      Y59.3046      R5.2500    
   X88.3158      Y59.4222      R5.2500    
   X87.9960      Y59.4581      R5.2500    
   X87.6778      Y59.4101      R5.2500    
   X87.3829      Y59.2813      R5.2500    
   X87.1313      Y59.0806      R5.2500    
   X86.9403      Y58.8217      R5.2500    
   X86.8228      Y58.5221      R5.2500    
   X86.7868      Y58.2023      R5.2500    
(Pass: 2)
G1   Z-1.600    
G17 G2   X86.8348      Y57.8841      R5.2500    
   X86.9636      Y57.5892      R5.2500    
   X87.1643      Y57.3376      R5.2500    
   X87.4232      Y57.1465      R5.2500    
   X87.7228      Y57.0290      R5.2500    
   X88.0426      Y56.9931      R5.2500    
   X88.3608      Y57.0411      R5.2500    
   X88.6558      Y57.1699      R5.2500    
   X88.9073      Y57.3706      R5.2500    
   X89.0984      Y57.6295      R5.2500    
   X89.2229      Y57.9470      R5.2500    
   X89.2576      Y58.2107      R5.2500    
   X89.2038      Y58.5671      R5.2500    
   X89.0751      Y58.8620      R5.2500    
   X88.8744      Y59.1136      R5.2500    
   X88.6154      Y59.3046      R5.2500    
   X88.3158      Y59.4222      R5.2500    
   X87.9960      Y59.4581      R5.2500    
   X87.6778      Y59.4101      R5.2500    
   X87.3829      Y59.2813      R5.2500    
   X87.1313      Y59.0806      R5.2500    
   X86.9403      Y58.8217      R5.2500    
   X86.8228      Y58.5221      R5.2500    
   X86.7868      Y58.2023      R5.2500    
(Pass: 3)
G1   Z-2.400    
G17 G2   X86.8348      Y57.8841      R5.2500    
   X86.9636      Y57.5892      R5.2500    
   X87.1643      Y57.3376      R5.2500    
   X87.4232      Y57.1465      R5.2500    
   X87.7228      Y57.0290      R5.2500    
   X88.0426      Y56.9931      R5.2500    
   X88.3608      Y57.0411      R5.2500    
   X88.6558      Y57.1699      R5.2500    
   X88.9073      Y57.3706      R5.2500    
   X89.0984      Y57.6295      R5.2500    
   X89.2229      Y57.9470      R5.2500    
   X89.2576      Y58.2107      R5.2500    
   X89.2038      Y58.5671      R5.2500    
   X89.0751      Y58.8620      R5.2500    
   X88.8744      Y59.1136      R5.2500    
   X88.6154      Y59.3046      R5.2500    
   X88.3158      Y59.4222      R5.2500    
   X87.9960      Y59.4581      R5.2500    
   X87.6778      Y59.4101      R5.2500    
   X87.3829      Y59.2813      R5.2500    
   X87.1313      Y59.0806      R5.2500    
   X86.9403      Y58.8217      R5.2500    
   X86.8228      Y58.5221      R5.2500    
   X86.7868      Y58.2023      R5.2500    
(Pass: 4)
G1   Z-3.200    
G17 G2   X86.8348      Y57.8841      R5.2500    
   X86.9636      Y57.5892      R5.2500    
   X87.1643      Y57.3376      R5.2500    
   X87.4232      Y57.1465      R5.2500    
   X87.7228      Y57.0290      R5.2500    
   X88.0426      Y56.9931      R5.2500    
   X88.3608      Y57.0411      R5.2500    
   X88.6558      Y57.1699      R5.2500    
   X88.9073      Y57.3706      R5.2500    
   X89.0984      Y57.6295      R5.2500    
   X89.2229      Y57.9470      R5.2500    
   X89.2576      Y58.2107      R5.2500    
   X89.2038      Y58.5671      R5.2500    
   X89.0751      Y58.8620      R5.2500    
   X88.8744      Y59.1136      R5.2500    
   X88.6154      Y59.3046      R5.2500    
   X88.3158      Y59.4222      R5.2500    
   X87.9960      Y59.4581      R5.2500    
   X87.6778      Y59.4101      R5.2500    
   X87.3829      Y59.2813      R5.2500    
   X87.1313      Y59.0806      R5.2500    
   X86.9403      Y58.8217      R5.2500    
   X86.8228      Y58.5221      R5.2500    
   X86.7868      Y58.2023      R5.2500    
(Pass: 5)
G1   Z-4.000    
G17 G2   X86.8348      Y57.8841      R5.2500    
   X86.9636      Y57.5892      R5.2500    
   X87.1643      Y57.3376      R5.2500    
   X87.4232      Y57.1465      R5.2500    
   X87.7228      Y57.0290      R5.2500    
   X88.0426      Y56.9931      R5.2500    
   X88.3608      Y57.0411      R5.2500    
   X88.6558      Y57.1699      R5.2500    
   X88.9073      Y57.3706      R5.2500    
   X89.0984      Y57.6295      R5.2500    
   X89.2229      Y57.9470      R5.2500    
   X89.2576      Y58.2107      R5.2500    
   X89.2038      Y58.5671      R5.2500    
   X89.0751      Y58.8620      R5.2500    
   X88.8744      Y59.1136      R5.2500    
   X88.6154      Y59.3046      R5.2500    
   X88.3158      Y59.4222      R5.2500    
   X87.9960      Y59.4581      R5.2500    
   X87.6778      Y59.4101      R5.2500    
   X87.3829      Y59.2813      R5.2500    
   X87.1313      Y59.0806      R5.2500    
   X86.9403      Y58.8217      R5.2500    
   X86.8228      Y58.5221      R5.2500    
   X86.7868      Y58.2023      R5.2500    
(Pass: 6)
G1   Z-4.800    
G17 G2   X86.8348      Y57.8841      R5.2500    
   X86.9636      Y57.5892      R5.2500    
   X87.1643      Y57.3376      R5.2500    
   X87.4232      Y57.1465      R5.2500    
   X87.7228      Y57.0290      R5.2500    
   X88.0426      Y56.9931      R5.2500    
   X88.3608      Y57.0411      R5.2500    
   X88.6558      Y57.1699      R5.2500    
   X88.9073      Y57.3706      R5.2500    
   X89.0984      Y57.6295      R5.2500    
   X89.2229      Y57.9470      R5.2500    
   X89.2576      Y58.2107      R5.2500    
   X89.2038      Y58.5671      R5.2500    
   X89.0751      Y58.8620      R5.2500    
   X88.8744      Y59.1136      R5.2500    
   X88.6154      Y59.3046      R5.2500    
   X88.3158      Y59.4222      R5.2500    
   X87.9960      Y59.4581      R5.2500    
   X87.6778      Y59.4101      R5.2500    
   X87.3829      Y59.2813      R5.2500    
   X87.1313      Y59.0806      R5.2500    
   X86.9403      Y58.8217      R5.2500    
   X86.8228      Y58.5221      R5.2500    
   X86.7868      Y58.2023      R5.2500    
(Pass: 7)
G1   Z-5.600    
G17 G2   X86.8348      Y57.8841      R5.2500    
   X86.9636      Y57.5892      R5.2500    
   X87.1643      Y57.3376      R5.2500    
   X87.4232      Y57.1465      R5.2500    
   X87.7228      Y57.0290      R5.2500    
   X88.0426      Y56.9931      R5.2500    
   X88.3608      Y57.0411      R5.2500    
   X88.6558      Y57.1699      R5.2500    
   X88.9073      Y57.3706      R5.2500    
   X89.0984      Y57.6295      R5.2500    
   X89.2229      Y57.9470      R5.2500    
   X89.2576      Y58.2107      R5.2500    
   X89.2038      Y58.5671      R5.2500    
   X89.0751      Y58.8620      R5.2500    
   X88.8744      Y59.1136      R5.2500    
   X88.6154      Y59.3046      R5.2500    
   X88.3158      Y59.4222      R5.2500    
   X87.9960      Y59.4581      R5.2500    
   X87.6778      Y59.4101      R5.2500    
   X87.3829      Y59.2813      R5.2500    
   X87.1313      Y59.0806      R5.2500    
   X86.9403      Y58.8217      R5.2500    
   X86.8228      Y58.5221      R5.2500    
   X86.7868      Y58.2023      R5.2500    
(Pass: 8)
G1   Z-6.400    
G17 G2   X86.8348      Y57.8841      R5.2500    
   X86.9636      Y57.5892      R5.2500    
   X87.1643      Y57.3376      R5.2500    
   X87.4232      Y57.1465      R5.2500    
   X87.7228      Y57.0290      R5.2500    
   X88.0426      Y56.9931      R5.2500    
   X88.3608      Y57.0411      R5.2500    
   X88.6558      Y57.1699      R5.2500    
   X88.9073      Y57.3706      R5.2500    
   X89.0984      Y57.6295      R5.2500    
   X89.2229      Y57.9470      R5.2500    
   X89.2576      Y58.2107      R5.2500    
   X89.2038      Y58.5671      R5.2500    
   X89.0751      Y58.8620      R5.2500    
   X88.8744      Y59.1136      R5.2500    
   X88.6154      Y59.3046      R5.2500    
   X88.3158      Y59.4222      R5.2500    
   X87.9960      Y59.4581      R5.2500    
   X87.6778      Y59.4101      R5.2500    
   X87.3829      Y59.2813      R5.2500    
   X87.1313      Y59.0806      R5.2500    
   X86.9403      Y58.8217      R5.2500    
   X86.8228      Y58.5221      R5.2500    
   X86.7868      Y58.2023      R5.2500    
(Pass: 9)
G1   Z-7.200    
G17 G2   X86.8348      Y57.8841      R5.2500    
   X86.9636      Y57.5892      R5.2500    
   X87.1643      Y57.3376      R5.2500    
   X87.4232      Y57.1465      R5.2500    
   X87.7228      Y57.0290      R5.2500    
   X88.0426      Y56.9931      R5.2500    
   X88.3608      Y57.0411      R5.2500    
   X88.6558      Y57.1699      R5.2500    
   X88.9073      Y57.3706      R5.2500    
   X89.0984      Y57.6295      R5.2500    
   X89.2229      Y57.9470      R5.2500    
   X89.2576      Y58.2107      R5.2500    
   X89.2038      Y58.5671      R5.2500    
   X89.0751      Y58.8620      R5.2500    
   X88.8744      Y59.1136      R5.2500    
   X88.6154      Y59.3046      R5.2500    
   X88.3158      Y59.4222      R5.2500    
   X87.9960      Y59.4581      R5.2500    
   X87.6778      Y59.4101      R5.2500    
   X87.3829      Y59.2813      R5.2500    
   X87.1313      Y59.0806      R5.2500    
   X86.9403      Y58.8217      R5.2500    
   X86.8228      Y58.5221      R5.2500    
   X86.7868      Y58.2023      R5.2500    
(BREAK pass 9)
G0   Z10.000    
(Pass: 1)
   X88.080       Y19.256    
G1   Z-0.800     F100 
G17 G2   X87.7589      Y19.2333      R5.2500    
   X87.4547      Y19.1282      R5.2500    
   X87.1881      Y18.9479      R5.2500    
   X86.9773      Y18.7048      R5.2500    
   X86.8365      Y18.4154      R5.2500    
   X86.7755      Y18.0995      R5.2500    
   X86.7983      Y17.7785      R5.2500    
   X86.9034      Y17.4743      R5.2500    
   X87.0836      Y17.2077      R5.2500    
   X87.3267      Y16.9969      R5.2500    
   X87.6161      Y16.8561      R5.2500    
   X87.9321      Y16.7951      R5.2500    
   X88.2531      Y16.8179      R5.2500    
   X88.5573      Y16.9230      R5.2500    
   X88.8239      Y17.1032      R5.2500    
   X89.0347      Y17.3463      R5.2500    
   X89.1755      Y17.6357      R5.2500    
   X89.2365      Y17.9517      R5.2500    
   X89.2275      Y18.0786      R5.2500    
   X89.2137      Y18.2727      R5.2500    
   X89.1086      Y18.5769      R5.2500    
   X88.9283      Y18.8435      R5.2500    
   X88.6852      Y19.0543      R5.2500    
   X88.3958      Y19.1951      R5.2500    
   X88.0799      Y19.2561      R5.2500    
(Pass: 2)
G1   Z-1.600    
G17 G2   X87.7589      Y19.2333      R5.2500    
   X87.4547      Y19.1282      R5.2500    
   X87.1881      Y18.9479      R5.2500    
   X86.9773      Y18.7048      R5.2500    
   X86.8365      Y18.4154      R5.2500    
   X86.7755      Y18.0995      R5.2500    
   X86.7983      Y17.7785      R5.2500    
   X86.9034      Y17.4743      R5.2500    
   X87.0836      Y17.2077      R5.2500    
   X87.3267      Y16.9969      R5.2500    
   X87.6161      Y16.8561      R5.2500    
   X87.9321      Y16.7951      R5.2500    
   X88.2531      Y16.8179      R5.2500    
   X88.5573      Y16.9230      R5.2500    
   X88.8239      Y17.1032      R5.2500    
   X89.0347      Y17.3463      R5.2500    
   X89.1755      Y17.6357      R5.2500    
   X89.2365      Y17.9517      R5.2500    
   X89.2275      Y18.0786      R5.2500    
   X89.2137      Y18.2727      R5.2500    
   X89.1086      Y18.5769      R5.2500    
   X88.9283      Y18.8435      R5.2500    
   X88.6852      Y19.0543      R5.2500    
   X88.3958      Y19.1951      R5.2500    
   X88.0799      Y19.2561      R5.2500    
(Pass: 3)
G1   Z-2.400    
G17 G2   X87.7589      Y19.2333      R5.2500    
   X87.4547      Y19.1282      R5.2500    
   X87.1881      Y18.9479      R5.2500    
   X86.9773      Y18.7048      R5.2500    
   X86.8365      Y18.4154      R5.2500    
   X86.7755      Y18.0995      R5.2500    
   X86.7983      Y17.7785      R5.2500    
   X86.9034      Y17.4743      R5.2500    
   X87.0836      Y17.2077      R5.2500    
   X87.3267      Y16.9969      R5.2500    
   X87.6161      Y16.8561      R5.2500    
   X87.9321      Y16.7951      R5.2500    
   X88.2531      Y16.8179      R5.2500    
   X88.5573      Y16.9230      R5.2500    
   X88.8239      Y17.1032      R5.2500    
   X89.0347      Y17.3463      R5.2500    
   X89.1755      Y17.6357      R5.2500    
   X89.2365      Y17.9517      R5.2500    
   X89.2275      Y18.0786      R5.2500    
   X89.2137      Y18.2727      R5.2500    
   X89.1086      Y18.5769      R5.2500    
   X88.9283      Y18.8435      R5.2500    
   X88.6852      Y19.0543      R5.2500    
   X88.3958      Y19.1951      R5.2500    
   X88.0799      Y19.2561      R5.2500    
(Pass: 4)
G1   Z-3.200    
G17 G2   X87.7589      Y19.2333      R5.2500    
   X87.4547      Y19.1282      R5.2500    
   X87.1881      Y18.9479      R5.2500    
   X86.9773      Y18.7048      R5.2500    
   X86.8365      Y18.4154      R5.2500    
   X86.7755      Y18.0995      R5.2500    
   X86.7983      Y17.7785      R5.2500    
   X86.9034      Y17.4743      R5.2500    
   X87.0836      Y17.2077      R5.2500    
   X87.3267      Y16.9969      R5.2500    
   X87.6161      Y16.8561      R5.2500    
   X87.9321      Y16.7951      R5.2500    
   X88.2531      Y16.8179      R5.2500    
   X88.5573      Y16.9230      R5.2500    
   X88.8239      Y17.1032      R5.2500    
   X89.0347      Y17.3463      R5.2500    
   X89.1755      Y17.6357      R5.2500    
   X89.2365      Y17.9517      R5.2500    
   X89.2275      Y18.0786      R5.2500    
   X89.2137      Y18.2727      R5.2500    
   X89.1086      Y18.5769      R5.2500    
   X88.9283      Y18.8435      R5.2500    
   X88.6852      Y19.0543      R5.2500    
   X88.3958      Y19.1951      R5.2500    
   X88.0799      Y19.2561      R5.2500    
(Pass: 5)
G1   Z-4.000    
G17 G2   X87.7589      Y19.2333      R5.2500    
   X87.4547      Y19.1282      R5.2500    
   X87.1881      Y18.9479      R5.2500    
   X86.9773      Y18.7048      R5.2500    
   X86.8365      Y18.4154      R5.2500    
   X86.7755      Y18.0995      R5.2500    
   X86.7983      Y17.7785      R5.2500    
   X86.9034      Y17.4743      R5.2500    
   X87.0836      Y17.2077      R5.2500    
   X87.3267      Y16.9969      R5.2500    
   X87.6161      Y16.8561      R5.2500    
   X87.9321      Y16.7951      R5.2500    
   X88.2531      Y16.8179      R5.2500    
   X88.5573      Y16.9230      R5.2500    
   X88.8239      Y17.1032      R5.2500    
   X89.0347      Y17.3463      R5.2500    
   X89.1755      Y17.6357      R5.2500    
   X89.2365      Y17.9517      R5.2500    
   X89.2275      Y18.0786      R5.2500    
   X89.2137      Y18.2727      R5.2500    
   X89.1086      Y18.5769      R5.2500    
   X88.9283      Y18.8435      R5.2500    
   X88.6852      Y19.0543      R5.2500    
   X88.3958      Y19.1951      R5.2500    
   X88.0799      Y19.2561      R5.2500    
(Pass: 6)
G1   Z-4.800    
G17 G2   X87.7589      Y19.2333      R5.2500    
   X87.4547      Y19.1282      R5.2500    
   X87.1881      Y18.9479      R5.2500    
   X86.9773      Y18.7048      R5.2500    
   X86.8365      Y18.4154      R5.2500    
   X86.7755      Y18.0995      R5.2500    
   X86.7983      Y17.7785      R5.2500    
   X86.9034      Y17.4743      R5.2500    
   X87.0836      Y17.2077      R5.2500    
   X87.3267      Y16.9969      R5.2500    
   X87.6161      Y16.8561      R5.2500    
   X87.9321      Y16.7951      R5.2500    
   X88.2531      Y16.8179      R5.2500    
   X88.5573      Y16.9230      R5.2500    
   X88.8239      Y17.1032      R5.2500    
   X89.0347      Y17.3463      R5.2500    
   X89.1755      Y17.6357      R5.2500    
   X89.2365      Y17.9517      R5.2500    
   X89.2275      Y18.0786      R5.2500    
   X89.2137      Y18.2727      R5.2500    
   X89.1086      Y18.5769      R5.2500    
   X88.9283      Y18.8435      R5.2500    
   X88.6852      Y19.0543      R5.2500    
   X88.3958      Y19.1951      R5.2500    
   X88.0799      Y19.2561      R5.2500    
(Pass: 7)
G1   Z-5.600    
G17 G2   X87.7589      Y19.2333      R5.2500    
   X87.4547      Y19.1282      R5.2500    
   X87.1881      Y18.9479      R5.2500    
   X86.9773      Y18.7048      R5.2500    
   X86.8365      Y18.4154      R5.2500    
   X86.7755      Y18.0995      R5.2500    
   X86.7983      Y17.7785      R5.2500    
   X86.9034      Y17.4743      R5.2500    
   X87.0836      Y17.2077      R5.2500    
   X87.3267      Y16.9969      R5.2500    
   X87.6161      Y16.8561      R5.2500    
   X87.9321      Y16.7951      R5.2500    
   X88.2531      Y16.8179      R5.2500    
   X88.5573      Y16.9230      R5.2500    
   X88.8239      Y17.1032      R5.2500    
   X89.0347      Y17.3463      R5.2500    
   X89.1755      Y17.6357      R5.2500    
   X89.2365      Y17.9517      R5.2500    
   X89.2275      Y18.0786      R5.2500    
   X89.2137      Y18.2727      R5.2500    
   X89.1086      Y18.5769      R5.2500    
   X88.9283      Y18.8435      R5.2500    
   X88.6852      Y19.0543      R5.2500    
   X88.3958      Y19.1951      R5.2500    
   X88.0799      Y19.2561      R5.2500    
(Pass: 8)
G1   Z-6.400    
G17 G2   X87.7589      Y19.2333      R5.2500    
   X87.4547      Y19.1282      R5.2500    
   X87.1881      Y18.9479      R5.2500    
   X86.9773      Y18.7048      R5.2500    
   X86.8365      Y18.4154      R5.2500    
   X86.7755      Y18.0995      R5.2500    
   X86.7983      Y17.7785      R5.2500    
   X86.9034      Y17.4743      R5.2500    
   X87.0836      Y17.2077      R5.2500    
   X87.3267      Y16.9969      R5.2500    
   X87.6161      Y16.8561      R5.2500    
   X87.9321      Y16.7951      R5.2500    
   X88.2531      Y16.8179      R5.2500    
   X88.5573      Y16.9230      R5.2500    
   X88.8239      Y17.1032      R5.2500    
   X89.0347      Y17.3463      R5.2500    
   X89.1755      Y17.6357      R5.2500    
   X89.2365      Y17.9517      R5.2500    
   X89.2275      Y18.0786      R5.2500    
   X89.2137      Y18.2727      R5.2500    
   X89.1086      Y18.5769      R5.2500    
   X88.9283      Y18.8435      R5.2500    
   X88.6852      Y19.0543      R5.2500    
   X88.3958      Y19.1951      R5.2500    
   X88.0799      Y19.2561      R5.2500    
(Pass: 9)
G1   Z-7.200    
G17 G2   X87.7589      Y19.2333      R5.2500    
   X87.4547      Y19.1282      R5.2500    
   X87.1881      Y18.9479      R5.2500    
   X86.9773      Y18.7048      R5.2500    
   X86.8365      Y18.4154      R5.2500    
   X86.7755      Y18.0995      R5.2500    
   X86.7983      Y17.7785      R5.2500    
   X86.9034      Y17.4743      R5.2500    
   X87.0836      Y17.2077      R5.2500    
   X87.3267      Y16.9969      R5.2500    
   X87.6161      Y16.8561      R5.2500    
   X87.9321      Y16.7951      R5.2500    
   X88.2531      Y16.8179      R5.2500    
   X88.5573      Y16.9230      R5.2500    
   X88.8239      Y17.1032      R5.2500    
   X89.0347      Y17.3463      R5.2500    
   X89.1755      Y17.6357      R5.2500    
   X89.2365      Y17.9517      R5.2500    
   X89.2275      Y18.0786      R5.2500    
   X89.2137      Y18.2727      R5.2500    
   X89.1086      Y18.5769      R5.2500    
   X88.9283      Y18.8435      R5.2500    
   X88.6852      Y19.0543      R5.2500    
   X88.3958      Y19.1951      R5.2500    
   X88.0799      Y19.2561      R5.2500    
(BREAK pass 9)
G0   Z10.000    
G0 X0 Y0 (home)
M05
M30
%
