(Bit diameter: 2.5mm)
(Material Thickness: 3.125mm)
G90 G21 G49
M3 S15000
G0   Z6.000

(sides are inset 3mm from 0)

(through holes for 2.5mm machine screws)

G0 X23.000 Y5.5312
G1 Z-4.000 F300
G0 Z6.000

G0 X233.000 Y5.5312
G1 Z-4.000
G0 Z6.000

G0 X233.000 Y250.4687
G1 Z-4.000
G0 Z6.000

G0 X23.000 Y250.4687
G1 Z-4.000
G0 Z6.000

(Grooves for sliding in sides)
G0 X3.000 Y5.250
G1 Z-1.500
G1 X253.000
G1 Y5.8125
G1 X3.000
G0 Z6.000

G0 X3.000 Y250.750
G1 Z-1.500
G1 X253.000
G1 Y250.1875
G1 X3.000
G0 Z6.000

G0 X5.250 Y3.000
G1 Z-1.500
G1 Y253.000
G1 X5.8125
G1 Y3.000
G0 Z6.000

G0 X250.750 Y3.000
G1 Z-1.500
G1 Y253.000
G1 X250.1875
G1 Y3.000
G0 Z6

G0   Z6.000
G0   X2.750 Y1.750
G1   Z-4
   X8.375
   Y2.750
   X247.625
   Y1.750
   X253.250
   Y2.750
   X254.250
   Y8.250
   X253.250
   Y247.625
   X254.250
   Y253.250
   X253.250
   Y254.250
   X247.625
   Y253.250
   X8.375
   Y254.250
   X2.750
   Y253.250
   X1.750
   Y247.625
   X2.750
   Y8.250
   X1.750
   Y2.750
   X2.750
   Y1.750
G0   Z6.000
M05
G0 X0 Y0 (home)
M30
%
