%
(Generated by SketchUcam {1.2a})
(File: ControlBoxPanel.skp)
(Bit diameter: 3.0mm)
(Feed rate: 150.0mm/min)
(Material Thickness: ~ 3.1mm)
(Material length: 558.8mm X width: 1066.8mm)
(Overhead Gantry: true)
(Retract feed rate NOT limited to plunge feed rate)
(Optimization is ON)
(www.PhlatBoyz.com)
G90 G21 G49 
M3 S20000
G0   Z4.000     
   X27.500       Y164.000   
G1   Z-4.375     F150 
G0   Z4.000     
   X52.500    
G1   Z-4.375     F150 
G0   Z4.000     
   X24.000       Y144.000   
G1   Z-4.375     F150 
G0   Z4.000     
   X56.000    
G1   Z-4.375     F150 
G0   Z4.000     
   Y112.000   
G1   Z-4.375     F150 
G0   Z4.000     
   X24.000    
G1   Z-4.375     F150 
G0   Z4.000     
   X56.168       Y102.000   
G1   Z-4.375     F150 
G0   Z4.000     
   X24.168    
G1   Z-4.375     F150 
G0   Z4.000     
   Y70.000    
G1   Z-4.375     F150 
G0   Z4.000     
   X56.168    
G1   Z-4.375     F150 
G0   Z4.000     
   X7.686        Y53.385    
G1   Z-4.375     F150 
G17 G2   X7.7371       Y53.0000      R1.5000    
   X7.6864       Y52.6151      R1.5000    
   X7.5378       Y52.2565      R1.5000    
   X7.3015       Y51.9485      R1.5000    
   X6.9935       Y51.7122      R1.5000    
   X6.6349       Y51.5636      R1.5000    
   X6.2500       Y51.5129      R1.5000    
   X5.8651       Y51.5636      R1.5000    
   X5.5065       Y51.7122      R1.5000    
   X5.1985       Y51.9485      R1.5000    
   X4.9622       Y52.2565      R1.5000    
   X4.8136       Y52.6151      R1.5000    
   X4.7629       Y53.0000      R1.5000    
   X4.8136       Y53.3849      R1.5000    
   X4.9622       Y53.7435      R1.5000    
   X5.1985       Y54.0515      R1.5000    
   X5.5065       Y54.2878      R1.5000    
   X5.8651       Y54.4364      R1.5000    
   X6.2500       Y54.4871      R1.5000    
   X6.6349       Y54.4364      R1.5000    
   X6.9935       Y54.2878      R1.5000    
   X7.3015       Y54.0515      R1.5000    
   X7.5378       Y53.7435      R1.5000    
   X7.6864       Y53.3849      R1.5000    
G0   Z4.000     
   X29.049       Y73.826    
G1   Z-4.375     F150 
G17 G2   X26.2773      Y77.1185      R16.5000   
   X24.4519      Y81.0162      R16.5000   
   X23.6976      Y85.2536      R16.5000   
   X24.0656      Y89.5418      R16.5000   
   X25.5309      Y93.5886      R16.5000   
   X27.9937      Y97.1183      R16.5000   
   X31.2862      Y99.8904      R16.5000   
   X35.1839      Y101.7158     R16.5000   
   X39.4213      Y102.4702     R16.5000   
   X43.7095      Y102.1021     R16.5000   
   X47.7564      Y100.6368     R16.5000   
   X51.2861      Y98.1740      R16.5000   
   X54.0581      Y94.8815      R16.5000   
   X55.8835      Y90.9838      R16.5000   
   X56.6379      Y86.7464      R16.5000   
   X56.2698      Y82.4582      R16.5000   
   X54.8045      Y78.4114      R16.5000   
   X52.3417      Y74.8817      R16.5000   
   X49.0492      Y72.1096      R16.5000   
   X45.1515      Y70.2842      R16.5000   
   X40.9141      Y69.5298      R16.5000   
   X36.6259      Y69.8979      R16.5000   
   X32.5791      Y71.3632      R16.5000   
   X29.0494      Y73.8260      R16.5000   
G0   Z4.000     
   X36.458       Y111.898   
G1   Z-4.375     F150 
G17 G2   X32.4114      Y113.3632     R16.5000   
   X28.8817      Y115.8260     R16.5000   
   X26.1096      Y119.1185     R16.5000   
   X24.2842      Y123.0162     R16.5000   
   X23.5298      Y127.2536     R16.5000   
   X23.8979      Y131.5418     R16.5000   
   X25.3632      Y135.5886     R16.5000   
   X27.8260      Y139.1183     R16.5000   
   X31.1185      Y141.8904     R16.5000   
   X35.0162      Y143.7158     R16.5000   
   X39.2536      Y144.4702     R16.5000   
   X43.5418      Y144.1021     R16.5000   
   X47.5886      Y142.6368     R16.5000   
   X51.1183      Y140.1740     R16.5000   
   X53.8904      Y136.8815     R16.5000   
   X55.7158      Y132.9838     R16.5000   
   X56.4702      Y128.7464     R16.5000   
   X56.1021      Y124.4582     R16.5000   
   X54.6368      Y120.4114     R16.5000   
   X52.1740      Y116.8817     R16.5000   
   X48.8815      Y114.1096     R16.5000   
   X44.9838      Y112.2842     R16.5000   
   X40.7464      Y111.5298     R16.5000   
   X36.4582      Y111.8979     R16.5000   
G0   Z4.000     
   X35.500       Y159.500   
G1   Z-4.375     F150 
   Y168.500   
   X44.500    
   Y159.500   
   X35.500    
G0   Z4.000     
   X37.545       Y184.836   
G1   Z-4.375     F150 
G17 G2   X35.2565      Y185.7840     R9.5000    
   X33.2916      Y187.2916     R9.5000    
   X31.7840      Y189.2565     R9.5000    
   X30.8362      Y191.5446     R9.5000    
   X30.5129      Y194.0000     R9.5000    
   X30.8362      Y196.4554     R9.5000    
   X31.7840      Y198.7435     R9.5000    
   X33.2916      Y200.7084     R9.5000    
   X35.2565      Y202.2160     R9.5000    
   X37.5446      Y203.1638     R9.5000    
   X40.0000      Y203.4871     R9.5000    
   X42.4554      Y203.1638     R9.5000    
   X44.7435      Y202.2160     R9.5000    
   X46.7084      Y200.7084     R9.5000    
   X48.2160      Y198.7435     R9.5000    
   X49.1638      Y196.4554     R9.5000    
   X49.4871      Y194.0000     R9.5000    
   X49.1638      Y191.5446     R9.5000    
   X48.2160      Y189.2565     R9.5000    
   X46.7084      Y187.2916     R9.5000    
   X44.7435      Y185.7840     R9.5000    
   X42.4554      Y184.8362     R9.5000    
   X40.0000      Y184.5129     R9.5000    
   X37.5446      Y184.8362     R9.5000    
G0   Z4.000     
   X7.610        Y200.398   
G1   Z-4.375     F150 
G17 G2   X7.4073       Y200.0662     R1.5000    
   X7.1262       Y199.7985     R1.5000    
   X6.7854       Y199.6127     R1.5000    
   X6.4080       Y199.5214     R1.5000    
   X6.0200       Y199.5308     R1.5000    
   X5.6476       Y199.6404     R1.5000    
   X5.3162       Y199.8427     R1.5000    
   X5.0485       Y200.1238     R1.5000    
   X4.8627       Y200.4646     R1.5000    
   X4.7714       Y200.8420     R1.5000    
   X4.7808       Y201.2300     R1.5000    
   X4.8904       Y201.6024     R1.5000    
   X5.0927       Y201.9338     R1.5000    
   X5.3738       Y202.2015     R1.5000    
   X5.7146       Y202.3873     R1.5000    
   X6.0920       Y202.4786     R1.5000    
   X6.4800       Y202.4692     R1.5000    
   X6.8524       Y202.3596     R1.5000    
   X7.1838       Y202.1573     R1.5000    
   X7.4515       Y201.8762     R1.5000    
   X7.6373       Y201.5354     R1.5000    
   X7.7286       Y201.1580     R1.5000    
   X7.7192       Y200.7700     R1.5000    
   X7.6096       Y200.3976     R1.5000    
G0   Z4.000     
   X246.263      Y201.000   
G1   Z-4.375     F150 
G17 G2   X246.3136     Y201.3849     R1.5000    
   X246.4622     Y201.7435     R1.5000    
   X246.6985     Y202.0515     R1.5000    
   X247.0065     Y202.2878     R1.5000    
   X247.3651     Y202.4364     R1.5000    
   X247.7500     Y202.4871     R1.5000    
   X248.1349     Y202.4364     R1.5000    
   X248.4935     Y202.2878     R1.5000    
   X248.8015     Y202.0515     R1.5000    
   X249.0378     Y201.7435     R1.5000    
   X249.1864     Y201.3849     R1.5000    
   X249.2371     Y201.0000     R1.5000    
   X249.1864     Y200.6151     R1.5000    
   X249.0378     Y200.2565     R1.5000    
   X248.8015     Y199.9485     R1.5000    
   X248.4935     Y199.7122     R1.5000    
   X248.1349     Y199.5636     R1.5000    
   X247.7500     Y199.5129     R1.5000    
   X247.3651     Y199.5636     R1.5000    
   X247.0065     Y199.7122     R1.5000    
   X246.6985     Y199.9485     R1.5000    
   X246.4622     Y200.2565     R1.5000    
   X246.3136     Y200.6151     R1.5000    
   X246.2629     Y201.0000     R1.5000    
G0   Z4.000     
   X247.750      Y54.487    
G1   Z-4.375     F150 
G17 G2   X248.1349     Y54.4364      R1.5000    
   X248.4935     Y54.2878      R1.5000    
   X248.8015     Y54.0515      R1.5000    
   X249.0378     Y53.7435      R1.5000    
   X249.1864     Y53.3849      R1.5000    
   X249.2371     Y53.0000      R1.5000    
   X249.1864     Y52.6151      R1.5000    
   X249.0378     Y52.2565      R1.5000    
   X248.8015     Y51.9485      R1.5000    
   X248.4935     Y51.7122      R1.5000    
   X248.1349     Y51.5636      R1.5000    
   X247.7500     Y51.5129      R1.5000    
   X247.3651     Y51.5636      R1.5000    
   X247.0065     Y51.7122      R1.5000    
   X246.6985     Y51.9485      R1.5000    
   X246.4622     Y52.2565      R1.5000    
   X246.3136     Y52.6151      R1.5000    
   X246.2629     Y53.0000      R1.5000    
   X246.3136     Y53.3849      R1.5000    
   X246.4622     Y53.7435      R1.5000    
   X246.6985     Y54.0515      R1.5000    
   X247.0065     Y54.2878      R1.5000    
   X247.3651     Y54.4364      R1.5000    
   X247.7500     Y54.4871      R1.5000    
G0   Z4.000     
G0 X0 Y0 (home)
M05
M30
%
