%
(Generated by SketchUcam {1.2a})
(File: ControlBoxPanel.skp)
(Bit diameter: 3.0mm)
(Feed rate: 300.0mm/min)
(Material Thickness: 3.5mm)
(Material length: 558.8mm X width: 1066.8mm)
(Overhead Gantry: true)
(Retract feed rate NOT limited to plunge feed rate)
(Optimization is ON)
(www.PhlatBoyz.com)
G90 G21 G49 
M3 S20000
G0   Z10.000    
   X37.500       Y63.276    
G1   Z-4.900     F300 
G0   Z10.000    
   X62.500    
G1   Z-4.900     F300 
G0   Z10.000    
   X34.000       Y154.000   
G1   Z-4.900     F300 
G0   Z10.000    
   X66.000    
G1   Z-4.900     F300 
G0   Z10.000    
   Y122.000   
G1   Z-4.900     F300 
G0   Z10.000    
   X34.000    
G1   Z-4.900     F300 
G0   Z10.000    
   X66.168       Y112.000   
G1   Z-4.900     F300 
G0   Z10.000    
   X34.168    
G1   Z-4.900     F300 
G0   Z10.000    
   Y80.000    
G1   Z-4.900     F300 
G0   Z10.000    
   X66.168    
G1   Z-4.900     F300 
G0   Z10.000    
   X17.686       Y63.385    
G1   Z-4.900     F300 
G17 G2   X17.7371      Y63.0000      R1.5000    
   X17.6864      Y62.6151      R1.5000    
   X17.5378      Y62.2565      R1.5000    
   X17.3015      Y61.9485      R1.5000    
   X16.9935      Y61.7122      R1.5000    
   X16.6349      Y61.5636      R1.5000    
   X16.2500      Y61.5129      R1.5000    
   X15.8651      Y61.5636      R1.5000    
   X15.5065      Y61.7122      R1.5000    
   X15.1985      Y61.9485      R1.5000    
   X14.9622      Y62.2565      R1.5000    
   X14.8136      Y62.6151      R1.5000    
   X14.7629      Y63.0000      R1.5000    
   X14.8136      Y63.3849      R1.5000    
   X14.9622      Y63.7435      R1.5000    
   X15.1985      Y64.0515      R1.5000    
   X15.5065      Y64.2878      R1.5000    
   X15.8651      Y64.4364      R1.5000    
   X16.2500      Y64.4871      R1.5000    
   X16.6349      Y64.4364      R1.5000    
   X16.9935      Y64.2878      R1.5000    
   X17.3015      Y64.0515      R1.5000    
   X17.5378      Y63.7435      R1.5000    
   X17.6864      Y63.3849      R1.5000    
G0   Z10.000    
   X45.500       Y67.776    
G1   Z-4.900     F300 
   X54.500    
   Y58.776    
   X45.500    
   Y67.776    
G0   Z10.000    
   X46.626       Y79.898    
G1   Z-4.900     F300 
G17 G2   X42.5791      Y81.3632      R16.5000   
   X39.0494      Y83.8260      R16.5000   
   X36.2773      Y87.1185      R16.5000   
   X34.4519      Y91.0162      R16.5000   
   X33.6976      Y95.2536      R16.5000   
   X34.0656      Y99.5418      R16.5000   
   X35.5309      Y103.5886     R16.5000   
   X37.9937      Y107.1183     R16.5000   
   X41.2862      Y109.8904     R16.5000   
   X45.1839      Y111.7158     R16.5000   
   X49.4213      Y112.4702     R16.5000   
   X53.7095      Y112.1021     R16.5000   
   X57.7564      Y110.6368     R16.5000   
   X61.2861      Y108.1740     R16.5000   
   X64.0581      Y104.8815     R16.5000   
   X65.8835      Y100.9838     R16.5000   
   X66.6379      Y96.7464      R16.5000   
   X66.2698      Y92.4582      R16.5000   
   X64.8045      Y88.4114      R16.5000   
   X62.3417      Y84.8817      R16.5000   
   X59.0492      Y82.1096      R16.5000   
   X55.1515      Y80.2842      R16.5000   
   X50.9141      Y79.5298      R16.5000   
   X46.6259      Y79.8979      R16.5000   
G0   Z10.000    
   X50.746       Y121.530   
G1   Z-4.900     F300 
G17 G2   X46.4582      Y121.8979     R16.5000   
   X42.4114      Y123.3632     R16.5000   
   X38.8817      Y125.8260     R16.5000   
   X36.1096      Y129.1185     R16.5000   
   X34.2842      Y133.0162     R16.5000   
   X33.5298      Y137.2536     R16.5000   
   X33.8979      Y141.5418     R16.5000   
   X35.3632      Y145.5886     R16.5000   
   X37.8260      Y149.1183     R16.5000   
   X41.1185      Y151.8904     R16.5000   
   X45.0162      Y153.7158     R16.5000   
   X49.2536      Y154.4702     R16.5000   
   X53.5418      Y154.1021     R16.5000   
   X57.5886      Y152.6368     R16.5000   
   X61.1183      Y150.1740     R16.5000   
   X63.8904      Y146.8815     R16.5000   
   X65.7158      Y142.9838     R16.5000   
   X66.4702      Y138.7464     R16.5000   
   X66.1021      Y134.4582     R16.5000   
   X64.6368      Y130.4114     R16.5000   
   X62.1740      Y126.8817     R16.5000   
   X58.8815      Y124.1096     R16.5000   
   X54.9838      Y122.2842     R16.5000   
   X50.7464      Y121.5298     R16.5000   
G0   Z10.000    
   X50.000       Y194.513   
G1   Z-4.900     F300 
G17 G2   X47.5446      Y194.8362     R9.5000    
   X45.2565      Y195.7840     R9.5000    
   X43.2916      Y197.2916     R9.5000    
   X41.7840      Y199.2565     R9.5000    
   X40.8362      Y201.5446     R9.5000    
   X40.5129      Y204.0000     R9.5000    
   X40.8362      Y206.4554     R9.5000    
   X41.7840      Y208.7435     R9.5000    
   X43.2916      Y210.7084     R9.5000    
   X45.2565      Y212.2160     R9.5000    
   X47.5446      Y213.1638     R9.5000    
   X50.0000      Y213.4871     R9.5000    
   X52.4554      Y213.1638     R9.5000    
   X54.7435      Y212.2160     R9.5000    
   X56.7084      Y210.7084     R9.5000    
   X58.2160      Y208.7435     R9.5000    
   X59.1638      Y206.4554     R9.5000    
   X59.4871      Y204.0000     R9.5000    
   X59.1638      Y201.5446     R9.5000    
   X58.2160      Y199.2565     R9.5000    
   X56.7084      Y197.2916     R9.5000    
   X54.7435      Y195.7840     R9.5000    
   X52.4554      Y194.8362     R9.5000    
   X50.0000      Y194.5129     R9.5000    
G0   Z10.000    
   X17.610       Y210.398   
G1   Z-4.900     F300 
G17 G2   X17.4073      Y210.0662     R1.5000    
   X17.1262      Y209.7985     R1.5000    
   X16.7854      Y209.6127     R1.5000    
   X16.4080      Y209.5214     R1.5000    
   X16.0200      Y209.5308     R1.5000    
   X15.6476      Y209.6404     R1.5000    
   X15.3162      Y209.8427     R1.5000    
   X15.0485      Y210.1238     R1.5000    
   X14.8627      Y210.4646     R1.5000    
   X14.7714      Y210.8420     R1.5000    
   X14.7808      Y211.2300     R1.5000    
   X14.8904      Y211.6024     R1.5000    
   X15.0927      Y211.9338     R1.5000    
   X15.3738      Y212.2015     R1.5000    
   X15.7146      Y212.3873     R1.5000    
   X16.0920      Y212.4786     R1.5000    
   X16.4800      Y212.4692     R1.5000    
   X16.8524      Y212.3596     R1.5000    
   X17.1838      Y212.1573     R1.5000    
   X17.4515      Y211.8762     R1.5000    
   X17.6373      Y211.5354     R1.5000    
   X17.7286      Y211.1580     R1.5000    
   X17.7192      Y210.7700     R1.5000    
   X17.6096      Y210.3976     R1.5000    
G0   Z10.000    
   X142.500      Y230.500   
G1   Z-4.900     F300 
   X250.500   
   Y107.500   
   X142.500   
   Y230.500   
G0   Z10.000    
   X256.698      Y64.052    
G1   Z-4.900     F300 
G17 G2   X257.0065     Y64.2878      R1.5000    
   X257.3651     Y64.4364      R1.5000    
   X257.7500     Y64.4871      R1.5000    
   X258.1349     Y64.4364      R1.5000    
   X258.4935     Y64.2878      R1.5000    
   X258.8015     Y64.0515      R1.5000    
   X259.0378     Y63.7435      R1.5000    
   X259.1864     Y63.3849      R1.5000    
   X259.2371     Y63.0000      R1.5000    
   X259.1864     Y62.6151      R1.5000    
   X259.0378     Y62.2565      R1.5000    
   X258.8015     Y61.9485      R1.5000    
   X258.4935     Y61.7122      R1.5000    
   X258.1349     Y61.5636      R1.5000    
   X257.7500     Y61.5129      R1.5000    
   X257.3651     Y61.5636      R1.5000    
   X257.0065     Y61.7122      R1.5000    
   X256.6985     Y61.9485      R1.5000    
   X256.4622     Y62.2565      R1.5000    
   X256.3136     Y62.6151      R1.5000    
   X256.2629     Y63.0000      R1.5000    
   X256.3136     Y63.3849      R1.5000    
   X256.4622     Y63.7435      R1.5000    
   X256.6985     Y64.0515      R1.5000    
G0   Z10.000    
   X257.750      Y209.513   
G1   Z-4.900     F300 
G17 G2   X257.3651     Y209.5636     R1.5000    
   X257.0065     Y209.7122     R1.5000    
   X256.6985     Y209.9485     R1.5000    
   X256.4622     Y210.2565     R1.5000    
   X256.3136     Y210.6151     R1.5000    
   X256.2629     Y211.0000     R1.5000    
   X256.3136     Y211.3849     R1.5000    
   X256.4622     Y211.7435     R1.5000    
   X256.6985     Y212.0515     R1.5000    
   X257.0065     Y212.2878     R1.5000    
   X257.3651     Y212.4364     R1.5000    
   X257.7500     Y212.4871     R1.5000    
   X258.1349     Y212.4364     R1.5000    
   X258.4935     Y212.2878     R1.5000    
   X258.8015     Y212.0515     R1.5000    
   X259.0378     Y211.7435     R1.5000    
   X259.1864     Y211.3849     R1.5000    
   X259.2371     Y211.0000     R1.5000    
   X259.1864     Y210.6151     R1.5000    
   X259.0378     Y210.2565     R1.5000    
   X258.8015     Y209.9485     R1.5000    
   X258.4935     Y209.7122     R1.5000    
   X258.1349     Y209.5636     R1.5000    
   X257.7500     Y209.5129     R1.5000    
G0   Z10.000    
   X265.500      Y265.500   
G1   Z-4.900     F300 
   X8.500     
   Y8.500     
   X265.500   
   Y265.500   
G0   Z10.000    
G0 X0 Y0 (home)
M05
M30
%
