%
(Generated by SketchUcam {1.2a})
(File: DrillJig.skp)
(Bit diameter: 3.0mm)
(Feed rate: 500.0mm/min)
(Plunge Feed rate: 300.0mm/min)
(Material Thickness: 2.5mm)
(Material length: 558.8mm X width: 1066.8mm)
(Overhead Gantry: true)
(Retract feed rate NOT limited to plunge feed rate)
(Optimization is ON)
(www.PhlatBoyz.com)
G90 G21 G49 
M3 S20000
G0   Z3.200     
   X10.000       Y10.000    
G1   Z-2.750     F300 
G0   Z3.200     
   X60.800       Y15.100    
G1   Z-2.750     F300 
G0   Z3.200     
   Y43.000    
G1   Z-2.750     F300 
G0   Z3.200     
   X10.000       Y60.800    
G1   Z-2.750     F300 
G0   Z3.200     
   X3.500        Y67.300    
G1   Z-2.750     F300 
   Y3.500      F500 
   X67.300    
   Y67.300    
   X3.500     
G0   Z3.200     
G0 X0 Y0 (home)
M05
M30
%
