%
(Generated by SketchUcam {1.2a})
(File: DrillJig.skp)
(Bit diameter: 3.0mm)
(Feed rate: 300.0mm/min)
(Material Thickness: 6.3mm)
(Material length: 558.8mm X width: 1066.8mm)
(Overhead Gantry: false)
(Retract feed rate NOT limited to plunge feed rate)
(Optimization is ON)
(www.PhlatBoyz.com)
G90 G21 G49 
M3 S15000
G0   Z3.200     
   X10.000       Y10.000    
G1   Z-8.820     F300 
G0   Z3.200     
   X60.800       Y15.100    
G1   Z-8.820     F300 
G0   Z3.200     
   Y43.000    
G1   Z-8.820     F300 
G0   Z3.200     
   X10.000       Y60.800    
G1   Z-8.820     F300 
G0   Z3.200     
G0 X0 Y0 (home)
M05
M30
%
