%
(Generated by SketchUcam V1.3a)
(File: DustHoseMount.skp)
(Bit diameter: 6.0mm)
(Feed rate: 500.0mm/min)
(Plunge Feed rate: 100.0mm/min)
(Material Thickness: 12.7mm)
(Material length: 2200.0mm X width: 1200.0mm)
(Overhead Gantry: true)
(Multipass enabled, Depth = 1.0mm)
(RAMPING with no angle limit)
(Optimization is ON)
(www.PhlatBoyz.com)
G90 G21 G49  G17
M3 S22000
G00 Z10.000
(Pass: 1)
 X15.000 Y165.050
(plungebore  DEPTH=13.970  DIAM=6.000)
G00 Z3.333
G01 Z-1.000 F100 
G00 Z3.333
G01 Z-2.000
G00 Z3.333
G01 Z-3.000
G00 Z3.333
G01 Z-4.000
G00 Z3.333
G01 Z-5.000
G00 Z3.333
G01 Z-6.000
G00 Z3.333
G01 Z-7.000
G00 Z3.333
G01 Z-8.000
G00 Z3.333
G01 Z-9.000
G00 Z3.333
G01 Z-10.000
G00 Z3.333
G01 Z-11.000
G00 Z3.333
G01 Z-12.000
G00 Z3.333
G01 Z-13.000
G00 Z3.333
G01 Z-13.970
G00 Z3.333
G00 Y165.050 Z10.000
(plungebore end)
(Pass: 1)
G00 Y92.500
(plungebore  DEPTH=13.970  DIAM=6.000)
G00 Z3.333
G01 Z-1.000 F100 
G00 Z3.333
G01 Z-2.000
G00 Z3.333
G01 Z-3.000
G00 Z3.333
G01 Z-4.000
G00 Z3.333
G01 Z-5.000
G00 Z3.333
G01 Z-6.000
G00 Z3.333
G01 Z-7.000
G00 Z3.333
G01 Z-8.000
G00 Z3.333
G01 Z-9.000
G00 Z3.333
G01 Z-10.000
G00 Z3.333
G01 Z-11.000
G00 Z3.333
G01 Z-12.000
G00 Z3.333
G01 Z-13.000
G00 Z3.333
G01 Z-13.970
G00 Z3.333
G00 Y92.500 Z10.000
(plungebore end)
(Pass: 1)
G00 X117.650
(plungebore  DEPTH=13.970  DIAM=6.000)
G00 Z3.333
G01 Z-1.000 F100 
G00 Z3.333
G01 Z-2.000
G00 Z3.333
G01 Z-3.000
G00 Z3.333
G01 Z-4.000
G00 Z3.333
G01 Z-5.000
G00 Z3.333
G01 Z-6.000
G00 Z3.333
G01 Z-7.000
G00 Z3.333
G01 Z-8.000
G00 Z3.333
G01 Z-9.000
G00 Z3.333
G01 Z-10.000
G00 Z3.333
G01 Z-11.000
G00 Z3.333
G01 Z-12.000
G00 Z3.333
G01 Z-13.000
G00 Z3.333
G01 Z-13.970
G00 Z3.333
G00 Y92.500 Z10.000
(plungebore end)
(Pass: 1)
G00 Y165.050
(plungebore  DEPTH=13.970  DIAM=6.000)
G00 Z3.333
G01 Z-1.000 F100 
G00 Z3.333
G01 Z-2.000
G00 Z3.333
G01 Z-3.000
G00 Z3.333
G01 Z-4.000
G00 Z3.333
G01 Z-5.000
G00 Z3.333
G01 Z-6.000
G00 Z3.333
G01 Z-7.000
G00 Z3.333
G01 Z-8.000
G00 Z3.333
G01 Z-9.000
G00 Z3.333
G01 Z-10.000
G00 Z3.333
G01 Z-11.000
G00 Z3.333
G01 Z-12.000
G00 Z3.333
G01 Z-13.000
G00 Z3.333
G01 Z-13.970
G00 Z3.333
G00 Y165.050 Z10.000
(plungebore end)
(Pass: 1)
G00 X70.265 Y48.805
G00 Z0.100
G02 X73.9371 Y47.2845 Z-0.4500 R15.2500 F100 
G03 X70.2653 Y48.8054 Z-1.0000 R15.2500
G02 X73.9371 Y47.2845 R15.2500 F500 
 X77.0901 Y44.8651 R15.2500
 X79.5095 Y41.7121 R15.2500
 X81.0304 Y38.0403 R15.2500
 X81.5491 Y34.1000 R15.2500
 X81.0304 Y30.1597 R15.2500
 X79.5095 Y26.4879 R15.2500
 X77.0901 Y23.3349 R15.2500
 X73.9371 Y20.9155 R15.2500
 X70.2653 Y19.3946 R15.2500
 X66.3250 Y18.8759 R15.2500
 X62.3847 Y19.3946 R15.2500
 X58.7129 Y20.9155 R15.2500
 X55.5599 Y23.3349 R15.2500
 X53.1405 Y26.4879 R15.2500
 X51.6196 Y30.1597 R15.2500
 X51.1009 Y34.1000 R15.2500
 X51.6196 Y38.0403 R15.2500
 X53.1405 Y41.7121 R15.2500
 X55.5599 Y44.8651 R15.2500
 X58.7129 Y47.2845 R15.2500
 X62.3847 Y48.8054 R15.2500
 X66.3250 Y49.3241 R15.2500
 X70.2653 Y48.8054 R15.2500
(Pass: 2)
G02 X73.9371 Y47.2845 Z-1.5000 R15.2500 F100 
G03 X70.2653 Y48.8054 Z-2.0000 R15.2500
G02 X73.9371 Y47.2845 R15.2500 F500 
 X77.0901 Y44.8651 R15.2500
 X79.5095 Y41.7121 R15.2500
 X81.0304 Y38.0403 R15.2500
 X81.5491 Y34.1000 R15.2500
 X81.0304 Y30.1597 R15.2500
 X79.5095 Y26.4879 R15.2500
 X77.0901 Y23.3349 R15.2500
 X73.9371 Y20.9155 R15.2500
 X70.2653 Y19.3946 R15.2500
 X66.3250 Y18.8759 R15.2500
 X62.3847 Y19.3946 R15.2500
 X58.7129 Y20.9155 R15.2500
 X55.5599 Y23.3349 R15.2500
 X53.1405 Y26.4879 R15.2500
 X51.6196 Y30.1597 R15.2500
 X51.1009 Y34.1000 R15.2500
 X51.6196 Y38.0403 R15.2500
 X53.1405 Y41.7121 R15.2500
 X55.5599 Y44.8651 R15.2500
 X58.7129 Y47.2845 R15.2500
 X62.3847 Y48.8054 R15.2500
 X66.3250 Y49.3241 R15.2500
 X70.2653 Y48.8054 R15.2500
(Pass: 3)
G02 X73.9371 Y47.2845 Z-2.5000 R15.2500 F100 
G03 X70.2653 Y48.8054 Z-3.0000 R15.2500
G02 X73.9371 Y47.2845 R15.2500 F500 
 X77.0901 Y44.8651 R15.2500
 X79.5095 Y41.7121 R15.2500
 X81.0304 Y38.0403 R15.2500
 X81.5491 Y34.1000 R15.2500
 X81.0304 Y30.1597 R15.2500
 X79.5095 Y26.4879 R15.2500
 X77.0901 Y23.3349 R15.2500
 X73.9371 Y20.9155 R15.2500
 X70.2653 Y19.3946 R15.2500
 X66.3250 Y18.8759 R15.2500
 X62.3847 Y19.3946 R15.2500
 X58.7129 Y20.9155 R15.2500
 X55.5599 Y23.3349 R15.2500
 X53.1405 Y26.4879 R15.2500
 X51.6196 Y30.1597 R15.2500
 X51.1009 Y34.1000 R15.2500
 X51.6196 Y38.0403 R15.2500
 X53.1405 Y41.7121 R15.2500
 X55.5599 Y44.8651 R15.2500
 X58.7129 Y47.2845 R15.2500
 X62.3847 Y48.8054 R15.2500
 X66.3250 Y49.3241 R15.2500
 X70.2653 Y48.8054 R15.2500
(Pass: 4)
G02 X73.9371 Y47.2845 Z-3.5000 R15.2500 F100 
G03 X70.2653 Y48.8054 Z-4.0000 R15.2500
G02 X73.9371 Y47.2845 R15.2500 F500 
 X77.0901 Y44.8651 R15.2500
 X79.5095 Y41.7121 R15.2500
 X81.0304 Y38.0403 R15.2500
 X81.5491 Y34.1000 R15.2500
 X81.0304 Y30.1597 R15.2500
 X79.5095 Y26.4879 R15.2500
 X77.0901 Y23.3349 R15.2500
 X73.9371 Y20.9155 R15.2500
 X70.2653 Y19.3946 R15.2500
 X66.3250 Y18.8759 R15.2500
 X62.3847 Y19.3946 R15.2500
 X58.7129 Y20.9155 R15.2500
 X55.5599 Y23.3349 R15.2500
 X53.1405 Y26.4879 R15.2500
 X51.6196 Y30.1597 R15.2500
 X51.1009 Y34.1000 R15.2500
 X51.6196 Y38.0403 R15.2500
 X53.1405 Y41.7121 R15.2500
 X55.5599 Y44.8651 R15.2500
 X58.7129 Y47.2845 R15.2500
 X62.3847 Y48.8054 R15.2500
 X66.3250 Y49.3241 R15.2500
 X70.2653 Y48.8054 R15.2500
(Pass: 5)
G02 X73.9371 Y47.2845 Z-4.5000 R15.2500 F100 
G03 X70.2653 Y48.8054 Z-5.0000 R15.2500
G02 X73.9371 Y47.2845 R15.2500 F500 
 X77.0901 Y44.8651 R15.2500
 X79.5095 Y41.7121 R15.2500
 X81.0304 Y38.0403 R15.2500
 X81.5491 Y34.1000 R15.2500
 X81.0304 Y30.1597 R15.2500
 X79.5095 Y26.4879 R15.2500
 X77.0901 Y23.3349 R15.2500
 X73.9371 Y20.9155 R15.2500
 X70.2653 Y19.3946 R15.2500
 X66.3250 Y18.8759 R15.2500
 X62.3847 Y19.3946 R15.2500
 X58.7129 Y20.9155 R15.2500
 X55.5599 Y23.3349 R15.2500
 X53.1405 Y26.4879 R15.2500
 X51.6196 Y30.1597 R15.2500
 X51.1009 Y34.1000 R15.2500
 X51.6196 Y38.0403 R15.2500
 X53.1405 Y41.7121 R15.2500
 X55.5599 Y44.8651 R15.2500
 X58.7129 Y47.2845 R15.2500
 X62.3847 Y48.8054 R15.2500
 X66.3250 Y49.3241 R15.2500
 X70.2653 Y48.8054 R15.2500
(Pass: 6)
G02 X73.9371 Y47.2845 Z-5.5000 R15.2500 F100 
G03 X70.2653 Y48.8054 Z-6.0000 R15.2500
G02 X73.9371 Y47.2845 R15.2500 F500 
 X77.0901 Y44.8651 R15.2500
 X79.5095 Y41.7121 R15.2500
 X81.0304 Y38.0403 R15.2500
 X81.5491 Y34.1000 R15.2500
 X81.0304 Y30.1597 R15.2500
 X79.5095 Y26.4879 R15.2500
 X77.0901 Y23.3349 R15.2500
 X73.9371 Y20.9155 R15.2500
 X70.2653 Y19.3946 R15.2500
 X66.3250 Y18.8759 R15.2500
 X62.3847 Y19.3946 R15.2500
 X58.7129 Y20.9155 R15.2500
 X55.5599 Y23.3349 R15.2500
 X53.1405 Y26.4879 R15.2500
 X51.6196 Y30.1597 R15.2500
 X51.1009 Y34.1000 R15.2500
 X51.6196 Y38.0403 R15.2500
 X53.1405 Y41.7121 R15.2500
 X55.5599 Y44.8651 R15.2500
 X58.7129 Y47.2845 R15.2500
 X62.3847 Y48.8054 R15.2500
 X66.3250 Y49.3241 R15.2500
 X70.2653 Y48.8054 R15.2500
(Pass: 7)
G02 X73.9371 Y47.2845 Z-6.5000 R15.2500 F100 
G03 X70.2653 Y48.8054 Z-7.0000 R15.2500
G02 X73.9371 Y47.2845 R15.2500 F500 
 X77.0901 Y44.8651 R15.2500
 X79.5095 Y41.7121 R15.2500
 X81.0304 Y38.0403 R15.2500
 X81.5491 Y34.1000 R15.2500
 X81.0304 Y30.1597 R15.2500
 X79.5095 Y26.4879 R15.2500
 X77.0901 Y23.3349 R15.2500
 X73.9371 Y20.9155 R15.2500
 X70.2653 Y19.3946 R15.2500
 X66.3250 Y18.8759 R15.2500
 X62.3847 Y19.3946 R15.2500
 X58.7129 Y20.9155 R15.2500
 X55.5599 Y23.3349 R15.2500
 X53.1405 Y26.4879 R15.2500
 X51.6196 Y30.1597 R15.2500
 X51.1009 Y34.1000 R15.2500
 X51.6196 Y38.0403 R15.2500
 X53.1405 Y41.7121 R15.2500
 X55.5599 Y44.8651 R15.2500
 X58.7129 Y47.2845 R15.2500
 X62.3847 Y48.8054 R15.2500
 X66.3250 Y49.3241 R15.2500
 X70.2653 Y48.8054 R15.2500
(Pass: 8)
G02 X73.9371 Y47.2845 Z-7.5000 R15.2500 F100 
G03 X70.2653 Y48.8054 Z-8.0000 R15.2500
G02 X73.9371 Y47.2845 R15.2500 F500 
 X77.0901 Y44.8651 R15.2500
 X79.5095 Y41.7121 R15.2500
 X81.0304 Y38.0403 R15.2500
 X81.5491 Y34.1000 R15.2500
 X81.0304 Y30.1597 R15.2500
 X79.5095 Y26.4879 R15.2500
 X77.0901 Y23.3349 R15.2500
 X73.9371 Y20.9155 R15.2500
 X70.2653 Y19.3946 R15.2500
 X66.3250 Y18.8759 R15.2500
 X62.3847 Y19.3946 R15.2500
 X58.7129 Y20.9155 R15.2500
 X55.5599 Y23.3349 R15.2500
 X53.1405 Y26.4879 R15.2500
 X51.6196 Y30.1597 R15.2500
 X51.1009 Y34.1000 R15.2500
 X51.6196 Y38.0403 R15.2500
 X53.1405 Y41.7121 R15.2500
 X55.5599 Y44.8651 R15.2500
 X58.7129 Y47.2845 R15.2500
 X62.3847 Y48.8054 R15.2500
 X66.3250 Y49.3241 R15.2500
 X70.2653 Y48.8054 R15.2500
(Pass: 9)
G02 X73.9371 Y47.2845 Z-8.5000 R15.2500 F100 
G03 X70.2653 Y48.8054 Z-9.0000 R15.2500
G02 X73.9371 Y47.2845 R15.2500 F500 
 X77.0901 Y44.8651 R15.2500
 X79.5095 Y41.7121 R15.2500
 X81.0304 Y38.0403 R15.2500
 X81.5491 Y34.1000 R15.2500
 X81.0304 Y30.1597 R15.2500
 X79.5095 Y26.4879 R15.2500
 X77.0901 Y23.3349 R15.2500
 X73.9371 Y20.9155 R15.2500
 X70.2653 Y19.3946 R15.2500
 X66.3250 Y18.8759 R15.2500
 X62.3847 Y19.3946 R15.2500
 X58.7129 Y20.9155 R15.2500
 X55.5599 Y23.3349 R15.2500
 X53.1405 Y26.4879 R15.2500
 X51.6196 Y30.1597 R15.2500
 X51.1009 Y34.1000 R15.2500
 X51.6196 Y38.0403 R15.2500
 X53.1405 Y41.7121 R15.2500
 X55.5599 Y44.8651 R15.2500
 X58.7129 Y47.2845 R15.2500
 X62.3847 Y48.8054 R15.2500
 X66.3250 Y49.3241 R15.2500
 X70.2653 Y48.8054 R15.2500
(Pass: 10)
G02 X73.9371 Y47.2845 Z-9.5000 R15.2500 F100 
G03 X70.2653 Y48.8054 Z-10.0000 R15.2500
G02 X73.9371 Y47.2845 R15.2500 F500 
 X77.0901 Y44.8651 R15.2500
 X79.5095 Y41.7121 R15.2500
 X81.0304 Y38.0403 R15.2500
 X81.5491 Y34.1000 R15.2500
 X81.0304 Y30.1597 R15.2500
 X79.5095 Y26.4879 R15.2500
 X77.0901 Y23.3349 R15.2500
 X73.9371 Y20.9155 R15.2500
 X70.2653 Y19.3946 R15.2500
 X66.3250 Y18.8759 R15.2500
 X62.3847 Y19.3946 R15.2500
 X58.7129 Y20.9155 R15.2500
 X55.5599 Y23.3349 R15.2500
 X53.1405 Y26.4879 R15.2500
 X51.6196 Y30.1597 R15.2500
 X51.1009 Y34.1000 R15.2500
 X51.6196 Y38.0403 R15.2500
 X53.1405 Y41.7121 R15.2500
 X55.5599 Y44.8651 R15.2500
 X58.7129 Y47.2845 R15.2500
 X62.3847 Y48.8054 R15.2500
 X66.3250 Y49.3241 R15.2500
 X70.2653 Y48.8054 R15.2500
(Pass: 11)
G02 X73.9371 Y47.2845 Z-10.5000 R15.2500 F100 
G03 X70.2653 Y48.8054 Z-11.0000 R15.2500
G02 X73.9371 Y47.2845 R15.2500 F500 
 X77.0901 Y44.8651 R15.2500
 X79.5095 Y41.7121 R15.2500
 X81.0304 Y38.0403 R15.2500
 X81.5491 Y34.1000 R15.2500
 X81.0304 Y30.1597 R15.2500
 X79.5095 Y26.4879 R15.2500
 X77.0901 Y23.3349 R15.2500
 X73.9371 Y20.9155 R15.2500
 X70.2653 Y19.3946 R15.2500
 X66.3250 Y18.8759 R15.2500
 X62.3847 Y19.3946 R15.2500
 X58.7129 Y20.9155 R15.2500
 X55.5599 Y23.3349 R15.2500
 X53.1405 Y26.4879 R15.2500
 X51.6196 Y30.1597 R15.2500
 X51.1009 Y34.1000 R15.2500
 X51.6196 Y38.0403 R15.2500
 X53.1405 Y41.7121 R15.2500
 X55.5599 Y44.8651 R15.2500
 X58.7129 Y47.2845 R15.2500
 X62.3847 Y48.8054 R15.2500
 X66.3250 Y49.3241 R15.2500
 X70.2653 Y48.8054 R15.2500
(Pass: 12)
G02 X73.9371 Y47.2845 Z-11.5000 R15.2500 F100 
G03 X70.2653 Y48.8054 Z-12.0000 R15.2500
G02 X73.9371 Y47.2845 R15.2500 F500 
 X77.0901 Y44.8651 R15.2500
 X79.5095 Y41.7121 R15.2500
 X81.0304 Y38.0403 R15.2500
 X81.5491 Y34.1000 R15.2500
 X81.0304 Y30.1597 R15.2500
 X79.5095 Y26.4879 R15.2500
 X77.0901 Y23.3349 R15.2500
 X73.9371 Y20.9155 R15.2500
 X70.2653 Y19.3946 R15.2500
 X66.3250 Y18.8759 R15.2500
 X62.3847 Y19.3946 R15.2500
 X58.7129 Y20.9155 R15.2500
 X55.5599 Y23.3349 R15.2500
 X53.1405 Y26.4879 R15.2500
 X51.6196 Y30.1597 R15.2500
 X51.1009 Y34.1000 R15.2500
 X51.6196 Y38.0403 R15.2500
 X53.1405 Y41.7121 R15.2500
 X55.5599 Y44.8651 R15.2500
 X58.7129 Y47.2845 R15.2500
 X62.3847 Y48.8054 R15.2500
 X66.3250 Y49.3241 R15.2500
 X70.2653 Y48.8054 R15.2500
(Pass: 13)
G02 X73.9371 Y47.2845 Z-12.5000 R15.2500 F100 
G03 X70.2653 Y48.8054 Z-13.0000 R15.2500
G02 X73.9371 Y47.2845 R15.2500 F500 
 X77.0901 Y44.8651 R15.2500
 X79.5095 Y41.7121 R15.2500
 X81.0304 Y38.0403 R15.2500
 X81.5491 Y34.1000 R15.2500
 X81.0304 Y30.1597 R15.2500
 X79.5095 Y26.4879 R15.2500
 X77.0901 Y23.3349 R15.2500
 X73.9371 Y20.9155 R15.2500
 X70.2653 Y19.3946 R15.2500
 X66.3250 Y18.8759 R15.2500
 X62.3847 Y19.3946 R15.2500
 X58.7129 Y20.9155 R15.2500
 X55.5599 Y23.3349 R15.2500
 X53.1405 Y26.4879 R15.2500
 X51.6196 Y30.1597 R15.2500
 X51.1009 Y34.1000 R15.2500
 X51.6196 Y38.0403 R15.2500
 X53.1405 Y41.7121 R15.2500
 X55.5599 Y44.8651 R15.2500
 X58.7129 Y47.2845 R15.2500
 X62.3847 Y48.8054 R15.2500
 X66.3250 Y49.3241 R15.2500
 X70.2653 Y48.8054 R15.2500
(Pass: 14)
G02 X73.9371 Y47.2845 Z-13.4850 R15.2500 F100 
G03 X70.2653 Y48.8054 Z-13.9700 R15.2500
G02 X73.9371 Y47.2845 R15.2500 F500 
 X77.0901 Y44.8651 R15.2500
 X79.5095 Y41.7121 R15.2500
 X81.0304 Y38.0403 R15.2500
 X81.5491 Y34.1000 R15.2500
 X81.0304 Y30.1597 R15.2500
 X79.5095 Y26.4879 R15.2500
 X77.0901 Y23.3349 R15.2500
 X73.9371 Y20.9155 R15.2500
 X70.2653 Y19.3946 R15.2500
 X66.3250 Y18.8759 R15.2500
 X62.3847 Y19.3946 R15.2500
 X58.7129 Y20.9155 R15.2500
 X55.5599 Y23.3349 R15.2500
 X53.1405 Y26.4879 R15.2500
 X51.6196 Y30.1597 R15.2500
 X51.1009 Y34.1000 R15.2500
 X51.6196 Y38.0403 R15.2500
 X53.1405 Y41.7121 R15.2500
 X55.5599 Y44.8651 R15.2500
 X58.7129 Y47.2845 R15.2500
 X62.3847 Y48.8054 R15.2500
 X66.3250 Y49.3241 R15.2500
 X70.2653 Y48.8054 R15.2500
G00 Z10.000
(Pass: 1)
 X66.325 Y77.126
G00 Z0.100
G02 X56.2378 Y78.4539 Z-0.4500 R39.0000 F100 
G03 X66.3250 Y77.1259 Z-1.0000 R39.0000
G02 X56.2378 Y78.4539 R39.0000 F500 
 X46.8379 Y82.3474 R39.0000
 X38.7661 Y88.5411 R39.0000
 X32.5724 Y96.6129 R39.0000
 X28.6789 Y106.0128 R39.0000
 X27.3509 Y116.1000 R39.0000
 X28.6789 Y126.1872 R39.0000
 X32.5724 Y135.5871 R39.0000
 X38.7661 Y143.6589 R39.0000
 X46.8379 Y149.8526 R39.0000
 X56.2378 Y153.7461 R39.0000
 X66.3250 Y155.0741 R39.0000
 X76.4122 Y153.7461 R39.0000
 X85.8121 Y149.8526 R39.0000
 X93.8839 Y143.6589 R39.0000
 X100.0776 Y135.5871 R39.0000
 X103.9711 Y126.1872 R39.0000
 X105.2991 Y116.1000 R39.0000
 X103.9711 Y106.0128 R39.0000
 X100.0776 Y96.6129 R39.0000
 X93.8839 Y88.5411 R39.0000
 X85.8121 Y82.3474 R39.0000
 X76.4122 Y78.4539 R39.0000
 X66.3250 Y77.1259 R39.0000
(Pass: 2)
G02 X56.2378 Y78.4539 Z-1.5000 R39.0000 F100 
G03 X66.3250 Y77.1259 Z-2.0000 R39.0000
G02 X56.2378 Y78.4539 R39.0000 F500 
 X46.8379 Y82.3474 R39.0000
 X38.7661 Y88.5411 R39.0000
 X32.5724 Y96.6129 R39.0000
 X28.6789 Y106.0128 R39.0000
 X27.3509 Y116.1000 R39.0000
 X28.6789 Y126.1872 R39.0000
 X32.5724 Y135.5871 R39.0000
 X38.7661 Y143.6589 R39.0000
 X46.8379 Y149.8526 R39.0000
 X56.2378 Y153.7461 R39.0000
 X66.3250 Y155.0741 R39.0000
 X76.4122 Y153.7461 R39.0000
 X85.8121 Y149.8526 R39.0000
 X93.8839 Y143.6589 R39.0000
 X100.0776 Y135.5871 R39.0000
 X103.9711 Y126.1872 R39.0000
 X105.2991 Y116.1000 R39.0000
 X103.9711 Y106.0128 R39.0000
 X100.0776 Y96.6129 R39.0000
 X93.8839 Y88.5411 R39.0000
 X85.8121 Y82.3474 R39.0000
 X76.4122 Y78.4539 R39.0000
 X66.3250 Y77.1259 R39.0000
(Pass: 3)
G02 X56.2378 Y78.4539 Z-2.5000 R39.0000 F100 
G03 X66.3250 Y77.1259 Z-3.0000 R39.0000
G02 X56.2378 Y78.4539 R39.0000 F500 
 X46.8379 Y82.3474 R39.0000
 X38.7661 Y88.5411 R39.0000
 X32.5724 Y96.6129 R39.0000
 X28.6789 Y106.0128 R39.0000
 X27.3509 Y116.1000 R39.0000
 X28.6789 Y126.1872 R39.0000
 X32.5724 Y135.5871 R39.0000
 X38.7661 Y143.6589 R39.0000
 X46.8379 Y149.8526 R39.0000
 X56.2378 Y153.7461 R39.0000
 X66.3250 Y155.0741 R39.0000
 X76.4122 Y153.7461 R39.0000
 X85.8121 Y149.8526 R39.0000
 X93.8839 Y143.6589 R39.0000
 X100.0776 Y135.5871 R39.0000
 X103.9711 Y126.1872 R39.0000
 X105.2991 Y116.1000 R39.0000
 X103.9711 Y106.0128 R39.0000
 X100.0776 Y96.6129 R39.0000
 X93.8839 Y88.5411 R39.0000
 X85.8121 Y82.3474 R39.0000
 X76.4122 Y78.4539 R39.0000
 X66.3250 Y77.1259 R39.0000
(Pass: 4)
G02 X56.2378 Y78.4539 Z-3.5000 R39.0000 F100 
G03 X66.3250 Y77.1259 Z-4.0000 R39.0000
G02 X56.2378 Y78.4539 R39.0000 F500 
 X46.8379 Y82.3474 R39.0000
 X38.7661 Y88.5411 R39.0000
 X32.5724 Y96.6129 R39.0000
 X28.6789 Y106.0128 R39.0000
 X27.3509 Y116.1000 R39.0000
 X28.6789 Y126.1872 R39.0000
 X32.5724 Y135.5871 R39.0000
 X38.7661 Y143.6589 R39.0000
 X46.8379 Y149.8526 R39.0000
 X56.2378 Y153.7461 R39.0000
 X66.3250 Y155.0741 R39.0000
 X76.4122 Y153.7461 R39.0000
 X85.8121 Y149.8526 R39.0000
 X93.8839 Y143.6589 R39.0000
 X100.0776 Y135.5871 R39.0000
 X103.9711 Y126.1872 R39.0000
 X105.2991 Y116.1000 R39.0000
 X103.9711 Y106.0128 R39.0000
 X100.0776 Y96.6129 R39.0000
 X93.8839 Y88.5411 R39.0000
 X85.8121 Y82.3474 R39.0000
 X76.4122 Y78.4539 R39.0000
 X66.3250 Y77.1259 R39.0000
(Pass: 5)
G02 X56.2378 Y78.4539 Z-4.5000 R39.0000 F100 
G03 X66.3250 Y77.1259 Z-5.0000 R39.0000
G02 X56.2378 Y78.4539 R39.0000 F500 
 X46.8379 Y82.3474 R39.0000
 X38.7661 Y88.5411 R39.0000
 X32.5724 Y96.6129 R39.0000
 X28.6789 Y106.0128 R39.0000
 X27.3509 Y116.1000 R39.0000
 X28.6789 Y126.1872 R39.0000
 X32.5724 Y135.5871 R39.0000
 X38.7661 Y143.6589 R39.0000
 X46.8379 Y149.8526 R39.0000
 X56.2378 Y153.7461 R39.0000
 X66.3250 Y155.0741 R39.0000
 X76.4122 Y153.7461 R39.0000
 X85.8121 Y149.8526 R39.0000
 X93.8839 Y143.6589 R39.0000
 X100.0776 Y135.5871 R39.0000
 X103.9711 Y126.1872 R39.0000
 X105.2991 Y116.1000 R39.0000
 X103.9711 Y106.0128 R39.0000
 X100.0776 Y96.6129 R39.0000
 X93.8839 Y88.5411 R39.0000
 X85.8121 Y82.3474 R39.0000
 X76.4122 Y78.4539 R39.0000
 X66.3250 Y77.1259 R39.0000
(Pass: 6)
G02 X56.2378 Y78.4539 Z-5.5000 R39.0000 F100 
G03 X66.3250 Y77.1259 Z-6.0000 R39.0000
G02 X56.2378 Y78.4539 R39.0000 F500 
 X46.8379 Y82.3474 R39.0000
 X38.7661 Y88.5411 R39.0000
 X32.5724 Y96.6129 R39.0000
 X28.6789 Y106.0128 R39.0000
 X27.3509 Y116.1000 R39.0000
 X28.6789 Y126.1872 R39.0000
 X32.5724 Y135.5871 R39.0000
 X38.7661 Y143.6589 R39.0000
 X46.8379 Y149.8526 R39.0000
 X56.2378 Y153.7461 R39.0000
 X66.3250 Y155.0741 R39.0000
 X76.4122 Y153.7461 R39.0000
 X85.8121 Y149.8526 R39.0000
 X93.8839 Y143.6589 R39.0000
 X100.0776 Y135.5871 R39.0000
 X103.9711 Y126.1872 R39.0000
 X105.2991 Y116.1000 R39.0000
 X103.9711 Y106.0128 R39.0000
 X100.0776 Y96.6129 R39.0000
 X93.8839 Y88.5411 R39.0000
 X85.8121 Y82.3474 R39.0000
 X76.4122 Y78.4539 R39.0000
 X66.3250 Y77.1259 R39.0000
(Pass: 7)
G02 X56.2378 Y78.4539 Z-6.5000 R39.0000 F100 
G03 X66.3250 Y77.1259 Z-7.0000 R39.0000
G02 X56.2378 Y78.4539 R39.0000 F500 
 X46.8379 Y82.3474 R39.0000
 X38.7661 Y88.5411 R39.0000
 X32.5724 Y96.6129 R39.0000
 X28.6789 Y106.0128 R39.0000
 X27.3509 Y116.1000 R39.0000
 X28.6789 Y126.1872 R39.0000
 X32.5724 Y135.5871 R39.0000
 X38.7661 Y143.6589 R39.0000
 X46.8379 Y149.8526 R39.0000
 X56.2378 Y153.7461 R39.0000
 X66.3250 Y155.0741 R39.0000
 X76.4122 Y153.7461 R39.0000
 X85.8121 Y149.8526 R39.0000
 X93.8839 Y143.6589 R39.0000
 X100.0776 Y135.5871 R39.0000
 X103.9711 Y126.1872 R39.0000
 X105.2991 Y116.1000 R39.0000
 X103.9711 Y106.0128 R39.0000
 X100.0776 Y96.6129 R39.0000
 X93.8839 Y88.5411 R39.0000
 X85.8121 Y82.3474 R39.0000
 X76.4122 Y78.4539 R39.0000
 X66.3250 Y77.1259 R39.0000
(Pass: 8)
G02 X56.2378 Y78.4539 Z-7.5000 R39.0000 F100 
G03 X66.3250 Y77.1259 Z-8.0000 R39.0000
G02 X56.2378 Y78.4539 R39.0000 F500 
 X46.8379 Y82.3474 R39.0000
 X38.7661 Y88.5411 R39.0000
 X32.5724 Y96.6129 R39.0000
 X28.6789 Y106.0128 R39.0000
 X27.3509 Y116.1000 R39.0000
 X28.6789 Y126.1872 R39.0000
 X32.5724 Y135.5871 R39.0000
 X38.7661 Y143.6589 R39.0000
 X46.8379 Y149.8526 R39.0000
 X56.2378 Y153.7461 R39.0000
 X66.3250 Y155.0741 R39.0000
 X76.4122 Y153.7461 R39.0000
 X85.8121 Y149.8526 R39.0000
 X93.8839 Y143.6589 R39.0000
 X100.0776 Y135.5871 R39.0000
 X103.9711 Y126.1872 R39.0000
 X105.2991 Y116.1000 R39.0000
 X103.9711 Y106.0128 R39.0000
 X100.0776 Y96.6129 R39.0000
 X93.8839 Y88.5411 R39.0000
 X85.8121 Y82.3474 R39.0000
 X76.4122 Y78.4539 R39.0000
 X66.3250 Y77.1259 R39.0000
(Pass: 9)
G02 X56.2378 Y78.4539 Z-8.5000 R39.0000 F100 
G03 X66.3250 Y77.1259 Z-9.0000 R39.0000
G02 X56.2378 Y78.4539 R39.0000 F500 
 X46.8379 Y82.3474 R39.0000
 X38.7661 Y88.5411 R39.0000
 X32.5724 Y96.6129 R39.0000
 X28.6789 Y106.0128 R39.0000
 X27.3509 Y116.1000 R39.0000
 X28.6789 Y126.1872 R39.0000
 X32.5724 Y135.5871 R39.0000
 X38.7661 Y143.6589 R39.0000
 X46.8379 Y149.8526 R39.0000
 X56.2378 Y153.7461 R39.0000
 X66.3250 Y155.0741 R39.0000
 X76.4122 Y153.7461 R39.0000
 X85.8121 Y149.8526 R39.0000
 X93.8839 Y143.6589 R39.0000
 X100.0776 Y135.5871 R39.0000
 X103.9711 Y126.1872 R39.0000
 X105.2991 Y116.1000 R39.0000
 X103.9711 Y106.0128 R39.0000
 X100.0776 Y96.6129 R39.0000
 X93.8839 Y88.5411 R39.0000
 X85.8121 Y82.3474 R39.0000
 X76.4122 Y78.4539 R39.0000
 X66.3250 Y77.1259 R39.0000
(Pass: 10)
G02 X56.2378 Y78.4539 Z-9.5000 R39.0000 F100 
G03 X66.3250 Y77.1259 Z-10.0000 R39.0000
G02 X56.2378 Y78.4539 R39.0000 F500 
 X46.8379 Y82.3474 R39.0000
 X38.7661 Y88.5411 R39.0000
 X32.5724 Y96.6129 R39.0000
 X28.6789 Y106.0128 R39.0000
 X27.3509 Y116.1000 R39.0000
 X28.6789 Y126.1872 R39.0000
 X32.5724 Y135.5871 R39.0000
 X38.7661 Y143.6589 R39.0000
 X46.8379 Y149.8526 R39.0000
 X56.2378 Y153.7461 R39.0000
 X66.3250 Y155.0741 R39.0000
 X76.4122 Y153.7461 R39.0000
 X85.8121 Y149.8526 R39.0000
 X93.8839 Y143.6589 R39.0000
 X100.0776 Y135.5871 R39.0000
 X103.9711 Y126.1872 R39.0000
 X105.2991 Y116.1000 R39.0000
 X103.9711 Y106.0128 R39.0000
 X100.0776 Y96.6129 R39.0000
 X93.8839 Y88.5411 R39.0000
 X85.8121 Y82.3474 R39.0000
 X76.4122 Y78.4539 R39.0000
 X66.3250 Y77.1259 R39.0000
(Pass: 11)
G02 X56.2378 Y78.4539 Z-10.5000 R39.0000 F100 
G03 X66.3250 Y77.1259 Z-11.0000 R39.0000
G02 X56.2378 Y78.4539 R39.0000 F500 
 X46.8379 Y82.3474 R39.0000
 X38.7661 Y88.5411 R39.0000
 X32.5724 Y96.6129 R39.0000
 X28.6789 Y106.0128 R39.0000
 X27.3509 Y116.1000 R39.0000
 X28.6789 Y126.1872 R39.0000
 X32.5724 Y135.5871 R39.0000
 X38.7661 Y143.6589 R39.0000
 X46.8379 Y149.8526 R39.0000
 X56.2378 Y153.7461 R39.0000
 X66.3250 Y155.0741 R39.0000
 X76.4122 Y153.7461 R39.0000
 X85.8121 Y149.8526 R39.0000
 X93.8839 Y143.6589 R39.0000
 X100.0776 Y135.5871 R39.0000
 X103.9711 Y126.1872 R39.0000
 X105.2991 Y116.1000 R39.0000
 X103.9711 Y106.0128 R39.0000
 X100.0776 Y96.6129 R39.0000
 X93.8839 Y88.5411 R39.0000
 X85.8121 Y82.3474 R39.0000
 X76.4122 Y78.4539 R39.0000
 X66.3250 Y77.1259 R39.0000
(Pass: 12)
G02 X56.2378 Y78.4539 Z-11.5000 R39.0000 F100 
G03 X66.3250 Y77.1259 Z-12.0000 R39.0000
G02 X56.2378 Y78.4539 R39.0000 F500 
 X46.8379 Y82.3474 R39.0000
 X38.7661 Y88.5411 R39.0000
 X32.5724 Y96.6129 R39.0000
 X28.6789 Y106.0128 R39.0000
 X27.3509 Y116.1000 R39.0000
 X28.6789 Y126.1872 R39.0000
 X32.5724 Y135.5871 R39.0000
 X38.7661 Y143.6589 R39.0000
 X46.8379 Y149.8526 R39.0000
 X56.2378 Y153.7461 R39.0000
 X66.3250 Y155.0741 R39.0000
 X76.4122 Y153.7461 R39.0000
 X85.8121 Y149.8526 R39.0000
 X93.8839 Y143.6589 R39.0000
 X100.0776 Y135.5871 R39.0000
 X103.9711 Y126.1872 R39.0000
 X105.2991 Y116.1000 R39.0000
 X103.9711 Y106.0128 R39.0000
 X100.0776 Y96.6129 R39.0000
 X93.8839 Y88.5411 R39.0000
 X85.8121 Y82.3474 R39.0000
 X76.4122 Y78.4539 R39.0000
 X66.3250 Y77.1259 R39.0000
(Pass: 13)
G02 X56.2378 Y78.4539 Z-12.5000 R39.0000 F100 
G03 X66.3250 Y77.1259 Z-13.0000 R39.0000
G02 X56.2378 Y78.4539 R39.0000 F500 
 X46.8379 Y82.3474 R39.0000
 X38.7661 Y88.5411 R39.0000
 X32.5724 Y96.6129 R39.0000
 X28.6789 Y106.0128 R39.0000
 X27.3509 Y116.1000 R39.0000
 X28.6789 Y126.1872 R39.0000
 X32.5724 Y135.5871 R39.0000
 X38.7661 Y143.6589 R39.0000
 X46.8379 Y149.8526 R39.0000
 X56.2378 Y153.7461 R39.0000
 X66.3250 Y155.0741 R39.0000
 X76.4122 Y153.7461 R39.0000
 X85.8121 Y149.8526 R39.0000
 X93.8839 Y143.6589 R39.0000
 X100.0776 Y135.5871 R39.0000
 X103.9711 Y126.1872 R39.0000
 X105.2991 Y116.1000 R39.0000
 X103.9711 Y106.0128 R39.0000
 X100.0776 Y96.6129 R39.0000
 X93.8839 Y88.5411 R39.0000
 X85.8121 Y82.3474 R39.0000
 X76.4122 Y78.4539 R39.0000
 X66.3250 Y77.1259 R39.0000
(Pass: 14)
G02 X56.2378 Y78.4539 Z-13.4850 R39.0000 F100 
G03 X66.3250 Y77.1259 Z-13.9700 R39.0000
G02 X56.2378 Y78.4539 R39.0000 F500 
 X46.8379 Y82.3474 R39.0000
 X38.7661 Y88.5411 R39.0000
 X32.5724 Y96.6129 R39.0000
 X28.6789 Y106.0128 R39.0000
 X27.3509 Y116.1000 R39.0000
 X28.6789 Y126.1872 R39.0000
 X32.5724 Y135.5871 R39.0000
 X38.7661 Y143.6589 R39.0000
 X46.8379 Y149.8526 R39.0000
 X56.2378 Y153.7461 R39.0000
 X66.3250 Y155.0741 R39.0000
 X76.4122 Y153.7461 R39.0000
 X85.8121 Y149.8526 R39.0000
 X93.8839 Y143.6589 R39.0000
 X100.0776 Y135.5871 R39.0000
 X103.9711 Y126.1872 R39.0000
 X105.2991 Y116.1000 R39.0000
 X103.9711 Y106.0128 R39.0000
 X100.0776 Y96.6129 R39.0000
 X93.8839 Y88.5411 R39.0000
 X85.8121 Y82.3474 R39.0000
 X76.4122 Y78.4539 R39.0000
 X66.3250 Y77.1259 R39.0000
G00 Z10.000
(Pass: 1)
 X7.000 Y85.306
G00 Z0.100
G01 X7.000 Y3.100 Z-0.450 F100 
 X7.000 Y85.306 Z-1.000
 Y3.100 F500 
 X125.650
 Y83.888
 Y97.888
 Y173.050
 X7.000
 Y99.306
 Y85.306
(Pass: 2)
 X7.000 Y3.100 Z-1.500 F100 
 X7.000 Y85.306 Z-2.000
 Y3.100 F500 
 X125.650
 Y83.888
 Y97.888
 Y173.050
 X7.000
 Y99.306
 Y85.306
(Pass: 3)
 X7.000 Y3.100 Z-2.500 F100 
 X7.000 Y85.306 Z-3.000
 Y3.100 F500 
 X125.650
 Y83.888
 Y97.888
 Y173.050
 X7.000
 Y99.306
 Y85.306
(Pass: 4)
 X7.000 Y3.100 Z-3.500 F100 
 X7.000 Y85.306 Z-4.000
 Y3.100 F500 
 X125.650
 Y83.888
 Y97.888
 Y173.050
 X7.000
 Y99.306
 Y85.306
(Pass: 5)
 X7.000 Y3.100 Z-4.500 F100 
 X7.000 Y85.306 Z-5.000
 Y3.100 F500 
 X125.650
 Y83.888
 Y97.888
 Y173.050
 X7.000
 Y99.306
 Y85.306
(Pass: 6)
 X7.000 Y3.100 Z-5.500 F100 
 X7.000 Y85.306 Z-6.000
 Y3.100 F500 
 X125.650
 Y83.888
 Y97.888
 Y173.050
 X7.000
 Y99.306
 Y85.306
(Pass: 7)
 X7.000 Y3.100 Z-6.500 F100 
 X7.000 Y85.306 Z-7.000
 Y3.100 F500 
 X125.650
 Y83.888
 Z-6.350
 Y97.888
 X125.650 Y173.050 Z-6.675 F100 
 X125.650 Y97.888 Z-7.000
 Y173.050 F500 
 X7.000
 Y99.306
 Z-6.350
 Y85.306
(Pass: 8)
 X7.000 Y3.100 Z-7.175 F100 
 X7.000 Y85.306 Z-8.000
(rampnolimit no move)
 Y3.100 F500 
 X125.650
 Y83.888
 Z-6.350
 Y97.888
G00 Z-6.750 F100 
G01 X125.650 Y173.050 Z-7.375
 X125.650 Y97.888 Z-8.000
 Y173.050 F500 
 X7.000
 Y99.306
 Z-6.350
 Y85.306
G00 Z-6.750 F100 
(Pass: 9)
G01 X7.000 Y3.100 Z-7.875
 X7.000 Y85.306 Z-9.000
(rampnolimit no move)
 Y3.100 F500 
 X125.650
 Y83.888
 Z-6.350
 Y97.888
G00 Z-7.750 F100 
G01 X125.650 Y173.050 Z-8.375
 X125.650 Y97.888 Z-9.000
 Y173.050 F500 
 X7.000
 Y99.306
 Z-6.350
 Y85.306
G00 Z-7.750 F100 
(Pass: 10)
G01 X7.000 Y3.100 Z-8.875
 X7.000 Y85.306 Z-10.000
(rampnolimit no move)
 Y3.100 F500 
 X125.650
 Y83.888
 Z-6.350
 Y97.888
G00 Z-8.750 F100 
G01 X125.650 Y173.050 Z-9.375
 X125.650 Y97.888 Z-10.000
 Y173.050 F500 
 X7.000
 Y99.306
 Z-6.350
 Y85.306
G00 Z-8.750 F100 
(Pass: 11)
G01 X7.000 Y3.100 Z-9.875
 X7.000 Y85.306 Z-11.000
(rampnolimit no move)
 Y3.100 F500 
 X125.650
 Y83.888
 Z-6.350
 Y97.888
G00 Z-9.750 F100 
G01 X125.650 Y173.050 Z-10.375
 X125.650 Y97.888 Z-11.000
 Y173.050 F500 
 X7.000
 Y99.306
 Z-6.350
 Y85.306
G00 Z-9.750 F100 
(Pass: 12)
G01 X7.000 Y3.100 Z-10.875
 X7.000 Y85.306 Z-12.000
(rampnolimit no move)
 Y3.100 F500 
 X125.650
 Y83.888
 Z-6.350
 Y97.888
G00 Z-10.750 F100 
G01 X125.650 Y173.050 Z-11.375
 X125.650 Y97.888 Z-12.000
 Y173.050 F500 
 X7.000
 Y99.306
 Z-6.350
 Y85.306
G00 Z-10.750 F100 
(Pass: 13)
G01 X7.000 Y3.100 Z-11.875
 X7.000 Y85.306 Z-13.000
(rampnolimit no move)
 Y3.100 F500 
 X125.650
 Y83.888
 Z-6.350
 Y97.888
G00 Z-11.750 F100 
G01 X125.650 Y173.050 Z-12.375
 X125.650 Y97.888 Z-13.000
 Y173.050 F500 
 X7.000
 Y99.306
 Z-6.350
 Y85.306
G00 Z-11.750 F100 
(Pass: 14)
G01 X7.000 Y3.100 Z-12.860
 X7.000 Y85.306 Z-13.970
(rampnolimit no move)
 Y3.100 F500 
 X125.650
 Y83.888
 Z-6.350
 Y97.888
G00 Z-12.750 F100 
G01 X125.650 Y173.050 Z-13.360
 X125.650 Y97.888 Z-13.970
 Y173.050 F500 
 X7.000
 Y99.306
 Z-6.350
 Y85.306
G00 Z-12.750 F100 
 Z10.000
G00 X0 Y0 (home)
M05
M30
%
