%
(Generated by SketchUcam V1.4-22ee)
(File: DustHoseMount.skp)
(Bit diameter: 6.0mm)
(Feed rate: 500.0mm/min)
(Plunge Feed rate: 100.0mm/min)
(Material Thickness: ~ 6.3mm)
(Material length: 2200.0mm X width: 1200.0mm)
(Overhead Gantry: true)
(Multipass enabled, Depth = 0.2mm)
(RAMPING with no angle limit)
(Plunge Depth first)
(Optimization is ON)
(www.PhlatBoyz.com)
G90 G21 G49  G17
M3 S18000
G00 Z10.000
(Pass: 1)
 X15.000 Y165.050
(plungebore  DEPTH=6.985  DIAM=6.000)
G00 Z0.500
G01 Z-0.200 F100 
G00 Z0.500
G01 Z-0.400
G00 Z0.500
G01 Z-0.600
G00 Z0.500
G01 Z-0.800
G00 Z0.500
G01 Z-1.000
G00 Z0.500
G01 Z-1.200
G00 Z0.500
G01 Z-1.400
G00 Z0.500
G01 Z-1.600
G00 Z0.500
G01 Z-1.800
G00 Z0.500
G01 Z-2.000
G00 Z0.500
G01 Z-2.200
G00 Z0.500
G01 Z-2.400
G00 Z0.500
G01 Z-2.600
G00 Z0.500
G01 Z-2.800
G00 Z0.500
G01 Z-3.000
G00 Z0.500
G01 Z-3.200
G00 Z0.500
G01 Z-3.400
G00 Z0.500
G01 Z-3.600
G00 Z0.500
G01 Z-3.800
G00 Z0.500
G01 Z-4.000
G00 Z0.500
G01 Z-4.200
G00 Z0.500
G01 Z-4.400
G00 Z0.500
G01 Z-4.600
G00 Z0.500
G01 Z-4.800
G00 Z0.500
G01 Z-5.000
G00 Z0.500
G01 Z-5.200
G00 Z0.500
G01 Z-5.400
G00 Z0.500
G01 Z-5.600
G00 Z0.500
G01 Z-5.800
G00 Z0.500
G01 Z-6.000
G00 Z0.500
G01 Z-6.200
G00 Z0.500
G01 Z-6.400
G00 Z0.500
G01 Z-6.600
G00 Z0.500
G01 Z-6.800
G00 Z0.500
G01 Z-6.985
G00 Z0.500
G00 Y165.050 Z10.000
(plungebore end)
(BREAK pass 34)
(Pass: 1)
G00 Y92.500
(plungebore  DEPTH=6.985  DIAM=6.000)
G00 Z0.500
G01 Z-0.200 F100 
G00 Z0.500
G01 Z-0.400
G00 Z0.500
G01 Z-0.600
G00 Z0.500
G01 Z-0.800
G00 Z0.500
G01 Z-1.000
G00 Z0.500
G01 Z-1.200
G00 Z0.500
G01 Z-1.400
G00 Z0.500
G01 Z-1.600
G00 Z0.500
G01 Z-1.800
G00 Z0.500
G01 Z-2.000
G00 Z0.500
G01 Z-2.200
G00 Z0.500
G01 Z-2.400
G00 Z0.500
G01 Z-2.600
G00 Z0.500
G01 Z-2.800
G00 Z0.500
G01 Z-3.000
G00 Z0.500
G01 Z-3.200
G00 Z0.500
G01 Z-3.400
G00 Z0.500
G01 Z-3.600
G00 Z0.500
G01 Z-3.800
G00 Z0.500
G01 Z-4.000
G00 Z0.500
G01 Z-4.200
G00 Z0.500
G01 Z-4.400
G00 Z0.500
G01 Z-4.600
G00 Z0.500
G01 Z-4.800
G00 Z0.500
G01 Z-5.000
G00 Z0.500
G01 Z-5.200
G00 Z0.500
G01 Z-5.400
G00 Z0.500
G01 Z-5.600
G00 Z0.500
G01 Z-5.800
G00 Z0.500
G01 Z-6.000
G00 Z0.500
G01 Z-6.200
G00 Z0.500
G01 Z-6.400
G00 Z0.500
G01 Z-6.600
G00 Z0.500
G01 Z-6.800
G00 Z0.500
G01 Z-6.985
G00 Z0.500
G00 Y92.500 Z10.000
(plungebore end)
(BREAK pass 34)
(Pass: 1)
G00 X117.650
(plungebore  DEPTH=6.985  DIAM=6.000)
G00 Z0.500
G01 Z-0.200 F100 
G00 Z0.500
G01 Z-0.400
G00 Z0.500
G01 Z-0.600
G00 Z0.500
G01 Z-0.800
G00 Z0.500
G01 Z-1.000
G00 Z0.500
G01 Z-1.200
G00 Z0.500
G01 Z-1.400
G00 Z0.500
G01 Z-1.600
G00 Z0.500
G01 Z-1.800
G00 Z0.500
G01 Z-2.000
G00 Z0.500
G01 Z-2.200
G00 Z0.500
G01 Z-2.400
G00 Z0.500
G01 Z-2.600
G00 Z0.500
G01 Z-2.800
G00 Z0.500
G01 Z-3.000
G00 Z0.500
G01 Z-3.200
G00 Z0.500
G01 Z-3.400
G00 Z0.500
G01 Z-3.600
G00 Z0.500
G01 Z-3.800
G00 Z0.500
G01 Z-4.000
G00 Z0.500
G01 Z-4.200
G00 Z0.500
G01 Z-4.400
G00 Z0.500
G01 Z-4.600
G00 Z0.500
G01 Z-4.800
G00 Z0.500
G01 Z-5.000
G00 Z0.500
G01 Z-5.200
G00 Z0.500
G01 Z-5.400
G00 Z0.500
G01 Z-5.600
G00 Z0.500
G01 Z-5.800
G00 Z0.500
G01 Z-6.000
G00 Z0.500
G01 Z-6.200
G00 Z0.500
G01 Z-6.400
G00 Z0.500
G01 Z-6.600
G00 Z0.500
G01 Z-6.800
G00 Z0.500
G01 Z-6.985
G00 Z0.500
G00 Y92.500 Z10.000
(plungebore end)
(BREAK pass 34)
(Pass: 1)
G00 Y165.050
(plungebore  DEPTH=6.985  DIAM=6.000)
G00 Z0.500
G01 Z-0.200 F100 
G00 Z0.500
G01 Z-0.400
G00 Z0.500
G01 Z-0.600
G00 Z0.500
G01 Z-0.800
G00 Z0.500
G01 Z-1.000
G00 Z0.500
G01 Z-1.200
G00 Z0.500
G01 Z-1.400
G00 Z0.500
G01 Z-1.600
G00 Z0.500
G01 Z-1.800
G00 Z0.500
G01 Z-2.000
G00 Z0.500
G01 Z-2.200
G00 Z0.500
G01 Z-2.400
G00 Z0.500
G01 Z-2.600
G00 Z0.500
G01 Z-2.800
G00 Z0.500
G01 Z-3.000
G00 Z0.500
G01 Z-3.200
G00 Z0.500
G01 Z-3.400
G00 Z0.500
G01 Z-3.600
G00 Z0.500
G01 Z-3.800
G00 Z0.500
G01 Z-4.000
G00 Z0.500
G01 Z-4.200
G00 Z0.500
G01 Z-4.400
G00 Z0.500
G01 Z-4.600
G00 Z0.500
G01 Z-4.800
G00 Z0.500
G01 Z-5.000
G00 Z0.500
G01 Z-5.200
G00 Z0.500
G01 Z-5.400
G00 Z0.500
G01 Z-5.600
G00 Z0.500
G01 Z-5.800
G00 Z0.500
G01 Z-6.000
G00 Z0.500
G01 Z-6.200
G00 Z0.500
G01 Z-6.400
G00 Z0.500
G01 Z-6.600
G00 Z0.500
G01 Z-6.800
G00 Z0.500
G01 Z-6.985
G00 Z0.500
G00 Y165.050 Z10.000
(plungebore end)
(BREAK pass 34)
(Pass: 1)
G00 X57.687 Y29.113
G00 Z0.200
G01 Z-0.200 F100 
(ramplimitarc end, translated to plunge)
G02 X56.6907 Y31.5185 R10.0000 F500 
 X56.3509 Y34.1000 R10.0000
 X56.6907 Y36.6815 R10.0000
 X57.6872 Y39.0871 R10.0000
 X59.2722 Y41.1528 R10.0000
 X61.3379 Y42.7378 R10.0000
 X63.7435 Y43.7343 R10.0000
 X66.3250 Y44.0741 R10.0000
 X68.9065 Y43.7343 R10.0000
 X71.3121 Y42.7378 R10.0000
 X73.3778 Y41.1528 R10.0000
 X74.9628 Y39.0871 R10.0000
 X75.9593 Y36.6815 R10.0000
 X76.2991 Y34.1000 R10.0000
 X75.9593 Y31.5185 R10.0000
 X74.9628 Y29.1129 R10.0000
 X73.3778 Y27.0472 R10.0000
 X71.3121 Y25.4622 R10.0000
 X68.9065 Y24.4657 R10.0000
 X66.3250 Y24.1259 R10.0000
 X63.7435 Y24.4657 R10.0000
 X61.3379 Y25.4622 R10.0000
 X59.2722 Y27.0472 R10.0000
 X57.6872 Y29.1129 R10.0000
(Pass: 2)
G01 Z-0.400 F100 
(ramplimitarc end, translated to plunge)
G02 X56.6907 Y31.5185 R10.0000 F500 
 X56.3509 Y34.1000 R10.0000
 X56.6907 Y36.6815 R10.0000
 X57.6872 Y39.0871 R10.0000
 X59.2722 Y41.1528 R10.0000
 X61.3379 Y42.7378 R10.0000
 X63.7435 Y43.7343 R10.0000
 X66.3250 Y44.0741 R10.0000
 X68.9065 Y43.7343 R10.0000
 X71.3121 Y42.7378 R10.0000
 X73.3778 Y41.1528 R10.0000
 X74.9628 Y39.0871 R10.0000
 X75.9593 Y36.6815 R10.0000
 X76.2991 Y34.1000 R10.0000
 X75.9593 Y31.5185 R10.0000
 X74.9628 Y29.1129 R10.0000
 X73.3778 Y27.0472 R10.0000
 X71.3121 Y25.4622 R10.0000
 X68.9065 Y24.4657 R10.0000
 X66.3250 Y24.1259 R10.0000
 X63.7435 Y24.4657 R10.0000
 X61.3379 Y25.4622 R10.0000
 X59.2722 Y27.0472 R10.0000
 X57.6872 Y29.1129 R10.0000
(Pass: 3)
G01 Z-0.600 F100 
(ramplimitarc end, translated to plunge)
G02 X56.6907 Y31.5185 R10.0000 F500 
 X56.3509 Y34.1000 R10.0000
 X56.6907 Y36.6815 R10.0000
 X57.6872 Y39.0871 R10.0000
 X59.2722 Y41.1528 R10.0000
 X61.3379 Y42.7378 R10.0000
 X63.7435 Y43.7343 R10.0000
 X66.3250 Y44.0741 R10.0000
 X68.9065 Y43.7343 R10.0000
 X71.3121 Y42.7378 R10.0000
 X73.3778 Y41.1528 R10.0000
 X74.9628 Y39.0871 R10.0000
 X75.9593 Y36.6815 R10.0000
 X76.2991 Y34.1000 R10.0000
 X75.9593 Y31.5185 R10.0000
 X74.9628 Y29.1129 R10.0000
 X73.3778 Y27.0472 R10.0000
 X71.3121 Y25.4622 R10.0000
 X68.9065 Y24.4657 R10.0000
 X66.3250 Y24.1259 R10.0000
 X63.7435 Y24.4657 R10.0000
 X61.3379 Y25.4622 R10.0000
 X59.2722 Y27.0472 R10.0000
 X57.6872 Y29.1129 R10.0000
(Pass: 4)
G01 Z-0.800 F100 
(ramplimitarc end, translated to plunge)
G02 X56.6907 Y31.5185 R10.0000 F500 
 X56.3509 Y34.1000 R10.0000
 X56.6907 Y36.6815 R10.0000
 X57.6872 Y39.0871 R10.0000
 X59.2722 Y41.1528 R10.0000
 X61.3379 Y42.7378 R10.0000
 X63.7435 Y43.7343 R10.0000
 X66.3250 Y44.0741 R10.0000
 X68.9065 Y43.7343 R10.0000
 X71.3121 Y42.7378 R10.0000
 X73.3778 Y41.1528 R10.0000
 X74.9628 Y39.0871 R10.0000
 X75.9593 Y36.6815 R10.0000
 X76.2991 Y34.1000 R10.0000
 X75.9593 Y31.5185 R10.0000
 X74.9628 Y29.1129 R10.0000
 X73.3778 Y27.0472 R10.0000
 X71.3121 Y25.4622 R10.0000
 X68.9065 Y24.4657 R10.0000
 X66.3250 Y24.1259 R10.0000
 X63.7435 Y24.4657 R10.0000
 X61.3379 Y25.4622 R10.0000
 X59.2722 Y27.0472 R10.0000
 X57.6872 Y29.1129 R10.0000
(Pass: 5)
G01 Z-1.000 F100 
(ramplimitarc end, translated to plunge)
G02 X56.6907 Y31.5185 R10.0000 F500 
 X56.3509 Y34.1000 R10.0000
 X56.6907 Y36.6815 R10.0000
 X57.6872 Y39.0871 R10.0000
 X59.2722 Y41.1528 R10.0000
 X61.3379 Y42.7378 R10.0000
 X63.7435 Y43.7343 R10.0000
 X66.3250 Y44.0741 R10.0000
 X68.9065 Y43.7343 R10.0000
 X71.3121 Y42.7378 R10.0000
 X73.3778 Y41.1528 R10.0000
 X74.9628 Y39.0871 R10.0000
 X75.9593 Y36.6815 R10.0000
 X76.2991 Y34.1000 R10.0000
 X75.9593 Y31.5185 R10.0000
 X74.9628 Y29.1129 R10.0000
 X73.3778 Y27.0472 R10.0000
 X71.3121 Y25.4622 R10.0000
 X68.9065 Y24.4657 R10.0000
 X66.3250 Y24.1259 R10.0000
 X63.7435 Y24.4657 R10.0000
 X61.3379 Y25.4622 R10.0000
 X59.2722 Y27.0472 R10.0000
 X57.6872 Y29.1129 R10.0000
(Pass: 6)
G01 Z-1.200 F100 
(ramplimitarc end, translated to plunge)
G02 X56.6907 Y31.5185 R10.0000 F500 
 X56.3509 Y34.1000 R10.0000
 X56.6907 Y36.6815 R10.0000
 X57.6872 Y39.0871 R10.0000
 X59.2722 Y41.1528 R10.0000
 X61.3379 Y42.7378 R10.0000
 X63.7435 Y43.7343 R10.0000
 X66.3250 Y44.0741 R10.0000
 X68.9065 Y43.7343 R10.0000
 X71.3121 Y42.7378 R10.0000
 X73.3778 Y41.1528 R10.0000
 X74.9628 Y39.0871 R10.0000
 X75.9593 Y36.6815 R10.0000
 X76.2991 Y34.1000 R10.0000
 X75.9593 Y31.5185 R10.0000
 X74.9628 Y29.1129 R10.0000
 X73.3778 Y27.0472 R10.0000
 X71.3121 Y25.4622 R10.0000
 X68.9065 Y24.4657 R10.0000
 X66.3250 Y24.1259 R10.0000
 X63.7435 Y24.4657 R10.0000
 X61.3379 Y25.4622 R10.0000
 X59.2722 Y27.0472 R10.0000
 X57.6872 Y29.1129 R10.0000
(Pass: 7)
G01 Z-1.400 F100 
(ramplimitarc end, translated to plunge)
G02 X56.6907 Y31.5185 R10.0000 F500 
 X56.3509 Y34.1000 R10.0000
 X56.6907 Y36.6815 R10.0000
 X57.6872 Y39.0871 R10.0000
 X59.2722 Y41.1528 R10.0000
 X61.3379 Y42.7378 R10.0000
 X63.7435 Y43.7343 R10.0000
 X66.3250 Y44.0741 R10.0000
 X68.9065 Y43.7343 R10.0000
 X71.3121 Y42.7378 R10.0000
 X73.3778 Y41.1528 R10.0000
 X74.9628 Y39.0871 R10.0000
 X75.9593 Y36.6815 R10.0000
 X76.2991 Y34.1000 R10.0000
 X75.9593 Y31.5185 R10.0000
 X74.9628 Y29.1129 R10.0000
 X73.3778 Y27.0472 R10.0000
 X71.3121 Y25.4622 R10.0000
 X68.9065 Y24.4657 R10.0000
 X66.3250 Y24.1259 R10.0000
 X63.7435 Y24.4657 R10.0000
 X61.3379 Y25.4622 R10.0000
 X59.2722 Y27.0472 R10.0000
 X57.6872 Y29.1129 R10.0000
(Pass: 8)
G01 Z-1.600 F100 
(ramplimitarc end, translated to plunge)
G02 X56.6907 Y31.5185 R10.0000 F500 
 X56.3509 Y34.1000 R10.0000
 X56.6907 Y36.6815 R10.0000
 X57.6872 Y39.0871 R10.0000
 X59.2722 Y41.1528 R10.0000
 X61.3379 Y42.7378 R10.0000
 X63.7435 Y43.7343 R10.0000
 X66.3250 Y44.0741 R10.0000
 X68.9065 Y43.7343 R10.0000
 X71.3121 Y42.7378 R10.0000
 X73.3778 Y41.1528 R10.0000
 X74.9628 Y39.0871 R10.0000
 X75.9593 Y36.6815 R10.0000
 X76.2991 Y34.1000 R10.0000
 X75.9593 Y31.5185 R10.0000
 X74.9628 Y29.1129 R10.0000
 X73.3778 Y27.0472 R10.0000
 X71.3121 Y25.4622 R10.0000
 X68.9065 Y24.4657 R10.0000
 X66.3250 Y24.1259 R10.0000
 X63.7435 Y24.4657 R10.0000
 X61.3379 Y25.4622 R10.0000
 X59.2722 Y27.0472 R10.0000
 X57.6872 Y29.1129 R10.0000
(Pass: 9)
G01 Z-1.800 F100 
(ramplimitarc end, translated to plunge)
G02 X56.6907 Y31.5185 R10.0000 F500 
 X56.3509 Y34.1000 R10.0000
 X56.6907 Y36.6815 R10.0000
 X57.6872 Y39.0871 R10.0000
 X59.2722 Y41.1528 R10.0000
 X61.3379 Y42.7378 R10.0000
 X63.7435 Y43.7343 R10.0000
 X66.3250 Y44.0741 R10.0000
 X68.9065 Y43.7343 R10.0000
 X71.3121 Y42.7378 R10.0000
 X73.3778 Y41.1528 R10.0000
 X74.9628 Y39.0871 R10.0000
 X75.9593 Y36.6815 R10.0000
 X76.2991 Y34.1000 R10.0000
 X75.9593 Y31.5185 R10.0000
 X74.9628 Y29.1129 R10.0000
 X73.3778 Y27.0472 R10.0000
 X71.3121 Y25.4622 R10.0000
 X68.9065 Y24.4657 R10.0000
 X66.3250 Y24.1259 R10.0000
 X63.7435 Y24.4657 R10.0000
 X61.3379 Y25.4622 R10.0000
 X59.2722 Y27.0472 R10.0000
 X57.6872 Y29.1129 R10.0000
(Pass: 10)
G01 Z-2.000 F100 
(ramplimitarc end, translated to plunge)
G02 X56.6907 Y31.5185 R10.0000 F500 
 X56.3509 Y34.1000 R10.0000
 X56.6907 Y36.6815 R10.0000
 X57.6872 Y39.0871 R10.0000
 X59.2722 Y41.1528 R10.0000
 X61.3379 Y42.7378 R10.0000
 X63.7435 Y43.7343 R10.0000
 X66.3250 Y44.0741 R10.0000
 X68.9065 Y43.7343 R10.0000
 X71.3121 Y42.7378 R10.0000
 X73.3778 Y41.1528 R10.0000
 X74.9628 Y39.0871 R10.0000
 X75.9593 Y36.6815 R10.0000
 X76.2991 Y34.1000 R10.0000
 X75.9593 Y31.5185 R10.0000
 X74.9628 Y29.1129 R10.0000
 X73.3778 Y27.0472 R10.0000
 X71.3121 Y25.4622 R10.0000
 X68.9065 Y24.4657 R10.0000
 X66.3250 Y24.1259 R10.0000
 X63.7435 Y24.4657 R10.0000
 X61.3379 Y25.4622 R10.0000
 X59.2722 Y27.0472 R10.0000
 X57.6872 Y29.1129 R10.0000
(Pass: 11)
G01 Z-2.200 F100 
(ramplimitarc end, translated to plunge)
G02 X56.6907 Y31.5185 R10.0000 F500 
 X56.3509 Y34.1000 R10.0000
 X56.6907 Y36.6815 R10.0000
 X57.6872 Y39.0871 R10.0000
 X59.2722 Y41.1528 R10.0000
 X61.3379 Y42.7378 R10.0000
 X63.7435 Y43.7343 R10.0000
 X66.3250 Y44.0741 R10.0000
 X68.9065 Y43.7343 R10.0000
 X71.3121 Y42.7378 R10.0000
 X73.3778 Y41.1528 R10.0000
 X74.9628 Y39.0871 R10.0000
 X75.9593 Y36.6815 R10.0000
 X76.2991 Y34.1000 R10.0000
 X75.9593 Y31.5185 R10.0000
 X74.9628 Y29.1129 R10.0000
 X73.3778 Y27.0472 R10.0000
 X71.3121 Y25.4622 R10.0000
 X68.9065 Y24.4657 R10.0000
 X66.3250 Y24.1259 R10.0000
 X63.7435 Y24.4657 R10.0000
 X61.3379 Y25.4622 R10.0000
 X59.2722 Y27.0472 R10.0000
 X57.6872 Y29.1129 R10.0000
(Pass: 12)
G01 Z-2.400 F100 
(ramplimitarc end, translated to plunge)
G02 X56.6907 Y31.5185 R10.0000 F500 
 X56.3509 Y34.1000 R10.0000
 X56.6907 Y36.6815 R10.0000
 X57.6872 Y39.0871 R10.0000
 X59.2722 Y41.1528 R10.0000
 X61.3379 Y42.7378 R10.0000
 X63.7435 Y43.7343 R10.0000
 X66.3250 Y44.0741 R10.0000
 X68.9065 Y43.7343 R10.0000
 X71.3121 Y42.7378 R10.0000
 X73.3778 Y41.1528 R10.0000
 X74.9628 Y39.0871 R10.0000
 X75.9593 Y36.6815 R10.0000
 X76.2991 Y34.1000 R10.0000
 X75.9593 Y31.5185 R10.0000
 X74.9628 Y29.1129 R10.0000
 X73.3778 Y27.0472 R10.0000
 X71.3121 Y25.4622 R10.0000
 X68.9065 Y24.4657 R10.0000
 X66.3250 Y24.1259 R10.0000
 X63.7435 Y24.4657 R10.0000
 X61.3379 Y25.4622 R10.0000
 X59.2722 Y27.0472 R10.0000
 X57.6872 Y29.1129 R10.0000
(Pass: 13)
G01 Z-2.600 F100 
(ramplimitarc end, translated to plunge)
G02 X56.6907 Y31.5185 R10.0000 F500 
 X56.3509 Y34.1000 R10.0000
 X56.6907 Y36.6815 R10.0000
 X57.6872 Y39.0871 R10.0000
 X59.2722 Y41.1528 R10.0000
 X61.3379 Y42.7378 R10.0000
 X63.7435 Y43.7343 R10.0000
 X66.3250 Y44.0741 R10.0000
 X68.9065 Y43.7343 R10.0000
 X71.3121 Y42.7378 R10.0000
 X73.3778 Y41.1528 R10.0000
 X74.9628 Y39.0871 R10.0000
 X75.9593 Y36.6815 R10.0000
 X76.2991 Y34.1000 R10.0000
 X75.9593 Y31.5185 R10.0000
 X74.9628 Y29.1129 R10.0000
 X73.3778 Y27.0472 R10.0000
 X71.3121 Y25.4622 R10.0000
 X68.9065 Y24.4657 R10.0000
 X66.3250 Y24.1259 R10.0000
 X63.7435 Y24.4657 R10.0000
 X61.3379 Y25.4622 R10.0000
 X59.2722 Y27.0472 R10.0000
 X57.6872 Y29.1129 R10.0000
(Pass: 14)
G01 Z-2.800 F100 
(ramplimitarc end, translated to plunge)
G02 X56.6907 Y31.5185 R10.0000 F500 
 X56.3509 Y34.1000 R10.0000
 X56.6907 Y36.6815 R10.0000
 X57.6872 Y39.0871 R10.0000
 X59.2722 Y41.1528 R10.0000
 X61.3379 Y42.7378 R10.0000
 X63.7435 Y43.7343 R10.0000
 X66.3250 Y44.0741 R10.0000
 X68.9065 Y43.7343 R10.0000
 X71.3121 Y42.7378 R10.0000
 X73.3778 Y41.1528 R10.0000
 X74.9628 Y39.0871 R10.0000
 X75.9593 Y36.6815 R10.0000
 X76.2991 Y34.1000 R10.0000
 X75.9593 Y31.5185 R10.0000
 X74.9628 Y29.1129 R10.0000
 X73.3778 Y27.0472 R10.0000
 X71.3121 Y25.4622 R10.0000
 X68.9065 Y24.4657 R10.0000
 X66.3250 Y24.1259 R10.0000
 X63.7435 Y24.4657 R10.0000
 X61.3379 Y25.4622 R10.0000
 X59.2722 Y27.0472 R10.0000
 X57.6872 Y29.1129 R10.0000
(Pass: 15)
G01 Z-3.000 F100 
(ramplimitarc end, translated to plunge)
G02 X56.6907 Y31.5185 R10.0000 F500 
 X56.3509 Y34.1000 R10.0000
 X56.6907 Y36.6815 R10.0000
 X57.6872 Y39.0871 R10.0000
 X59.2722 Y41.1528 R10.0000
 X61.3379 Y42.7378 R10.0000
 X63.7435 Y43.7343 R10.0000
 X66.3250 Y44.0741 R10.0000
 X68.9065 Y43.7343 R10.0000
 X71.3121 Y42.7378 R10.0000
 X73.3778 Y41.1528 R10.0000
 X74.9628 Y39.0871 R10.0000
 X75.9593 Y36.6815 R10.0000
 X76.2991 Y34.1000 R10.0000
 X75.9593 Y31.5185 R10.0000
 X74.9628 Y29.1129 R10.0000
 X73.3778 Y27.0472 R10.0000
 X71.3121 Y25.4622 R10.0000
 X68.9065 Y24.4657 R10.0000
 X66.3250 Y24.1259 R10.0000
 X63.7435 Y24.4657 R10.0000
 X61.3379 Y25.4622 R10.0000
 X59.2722 Y27.0472 R10.0000
 X57.6872 Y29.1129 R10.0000
(Pass: 16)
G01 Z-3.200 F100 
(ramplimitarc end, translated to plunge)
G02 X56.6907 Y31.5185 R10.0000 F500 
 X56.3509 Y34.1000 R10.0000
 X56.6907 Y36.6815 R10.0000
 X57.6872 Y39.0871 R10.0000
 X59.2722 Y41.1528 R10.0000
 X61.3379 Y42.7378 R10.0000
 X63.7435 Y43.7343 R10.0000
 X66.3250 Y44.0741 R10.0000
 X68.9065 Y43.7343 R10.0000
 X71.3121 Y42.7378 R10.0000
 X73.3778 Y41.1528 R10.0000
 X74.9628 Y39.0871 R10.0000
 X75.9593 Y36.6815 R10.0000
 X76.2991 Y34.1000 R10.0000
 X75.9593 Y31.5185 R10.0000
 X74.9628 Y29.1129 R10.0000
 X73.3778 Y27.0472 R10.0000
 X71.3121 Y25.4622 R10.0000
 X68.9065 Y24.4657 R10.0000
 X66.3250 Y24.1259 R10.0000
 X63.7435 Y24.4657 R10.0000
 X61.3379 Y25.4622 R10.0000
 X59.2722 Y27.0472 R10.0000
 X57.6872 Y29.1129 R10.0000
(Pass: 17)
G01 Z-3.400 F100 
(ramplimitarc end, translated to plunge)
G02 X56.6907 Y31.5185 R10.0000 F500 
 X56.3509 Y34.1000 R10.0000
 X56.6907 Y36.6815 R10.0000
 X57.6872 Y39.0871 R10.0000
 X59.2722 Y41.1528 R10.0000
 X61.3379 Y42.7378 R10.0000
 X63.7435 Y43.7343 R10.0000
 X66.3250 Y44.0741 R10.0000
 X68.9065 Y43.7343 R10.0000
 X71.3121 Y42.7378 R10.0000
 X73.3778 Y41.1528 R10.0000
 X74.9628 Y39.0871 R10.0000
 X75.9593 Y36.6815 R10.0000
 X76.2991 Y34.1000 R10.0000
 X75.9593 Y31.5185 R10.0000
 X74.9628 Y29.1129 R10.0000
 X73.3778 Y27.0472 R10.0000
 X71.3121 Y25.4622 R10.0000
 X68.9065 Y24.4657 R10.0000
 X66.3250 Y24.1259 R10.0000
 X63.7435 Y24.4657 R10.0000
 X61.3379 Y25.4622 R10.0000
 X59.2722 Y27.0472 R10.0000
 X57.6872 Y29.1129 R10.0000
(Pass: 18)
G01 Z-3.600 F100 
(ramplimitarc end, translated to plunge)
G02 X56.6907 Y31.5185 R10.0000 F500 
 X56.3509 Y34.1000 R10.0000
 X56.6907 Y36.6815 R10.0000
 X57.6872 Y39.0871 R10.0000
 X59.2722 Y41.1528 R10.0000
 X61.3379 Y42.7378 R10.0000
 X63.7435 Y43.7343 R10.0000
 X66.3250 Y44.0741 R10.0000
 X68.9065 Y43.7343 R10.0000
 X71.3121 Y42.7378 R10.0000
 X73.3778 Y41.1528 R10.0000
 X74.9628 Y39.0871 R10.0000
 X75.9593 Y36.6815 R10.0000
 X76.2991 Y34.1000 R10.0000
 X75.9593 Y31.5185 R10.0000
 X74.9628 Y29.1129 R10.0000
 X73.3778 Y27.0472 R10.0000
 X71.3121 Y25.4622 R10.0000
 X68.9065 Y24.4657 R10.0000
 X66.3250 Y24.1259 R10.0000
 X63.7435 Y24.4657 R10.0000
 X61.3379 Y25.4622 R10.0000
 X59.2722 Y27.0472 R10.0000
 X57.6872 Y29.1129 R10.0000
(Pass: 19)
G01 Z-3.800 F100 
(ramplimitarc end, translated to plunge)
G02 X56.6907 Y31.5185 R10.0000 F500 
 X56.3509 Y34.1000 R10.0000
 X56.6907 Y36.6815 R10.0000
 X57.6872 Y39.0871 R10.0000
 X59.2722 Y41.1528 R10.0000
 X61.3379 Y42.7378 R10.0000
 X63.7435 Y43.7343 R10.0000
 X66.3250 Y44.0741 R10.0000
 X68.9065 Y43.7343 R10.0000
 X71.3121 Y42.7378 R10.0000
 X73.3778 Y41.1528 R10.0000
 X74.9628 Y39.0871 R10.0000
 X75.9593 Y36.6815 R10.0000
 X76.2991 Y34.1000 R10.0000
 X75.9593 Y31.5185 R10.0000
 X74.9628 Y29.1129 R10.0000
 X73.3778 Y27.0472 R10.0000
 X71.3121 Y25.4622 R10.0000
 X68.9065 Y24.4657 R10.0000
 X66.3250 Y24.1259 R10.0000
 X63.7435 Y24.4657 R10.0000
 X61.3379 Y25.4622 R10.0000
 X59.2722 Y27.0472 R10.0000
 X57.6872 Y29.1129 R10.0000
(Pass: 20)
G01 Z-4.000 F100 
(ramplimitarc end, translated to plunge)
G02 X56.6907 Y31.5185 R10.0000 F500 
 X56.3509 Y34.1000 R10.0000
 X56.6907 Y36.6815 R10.0000
 X57.6872 Y39.0871 R10.0000
 X59.2722 Y41.1528 R10.0000
 X61.3379 Y42.7378 R10.0000
 X63.7435 Y43.7343 R10.0000
 X66.3250 Y44.0741 R10.0000
 X68.9065 Y43.7343 R10.0000
 X71.3121 Y42.7378 R10.0000
 X73.3778 Y41.1528 R10.0000
 X74.9628 Y39.0871 R10.0000
 X75.9593 Y36.6815 R10.0000
 X76.2991 Y34.1000 R10.0000
 X75.9593 Y31.5185 R10.0000
 X74.9628 Y29.1129 R10.0000
 X73.3778 Y27.0472 R10.0000
 X71.3121 Y25.4622 R10.0000
 X68.9065 Y24.4657 R10.0000
 X66.3250 Y24.1259 R10.0000
 X63.7435 Y24.4657 R10.0000
 X61.3379 Y25.4622 R10.0000
 X59.2722 Y27.0472 R10.0000
 X57.6872 Y29.1129 R10.0000
(Pass: 21)
G01 Z-4.200 F100 
(ramplimitarc end, translated to plunge)
G02 X56.6907 Y31.5185 R10.0000 F500 
 X56.3509 Y34.1000 R10.0000
 X56.6907 Y36.6815 R10.0000
 X57.6872 Y39.0871 R10.0000
 X59.2722 Y41.1528 R10.0000
 X61.3379 Y42.7378 R10.0000
 X63.7435 Y43.7343 R10.0000
 X66.3250 Y44.0741 R10.0000
 X68.9065 Y43.7343 R10.0000
 X71.3121 Y42.7378 R10.0000
 X73.3778 Y41.1528 R10.0000
 X74.9628 Y39.0871 R10.0000
 X75.9593 Y36.6815 R10.0000
 X76.2991 Y34.1000 R10.0000
 X75.9593 Y31.5185 R10.0000
 X74.9628 Y29.1129 R10.0000
 X73.3778 Y27.0472 R10.0000
 X71.3121 Y25.4622 R10.0000
 X68.9065 Y24.4657 R10.0000
 X66.3250 Y24.1259 R10.0000
 X63.7435 Y24.4657 R10.0000
 X61.3379 Y25.4622 R10.0000
 X59.2722 Y27.0472 R10.0000
 X57.6872 Y29.1129 R10.0000
(Pass: 22)
G01 Z-4.400 F100 
(ramplimitarc end, translated to plunge)
G02 X56.6907 Y31.5185 R10.0000 F500 
 X56.3509 Y34.1000 R10.0000
 X56.6907 Y36.6815 R10.0000
 X57.6872 Y39.0871 R10.0000
 X59.2722 Y41.1528 R10.0000
 X61.3379 Y42.7378 R10.0000
 X63.7435 Y43.7343 R10.0000
 X66.3250 Y44.0741 R10.0000
 X68.9065 Y43.7343 R10.0000
 X71.3121 Y42.7378 R10.0000
 X73.3778 Y41.1528 R10.0000
 X74.9628 Y39.0871 R10.0000
 X75.9593 Y36.6815 R10.0000
 X76.2991 Y34.1000 R10.0000
 X75.9593 Y31.5185 R10.0000
 X74.9628 Y29.1129 R10.0000
 X73.3778 Y27.0472 R10.0000
 X71.3121 Y25.4622 R10.0000
 X68.9065 Y24.4657 R10.0000
 X66.3250 Y24.1259 R10.0000
 X63.7435 Y24.4657 R10.0000
 X61.3379 Y25.4622 R10.0000
 X59.2722 Y27.0472 R10.0000
 X57.6872 Y29.1129 R10.0000
(Pass: 23)
G01 Z-4.600 F100 
(ramplimitarc end, translated to plunge)
G02 X56.6907 Y31.5185 R10.0000 F500 
 X56.3509 Y34.1000 R10.0000
 X56.6907 Y36.6815 R10.0000
 X57.6872 Y39.0871 R10.0000
 X59.2722 Y41.1528 R10.0000
 X61.3379 Y42.7378 R10.0000
 X63.7435 Y43.7343 R10.0000
 X66.3250 Y44.0741 R10.0000
 X68.9065 Y43.7343 R10.0000
 X71.3121 Y42.7378 R10.0000
 X73.3778 Y41.1528 R10.0000
 X74.9628 Y39.0871 R10.0000
 X75.9593 Y36.6815 R10.0000
 X76.2991 Y34.1000 R10.0000
 X75.9593 Y31.5185 R10.0000
 X74.9628 Y29.1129 R10.0000
 X73.3778 Y27.0472 R10.0000
 X71.3121 Y25.4622 R10.0000
 X68.9065 Y24.4657 R10.0000
 X66.3250 Y24.1259 R10.0000
 X63.7435 Y24.4657 R10.0000
 X61.3379 Y25.4622 R10.0000
 X59.2722 Y27.0472 R10.0000
 X57.6872 Y29.1129 R10.0000
(Pass: 24)
G01 Z-4.800 F100 
(ramplimitarc end, translated to plunge)
G02 X56.6907 Y31.5185 R10.0000 F500 
 X56.3509 Y34.1000 R10.0000
 X56.6907 Y36.6815 R10.0000
 X57.6872 Y39.0871 R10.0000
 X59.2722 Y41.1528 R10.0000
 X61.3379 Y42.7378 R10.0000
 X63.7435 Y43.7343 R10.0000
 X66.3250 Y44.0741 R10.0000
 X68.9065 Y43.7343 R10.0000
 X71.3121 Y42.7378 R10.0000
 X73.3778 Y41.1528 R10.0000
 X74.9628 Y39.0871 R10.0000
 X75.9593 Y36.6815 R10.0000
 X76.2991 Y34.1000 R10.0000
 X75.9593 Y31.5185 R10.0000
 X74.9628 Y29.1129 R10.0000
 X73.3778 Y27.0472 R10.0000
 X71.3121 Y25.4622 R10.0000
 X68.9065 Y24.4657 R10.0000
 X66.3250 Y24.1259 R10.0000
 X63.7435 Y24.4657 R10.0000
 X61.3379 Y25.4622 R10.0000
 X59.2722 Y27.0472 R10.0000
 X57.6872 Y29.1129 R10.0000
(Pass: 25)
G01 Z-5.000 F100 
(ramplimitarc end, translated to plunge)
G02 X56.6907 Y31.5185 R10.0000 F500 
 X56.3509 Y34.1000 R10.0000
 X56.6907 Y36.6815 R10.0000
 X57.6872 Y39.0871 R10.0000
 X59.2722 Y41.1528 R10.0000
 X61.3379 Y42.7378 R10.0000
 X63.7435 Y43.7343 R10.0000
 X66.3250 Y44.0741 R10.0000
 X68.9065 Y43.7343 R10.0000
 X71.3121 Y42.7378 R10.0000
 X73.3778 Y41.1528 R10.0000
 X74.9628 Y39.0871 R10.0000
 X75.9593 Y36.6815 R10.0000
 X76.2991 Y34.1000 R10.0000
 X75.9593 Y31.5185 R10.0000
 X74.9628 Y29.1129 R10.0000
 X73.3778 Y27.0472 R10.0000
 X71.3121 Y25.4622 R10.0000
 X68.9065 Y24.4657 R10.0000
 X66.3250 Y24.1259 R10.0000
 X63.7435 Y24.4657 R10.0000
 X61.3379 Y25.4622 R10.0000
 X59.2722 Y27.0472 R10.0000
 X57.6872 Y29.1129 R10.0000
(Pass: 26)
G01 Z-5.200 F100 
(ramplimitarc end, translated to plunge)
G02 X56.6907 Y31.5185 R10.0000 F500 
 X56.3509 Y34.1000 R10.0000
 X56.6907 Y36.6815 R10.0000
 X57.6872 Y39.0871 R10.0000
 X59.2722 Y41.1528 R10.0000
 X61.3379 Y42.7378 R10.0000
 X63.7435 Y43.7343 R10.0000
 X66.3250 Y44.0741 R10.0000
 X68.9065 Y43.7343 R10.0000
 X71.3121 Y42.7378 R10.0000
 X73.3778 Y41.1528 R10.0000
 X74.9628 Y39.0871 R10.0000
 X75.9593 Y36.6815 R10.0000
 X76.2991 Y34.1000 R10.0000
 X75.9593 Y31.5185 R10.0000
 X74.9628 Y29.1129 R10.0000
 X73.3778 Y27.0472 R10.0000
 X71.3121 Y25.4622 R10.0000
 X68.9065 Y24.4657 R10.0000
 X66.3250 Y24.1259 R10.0000
 X63.7435 Y24.4657 R10.0000
 X61.3379 Y25.4622 R10.0000
 X59.2722 Y27.0472 R10.0000
 X57.6872 Y29.1129 R10.0000
(Pass: 27)
G01 Z-5.400 F100 
(ramplimitarc end, translated to plunge)
G02 X56.6907 Y31.5185 R10.0000 F500 
 X56.3509 Y34.1000 R10.0000
 X56.6907 Y36.6815 R10.0000
 X57.6872 Y39.0871 R10.0000
 X59.2722 Y41.1528 R10.0000
 X61.3379 Y42.7378 R10.0000
 X63.7435 Y43.7343 R10.0000
 X66.3250 Y44.0741 R10.0000
 X68.9065 Y43.7343 R10.0000
 X71.3121 Y42.7378 R10.0000
 X73.3778 Y41.1528 R10.0000
 X74.9628 Y39.0871 R10.0000
 X75.9593 Y36.6815 R10.0000
 X76.2991 Y34.1000 R10.0000
 X75.9593 Y31.5185 R10.0000
 X74.9628 Y29.1129 R10.0000
 X73.3778 Y27.0472 R10.0000
 X71.3121 Y25.4622 R10.0000
 X68.9065 Y24.4657 R10.0000
 X66.3250 Y24.1259 R10.0000
 X63.7435 Y24.4657 R10.0000
 X61.3379 Y25.4622 R10.0000
 X59.2722 Y27.0472 R10.0000
 X57.6872 Y29.1129 R10.0000
(Pass: 28)
G01 Z-5.600 F100 
(ramplimitarc end, translated to plunge)
G02 X56.6907 Y31.5185 R10.0000 F500 
 X56.3509 Y34.1000 R10.0000
 X56.6907 Y36.6815 R10.0000
 X57.6872 Y39.0871 R10.0000
 X59.2722 Y41.1528 R10.0000
 X61.3379 Y42.7378 R10.0000
 X63.7435 Y43.7343 R10.0000
 X66.3250 Y44.0741 R10.0000
 X68.9065 Y43.7343 R10.0000
 X71.3121 Y42.7378 R10.0000
 X73.3778 Y41.1528 R10.0000
 X74.9628 Y39.0871 R10.0000
 X75.9593 Y36.6815 R10.0000
 X76.2991 Y34.1000 R10.0000
 X75.9593 Y31.5185 R10.0000
 X74.9628 Y29.1129 R10.0000
 X73.3778 Y27.0472 R10.0000
 X71.3121 Y25.4622 R10.0000
 X68.9065 Y24.4657 R10.0000
 X66.3250 Y24.1259 R10.0000
 X63.7435 Y24.4657 R10.0000
 X61.3379 Y25.4622 R10.0000
 X59.2722 Y27.0472 R10.0000
 X57.6872 Y29.1129 R10.0000
(Pass: 29)
G01 Z-5.800 F100 
(ramplimitarc end, translated to plunge)
G02 X56.6907 Y31.5185 R10.0000 F500 
 X56.3509 Y34.1000 R10.0000
 X56.6907 Y36.6815 R10.0000
 X57.6872 Y39.0871 R10.0000
 X59.2722 Y41.1528 R10.0000
 X61.3379 Y42.7378 R10.0000
 X63.7435 Y43.7343 R10.0000
 X66.3250 Y44.0741 R10.0000
 X68.9065 Y43.7343 R10.0000
 X71.3121 Y42.7378 R10.0000
 X73.3778 Y41.1528 R10.0000
 X74.9628 Y39.0871 R10.0000
 X75.9593 Y36.6815 R10.0000
 X76.2991 Y34.1000 R10.0000
 X75.9593 Y31.5185 R10.0000
 X74.9628 Y29.1129 R10.0000
 X73.3778 Y27.0472 R10.0000
 X71.3121 Y25.4622 R10.0000
 X68.9065 Y24.4657 R10.0000
 X66.3250 Y24.1259 R10.0000
 X63.7435 Y24.4657 R10.0000
 X61.3379 Y25.4622 R10.0000
 X59.2722 Y27.0472 R10.0000
 X57.6872 Y29.1129 R10.0000
(Pass: 30)
G01 Z-6.000 F100 
(ramplimitarc end, translated to plunge)
G02 X56.6907 Y31.5185 R10.0000 F500 
 X56.3509 Y34.1000 R10.0000
 X56.6907 Y36.6815 R10.0000
 X57.6872 Y39.0871 R10.0000
 X59.2722 Y41.1528 R10.0000
 X61.3379 Y42.7378 R10.0000
 X63.7435 Y43.7343 R10.0000
 X66.3250 Y44.0741 R10.0000
 X68.9065 Y43.7343 R10.0000
 X71.3121 Y42.7378 R10.0000
 X73.3778 Y41.1528 R10.0000
 X74.9628 Y39.0871 R10.0000
 X75.9593 Y36.6815 R10.0000
 X76.2991 Y34.1000 R10.0000
 X75.9593 Y31.5185 R10.0000
 X74.9628 Y29.1129 R10.0000
 X73.3778 Y27.0472 R10.0000
 X71.3121 Y25.4622 R10.0000
 X68.9065 Y24.4657 R10.0000
 X66.3250 Y24.1259 R10.0000
 X63.7435 Y24.4657 R10.0000
 X61.3379 Y25.4622 R10.0000
 X59.2722 Y27.0472 R10.0000
 X57.6872 Y29.1129 R10.0000
(Pass: 31)
G01 Z-6.200 F100 
(ramplimitarc end, translated to plunge)
G02 X56.6907 Y31.5185 R10.0000 F500 
 X56.3509 Y34.1000 R10.0000
 X56.6907 Y36.6815 R10.0000
 X57.6872 Y39.0871 R10.0000
 X59.2722 Y41.1528 R10.0000
 X61.3379 Y42.7378 R10.0000
 X63.7435 Y43.7343 R10.0000
 X66.3250 Y44.0741 R10.0000
 X68.9065 Y43.7343 R10.0000
 X71.3121 Y42.7378 R10.0000
 X73.3778 Y41.1528 R10.0000
 X74.9628 Y39.0871 R10.0000
 X75.9593 Y36.6815 R10.0000
 X76.2991 Y34.1000 R10.0000
 X75.9593 Y31.5185 R10.0000
 X74.9628 Y29.1129 R10.0000
 X73.3778 Y27.0472 R10.0000
 X71.3121 Y25.4622 R10.0000
 X68.9065 Y24.4657 R10.0000
 X66.3250 Y24.1259 R10.0000
 X63.7435 Y24.4657 R10.0000
 X61.3379 Y25.4622 R10.0000
 X59.2722 Y27.0472 R10.0000
 X57.6872 Y29.1129 R10.0000
(Pass: 32)
G01 Z-6.400 F100 
(ramplimitarc end, translated to plunge)
G02 X56.6907 Y31.5185 R10.0000 F500 
 X56.3509 Y34.1000 R10.0000
 X56.6907 Y36.6815 R10.0000
 X57.6872 Y39.0871 R10.0000
 X59.2722 Y41.1528 R10.0000
 X61.3379 Y42.7378 R10.0000
 X63.7435 Y43.7343 R10.0000
 X66.3250 Y44.0741 R10.0000
 X68.9065 Y43.7343 R10.0000
 X71.3121 Y42.7378 R10.0000
 X73.3778 Y41.1528 R10.0000
 X74.9628 Y39.0871 R10.0000
 X75.9593 Y36.6815 R10.0000
 X76.2991 Y34.1000 R10.0000
 X75.9593 Y31.5185 R10.0000
 X74.9628 Y29.1129 R10.0000
 X73.3778 Y27.0472 R10.0000
 X71.3121 Y25.4622 R10.0000
 X68.9065 Y24.4657 R10.0000
 X66.3250 Y24.1259 R10.0000
 X63.7435 Y24.4657 R10.0000
 X61.3379 Y25.4622 R10.0000
 X59.2722 Y27.0472 R10.0000
 X57.6872 Y29.1129 R10.0000
(Pass: 33)
G01 Z-6.600 F100 
(ramplimitarc end, translated to plunge)
G02 X56.6907 Y31.5185 R10.0000 F500 
 X56.3509 Y34.1000 R10.0000
 X56.6907 Y36.6815 R10.0000
 X57.6872 Y39.0871 R10.0000
 X59.2722 Y41.1528 R10.0000
 X61.3379 Y42.7378 R10.0000
 X63.7435 Y43.7343 R10.0000
 X66.3250 Y44.0741 R10.0000
 X68.9065 Y43.7343 R10.0000
 X71.3121 Y42.7378 R10.0000
 X73.3778 Y41.1528 R10.0000
 X74.9628 Y39.0871 R10.0000
 X75.9593 Y36.6815 R10.0000
 X76.2991 Y34.1000 R10.0000
 X75.9593 Y31.5185 R10.0000
 X74.9628 Y29.1129 R10.0000
 X73.3778 Y27.0472 R10.0000
 X71.3121 Y25.4622 R10.0000
 X68.9065 Y24.4657 R10.0000
 X66.3250 Y24.1259 R10.0000
 X63.7435 Y24.4657 R10.0000
 X61.3379 Y25.4622 R10.0000
 X59.2722 Y27.0472 R10.0000
 X57.6872 Y29.1129 R10.0000
(Pass: 34)
G01 Z-6.800 F100 
(ramplimitarc end, translated to plunge)
G02 X56.6907 Y31.5185 R10.0000 F500 
 X56.3509 Y34.1000 R10.0000
 X56.6907 Y36.6815 R10.0000
 X57.6872 Y39.0871 R10.0000
 X59.2722 Y41.1528 R10.0000
 X61.3379 Y42.7378 R10.0000
 X63.7435 Y43.7343 R10.0000
 X66.3250 Y44.0741 R10.0000
 X68.9065 Y43.7343 R10.0000
 X71.3121 Y42.7378 R10.0000
 X73.3778 Y41.1528 R10.0000
 X74.9628 Y39.0871 R10.0000
 X75.9593 Y36.6815 R10.0000
 X76.2991 Y34.1000 R10.0000
 X75.9593 Y31.5185 R10.0000
 X74.9628 Y29.1129 R10.0000
 X73.3778 Y27.0472 R10.0000
 X71.3121 Y25.4622 R10.0000
 X68.9065 Y24.4657 R10.0000
 X66.3250 Y24.1259 R10.0000
 X63.7435 Y24.4657 R10.0000
 X61.3379 Y25.4622 R10.0000
 X59.2722 Y27.0472 R10.0000
 X57.6872 Y29.1129 R10.0000
(BREAK pass 34)
G00 Z10.000
(Pass: 1)
 X66.325 Y77.126
G00 Z0.200
G02 X56.2378 Y78.4539 Z0.0000 R39.0000 F100 
G03 X66.3250 Y77.1259 Z-0.2000 R39.0000
G02 X56.2378 Y78.4539 R39.0000 F500 
 X46.8379 Y82.3474 R39.0000
 X38.7661 Y88.5411 R39.0000
 X32.5724 Y96.6129 R39.0000
 X28.6789 Y106.0128 R39.0000
 X27.3509 Y116.1000 R39.0000
 X28.6789 Y126.1872 R39.0000
 X32.5724 Y135.5871 R39.0000
 X38.7661 Y143.6589 R39.0000
 X46.8379 Y149.8526 R39.0000
 X56.2378 Y153.7461 R39.0000
 X66.3250 Y155.0741 R39.0000
 X76.4122 Y153.7461 R39.0000
 X85.8121 Y149.8526 R39.0000
 X93.8839 Y143.6589 R39.0000
 X100.0776 Y135.5871 R39.0000
 X103.9711 Y126.1872 R39.0000
 X105.2991 Y116.1000 R39.0000
 X103.9711 Y106.0128 R39.0000
 X100.0776 Y96.6129 R39.0000
 X93.8839 Y88.5411 R39.0000
 X85.8121 Y82.3474 R39.0000
 X76.4122 Y78.4539 R39.0000
 X66.3250 Y77.1259 R39.0000
(Pass: 2)
G02 X56.2378 Y78.4539 Z-0.3000 R39.0000 F100 
G03 X66.3250 Y77.1259 Z-0.4000 R39.0000
G02 X56.2378 Y78.4539 R39.0000 F500 
 X46.8379 Y82.3474 R39.0000
 X38.7661 Y88.5411 R39.0000
 X32.5724 Y96.6129 R39.0000
 X28.6789 Y106.0128 R39.0000
 X27.3509 Y116.1000 R39.0000
 X28.6789 Y126.1872 R39.0000
 X32.5724 Y135.5871 R39.0000
 X38.7661 Y143.6589 R39.0000
 X46.8379 Y149.8526 R39.0000
 X56.2378 Y153.7461 R39.0000
 X66.3250 Y155.0741 R39.0000
 X76.4122 Y153.7461 R39.0000
 X85.8121 Y149.8526 R39.0000
 X93.8839 Y143.6589 R39.0000
 X100.0776 Y135.5871 R39.0000
 X103.9711 Y126.1872 R39.0000
 X105.2991 Y116.1000 R39.0000
 X103.9711 Y106.0128 R39.0000
 X100.0776 Y96.6129 R39.0000
 X93.8839 Y88.5411 R39.0000
 X85.8121 Y82.3474 R39.0000
 X76.4122 Y78.4539 R39.0000
 X66.3250 Y77.1259 R39.0000
(Pass: 3)
G02 X56.2378 Y78.4539 Z-0.5000 R39.0000 F100 
G03 X66.3250 Y77.1259 Z-0.6000 R39.0000
G02 X56.2378 Y78.4539 R39.0000 F500 
 X46.8379 Y82.3474 R39.0000
 X38.7661 Y88.5411 R39.0000
 X32.5724 Y96.6129 R39.0000
 X28.6789 Y106.0128 R39.0000
 X27.3509 Y116.1000 R39.0000
 X28.6789 Y126.1872 R39.0000
 X32.5724 Y135.5871 R39.0000
 X38.7661 Y143.6589 R39.0000
 X46.8379 Y149.8526 R39.0000
 X56.2378 Y153.7461 R39.0000
 X66.3250 Y155.0741 R39.0000
 X76.4122 Y153.7461 R39.0000
 X85.8121 Y149.8526 R39.0000
 X93.8839 Y143.6589 R39.0000
 X100.0776 Y135.5871 R39.0000
 X103.9711 Y126.1872 R39.0000
 X105.2991 Y116.1000 R39.0000
 X103.9711 Y106.0128 R39.0000
 X100.0776 Y96.6129 R39.0000
 X93.8839 Y88.5411 R39.0000
 X85.8121 Y82.3474 R39.0000
 X76.4122 Y78.4539 R39.0000
 X66.3250 Y77.1259 R39.0000
(Pass: 4)
G02 X56.2378 Y78.4539 Z-0.7000 R39.0000 F100 
G03 X66.3250 Y77.1259 Z-0.8000 R39.0000
G02 X56.2378 Y78.4539 R39.0000 F500 
 X46.8379 Y82.3474 R39.0000
 X38.7661 Y88.5411 R39.0000
 X32.5724 Y96.6129 R39.0000
 X28.6789 Y106.0128 R39.0000
 X27.3509 Y116.1000 R39.0000
 X28.6789 Y126.1872 R39.0000
 X32.5724 Y135.5871 R39.0000
 X38.7661 Y143.6589 R39.0000
 X46.8379 Y149.8526 R39.0000
 X56.2378 Y153.7461 R39.0000
 X66.3250 Y155.0741 R39.0000
 X76.4122 Y153.7461 R39.0000
 X85.8121 Y149.8526 R39.0000
 X93.8839 Y143.6589 R39.0000
 X100.0776 Y135.5871 R39.0000
 X103.9711 Y126.1872 R39.0000
 X105.2991 Y116.1000 R39.0000
 X103.9711 Y106.0128 R39.0000
 X100.0776 Y96.6129 R39.0000
 X93.8839 Y88.5411 R39.0000
 X85.8121 Y82.3474 R39.0000
 X76.4122 Y78.4539 R39.0000
 X66.3250 Y77.1259 R39.0000
(Pass: 5)
G02 X56.2378 Y78.4539 Z-0.9000 R39.0000 F100 
G03 X66.3250 Y77.1259 Z-1.0000 R39.0000
G02 X56.2378 Y78.4539 R39.0000 F500 
 X46.8379 Y82.3474 R39.0000
 X38.7661 Y88.5411 R39.0000
 X32.5724 Y96.6129 R39.0000
 X28.6789 Y106.0128 R39.0000
 X27.3509 Y116.1000 R39.0000
 X28.6789 Y126.1872 R39.0000
 X32.5724 Y135.5871 R39.0000
 X38.7661 Y143.6589 R39.0000
 X46.8379 Y149.8526 R39.0000
 X56.2378 Y153.7461 R39.0000
 X66.3250 Y155.0741 R39.0000
 X76.4122 Y153.7461 R39.0000
 X85.8121 Y149.8526 R39.0000
 X93.8839 Y143.6589 R39.0000
 X100.0776 Y135.5871 R39.0000
 X103.9711 Y126.1872 R39.0000
 X105.2991 Y116.1000 R39.0000
 X103.9711 Y106.0128 R39.0000
 X100.0776 Y96.6129 R39.0000
 X93.8839 Y88.5411 R39.0000
 X85.8121 Y82.3474 R39.0000
 X76.4122 Y78.4539 R39.0000
 X66.3250 Y77.1259 R39.0000
(Pass: 6)
G02 X56.2378 Y78.4539 Z-1.1000 R39.0000 F100 
G03 X66.3250 Y77.1259 Z-1.2000 R39.0000
G02 X56.2378 Y78.4539 R39.0000 F500 
 X46.8379 Y82.3474 R39.0000
 X38.7661 Y88.5411 R39.0000
 X32.5724 Y96.6129 R39.0000
 X28.6789 Y106.0128 R39.0000
 X27.3509 Y116.1000 R39.0000
 X28.6789 Y126.1872 R39.0000
 X32.5724 Y135.5871 R39.0000
 X38.7661 Y143.6589 R39.0000
 X46.8379 Y149.8526 R39.0000
 X56.2378 Y153.7461 R39.0000
 X66.3250 Y155.0741 R39.0000
 X76.4122 Y153.7461 R39.0000
 X85.8121 Y149.8526 R39.0000
 X93.8839 Y143.6589 R39.0000
 X100.0776 Y135.5871 R39.0000
 X103.9711 Y126.1872 R39.0000
 X105.2991 Y116.1000 R39.0000
 X103.9711 Y106.0128 R39.0000
 X100.0776 Y96.6129 R39.0000
 X93.8839 Y88.5411 R39.0000
 X85.8121 Y82.3474 R39.0000
 X76.4122 Y78.4539 R39.0000
 X66.3250 Y77.1259 R39.0000
(Pass: 7)
G02 X56.2378 Y78.4539 Z-1.3000 R39.0000 F100 
G03 X66.3250 Y77.1259 Z-1.4000 R39.0000
G02 X56.2378 Y78.4539 R39.0000 F500 
 X46.8379 Y82.3474 R39.0000
 X38.7661 Y88.5411 R39.0000
 X32.5724 Y96.6129 R39.0000
 X28.6789 Y106.0128 R39.0000
 X27.3509 Y116.1000 R39.0000
 X28.6789 Y126.1872 R39.0000
 X32.5724 Y135.5871 R39.0000
 X38.7661 Y143.6589 R39.0000
 X46.8379 Y149.8526 R39.0000
 X56.2378 Y153.7461 R39.0000
 X66.3250 Y155.0741 R39.0000
 X76.4122 Y153.7461 R39.0000
 X85.8121 Y149.8526 R39.0000
 X93.8839 Y143.6589 R39.0000
 X100.0776 Y135.5871 R39.0000
 X103.9711 Y126.1872 R39.0000
 X105.2991 Y116.1000 R39.0000
 X103.9711 Y106.0128 R39.0000
 X100.0776 Y96.6129 R39.0000
 X93.8839 Y88.5411 R39.0000
 X85.8121 Y82.3474 R39.0000
 X76.4122 Y78.4539 R39.0000
 X66.3250 Y77.1259 R39.0000
(Pass: 8)
G02 X56.2378 Y78.4539 Z-1.5000 R39.0000 F100 
G03 X66.3250 Y77.1259 Z-1.6000 R39.0000
G02 X56.2378 Y78.4539 R39.0000 F500 
 X46.8379 Y82.3474 R39.0000
 X38.7661 Y88.5411 R39.0000
 X32.5724 Y96.6129 R39.0000
 X28.6789 Y106.0128 R39.0000
 X27.3509 Y116.1000 R39.0000
 X28.6789 Y126.1872 R39.0000
 X32.5724 Y135.5871 R39.0000
 X38.7661 Y143.6589 R39.0000
 X46.8379 Y149.8526 R39.0000
 X56.2378 Y153.7461 R39.0000
 X66.3250 Y155.0741 R39.0000
 X76.4122 Y153.7461 R39.0000
 X85.8121 Y149.8526 R39.0000
 X93.8839 Y143.6589 R39.0000
 X100.0776 Y135.5871 R39.0000
 X103.9711 Y126.1872 R39.0000
 X105.2991 Y116.1000 R39.0000
 X103.9711 Y106.0128 R39.0000
 X100.0776 Y96.6129 R39.0000
 X93.8839 Y88.5411 R39.0000
 X85.8121 Y82.3474 R39.0000
 X76.4122 Y78.4539 R39.0000
 X66.3250 Y77.1259 R39.0000
(Pass: 9)
G02 X56.2378 Y78.4539 Z-1.7000 R39.0000 F100 
G03 X66.3250 Y77.1259 Z-1.8000 R39.0000
G02 X56.2378 Y78.4539 R39.0000 F500 
 X46.8379 Y82.3474 R39.0000
 X38.7661 Y88.5411 R39.0000
 X32.5724 Y96.6129 R39.0000
 X28.6789 Y106.0128 R39.0000
 X27.3509 Y116.1000 R39.0000
 X28.6789 Y126.1872 R39.0000
 X32.5724 Y135.5871 R39.0000
 X38.7661 Y143.6589 R39.0000
 X46.8379 Y149.8526 R39.0000
 X56.2378 Y153.7461 R39.0000
 X66.3250 Y155.0741 R39.0000
 X76.4122 Y153.7461 R39.0000
 X85.8121 Y149.8526 R39.0000
 X93.8839 Y143.6589 R39.0000
 X100.0776 Y135.5871 R39.0000
 X103.9711 Y126.1872 R39.0000
 X105.2991 Y116.1000 R39.0000
 X103.9711 Y106.0128 R39.0000
 X100.0776 Y96.6129 R39.0000
 X93.8839 Y88.5411 R39.0000
 X85.8121 Y82.3474 R39.0000
 X76.4122 Y78.4539 R39.0000
 X66.3250 Y77.1259 R39.0000
(Pass: 10)
G02 X56.2378 Y78.4539 Z-1.9000 R39.0000 F100 
G03 X66.3250 Y77.1259 Z-2.0000 R39.0000
G02 X56.2378 Y78.4539 R39.0000 F500 
 X46.8379 Y82.3474 R39.0000
 X38.7661 Y88.5411 R39.0000
 X32.5724 Y96.6129 R39.0000
 X28.6789 Y106.0128 R39.0000
 X27.3509 Y116.1000 R39.0000
 X28.6789 Y126.1872 R39.0000
 X32.5724 Y135.5871 R39.0000
 X38.7661 Y143.6589 R39.0000
 X46.8379 Y149.8526 R39.0000
 X56.2378 Y153.7461 R39.0000
 X66.3250 Y155.0741 R39.0000
 X76.4122 Y153.7461 R39.0000
 X85.8121 Y149.8526 R39.0000
 X93.8839 Y143.6589 R39.0000
 X100.0776 Y135.5871 R39.0000
 X103.9711 Y126.1872 R39.0000
 X105.2991 Y116.1000 R39.0000
 X103.9711 Y106.0128 R39.0000
 X100.0776 Y96.6129 R39.0000
 X93.8839 Y88.5411 R39.0000
 X85.8121 Y82.3474 R39.0000
 X76.4122 Y78.4539 R39.0000
 X66.3250 Y77.1259 R39.0000
(Pass: 11)
G02 X56.2378 Y78.4539 Z-2.1000 R39.0000 F100 
G03 X66.3250 Y77.1259 Z-2.2000 R39.0000
G02 X56.2378 Y78.4539 R39.0000 F500 
 X46.8379 Y82.3474 R39.0000
 X38.7661 Y88.5411 R39.0000
 X32.5724 Y96.6129 R39.0000
 X28.6789 Y106.0128 R39.0000
 X27.3509 Y116.1000 R39.0000
 X28.6789 Y126.1872 R39.0000
 X32.5724 Y135.5871 R39.0000
 X38.7661 Y143.6589 R39.0000
 X46.8379 Y149.8526 R39.0000
 X56.2378 Y153.7461 R39.0000
 X66.3250 Y155.0741 R39.0000
 X76.4122 Y153.7461 R39.0000
 X85.8121 Y149.8526 R39.0000
 X93.8839 Y143.6589 R39.0000
 X100.0776 Y135.5871 R39.0000
 X103.9711 Y126.1872 R39.0000
 X105.2991 Y116.1000 R39.0000
 X103.9711 Y106.0128 R39.0000
 X100.0776 Y96.6129 R39.0000
 X93.8839 Y88.5411 R39.0000
 X85.8121 Y82.3474 R39.0000
 X76.4122 Y78.4539 R39.0000
 X66.3250 Y77.1259 R39.0000
(Pass: 12)
G02 X56.2378 Y78.4539 Z-2.3000 R39.0000 F100 
G03 X66.3250 Y77.1259 Z-2.4000 R39.0000
G02 X56.2378 Y78.4539 R39.0000 F500 
 X46.8379 Y82.3474 R39.0000
 X38.7661 Y88.5411 R39.0000
 X32.5724 Y96.6129 R39.0000
 X28.6789 Y106.0128 R39.0000
 X27.3509 Y116.1000 R39.0000
 X28.6789 Y126.1872 R39.0000
 X32.5724 Y135.5871 R39.0000
 X38.7661 Y143.6589 R39.0000
 X46.8379 Y149.8526 R39.0000
 X56.2378 Y153.7461 R39.0000
 X66.3250 Y155.0741 R39.0000
 X76.4122 Y153.7461 R39.0000
 X85.8121 Y149.8526 R39.0000
 X93.8839 Y143.6589 R39.0000
 X100.0776 Y135.5871 R39.0000
 X103.9711 Y126.1872 R39.0000
 X105.2991 Y116.1000 R39.0000
 X103.9711 Y106.0128 R39.0000
 X100.0776 Y96.6129 R39.0000
 X93.8839 Y88.5411 R39.0000
 X85.8121 Y82.3474 R39.0000
 X76.4122 Y78.4539 R39.0000
 X66.3250 Y77.1259 R39.0000
(Pass: 13)
G02 X56.2378 Y78.4539 Z-2.5000 R39.0000 F100 
G03 X66.3250 Y77.1259 Z-2.6000 R39.0000
G02 X56.2378 Y78.4539 R39.0000 F500 
 X46.8379 Y82.3474 R39.0000
 X38.7661 Y88.5411 R39.0000
 X32.5724 Y96.6129 R39.0000
 X28.6789 Y106.0128 R39.0000
 X27.3509 Y116.1000 R39.0000
 X28.6789 Y126.1872 R39.0000
 X32.5724 Y135.5871 R39.0000
 X38.7661 Y143.6589 R39.0000
 X46.8379 Y149.8526 R39.0000
 X56.2378 Y153.7461 R39.0000
 X66.3250 Y155.0741 R39.0000
 X76.4122 Y153.7461 R39.0000
 X85.8121 Y149.8526 R39.0000
 X93.8839 Y143.6589 R39.0000
 X100.0776 Y135.5871 R39.0000
 X103.9711 Y126.1872 R39.0000
 X105.2991 Y116.1000 R39.0000
 X103.9711 Y106.0128 R39.0000
 X100.0776 Y96.6129 R39.0000
 X93.8839 Y88.5411 R39.0000
 X85.8121 Y82.3474 R39.0000
 X76.4122 Y78.4539 R39.0000
 X66.3250 Y77.1259 R39.0000
(Pass: 14)
G02 X56.2378 Y78.4539 Z-2.7000 R39.0000 F100 
G03 X66.3250 Y77.1259 Z-2.8000 R39.0000
G02 X56.2378 Y78.4539 R39.0000 F500 
 X46.8379 Y82.3474 R39.0000
 X38.7661 Y88.5411 R39.0000
 X32.5724 Y96.6129 R39.0000
 X28.6789 Y106.0128 R39.0000
 X27.3509 Y116.1000 R39.0000
 X28.6789 Y126.1872 R39.0000
 X32.5724 Y135.5871 R39.0000
 X38.7661 Y143.6589 R39.0000
 X46.8379 Y149.8526 R39.0000
 X56.2378 Y153.7461 R39.0000
 X66.3250 Y155.0741 R39.0000
 X76.4122 Y153.7461 R39.0000
 X85.8121 Y149.8526 R39.0000
 X93.8839 Y143.6589 R39.0000
 X100.0776 Y135.5871 R39.0000
 X103.9711 Y126.1872 R39.0000
 X105.2991 Y116.1000 R39.0000
 X103.9711 Y106.0128 R39.0000
 X100.0776 Y96.6129 R39.0000
 X93.8839 Y88.5411 R39.0000
 X85.8121 Y82.3474 R39.0000
 X76.4122 Y78.4539 R39.0000
 X66.3250 Y77.1259 R39.0000
(Pass: 15)
G02 X56.2378 Y78.4539 Z-2.9000 R39.0000 F100 
G03 X66.3250 Y77.1259 Z-3.0000 R39.0000
G02 X56.2378 Y78.4539 R39.0000 F500 
 X46.8379 Y82.3474 R39.0000
 X38.7661 Y88.5411 R39.0000
 X32.5724 Y96.6129 R39.0000
 X28.6789 Y106.0128 R39.0000
 X27.3509 Y116.1000 R39.0000
 X28.6789 Y126.1872 R39.0000
 X32.5724 Y135.5871 R39.0000
 X38.7661 Y143.6589 R39.0000
 X46.8379 Y149.8526 R39.0000
 X56.2378 Y153.7461 R39.0000
 X66.3250 Y155.0741 R39.0000
 X76.4122 Y153.7461 R39.0000
 X85.8121 Y149.8526 R39.0000
 X93.8839 Y143.6589 R39.0000
 X100.0776 Y135.5871 R39.0000
 X103.9711 Y126.1872 R39.0000
 X105.2991 Y116.1000 R39.0000
 X103.9711 Y106.0128 R39.0000
 X100.0776 Y96.6129 R39.0000
 X93.8839 Y88.5411 R39.0000
 X85.8121 Y82.3474 R39.0000
 X76.4122 Y78.4539 R39.0000
 X66.3250 Y77.1259 R39.0000
(Pass: 16)
G02 X56.2378 Y78.4539 Z-3.1000 R39.0000 F100 
G03 X66.3250 Y77.1259 Z-3.2000 R39.0000
G02 X56.2378 Y78.4539 R39.0000 F500 
 X46.8379 Y82.3474 R39.0000
 X38.7661 Y88.5411 R39.0000
 X32.5724 Y96.6129 R39.0000
 X28.6789 Y106.0128 R39.0000
 X27.3509 Y116.1000 R39.0000
 X28.6789 Y126.1872 R39.0000
 X32.5724 Y135.5871 R39.0000
 X38.7661 Y143.6589 R39.0000
 X46.8379 Y149.8526 R39.0000
 X56.2378 Y153.7461 R39.0000
 X66.3250 Y155.0741 R39.0000
 X76.4122 Y153.7461 R39.0000
 X85.8121 Y149.8526 R39.0000
 X93.8839 Y143.6589 R39.0000
 X100.0776 Y135.5871 R39.0000
 X103.9711 Y126.1872 R39.0000
 X105.2991 Y116.1000 R39.0000
 X103.9711 Y106.0128 R39.0000
 X100.0776 Y96.6129 R39.0000
 X93.8839 Y88.5411 R39.0000
 X85.8121 Y82.3474 R39.0000
 X76.4122 Y78.4539 R39.0000
 X66.3250 Y77.1259 R39.0000
(Pass: 17)
G02 X56.2378 Y78.4539 Z-3.3000 R39.0000 F100 
G03 X66.3250 Y77.1259 Z-3.4000 R39.0000
G02 X56.2378 Y78.4539 R39.0000 F500 
 X46.8379 Y82.3474 R39.0000
 X38.7661 Y88.5411 R39.0000
 X32.5724 Y96.6129 R39.0000
 X28.6789 Y106.0128 R39.0000
 X27.3509 Y116.1000 R39.0000
 X28.6789 Y126.1872 R39.0000
 X32.5724 Y135.5871 R39.0000
 X38.7661 Y143.6589 R39.0000
 X46.8379 Y149.8526 R39.0000
 X56.2378 Y153.7461 R39.0000
 X66.3250 Y155.0741 R39.0000
 X76.4122 Y153.7461 R39.0000
 X85.8121 Y149.8526 R39.0000
 X93.8839 Y143.6589 R39.0000
 X100.0776 Y135.5871 R39.0000
 X103.9711 Y126.1872 R39.0000
 X105.2991 Y116.1000 R39.0000
 X103.9711 Y106.0128 R39.0000
 X100.0776 Y96.6129 R39.0000
 X93.8839 Y88.5411 R39.0000
 X85.8121 Y82.3474 R39.0000
 X76.4122 Y78.4539 R39.0000
 X66.3250 Y77.1259 R39.0000
(Pass: 18)
G02 X56.2378 Y78.4539 Z-3.5000 R39.0000 F100 
G03 X66.3250 Y77.1259 Z-3.6000 R39.0000
G02 X56.2378 Y78.4539 R39.0000 F500 
 X46.8379 Y82.3474 R39.0000
 X38.7661 Y88.5411 R39.0000
 X32.5724 Y96.6129 R39.0000
 X28.6789 Y106.0128 R39.0000
 X27.3509 Y116.1000 R39.0000
 X28.6789 Y126.1872 R39.0000
 X32.5724 Y135.5871 R39.0000
 X38.7661 Y143.6589 R39.0000
 X46.8379 Y149.8526 R39.0000
 X56.2378 Y153.7461 R39.0000
 X66.3250 Y155.0741 R39.0000
 X76.4122 Y153.7461 R39.0000
 X85.8121 Y149.8526 R39.0000
 X93.8839 Y143.6589 R39.0000
 X100.0776 Y135.5871 R39.0000
 X103.9711 Y126.1872 R39.0000
 X105.2991 Y116.1000 R39.0000
 X103.9711 Y106.0128 R39.0000
 X100.0776 Y96.6129 R39.0000
 X93.8839 Y88.5411 R39.0000
 X85.8121 Y82.3474 R39.0000
 X76.4122 Y78.4539 R39.0000
 X66.3250 Y77.1259 R39.0000
(Pass: 19)
G02 X56.2378 Y78.4539 Z-3.7000 R39.0000 F100 
G03 X66.3250 Y77.1259 Z-3.8000 R39.0000
G02 X56.2378 Y78.4539 R39.0000 F500 
 X46.8379 Y82.3474 R39.0000
 X38.7661 Y88.5411 R39.0000
 X32.5724 Y96.6129 R39.0000
 X28.6789 Y106.0128 R39.0000
 X27.3509 Y116.1000 R39.0000
 X28.6789 Y126.1872 R39.0000
 X32.5724 Y135.5871 R39.0000
 X38.7661 Y143.6589 R39.0000
 X46.8379 Y149.8526 R39.0000
 X56.2378 Y153.7461 R39.0000
 X66.3250 Y155.0741 R39.0000
 X76.4122 Y153.7461 R39.0000
 X85.8121 Y149.8526 R39.0000
 X93.8839 Y143.6589 R39.0000
 X100.0776 Y135.5871 R39.0000
 X103.9711 Y126.1872 R39.0000
 X105.2991 Y116.1000 R39.0000
 X103.9711 Y106.0128 R39.0000
 X100.0776 Y96.6129 R39.0000
 X93.8839 Y88.5411 R39.0000
 X85.8121 Y82.3474 R39.0000
 X76.4122 Y78.4539 R39.0000
 X66.3250 Y77.1259 R39.0000
(Pass: 20)
G02 X56.2378 Y78.4539 Z-3.9000 R39.0000 F100 
G03 X66.3250 Y77.1259 Z-4.0000 R39.0000
G02 X56.2378 Y78.4539 R39.0000 F500 
 X46.8379 Y82.3474 R39.0000
 X38.7661 Y88.5411 R39.0000
 X32.5724 Y96.6129 R39.0000
 X28.6789 Y106.0128 R39.0000
 X27.3509 Y116.1000 R39.0000
 X28.6789 Y126.1872 R39.0000
 X32.5724 Y135.5871 R39.0000
 X38.7661 Y143.6589 R39.0000
 X46.8379 Y149.8526 R39.0000
 X56.2378 Y153.7461 R39.0000
 X66.3250 Y155.0741 R39.0000
 X76.4122 Y153.7461 R39.0000
 X85.8121 Y149.8526 R39.0000
 X93.8839 Y143.6589 R39.0000
 X100.0776 Y135.5871 R39.0000
 X103.9711 Y126.1872 R39.0000
 X105.2991 Y116.1000 R39.0000
 X103.9711 Y106.0128 R39.0000
 X100.0776 Y96.6129 R39.0000
 X93.8839 Y88.5411 R39.0000
 X85.8121 Y82.3474 R39.0000
 X76.4122 Y78.4539 R39.0000
 X66.3250 Y77.1259 R39.0000
(Pass: 21)
G02 X56.2378 Y78.4539 Z-4.1000 R39.0000 F100 
G03 X66.3250 Y77.1259 Z-4.2000 R39.0000
G02 X56.2378 Y78.4539 R39.0000 F500 
 X46.8379 Y82.3474 R39.0000
 X38.7661 Y88.5411 R39.0000
 X32.5724 Y96.6129 R39.0000
 X28.6789 Y106.0128 R39.0000
 X27.3509 Y116.1000 R39.0000
 X28.6789 Y126.1872 R39.0000
 X32.5724 Y135.5871 R39.0000
 X38.7661 Y143.6589 R39.0000
 X46.8379 Y149.8526 R39.0000
 X56.2378 Y153.7461 R39.0000
 X66.3250 Y155.0741 R39.0000
 X76.4122 Y153.7461 R39.0000
 X85.8121 Y149.8526 R39.0000
 X93.8839 Y143.6589 R39.0000
 X100.0776 Y135.5871 R39.0000
 X103.9711 Y126.1872 R39.0000
 X105.2991 Y116.1000 R39.0000
 X103.9711 Y106.0128 R39.0000
 X100.0776 Y96.6129 R39.0000
 X93.8839 Y88.5411 R39.0000
 X85.8121 Y82.3474 R39.0000
 X76.4122 Y78.4539 R39.0000
 X66.3250 Y77.1259 R39.0000
(Pass: 22)
G02 X56.2378 Y78.4539 Z-4.3000 R39.0000 F100 
G03 X66.3250 Y77.1259 Z-4.4000 R39.0000
G02 X56.2378 Y78.4539 R39.0000 F500 
 X46.8379 Y82.3474 R39.0000
 X38.7661 Y88.5411 R39.0000
 X32.5724 Y96.6129 R39.0000
 X28.6789 Y106.0128 R39.0000
 X27.3509 Y116.1000 R39.0000
 X28.6789 Y126.1872 R39.0000
 X32.5724 Y135.5871 R39.0000
 X38.7661 Y143.6589 R39.0000
 X46.8379 Y149.8526 R39.0000
 X56.2378 Y153.7461 R39.0000
 X66.3250 Y155.0741 R39.0000
 X76.4122 Y153.7461 R39.0000
 X85.8121 Y149.8526 R39.0000
 X93.8839 Y143.6589 R39.0000
 X100.0776 Y135.5871 R39.0000
 X103.9711 Y126.1872 R39.0000
 X105.2991 Y116.1000 R39.0000
 X103.9711 Y106.0128 R39.0000
 X100.0776 Y96.6129 R39.0000
 X93.8839 Y88.5411 R39.0000
 X85.8121 Y82.3474 R39.0000
 X76.4122 Y78.4539 R39.0000
 X66.3250 Y77.1259 R39.0000
(Pass: 23)
G02 X56.2378 Y78.4539 Z-4.5000 R39.0000 F100 
G03 X66.3250 Y77.1259 Z-4.6000 R39.0000
G02 X56.2378 Y78.4539 R39.0000 F500 
 X46.8379 Y82.3474 R39.0000
 X38.7661 Y88.5411 R39.0000
 X32.5724 Y96.6129 R39.0000
 X28.6789 Y106.0128 R39.0000
 X27.3509 Y116.1000 R39.0000
 X28.6789 Y126.1872 R39.0000
 X32.5724 Y135.5871 R39.0000
 X38.7661 Y143.6589 R39.0000
 X46.8379 Y149.8526 R39.0000
 X56.2378 Y153.7461 R39.0000
 X66.3250 Y155.0741 R39.0000
 X76.4122 Y153.7461 R39.0000
 X85.8121 Y149.8526 R39.0000
 X93.8839 Y143.6589 R39.0000
 X100.0776 Y135.5871 R39.0000
 X103.9711 Y126.1872 R39.0000
 X105.2991 Y116.1000 R39.0000
 X103.9711 Y106.0128 R39.0000
 X100.0776 Y96.6129 R39.0000
 X93.8839 Y88.5411 R39.0000
 X85.8121 Y82.3474 R39.0000
 X76.4122 Y78.4539 R39.0000
 X66.3250 Y77.1259 R39.0000
(Pass: 24)
G02 X56.2378 Y78.4539 Z-4.7000 R39.0000 F100 
G03 X66.3250 Y77.1259 Z-4.8000 R39.0000
G02 X56.2378 Y78.4539 R39.0000 F500 
 X46.8379 Y82.3474 R39.0000
 X38.7661 Y88.5411 R39.0000
 X32.5724 Y96.6129 R39.0000
 X28.6789 Y106.0128 R39.0000
 X27.3509 Y116.1000 R39.0000
 X28.6789 Y126.1872 R39.0000
 X32.5724 Y135.5871 R39.0000
 X38.7661 Y143.6589 R39.0000
 X46.8379 Y149.8526 R39.0000
 X56.2378 Y153.7461 R39.0000
 X66.3250 Y155.0741 R39.0000
 X76.4122 Y153.7461 R39.0000
 X85.8121 Y149.8526 R39.0000
 X93.8839 Y143.6589 R39.0000
 X100.0776 Y135.5871 R39.0000
 X103.9711 Y126.1872 R39.0000
 X105.2991 Y116.1000 R39.0000
 X103.9711 Y106.0128 R39.0000
 X100.0776 Y96.6129 R39.0000
 X93.8839 Y88.5411 R39.0000
 X85.8121 Y82.3474 R39.0000
 X76.4122 Y78.4539 R39.0000
 X66.3250 Y77.1259 R39.0000
(Pass: 25)
G02 X56.2378 Y78.4539 Z-4.9000 R39.0000 F100 
G03 X66.3250 Y77.1259 Z-5.0000 R39.0000
G02 X56.2378 Y78.4539 R39.0000 F500 
 X46.8379 Y82.3474 R39.0000
 X38.7661 Y88.5411 R39.0000
 X32.5724 Y96.6129 R39.0000
 X28.6789 Y106.0128 R39.0000
 X27.3509 Y116.1000 R39.0000
 X28.6789 Y126.1872 R39.0000
 X32.5724 Y135.5871 R39.0000
 X38.7661 Y143.6589 R39.0000
 X46.8379 Y149.8526 R39.0000
 X56.2378 Y153.7461 R39.0000
 X66.3250 Y155.0741 R39.0000
 X76.4122 Y153.7461 R39.0000
 X85.8121 Y149.8526 R39.0000
 X93.8839 Y143.6589 R39.0000
 X100.0776 Y135.5871 R39.0000
 X103.9711 Y126.1872 R39.0000
 X105.2991 Y116.1000 R39.0000
 X103.9711 Y106.0128 R39.0000
 X100.0776 Y96.6129 R39.0000
 X93.8839 Y88.5411 R39.0000
 X85.8121 Y82.3474 R39.0000
 X76.4122 Y78.4539 R39.0000
 X66.3250 Y77.1259 R39.0000
(Pass: 26)
G02 X56.2378 Y78.4539 Z-5.1000 R39.0000 F100 
G03 X66.3250 Y77.1259 Z-5.2000 R39.0000
G02 X56.2378 Y78.4539 R39.0000 F500 
 X46.8379 Y82.3474 R39.0000
 X38.7661 Y88.5411 R39.0000
 X32.5724 Y96.6129 R39.0000
 X28.6789 Y106.0128 R39.0000
 X27.3509 Y116.1000 R39.0000
 X28.6789 Y126.1872 R39.0000
 X32.5724 Y135.5871 R39.0000
 X38.7661 Y143.6589 R39.0000
 X46.8379 Y149.8526 R39.0000
 X56.2378 Y153.7461 R39.0000
 X66.3250 Y155.0741 R39.0000
 X76.4122 Y153.7461 R39.0000
 X85.8121 Y149.8526 R39.0000
 X93.8839 Y143.6589 R39.0000
 X100.0776 Y135.5871 R39.0000
 X103.9711 Y126.1872 R39.0000
 X105.2991 Y116.1000 R39.0000
 X103.9711 Y106.0128 R39.0000
 X100.0776 Y96.6129 R39.0000
 X93.8839 Y88.5411 R39.0000
 X85.8121 Y82.3474 R39.0000
 X76.4122 Y78.4539 R39.0000
 X66.3250 Y77.1259 R39.0000
(Pass: 27)
G02 X56.2378 Y78.4539 Z-5.3000 R39.0000 F100 
G03 X66.3250 Y77.1259 Z-5.4000 R39.0000
G02 X56.2378 Y78.4539 R39.0000 F500 
 X46.8379 Y82.3474 R39.0000
 X38.7661 Y88.5411 R39.0000
 X32.5724 Y96.6129 R39.0000
 X28.6789 Y106.0128 R39.0000
 X27.3509 Y116.1000 R39.0000
 X28.6789 Y126.1872 R39.0000
 X32.5724 Y135.5871 R39.0000
 X38.7661 Y143.6589 R39.0000
 X46.8379 Y149.8526 R39.0000
 X56.2378 Y153.7461 R39.0000
 X66.3250 Y155.0741 R39.0000
 X76.4122 Y153.7461 R39.0000
 X85.8121 Y149.8526 R39.0000
 X93.8839 Y143.6589 R39.0000
 X100.0776 Y135.5871 R39.0000
 X103.9711 Y126.1872 R39.0000
 X105.2991 Y116.1000 R39.0000
 X103.9711 Y106.0128 R39.0000
 X100.0776 Y96.6129 R39.0000
 X93.8839 Y88.5411 R39.0000
 X85.8121 Y82.3474 R39.0000
 X76.4122 Y78.4539 R39.0000
 X66.3250 Y77.1259 R39.0000
(Pass: 28)
G02 X56.2378 Y78.4539 Z-5.5000 R39.0000 F100 
G03 X66.3250 Y77.1259 Z-5.6000 R39.0000
G02 X56.2378 Y78.4539 R39.0000 F500 
 X46.8379 Y82.3474 R39.0000
 X38.7661 Y88.5411 R39.0000
 X32.5724 Y96.6129 R39.0000
 X28.6789 Y106.0128 R39.0000
 X27.3509 Y116.1000 R39.0000
 X28.6789 Y126.1872 R39.0000
 X32.5724 Y135.5871 R39.0000
 X38.7661 Y143.6589 R39.0000
 X46.8379 Y149.8526 R39.0000
 X56.2378 Y153.7461 R39.0000
 X66.3250 Y155.0741 R39.0000
 X76.4122 Y153.7461 R39.0000
 X85.8121 Y149.8526 R39.0000
 X93.8839 Y143.6589 R39.0000
 X100.0776 Y135.5871 R39.0000
 X103.9711 Y126.1872 R39.0000
 X105.2991 Y116.1000 R39.0000
 X103.9711 Y106.0128 R39.0000
 X100.0776 Y96.6129 R39.0000
 X93.8839 Y88.5411 R39.0000
 X85.8121 Y82.3474 R39.0000
 X76.4122 Y78.4539 R39.0000
 X66.3250 Y77.1259 R39.0000
(Pass: 29)
G02 X56.2378 Y78.4539 Z-5.7000 R39.0000 F100 
G03 X66.3250 Y77.1259 Z-5.8000 R39.0000
G02 X56.2378 Y78.4539 R39.0000 F500 
 X46.8379 Y82.3474 R39.0000
 X38.7661 Y88.5411 R39.0000
 X32.5724 Y96.6129 R39.0000
 X28.6789 Y106.0128 R39.0000
 X27.3509 Y116.1000 R39.0000
 X28.6789 Y126.1872 R39.0000
 X32.5724 Y135.5871 R39.0000
 X38.7661 Y143.6589 R39.0000
 X46.8379 Y149.8526 R39.0000
 X56.2378 Y153.7461 R39.0000
 X66.3250 Y155.0741 R39.0000
 X76.4122 Y153.7461 R39.0000
 X85.8121 Y149.8526 R39.0000
 X93.8839 Y143.6589 R39.0000
 X100.0776 Y135.5871 R39.0000
 X103.9711 Y126.1872 R39.0000
 X105.2991 Y116.1000 R39.0000
 X103.9711 Y106.0128 R39.0000
 X100.0776 Y96.6129 R39.0000
 X93.8839 Y88.5411 R39.0000
 X85.8121 Y82.3474 R39.0000
 X76.4122 Y78.4539 R39.0000
 X66.3250 Y77.1259 R39.0000
(Pass: 30)
G02 X56.2378 Y78.4539 Z-5.9000 R39.0000 F100 
G03 X66.3250 Y77.1259 Z-6.0000 R39.0000
G02 X56.2378 Y78.4539 R39.0000 F500 
 X46.8379 Y82.3474 R39.0000
 X38.7661 Y88.5411 R39.0000
 X32.5724 Y96.6129 R39.0000
 X28.6789 Y106.0128 R39.0000
 X27.3509 Y116.1000 R39.0000
 X28.6789 Y126.1872 R39.0000
 X32.5724 Y135.5871 R39.0000
 X38.7661 Y143.6589 R39.0000
 X46.8379 Y149.8526 R39.0000
 X56.2378 Y153.7461 R39.0000
 X66.3250 Y155.0741 R39.0000
 X76.4122 Y153.7461 R39.0000
 X85.8121 Y149.8526 R39.0000
 X93.8839 Y143.6589 R39.0000
 X100.0776 Y135.5871 R39.0000
 X103.9711 Y126.1872 R39.0000
 X105.2991 Y116.1000 R39.0000
 X103.9711 Y106.0128 R39.0000
 X100.0776 Y96.6129 R39.0000
 X93.8839 Y88.5411 R39.0000
 X85.8121 Y82.3474 R39.0000
 X76.4122 Y78.4539 R39.0000
 X66.3250 Y77.1259 R39.0000
(Pass: 31)
G02 X56.2378 Y78.4539 Z-6.1000 R39.0000 F100 
G03 X66.3250 Y77.1259 Z-6.2000 R39.0000
G02 X56.2378 Y78.4539 R39.0000 F500 
 X46.8379 Y82.3474 R39.0000
 X38.7661 Y88.5411 R39.0000
 X32.5724 Y96.6129 R39.0000
 X28.6789 Y106.0128 R39.0000
 X27.3509 Y116.1000 R39.0000
 X28.6789 Y126.1872 R39.0000
 X32.5724 Y135.5871 R39.0000
 X38.7661 Y143.6589 R39.0000
 X46.8379 Y149.8526 R39.0000
 X56.2378 Y153.7461 R39.0000
 X66.3250 Y155.0741 R39.0000
 X76.4122 Y153.7461 R39.0000
 X85.8121 Y149.8526 R39.0000
 X93.8839 Y143.6589 R39.0000
 X100.0776 Y135.5871 R39.0000
 X103.9711 Y126.1872 R39.0000
 X105.2991 Y116.1000 R39.0000
 X103.9711 Y106.0128 R39.0000
 X100.0776 Y96.6129 R39.0000
 X93.8839 Y88.5411 R39.0000
 X85.8121 Y82.3474 R39.0000
 X76.4122 Y78.4539 R39.0000
 X66.3250 Y77.1259 R39.0000
(Pass: 32)
G02 X56.2378 Y78.4539 Z-6.3000 R39.0000 F100 
G03 X66.3250 Y77.1259 Z-6.4000 R39.0000
G02 X56.2378 Y78.4539 R39.0000 F500 
 X46.8379 Y82.3474 R39.0000
 X38.7661 Y88.5411 R39.0000
 X32.5724 Y96.6129 R39.0000
 X28.6789 Y106.0128 R39.0000
 X27.3509 Y116.1000 R39.0000
 X28.6789 Y126.1872 R39.0000
 X32.5724 Y135.5871 R39.0000
 X38.7661 Y143.6589 R39.0000
 X46.8379 Y149.8526 R39.0000
 X56.2378 Y153.7461 R39.0000
 X66.3250 Y155.0741 R39.0000
 X76.4122 Y153.7461 R39.0000
 X85.8121 Y149.8526 R39.0000
 X93.8839 Y143.6589 R39.0000
 X100.0776 Y135.5871 R39.0000
 X103.9711 Y126.1872 R39.0000
 X105.2991 Y116.1000 R39.0000
 X103.9711 Y106.0128 R39.0000
 X100.0776 Y96.6129 R39.0000
 X93.8839 Y88.5411 R39.0000
 X85.8121 Y82.3474 R39.0000
 X76.4122 Y78.4539 R39.0000
 X66.3250 Y77.1259 R39.0000
(Pass: 33)
G02 X56.2378 Y78.4539 Z-6.5000 R39.0000 F100 
G03 X66.3250 Y77.1259 Z-6.6000 R39.0000
G02 X56.2378 Y78.4539 R39.0000 F500 
 X46.8379 Y82.3474 R39.0000
 X38.7661 Y88.5411 R39.0000
 X32.5724 Y96.6129 R39.0000
 X28.6789 Y106.0128 R39.0000
 X27.3509 Y116.1000 R39.0000
 X28.6789 Y126.1872 R39.0000
 X32.5724 Y135.5871 R39.0000
 X38.7661 Y143.6589 R39.0000
 X46.8379 Y149.8526 R39.0000
 X56.2378 Y153.7461 R39.0000
 X66.3250 Y155.0741 R39.0000
 X76.4122 Y153.7461 R39.0000
 X85.8121 Y149.8526 R39.0000
 X93.8839 Y143.6589 R39.0000
 X100.0776 Y135.5871 R39.0000
 X103.9711 Y126.1872 R39.0000
 X105.2991 Y116.1000 R39.0000
 X103.9711 Y106.0128 R39.0000
 X100.0776 Y96.6129 R39.0000
 X93.8839 Y88.5411 R39.0000
 X85.8121 Y82.3474 R39.0000
 X76.4122 Y78.4539 R39.0000
 X66.3250 Y77.1259 R39.0000
(Pass: 34)
G02 X56.2378 Y78.4539 Z-6.7000 R39.0000 F100 
G03 X66.3250 Y77.1259 Z-6.8000 R39.0000
G02 X56.2378 Y78.4539 R39.0000 F500 
 X46.8379 Y82.3474 R39.0000
 X38.7661 Y88.5411 R39.0000
 X32.5724 Y96.6129 R39.0000
 X28.6789 Y106.0128 R39.0000
 X27.3509 Y116.1000 R39.0000
 X28.6789 Y126.1872 R39.0000
 X32.5724 Y135.5871 R39.0000
 X38.7661 Y143.6589 R39.0000
 X46.8379 Y149.8526 R39.0000
 X56.2378 Y153.7461 R39.0000
 X66.3250 Y155.0741 R39.0000
 X76.4122 Y153.7461 R39.0000
 X85.8121 Y149.8526 R39.0000
 X93.8839 Y143.6589 R39.0000
 X100.0776 Y135.5871 R39.0000
 X103.9711 Y126.1872 R39.0000
 X105.2991 Y116.1000 R39.0000
 X103.9711 Y106.0128 R39.0000
 X100.0776 Y96.6129 R39.0000
 X93.8839 Y88.5411 R39.0000
 X85.8121 Y82.3474 R39.0000
 X76.4122 Y78.4539 R39.0000
 X66.3250 Y77.1259 R39.0000
(BREAK pass 34)
G00 Z10.000
(Pass: 1)
 X100.950 Y65.485
G00 Z0.200
G02 X102.3998 Y69.7547 Z0.0000 R91.3274 F100 
G03 X100.9499 Y65.4849 Z-0.2000 R91.3274
G02 X102.3998 Y69.7547 R91.3274 F500 
 X104.0732 Y73.9420 R91.3274
 X105.9655 Y78.0349 R91.3274
 X108.0714 Y82.0222 R91.3274
 X109.5524 Y84.5000 R91.3274
G01 X125.650
 Y115.971
 Y129.971
 Y173.050
 X7.000
 Y129.647
 Y115.647
 Y84.500
 X19.232
G02 X21.0111 Y81.9424 R93.1170
 X23.4369 Y78.0295 R93.1170
 X25.6526 Y73.9940 R93.1170
 X27.6520 Y69.8470 R93.1170
 X29.4295 Y65.6002 R93.1170
 X30.9802 Y61.2654 R93.1170
 X32.2997 Y56.8547 R93.1170
 X33.3844 Y52.3805 R93.1170
 X34.2312 Y47.8552 R93.1170
 X34.8377 Y43.2916 R93.1170
 X35.2023 Y38.7022 R93.1170
 X35.3302 Y33.8639 R93.1170
G03 X36.3563 Y26.0699 R31.0000
 X39.4558 Y18.5871 R31.0000
 X44.3864 Y12.1614 R31.0000
 X50.8121 Y7.2308 R31.0000
 X58.2949 Y4.1313 R31.0000
 X66.3250 Y3.0741 R31.0000
 X74.3551 Y4.1313 R31.0000
 X81.8379 Y7.2308 R31.0000
 X88.2636 Y12.1614 R31.0000
 X93.1942 Y18.5871 R31.0000
 X96.2937 Y26.0699 R31.0000
 X97.3334 Y33.9671 R31.0000
G02 X97.1268 Y38.8122 R91.3274
 X97.1729 Y43.3212 R91.3274
 X97.4572 Y47.8215 R91.3274
 X97.9788 Y52.3004 R91.3274
 X98.7363 Y56.7456 R91.3274
 X99.7276 Y61.1445 R91.3274
 X100.9499 Y65.4849 R91.3274
(Pass: 2)
G02 X102.3998 Y69.7547 Z-0.3000 R91.3274 F100 
G03 X100.9499 Y65.4849 Z-0.4000 R91.3274
G02 X102.3998 Y69.7547 R91.3274 F500 
 X104.0732 Y73.9420 R91.3274
 X105.9655 Y78.0349 R91.3274
 X108.0714 Y82.0222 R91.3274
 X109.5524 Y84.5000 R91.3274
G01 X125.650
 Y115.971
 Y129.971
 Y173.050
 X7.000
 Y129.647
 Y115.647
 Y84.500
 X19.232
G02 X21.0111 Y81.9424 R93.1170
 X23.4369 Y78.0295 R93.1170
 X25.6526 Y73.9940 R93.1170
 X27.6520 Y69.8470 R93.1170
 X29.4295 Y65.6002 R93.1170
 X30.9802 Y61.2654 R93.1170
 X32.2997 Y56.8547 R93.1170
 X33.3844 Y52.3805 R93.1170
 X34.2312 Y47.8552 R93.1170
 X34.8377 Y43.2916 R93.1170
 X35.2023 Y38.7022 R93.1170
 X35.3302 Y33.8639 R93.1170
G03 X36.3563 Y26.0699 R31.0000
 X39.4558 Y18.5871 R31.0000
 X44.3864 Y12.1614 R31.0000
 X50.8121 Y7.2308 R31.0000
 X58.2949 Y4.1313 R31.0000
 X66.3250 Y3.0741 R31.0000
 X74.3551 Y4.1313 R31.0000
 X81.8379 Y7.2308 R31.0000
 X88.2636 Y12.1614 R31.0000
 X93.1942 Y18.5871 R31.0000
 X96.2937 Y26.0699 R31.0000
 X97.3334 Y33.9671 R31.0000
G02 X97.1268 Y38.8122 R91.3274
 X97.1729 Y43.3212 R91.3274
 X97.4572 Y47.8215 R91.3274
 X97.9788 Y52.3004 R91.3274
 X98.7363 Y56.7456 R91.3274
 X99.7276 Y61.1445 R91.3274
 X100.9499 Y65.4849 R91.3274
(Pass: 3)
G02 X102.3998 Y69.7547 Z-0.5000 R91.3274 F100 
G03 X100.9499 Y65.4849 Z-0.6000 R91.3274
G02 X102.3998 Y69.7547 R91.3274 F500 
 X104.0732 Y73.9420 R91.3274
 X105.9655 Y78.0349 R91.3274
 X108.0714 Y82.0222 R91.3274
 X109.5524 Y84.5000 R91.3274
G01 X125.650
 Y115.971
 Y129.971
 Y173.050
 X7.000
 Y129.647
 Y115.647
 Y84.500
 X19.232
G02 X21.0111 Y81.9424 R93.1170
 X23.4369 Y78.0295 R93.1170
 X25.6526 Y73.9940 R93.1170
 X27.6520 Y69.8470 R93.1170
 X29.4295 Y65.6002 R93.1170
 X30.9802 Y61.2654 R93.1170
 X32.2997 Y56.8547 R93.1170
 X33.3844 Y52.3805 R93.1170
 X34.2312 Y47.8552 R93.1170
 X34.8377 Y43.2916 R93.1170
 X35.2023 Y38.7022 R93.1170
 X35.3302 Y33.8639 R93.1170
G03 X36.3563 Y26.0699 R31.0000
 X39.4558 Y18.5871 R31.0000
 X44.3864 Y12.1614 R31.0000
 X50.8121 Y7.2308 R31.0000
 X58.2949 Y4.1313 R31.0000
 X66.3250 Y3.0741 R31.0000
 X74.3551 Y4.1313 R31.0000
 X81.8379 Y7.2308 R31.0000
 X88.2636 Y12.1614 R31.0000
 X93.1942 Y18.5871 R31.0000
 X96.2937 Y26.0699 R31.0000
 X97.3334 Y33.9671 R31.0000
G02 X97.1268 Y38.8122 R91.3274
 X97.1729 Y43.3212 R91.3274
 X97.4572 Y47.8215 R91.3274
 X97.9788 Y52.3004 R91.3274
 X98.7363 Y56.7456 R91.3274
 X99.7276 Y61.1445 R91.3274
 X100.9499 Y65.4849 R91.3274
(Pass: 4)
G02 X102.3998 Y69.7547 Z-0.7000 R91.3274 F100 
G03 X100.9499 Y65.4849 Z-0.8000 R91.3274
G02 X102.3998 Y69.7547 R91.3274 F500 
 X104.0732 Y73.9420 R91.3274
 X105.9655 Y78.0349 R91.3274
 X108.0714 Y82.0222 R91.3274
 X109.5524 Y84.5000 R91.3274
G01 X125.650
 Y115.971
 Y129.971
 Y173.050
 X7.000
 Y129.647
 Y115.647
 Y84.500
 X19.232
G02 X21.0111 Y81.9424 R93.1170
 X23.4369 Y78.0295 R93.1170
 X25.6526 Y73.9940 R93.1170
 X27.6520 Y69.8470 R93.1170
 X29.4295 Y65.6002 R93.1170
 X30.9802 Y61.2654 R93.1170
 X32.2997 Y56.8547 R93.1170
 X33.3844 Y52.3805 R93.1170
 X34.2312 Y47.8552 R93.1170
 X34.8377 Y43.2916 R93.1170
 X35.2023 Y38.7022 R93.1170
 X35.3302 Y33.8639 R93.1170
G03 X36.3563 Y26.0699 R31.0000
 X39.4558 Y18.5871 R31.0000
 X44.3864 Y12.1614 R31.0000
 X50.8121 Y7.2308 R31.0000
 X58.2949 Y4.1313 R31.0000
 X66.3250 Y3.0741 R31.0000
 X74.3551 Y4.1313 R31.0000
 X81.8379 Y7.2308 R31.0000
 X88.2636 Y12.1614 R31.0000
 X93.1942 Y18.5871 R31.0000
 X96.2937 Y26.0699 R31.0000
 X97.3334 Y33.9671 R31.0000
G02 X97.1268 Y38.8122 R91.3274
 X97.1729 Y43.3212 R91.3274
 X97.4572 Y47.8215 R91.3274
 X97.9788 Y52.3004 R91.3274
 X98.7363 Y56.7456 R91.3274
 X99.7276 Y61.1445 R91.3274
 X100.9499 Y65.4849 R91.3274
(Pass: 5)
G02 X102.3998 Y69.7547 Z-0.9000 R91.3274 F100 
G03 X100.9499 Y65.4849 Z-1.0000 R91.3274
G02 X102.3998 Y69.7547 R91.3274 F500 
 X104.0732 Y73.9420 R91.3274
 X105.9655 Y78.0349 R91.3274
 X108.0714 Y82.0222 R91.3274
 X109.5524 Y84.5000 R91.3274
G01 X125.650
 Y115.971
 Y129.971
 Y173.050
 X7.000
 Y129.647
 Y115.647
 Y84.500
 X19.232
G02 X21.0111 Y81.9424 R93.1170
 X23.4369 Y78.0295 R93.1170
 X25.6526 Y73.9940 R93.1170
 X27.6520 Y69.8470 R93.1170
 X29.4295 Y65.6002 R93.1170
 X30.9802 Y61.2654 R93.1170
 X32.2997 Y56.8547 R93.1170
 X33.3844 Y52.3805 R93.1170
 X34.2312 Y47.8552 R93.1170
 X34.8377 Y43.2916 R93.1170
 X35.2023 Y38.7022 R93.1170
 X35.3302 Y33.8639 R93.1170
G03 X36.3563 Y26.0699 R31.0000
 X39.4558 Y18.5871 R31.0000
 X44.3864 Y12.1614 R31.0000
 X50.8121 Y7.2308 R31.0000
 X58.2949 Y4.1313 R31.0000
 X66.3250 Y3.0741 R31.0000
 X74.3551 Y4.1313 R31.0000
 X81.8379 Y7.2308 R31.0000
 X88.2636 Y12.1614 R31.0000
 X93.1942 Y18.5871 R31.0000
 X96.2937 Y26.0699 R31.0000
 X97.3334 Y33.9671 R31.0000
G02 X97.1268 Y38.8122 R91.3274
 X97.1729 Y43.3212 R91.3274
 X97.4572 Y47.8215 R91.3274
 X97.9788 Y52.3004 R91.3274
 X98.7363 Y56.7456 R91.3274
 X99.7276 Y61.1445 R91.3274
 X100.9499 Y65.4849 R91.3274
(Pass: 6)
G02 X102.3998 Y69.7547 Z-1.1000 R91.3274 F100 
G03 X100.9499 Y65.4849 Z-1.2000 R91.3274
G02 X102.3998 Y69.7547 R91.3274 F500 
 X104.0732 Y73.9420 R91.3274
 X105.9655 Y78.0349 R91.3274
 X108.0714 Y82.0222 R91.3274
 X109.5524 Y84.5000 R91.3274
G01 X125.650
 Y115.971
 Y129.971
 Y173.050
 X7.000
 Y129.647
 Y115.647
 Y84.500
 X19.232
G02 X21.0111 Y81.9424 R93.1170
 X23.4369 Y78.0295 R93.1170
 X25.6526 Y73.9940 R93.1170
 X27.6520 Y69.8470 R93.1170
 X29.4295 Y65.6002 R93.1170
 X30.9802 Y61.2654 R93.1170
 X32.2997 Y56.8547 R93.1170
 X33.3844 Y52.3805 R93.1170
 X34.2312 Y47.8552 R93.1170
 X34.8377 Y43.2916 R93.1170
 X35.2023 Y38.7022 R93.1170
 X35.3302 Y33.8639 R93.1170
G03 X36.3563 Y26.0699 R31.0000
 X39.4558 Y18.5871 R31.0000
 X44.3864 Y12.1614 R31.0000
 X50.8121 Y7.2308 R31.0000
 X58.2949 Y4.1313 R31.0000
 X66.3250 Y3.0741 R31.0000
 X74.3551 Y4.1313 R31.0000
 X81.8379 Y7.2308 R31.0000
 X88.2636 Y12.1614 R31.0000
 X93.1942 Y18.5871 R31.0000
 X96.2937 Y26.0699 R31.0000
 X97.3334 Y33.9671 R31.0000
G02 X97.1268 Y38.8122 R91.3274
 X97.1729 Y43.3212 R91.3274
 X97.4572 Y47.8215 R91.3274
 X97.9788 Y52.3004 R91.3274
 X98.7363 Y56.7456 R91.3274
 X99.7276 Y61.1445 R91.3274
 X100.9499 Y65.4849 R91.3274
(Pass: 7)
G02 X102.3998 Y69.7547 Z-1.3000 R91.3274 F100 
G03 X100.9499 Y65.4849 Z-1.4000 R91.3274
G02 X102.3998 Y69.7547 R91.3274 F500 
 X104.0732 Y73.9420 R91.3274
 X105.9655 Y78.0349 R91.3274
 X108.0714 Y82.0222 R91.3274
 X109.5524 Y84.5000 R91.3274
G01 X125.650
 Y115.971
 Y129.971
 Y173.050
 X7.000
 Y129.647
 Y115.647
 Y84.500
 X19.232
G02 X21.0111 Y81.9424 R93.1170
 X23.4369 Y78.0295 R93.1170
 X25.6526 Y73.9940 R93.1170
 X27.6520 Y69.8470 R93.1170
 X29.4295 Y65.6002 R93.1170
 X30.9802 Y61.2654 R93.1170
 X32.2997 Y56.8547 R93.1170
 X33.3844 Y52.3805 R93.1170
 X34.2312 Y47.8552 R93.1170
 X34.8377 Y43.2916 R93.1170
 X35.2023 Y38.7022 R93.1170
 X35.3302 Y33.8639 R93.1170
G03 X36.3563 Y26.0699 R31.0000
 X39.4558 Y18.5871 R31.0000
 X44.3864 Y12.1614 R31.0000
 X50.8121 Y7.2308 R31.0000
 X58.2949 Y4.1313 R31.0000
 X66.3250 Y3.0741 R31.0000
 X74.3551 Y4.1313 R31.0000
 X81.8379 Y7.2308 R31.0000
 X88.2636 Y12.1614 R31.0000
 X93.1942 Y18.5871 R31.0000
 X96.2937 Y26.0699 R31.0000
 X97.3334 Y33.9671 R31.0000
G02 X97.1268 Y38.8122 R91.3274
 X97.1729 Y43.3212 R91.3274
 X97.4572 Y47.8215 R91.3274
 X97.9788 Y52.3004 R91.3274
 X98.7363 Y56.7456 R91.3274
 X99.7276 Y61.1445 R91.3274
 X100.9499 Y65.4849 R91.3274
(Pass: 8)
G02 X102.3998 Y69.7547 Z-1.5000 R91.3274 F100 
G03 X100.9499 Y65.4849 Z-1.6000 R91.3274
G02 X102.3998 Y69.7547 R91.3274 F500 
 X104.0732 Y73.9420 R91.3274
 X105.9655 Y78.0349 R91.3274
 X108.0714 Y82.0222 R91.3274
 X109.5524 Y84.5000 R91.3274
G01 X125.650
 Y115.971
 Y129.971
 Y173.050
 X7.000
 Y129.647
 Y115.647
 Y84.500
 X19.232
G02 X21.0111 Y81.9424 R93.1170
 X23.4369 Y78.0295 R93.1170
 X25.6526 Y73.9940 R93.1170
 X27.6520 Y69.8470 R93.1170
 X29.4295 Y65.6002 R93.1170
 X30.9802 Y61.2654 R93.1170
 X32.2997 Y56.8547 R93.1170
 X33.3844 Y52.3805 R93.1170
 X34.2312 Y47.8552 R93.1170
 X34.8377 Y43.2916 R93.1170
 X35.2023 Y38.7022 R93.1170
 X35.3302 Y33.8639 R93.1170
G03 X36.3563 Y26.0699 R31.0000
 X39.4558 Y18.5871 R31.0000
 X44.3864 Y12.1614 R31.0000
 X50.8121 Y7.2308 R31.0000
 X58.2949 Y4.1313 R31.0000
 X66.3250 Y3.0741 R31.0000
 X74.3551 Y4.1313 R31.0000
 X81.8379 Y7.2308 R31.0000
 X88.2636 Y12.1614 R31.0000
 X93.1942 Y18.5871 R31.0000
 X96.2937 Y26.0699 R31.0000
 X97.3334 Y33.9671 R31.0000
G02 X97.1268 Y38.8122 R91.3274
 X97.1729 Y43.3212 R91.3274
 X97.4572 Y47.8215 R91.3274
 X97.9788 Y52.3004 R91.3274
 X98.7363 Y56.7456 R91.3274
 X99.7276 Y61.1445 R91.3274
 X100.9499 Y65.4849 R91.3274
(Pass: 9)
G02 X102.3998 Y69.7547 Z-1.7000 R91.3274 F100 
G03 X100.9499 Y65.4849 Z-1.8000 R91.3274
G02 X102.3998 Y69.7547 R91.3274 F500 
 X104.0732 Y73.9420 R91.3274
 X105.9655 Y78.0349 R91.3274
 X108.0714 Y82.0222 R91.3274
 X109.5524 Y84.5000 R91.3274
G01 X125.650
 Y115.971
 Y129.971
 Y173.050
 X7.000
 Y129.647
 Y115.647
 Y84.500
 X19.232
G02 X21.0111 Y81.9424 R93.1170
 X23.4369 Y78.0295 R93.1170
 X25.6526 Y73.9940 R93.1170
 X27.6520 Y69.8470 R93.1170
 X29.4295 Y65.6002 R93.1170
 X30.9802 Y61.2654 R93.1170
 X32.2997 Y56.8547 R93.1170
 X33.3844 Y52.3805 R93.1170
 X34.2312 Y47.8552 R93.1170
 X34.8377 Y43.2916 R93.1170
 X35.2023 Y38.7022 R93.1170
 X35.3302 Y33.8639 R93.1170
G03 X36.3563 Y26.0699 R31.0000
 X39.4558 Y18.5871 R31.0000
 X44.3864 Y12.1614 R31.0000
 X50.8121 Y7.2308 R31.0000
 X58.2949 Y4.1313 R31.0000
 X66.3250 Y3.0741 R31.0000
 X74.3551 Y4.1313 R31.0000
 X81.8379 Y7.2308 R31.0000
 X88.2636 Y12.1614 R31.0000
 X93.1942 Y18.5871 R31.0000
 X96.2937 Y26.0699 R31.0000
 X97.3334 Y33.9671 R31.0000
G02 X97.1268 Y38.8122 R91.3274
 X97.1729 Y43.3212 R91.3274
 X97.4572 Y47.8215 R91.3274
 X97.9788 Y52.3004 R91.3274
 X98.7363 Y56.7456 R91.3274
 X99.7276 Y61.1445 R91.3274
 X100.9499 Y65.4849 R91.3274
(Pass: 10)
G02 X102.3998 Y69.7547 Z-1.9000 R91.3274 F100 
G03 X100.9499 Y65.4849 Z-2.0000 R91.3274
G02 X102.3998 Y69.7547 R91.3274 F500 
 X104.0732 Y73.9420 R91.3274
 X105.9655 Y78.0349 R91.3274
 X108.0714 Y82.0222 R91.3274
 X109.5524 Y84.5000 R91.3274
G01 X125.650
 Y115.971
 Y129.971
 Y173.050
 X7.000
 Y129.647
 Y115.647
 Y84.500
 X19.232
G02 X21.0111 Y81.9424 R93.1170
 X23.4369 Y78.0295 R93.1170
 X25.6526 Y73.9940 R93.1170
 X27.6520 Y69.8470 R93.1170
 X29.4295 Y65.6002 R93.1170
 X30.9802 Y61.2654 R93.1170
 X32.2997 Y56.8547 R93.1170
 X33.3844 Y52.3805 R93.1170
 X34.2312 Y47.8552 R93.1170
 X34.8377 Y43.2916 R93.1170
 X35.2023 Y38.7022 R93.1170
 X35.3302 Y33.8639 R93.1170
G03 X36.3563 Y26.0699 R31.0000
 X39.4558 Y18.5871 R31.0000
 X44.3864 Y12.1614 R31.0000
 X50.8121 Y7.2308 R31.0000
 X58.2949 Y4.1313 R31.0000
 X66.3250 Y3.0741 R31.0000
 X74.3551 Y4.1313 R31.0000
 X81.8379 Y7.2308 R31.0000
 X88.2636 Y12.1614 R31.0000
 X93.1942 Y18.5871 R31.0000
 X96.2937 Y26.0699 R31.0000
 X97.3334 Y33.9671 R31.0000
G02 X97.1268 Y38.8122 R91.3274
 X97.1729 Y43.3212 R91.3274
 X97.4572 Y47.8215 R91.3274
 X97.9788 Y52.3004 R91.3274
 X98.7363 Y56.7456 R91.3274
 X99.7276 Y61.1445 R91.3274
 X100.9499 Y65.4849 R91.3274
(Pass: 11)
G02 X102.3998 Y69.7547 Z-2.1000 R91.3274 F100 
G03 X100.9499 Y65.4849 Z-2.2000 R91.3274
G02 X102.3998 Y69.7547 R91.3274 F500 
 X104.0732 Y73.9420 R91.3274
 X105.9655 Y78.0349 R91.3274
 X108.0714 Y82.0222 R91.3274
 X109.5524 Y84.5000 R91.3274
G01 X125.650
 Y115.971
 Y129.971
 Y173.050
 X7.000
 Y129.647
 Y115.647
 Y84.500
 X19.232
G02 X21.0111 Y81.9424 R93.1170
 X23.4369 Y78.0295 R93.1170
 X25.6526 Y73.9940 R93.1170
 X27.6520 Y69.8470 R93.1170
 X29.4295 Y65.6002 R93.1170
 X30.9802 Y61.2654 R93.1170
 X32.2997 Y56.8547 R93.1170
 X33.3844 Y52.3805 R93.1170
 X34.2312 Y47.8552 R93.1170
 X34.8377 Y43.2916 R93.1170
 X35.2023 Y38.7022 R93.1170
 X35.3302 Y33.8639 R93.1170
G03 X36.3563 Y26.0699 R31.0000
 X39.4558 Y18.5871 R31.0000
 X44.3864 Y12.1614 R31.0000
 X50.8121 Y7.2308 R31.0000
 X58.2949 Y4.1313 R31.0000
 X66.3250 Y3.0741 R31.0000
 X74.3551 Y4.1313 R31.0000
 X81.8379 Y7.2308 R31.0000
 X88.2636 Y12.1614 R31.0000
 X93.1942 Y18.5871 R31.0000
 X96.2937 Y26.0699 R31.0000
 X97.3334 Y33.9671 R31.0000
G02 X97.1268 Y38.8122 R91.3274
 X97.1729 Y43.3212 R91.3274
 X97.4572 Y47.8215 R91.3274
 X97.9788 Y52.3004 R91.3274
 X98.7363 Y56.7456 R91.3274
 X99.7276 Y61.1445 R91.3274
 X100.9499 Y65.4849 R91.3274
(Pass: 12)
G02 X102.3998 Y69.7547 Z-2.3000 R91.3274 F100 
G03 X100.9499 Y65.4849 Z-2.4000 R91.3274
G02 X102.3998 Y69.7547 R91.3274 F500 
 X104.0732 Y73.9420 R91.3274
 X105.9655 Y78.0349 R91.3274
 X108.0714 Y82.0222 R91.3274
 X109.5524 Y84.5000 R91.3274
G01 X125.650
 Y115.971
 Y129.971
 Y173.050
 X7.000
 Y129.647
 Y115.647
 Y84.500
 X19.232
G02 X21.0111 Y81.9424 R93.1170
 X23.4369 Y78.0295 R93.1170
 X25.6526 Y73.9940 R93.1170
 X27.6520 Y69.8470 R93.1170
 X29.4295 Y65.6002 R93.1170
 X30.9802 Y61.2654 R93.1170
 X32.2997 Y56.8547 R93.1170
 X33.3844 Y52.3805 R93.1170
 X34.2312 Y47.8552 R93.1170
 X34.8377 Y43.2916 R93.1170
 X35.2023 Y38.7022 R93.1170
 X35.3302 Y33.8639 R93.1170
G03 X36.3563 Y26.0699 R31.0000
 X39.4558 Y18.5871 R31.0000
 X44.3864 Y12.1614 R31.0000
 X50.8121 Y7.2308 R31.0000
 X58.2949 Y4.1313 R31.0000
 X66.3250 Y3.0741 R31.0000
 X74.3551 Y4.1313 R31.0000
 X81.8379 Y7.2308 R31.0000
 X88.2636 Y12.1614 R31.0000
 X93.1942 Y18.5871 R31.0000
 X96.2937 Y26.0699 R31.0000
 X97.3334 Y33.9671 R31.0000
G02 X97.1268 Y38.8122 R91.3274
 X97.1729 Y43.3212 R91.3274
 X97.4572 Y47.8215 R91.3274
 X97.9788 Y52.3004 R91.3274
 X98.7363 Y56.7456 R91.3274
 X99.7276 Y61.1445 R91.3274
 X100.9499 Y65.4849 R91.3274
(Pass: 13)
G02 X102.3998 Y69.7547 Z-2.5000 R91.3274 F100 
G03 X100.9499 Y65.4849 Z-2.6000 R91.3274
G02 X102.3998 Y69.7547 R91.3274 F500 
 X104.0732 Y73.9420 R91.3274
 X105.9655 Y78.0349 R91.3274
 X108.0714 Y82.0222 R91.3274
 X109.5524 Y84.5000 R91.3274
G01 X125.650
 Y115.971
 Y129.971
 Y173.050
 X7.000
 Y129.647
 Y115.647
 Y84.500
 X19.232
G02 X21.0111 Y81.9424 R93.1170
 X23.4369 Y78.0295 R93.1170
 X25.6526 Y73.9940 R93.1170
 X27.6520 Y69.8470 R93.1170
 X29.4295 Y65.6002 R93.1170
 X30.9802 Y61.2654 R93.1170
 X32.2997 Y56.8547 R93.1170
 X33.3844 Y52.3805 R93.1170
 X34.2312 Y47.8552 R93.1170
 X34.8377 Y43.2916 R93.1170
 X35.2023 Y38.7022 R93.1170
 X35.3302 Y33.8639 R93.1170
G03 X36.3563 Y26.0699 R31.0000
 X39.4558 Y18.5871 R31.0000
 X44.3864 Y12.1614 R31.0000
 X50.8121 Y7.2308 R31.0000
 X58.2949 Y4.1313 R31.0000
 X66.3250 Y3.0741 R31.0000
 X74.3551 Y4.1313 R31.0000
 X81.8379 Y7.2308 R31.0000
 X88.2636 Y12.1614 R31.0000
 X93.1942 Y18.5871 R31.0000
 X96.2937 Y26.0699 R31.0000
 X97.3334 Y33.9671 R31.0000
G02 X97.1268 Y38.8122 R91.3274
 X97.1729 Y43.3212 R91.3274
 X97.4572 Y47.8215 R91.3274
 X97.9788 Y52.3004 R91.3274
 X98.7363 Y56.7456 R91.3274
 X99.7276 Y61.1445 R91.3274
 X100.9499 Y65.4849 R91.3274
(Pass: 14)
G02 X102.3998 Y69.7547 Z-2.7000 R91.3274 F100 
G03 X100.9499 Y65.4849 Z-2.8000 R91.3274
G02 X102.3998 Y69.7547 R91.3274 F500 
 X104.0732 Y73.9420 R91.3274
 X105.9655 Y78.0349 R91.3274
 X108.0714 Y82.0222 R91.3274
 X109.5524 Y84.5000 R91.3274
G01 X125.650
 Y115.971
 Y129.971
 Y173.050
 X7.000
 Y129.647
 Y115.647
 Y84.500
 X19.232
G02 X21.0111 Y81.9424 R93.1170
 X23.4369 Y78.0295 R93.1170
 X25.6526 Y73.9940 R93.1170
 X27.6520 Y69.8470 R93.1170
 X29.4295 Y65.6002 R93.1170
 X30.9802 Y61.2654 R93.1170
 X32.2997 Y56.8547 R93.1170
 X33.3844 Y52.3805 R93.1170
 X34.2312 Y47.8552 R93.1170
 X34.8377 Y43.2916 R93.1170
 X35.2023 Y38.7022 R93.1170
 X35.3302 Y33.8639 R93.1170
G03 X36.3563 Y26.0699 R31.0000
 X39.4558 Y18.5871 R31.0000
 X44.3864 Y12.1614 R31.0000
 X50.8121 Y7.2308 R31.0000
 X58.2949 Y4.1313 R31.0000
 X66.3250 Y3.0741 R31.0000
 X74.3551 Y4.1313 R31.0000
 X81.8379 Y7.2308 R31.0000
 X88.2636 Y12.1614 R31.0000
 X93.1942 Y18.5871 R31.0000
 X96.2937 Y26.0699 R31.0000
 X97.3334 Y33.9671 R31.0000
G02 X97.1268 Y38.8122 R91.3274
 X97.1729 Y43.3212 R91.3274
 X97.4572 Y47.8215 R91.3274
 X97.9788 Y52.3004 R91.3274
 X98.7363 Y56.7456 R91.3274
 X99.7276 Y61.1445 R91.3274
 X100.9499 Y65.4849 R91.3274
(Pass: 15)
G02 X102.3998 Y69.7547 Z-2.9000 R91.3274 F100 
G03 X100.9499 Y65.4849 Z-3.0000 R91.3274
G02 X102.3998 Y69.7547 R91.3274 F500 
 X104.0732 Y73.9420 R91.3274
 X105.9655 Y78.0349 R91.3274
 X108.0714 Y82.0222 R91.3274
 X109.5524 Y84.5000 R91.3274
G01 X125.650
 Y115.971
 Y129.971
 Y173.050
 X7.000
 Y129.647
 Y115.647
 Y84.500
 X19.232
G02 X21.0111 Y81.9424 R93.1170
 X23.4369 Y78.0295 R93.1170
 X25.6526 Y73.9940 R93.1170
 X27.6520 Y69.8470 R93.1170
 X29.4295 Y65.6002 R93.1170
 X30.9802 Y61.2654 R93.1170
 X32.2997 Y56.8547 R93.1170
 X33.3844 Y52.3805 R93.1170
 X34.2312 Y47.8552 R93.1170
 X34.8377 Y43.2916 R93.1170
 X35.2023 Y38.7022 R93.1170
 X35.3302 Y33.8639 R93.1170
G03 X36.3563 Y26.0699 R31.0000
 X39.4558 Y18.5871 R31.0000
 X44.3864 Y12.1614 R31.0000
 X50.8121 Y7.2308 R31.0000
 X58.2949 Y4.1313 R31.0000
 X66.3250 Y3.0741 R31.0000
 X74.3551 Y4.1313 R31.0000
 X81.8379 Y7.2308 R31.0000
 X88.2636 Y12.1614 R31.0000
 X93.1942 Y18.5871 R31.0000
 X96.2937 Y26.0699 R31.0000
 X97.3334 Y33.9671 R31.0000
G02 X97.1268 Y38.8122 R91.3274
 X97.1729 Y43.3212 R91.3274
 X97.4572 Y47.8215 R91.3274
 X97.9788 Y52.3004 R91.3274
 X98.7363 Y56.7456 R91.3274
 X99.7276 Y61.1445 R91.3274
 X100.9499 Y65.4849 R91.3274
(Pass: 16)
G02 X102.3998 Y69.7547 Z-3.1000 R91.3274 F100 
G03 X100.9499 Y65.4849 Z-3.2000 R91.3274
G02 X102.3998 Y69.7547 R91.3274 F500 
 X104.0732 Y73.9420 R91.3274
 X105.9655 Y78.0349 R91.3274
 X108.0714 Y82.0222 R91.3274
 X109.5524 Y84.5000 R91.3274
G01 X125.650
 Y115.971
 Y129.971 Z-3.175
 Y173.050 Z-3.200
 X7.000
 Y129.647
 Y115.647 Z-3.175
 Y84.500 Z-3.200
 X19.232
G02 X21.0111 Y81.9424 R93.1170
 X23.4369 Y78.0295 R93.1170
 X25.6526 Y73.9940 R93.1170
 X27.6520 Y69.8470 R93.1170
 X29.4295 Y65.6002 R93.1170
 X30.9802 Y61.2654 R93.1170
 X32.2997 Y56.8547 R93.1170
 X33.3844 Y52.3805 R93.1170
 X34.2312 Y47.8552 R93.1170
 X34.8377 Y43.2916 R93.1170
 X35.2023 Y38.7022 R93.1170
 X35.3302 Y33.8639 R93.1170
G03 X36.3563 Y26.0699 R31.0000
 X39.4558 Y18.5871 R31.0000
 X44.3864 Y12.1614 R31.0000
 X50.8121 Y7.2308 R31.0000
 X58.2949 Y4.1313 R31.0000
 X66.3250 Y3.0741 R31.0000
 X74.3551 Y4.1313 R31.0000
 X81.8379 Y7.2308 R31.0000
 X88.2636 Y12.1614 R31.0000
 X93.1942 Y18.5871 R31.0000
 X96.2937 Y26.0699 R31.0000
 X97.3334 Y33.9671 R31.0000
G02 X97.1268 Y38.8122 R91.3274
 X97.1729 Y43.3212 R91.3274
 X97.4572 Y47.8215 R91.3274
 X97.9788 Y52.3004 R91.3274
 X98.7363 Y56.7456 R91.3274
 X99.7276 Y61.1445 R91.3274
 X100.9499 Y65.4849 R91.3274
(Pass: 17)
G02 X102.3998 Y69.7547 Z-3.3000 R91.3274 F100 
G03 X100.9499 Y65.4849 Z-3.4000 R91.3274
G02 X102.3998 Y69.7547 R91.3274 F500 
 X104.0732 Y73.9420 R91.3274
 X105.9655 Y78.0349 R91.3274
 X108.0714 Y82.0222 R91.3274
 X109.5524 Y84.5000 R91.3274
G01 X125.650
 Y115.971
 Z-3.175
 Y129.971
G00 Z-3.100 F100 
G01 X125.650 Y173.050 Z-3.250
 X125.650 Y129.971 Z-3.400
 Y173.050 F500 
 X7.000
 Y129.647
 Z-3.175
 Y115.647
G00 Z-3.100 F100 
G01 X7.000 Y84.500 Z-3.250
 X7.000 Y115.647 Z-3.400
 Y84.500 F500 
 X19.232
G02 X21.0111 Y81.9424 R93.1170
 X23.4369 Y78.0295 R93.1170
 X25.6526 Y73.9940 R93.1170
 X27.6520 Y69.8470 R93.1170
 X29.4295 Y65.6002 R93.1170
 X30.9802 Y61.2654 R93.1170
 X32.2997 Y56.8547 R93.1170
 X33.3844 Y52.3805 R93.1170
 X34.2312 Y47.8552 R93.1170
 X34.8377 Y43.2916 R93.1170
 X35.2023 Y38.7022 R93.1170
 X35.3302 Y33.8639 R93.1170
G03 X36.3563 Y26.0699 R31.0000
 X39.4558 Y18.5871 R31.0000
 X44.3864 Y12.1614 R31.0000
 X50.8121 Y7.2308 R31.0000
 X58.2949 Y4.1313 R31.0000
 X66.3250 Y3.0741 R31.0000
 X74.3551 Y4.1313 R31.0000
 X81.8379 Y7.2308 R31.0000
 X88.2636 Y12.1614 R31.0000
 X93.1942 Y18.5871 R31.0000
 X96.2937 Y26.0699 R31.0000
 X97.3334 Y33.9671 R31.0000
G02 X97.1268 Y38.8122 R91.3274
 X97.1729 Y43.3212 R91.3274
 X97.4572 Y47.8215 R91.3274
 X97.9788 Y52.3004 R91.3274
 X98.7363 Y56.7456 R91.3274
 X99.7276 Y61.1445 R91.3274
 X100.9499 Y65.4849 R91.3274
(Pass: 18)
G02 X102.3998 Y69.7547 Z-3.5000 R91.3274 F100 
G03 X100.9499 Y65.4849 Z-3.6000 R91.3274
G02 X102.3998 Y69.7547 R91.3274 F500 
 X104.0732 Y73.9420 R91.3274
 X105.9655 Y78.0349 R91.3274
 X108.0714 Y82.0222 R91.3274
 X109.5524 Y84.5000 R91.3274
G01 X125.650
 Y115.971
 Z-3.175
 Y129.971
G00 Z-3.300 F100 
G01 X125.650 Y173.050 Z-3.450
 X125.650 Y129.971 Z-3.600
 Y173.050 F500 
 X7.000
 Y129.647
 Z-3.175
 Y115.647
G00 Z-3.300 F100 
G01 X7.000 Y84.500 Z-3.450
 X7.000 Y115.647 Z-3.600
 Y84.500 F500 
 X19.232
G02 X21.0111 Y81.9424 R93.1170
 X23.4369 Y78.0295 R93.1170
 X25.6526 Y73.9940 R93.1170
 X27.6520 Y69.8470 R93.1170
 X29.4295 Y65.6002 R93.1170
 X30.9802 Y61.2654 R93.1170
 X32.2997 Y56.8547 R93.1170
 X33.3844 Y52.3805 R93.1170
 X34.2312 Y47.8552 R93.1170
 X34.8377 Y43.2916 R93.1170
 X35.2023 Y38.7022 R93.1170
 X35.3302 Y33.8639 R93.1170
G03 X36.3563 Y26.0699 R31.0000
 X39.4558 Y18.5871 R31.0000
 X44.3864 Y12.1614 R31.0000
 X50.8121 Y7.2308 R31.0000
 X58.2949 Y4.1313 R31.0000
 X66.3250 Y3.0741 R31.0000
 X74.3551 Y4.1313 R31.0000
 X81.8379 Y7.2308 R31.0000
 X88.2636 Y12.1614 R31.0000
 X93.1942 Y18.5871 R31.0000
 X96.2937 Y26.0699 R31.0000
 X97.3334 Y33.9671 R31.0000
G02 X97.1268 Y38.8122 R91.3274
 X97.1729 Y43.3212 R91.3274
 X97.4572 Y47.8215 R91.3274
 X97.9788 Y52.3004 R91.3274
 X98.7363 Y56.7456 R91.3274
 X99.7276 Y61.1445 R91.3274
 X100.9499 Y65.4849 R91.3274
(Pass: 19)
G02 X102.3998 Y69.7547 Z-3.7000 R91.3274 F100 
G03 X100.9499 Y65.4849 Z-3.8000 R91.3274
G02 X102.3998 Y69.7547 R91.3274 F500 
 X104.0732 Y73.9420 R91.3274
 X105.9655 Y78.0349 R91.3274
 X108.0714 Y82.0222 R91.3274
 X109.5524 Y84.5000 R91.3274
G01 X125.650
 Y115.971
 Z-3.175
 Y129.971
G00 Z-3.500 F100 
G01 X125.650 Y173.050 Z-3.650
 X125.650 Y129.971 Z-3.800
 Y173.050 F500 
 X7.000
 Y129.647
 Z-3.175
 Y115.647
G00 Z-3.500 F100 
G01 X7.000 Y84.500 Z-3.650
 X7.000 Y115.647 Z-3.800
 Y84.500 F500 
 X19.232
G02 X21.0111 Y81.9424 R93.1170
 X23.4369 Y78.0295 R93.1170
 X25.6526 Y73.9940 R93.1170
 X27.6520 Y69.8470 R93.1170
 X29.4295 Y65.6002 R93.1170
 X30.9802 Y61.2654 R93.1170
 X32.2997 Y56.8547 R93.1170
 X33.3844 Y52.3805 R93.1170
 X34.2312 Y47.8552 R93.1170
 X34.8377 Y43.2916 R93.1170
 X35.2023 Y38.7022 R93.1170
 X35.3302 Y33.8639 R93.1170
G03 X36.3563 Y26.0699 R31.0000
 X39.4558 Y18.5871 R31.0000
 X44.3864 Y12.1614 R31.0000
 X50.8121 Y7.2308 R31.0000
 X58.2949 Y4.1313 R31.0000
 X66.3250 Y3.0741 R31.0000
 X74.3551 Y4.1313 R31.0000
 X81.8379 Y7.2308 R31.0000
 X88.2636 Y12.1614 R31.0000
 X93.1942 Y18.5871 R31.0000
 X96.2937 Y26.0699 R31.0000
 X97.3334 Y33.9671 R31.0000
G02 X97.1268 Y38.8122 R91.3274
 X97.1729 Y43.3212 R91.3274
 X97.4572 Y47.8215 R91.3274
 X97.9788 Y52.3004 R91.3274
 X98.7363 Y56.7456 R91.3274
 X99.7276 Y61.1445 R91.3274
 X100.9499 Y65.4849 R91.3274
(Pass: 20)
G02 X102.3998 Y69.7547 Z-3.9000 R91.3274 F100 
G03 X100.9499 Y65.4849 Z-4.0000 R91.3274
G02 X102.3998 Y69.7547 R91.3274 F500 
 X104.0732 Y73.9420 R91.3274
 X105.9655 Y78.0349 R91.3274
 X108.0714 Y82.0222 R91.3274
 X109.5524 Y84.5000 R91.3274
G01 X125.650
 Y115.971
 Z-3.175
 Y129.971
G00 Z-3.700 F100 
G01 X125.650 Y173.050 Z-3.850
 X125.650 Y129.971 Z-4.000
 Y173.050 F500 
 X7.000
 Y129.647
 Z-3.175
 Y115.647
G00 Z-3.700 F100 
G01 X7.000 Y84.500 Z-3.850
 X7.000 Y115.647 Z-4.000
 Y84.500 F500 
 X19.232
G02 X21.0111 Y81.9424 R93.1170
 X23.4369 Y78.0295 R93.1170
 X25.6526 Y73.9940 R93.1170
 X27.6520 Y69.8470 R93.1170
 X29.4295 Y65.6002 R93.1170
 X30.9802 Y61.2654 R93.1170
 X32.2997 Y56.8547 R93.1170
 X33.3844 Y52.3805 R93.1170
 X34.2312 Y47.8552 R93.1170
 X34.8377 Y43.2916 R93.1170
 X35.2023 Y38.7022 R93.1170
 X35.3302 Y33.8639 R93.1170
G03 X36.3563 Y26.0699 R31.0000
 X39.4558 Y18.5871 R31.0000
 X44.3864 Y12.1614 R31.0000
 X50.8121 Y7.2308 R31.0000
 X58.2949 Y4.1313 R31.0000
 X66.3250 Y3.0741 R31.0000
 X74.3551 Y4.1313 R31.0000
 X81.8379 Y7.2308 R31.0000
 X88.2636 Y12.1614 R31.0000
 X93.1942 Y18.5871 R31.0000
 X96.2937 Y26.0699 R31.0000
 X97.3334 Y33.9671 R31.0000
G02 X97.1268 Y38.8122 R91.3274
 X97.1729 Y43.3212 R91.3274
 X97.4572 Y47.8215 R91.3274
 X97.9788 Y52.3004 R91.3274
 X98.7363 Y56.7456 R91.3274
 X99.7276 Y61.1445 R91.3274
 X100.9499 Y65.4849 R91.3274
(Pass: 21)
G02 X102.3998 Y69.7547 Z-4.1000 R91.3274 F100 
G03 X100.9499 Y65.4849 Z-4.2000 R91.3274
G02 X102.3998 Y69.7547 R91.3274 F500 
 X104.0732 Y73.9420 R91.3274
 X105.9655 Y78.0349 R91.3274
 X108.0714 Y82.0222 R91.3274
 X109.5524 Y84.5000 R91.3274
G01 X125.650
 Y115.971
 Z-3.175
 Y129.971
G00 Z-3.900 F100 
G01 X125.650 Y173.050 Z-4.050
 X125.650 Y129.971 Z-4.200
 Y173.050 F500 
 X7.000
 Y129.647
 Z-3.175
 Y115.647
G00 Z-3.900 F100 
G01 X7.000 Y84.500 Z-4.050
 X7.000 Y115.647 Z-4.200
 Y84.500 F500 
 X19.232
G02 X21.0111 Y81.9424 R93.1170
 X23.4369 Y78.0295 R93.1170
 X25.6526 Y73.9940 R93.1170
 X27.6520 Y69.8470 R93.1170
 X29.4295 Y65.6002 R93.1170
 X30.9802 Y61.2654 R93.1170
 X32.2997 Y56.8547 R93.1170
 X33.3844 Y52.3805 R93.1170
 X34.2312 Y47.8552 R93.1170
 X34.8377 Y43.2916 R93.1170
 X35.2023 Y38.7022 R93.1170
 X35.3302 Y33.8639 R93.1170
G03 X36.3563 Y26.0699 R31.0000
 X39.4558 Y18.5871 R31.0000
 X44.3864 Y12.1614 R31.0000
 X50.8121 Y7.2308 R31.0000
 X58.2949 Y4.1313 R31.0000
 X66.3250 Y3.0741 R31.0000
 X74.3551 Y4.1313 R31.0000
 X81.8379 Y7.2308 R31.0000
 X88.2636 Y12.1614 R31.0000
 X93.1942 Y18.5871 R31.0000
 X96.2937 Y26.0699 R31.0000
 X97.3334 Y33.9671 R31.0000
G02 X97.1268 Y38.8122 R91.3274
 X97.1729 Y43.3212 R91.3274
 X97.4572 Y47.8215 R91.3274
 X97.9788 Y52.3004 R91.3274
 X98.7363 Y56.7456 R91.3274
 X99.7276 Y61.1445 R91.3274
 X100.9499 Y65.4849 R91.3274
(Pass: 22)
G02 X102.3998 Y69.7547 Z-4.3000 R91.3274 F100 
G03 X100.9499 Y65.4849 Z-4.4000 R91.3274
G02 X102.3998 Y69.7547 R91.3274 F500 
 X104.0732 Y73.9420 R91.3274
 X105.9655 Y78.0349 R91.3274
 X108.0714 Y82.0222 R91.3274
 X109.5524 Y84.5000 R91.3274
G01 X125.650
 Y115.971
 Z-3.175
 Y129.971
G00 Z-4.100 F100 
G01 X125.650 Y173.050 Z-4.250
 X125.650 Y129.971 Z-4.400
 Y173.050 F500 
 X7.000
 Y129.647
 Z-3.175
 Y115.647
G00 Z-4.100 F100 
G01 X7.000 Y84.500 Z-4.250
 X7.000 Y115.647 Z-4.400
 Y84.500 F500 
 X19.232
G02 X21.0111 Y81.9424 R93.1170
 X23.4369 Y78.0295 R93.1170
 X25.6526 Y73.9940 R93.1170
 X27.6520 Y69.8470 R93.1170
 X29.4295 Y65.6002 R93.1170
 X30.9802 Y61.2654 R93.1170
 X32.2997 Y56.8547 R93.1170
 X33.3844 Y52.3805 R93.1170
 X34.2312 Y47.8552 R93.1170
 X34.8377 Y43.2916 R93.1170
 X35.2023 Y38.7022 R93.1170
 X35.3302 Y33.8639 R93.1170
G03 X36.3563 Y26.0699 R31.0000
 X39.4558 Y18.5871 R31.0000
 X44.3864 Y12.1614 R31.0000
 X50.8121 Y7.2308 R31.0000
 X58.2949 Y4.1313 R31.0000
 X66.3250 Y3.0741 R31.0000
 X74.3551 Y4.1313 R31.0000
 X81.8379 Y7.2308 R31.0000
 X88.2636 Y12.1614 R31.0000
 X93.1942 Y18.5871 R31.0000
 X96.2937 Y26.0699 R31.0000
 X97.3334 Y33.9671 R31.0000
G02 X97.1268 Y38.8122 R91.3274
 X97.1729 Y43.3212 R91.3274
 X97.4572 Y47.8215 R91.3274
 X97.9788 Y52.3004 R91.3274
 X98.7363 Y56.7456 R91.3274
 X99.7276 Y61.1445 R91.3274
 X100.9499 Y65.4849 R91.3274
(Pass: 23)
G02 X102.3998 Y69.7547 Z-4.5000 R91.3274 F100 
G03 X100.9499 Y65.4849 Z-4.6000 R91.3274
G02 X102.3998 Y69.7547 R91.3274 F500 
 X104.0732 Y73.9420 R91.3274
 X105.9655 Y78.0349 R91.3274
 X108.0714 Y82.0222 R91.3274
 X109.5524 Y84.5000 R91.3274
G01 X125.650
 Y115.971
 Z-3.175
 Y129.971
G00 Z-4.300 F100 
G01 X125.650 Y173.050 Z-4.450
 X125.650 Y129.971 Z-4.600
 Y173.050 F500 
 X7.000
 Y129.647
 Z-3.175
 Y115.647
G00 Z-4.300 F100 
G01 X7.000 Y84.500 Z-4.450
 X7.000 Y115.647 Z-4.600
 Y84.500 F500 
 X19.232
G02 X21.0111 Y81.9424 R93.1170
 X23.4369 Y78.0295 R93.1170
 X25.6526 Y73.9940 R93.1170
 X27.6520 Y69.8470 R93.1170
 X29.4295 Y65.6002 R93.1170
 X30.9802 Y61.2654 R93.1170
 X32.2997 Y56.8547 R93.1170
 X33.3844 Y52.3805 R93.1170
 X34.2312 Y47.8552 R93.1170
 X34.8377 Y43.2916 R93.1170
 X35.2023 Y38.7022 R93.1170
 X35.3302 Y33.8639 R93.1170
G03 X36.3563 Y26.0699 R31.0000
 X39.4558 Y18.5871 R31.0000
 X44.3864 Y12.1614 R31.0000
 X50.8121 Y7.2308 R31.0000
 X58.2949 Y4.1313 R31.0000
 X66.3250 Y3.0741 R31.0000
 X74.3551 Y4.1313 R31.0000
 X81.8379 Y7.2308 R31.0000
 X88.2636 Y12.1614 R31.0000
 X93.1942 Y18.5871 R31.0000
 X96.2937 Y26.0699 R31.0000
 X97.3334 Y33.9671 R31.0000
G02 X97.1268 Y38.8122 R91.3274
 X97.1729 Y43.3212 R91.3274
 X97.4572 Y47.8215 R91.3274
 X97.9788 Y52.3004 R91.3274
 X98.7363 Y56.7456 R91.3274
 X99.7276 Y61.1445 R91.3274
 X100.9499 Y65.4849 R91.3274
(Pass: 24)
G02 X102.3998 Y69.7547 Z-4.7000 R91.3274 F100 
G03 X100.9499 Y65.4849 Z-4.8000 R91.3274
G02 X102.3998 Y69.7547 R91.3274 F500 
 X104.0732 Y73.9420 R91.3274
 X105.9655 Y78.0349 R91.3274
 X108.0714 Y82.0222 R91.3274
 X109.5524 Y84.5000 R91.3274
G01 X125.650
 Y115.971
 Z-3.175
 Y129.971
G00 Z-4.500 F100 
G01 X125.650 Y173.050 Z-4.650
 X125.650 Y129.971 Z-4.800
 Y173.050 F500 
 X7.000
 Y129.647
 Z-3.175
 Y115.647
G00 Z-4.500 F100 
G01 X7.000 Y84.500 Z-4.650
 X7.000 Y115.647 Z-4.800
 Y84.500 F500 
 X19.232
G02 X21.0111 Y81.9424 R93.1170
 X23.4369 Y78.0295 R93.1170
 X25.6526 Y73.9940 R93.1170
 X27.6520 Y69.8470 R93.1170
 X29.4295 Y65.6002 R93.1170
 X30.9802 Y61.2654 R93.1170
 X32.2997 Y56.8547 R93.1170
 X33.3844 Y52.3805 R93.1170
 X34.2312 Y47.8552 R93.1170
 X34.8377 Y43.2916 R93.1170
 X35.2023 Y38.7022 R93.1170
 X35.3302 Y33.8639 R93.1170
G03 X36.3563 Y26.0699 R31.0000
 X39.4558 Y18.5871 R31.0000
 X44.3864 Y12.1614 R31.0000
 X50.8121 Y7.2308 R31.0000
 X58.2949 Y4.1313 R31.0000
 X66.3250 Y3.0741 R31.0000
 X74.3551 Y4.1313 R31.0000
 X81.8379 Y7.2308 R31.0000
 X88.2636 Y12.1614 R31.0000
 X93.1942 Y18.5871 R31.0000
 X96.2937 Y26.0699 R31.0000
 X97.3334 Y33.9671 R31.0000
G02 X97.1268 Y38.8122 R91.3274
 X97.1729 Y43.3212 R91.3274
 X97.4572 Y47.8215 R91.3274
 X97.9788 Y52.3004 R91.3274
 X98.7363 Y56.7456 R91.3274
 X99.7276 Y61.1445 R91.3274
 X100.9499 Y65.4849 R91.3274
(Pass: 25)
G02 X102.3998 Y69.7547 Z-4.9000 R91.3274 F100 
G03 X100.9499 Y65.4849 Z-5.0000 R91.3274
G02 X102.3998 Y69.7547 R91.3274 F500 
 X104.0732 Y73.9420 R91.3274
 X105.9655 Y78.0349 R91.3274
 X108.0714 Y82.0222 R91.3274
 X109.5524 Y84.5000 R91.3274
G01 X125.650
 Y115.971
 Z-3.175
 Y129.971
G00 Z-4.700 F100 
G01 X125.650 Y173.050 Z-4.850
 X125.650 Y129.971 Z-5.000
 Y173.050 F500 
 X7.000
 Y129.647
 Z-3.175
 Y115.647
G00 Z-4.700 F100 
G01 X7.000 Y84.500 Z-4.850
 X7.000 Y115.647 Z-5.000
 Y84.500 F500 
 X19.232
G02 X21.0111 Y81.9424 R93.1170
 X23.4369 Y78.0295 R93.1170
 X25.6526 Y73.9940 R93.1170
 X27.6520 Y69.8470 R93.1170
 X29.4295 Y65.6002 R93.1170
 X30.9802 Y61.2654 R93.1170
 X32.2997 Y56.8547 R93.1170
 X33.3844 Y52.3805 R93.1170
 X34.2312 Y47.8552 R93.1170
 X34.8377 Y43.2916 R93.1170
 X35.2023 Y38.7022 R93.1170
 X35.3302 Y33.8639 R93.1170
G03 X36.3563 Y26.0699 R31.0000
 X39.4558 Y18.5871 R31.0000
 X44.3864 Y12.1614 R31.0000
 X50.8121 Y7.2308 R31.0000
 X58.2949 Y4.1313 R31.0000
 X66.3250 Y3.0741 R31.0000
 X74.3551 Y4.1313 R31.0000
 X81.8379 Y7.2308 R31.0000
 X88.2636 Y12.1614 R31.0000
 X93.1942 Y18.5871 R31.0000
 X96.2937 Y26.0699 R31.0000
 X97.3334 Y33.9671 R31.0000
G02 X97.1268 Y38.8122 R91.3274
 X97.1729 Y43.3212 R91.3274
 X97.4572 Y47.8215 R91.3274
 X97.9788 Y52.3004 R91.3274
 X98.7363 Y56.7456 R91.3274
 X99.7276 Y61.1445 R91.3274
 X100.9499 Y65.4849 R91.3274
(Pass: 26)
G02 X102.3998 Y69.7547 Z-5.1000 R91.3274 F100 
G03 X100.9499 Y65.4849 Z-5.2000 R91.3274
G02 X102.3998 Y69.7547 R91.3274 F500 
 X104.0732 Y73.9420 R91.3274
 X105.9655 Y78.0349 R91.3274
 X108.0714 Y82.0222 R91.3274
 X109.5524 Y84.5000 R91.3274
G01 X125.650
 Y115.971
 Z-3.175
 Y129.971
G00 Z-4.900 F100 
G01 X125.650 Y173.050 Z-5.050
 X125.650 Y129.971 Z-5.200
 Y173.050 F500 
 X7.000
 Y129.647
 Z-3.175
 Y115.647
G00 Z-4.900 F100 
G01 X7.000 Y84.500 Z-5.050
 X7.000 Y115.647 Z-5.200
 Y84.500 F500 
 X19.232
G02 X21.0111 Y81.9424 R93.1170
 X23.4369 Y78.0295 R93.1170
 X25.6526 Y73.9940 R93.1170
 X27.6520 Y69.8470 R93.1170
 X29.4295 Y65.6002 R93.1170
 X30.9802 Y61.2654 R93.1170
 X32.2997 Y56.8547 R93.1170
 X33.3844 Y52.3805 R93.1170
 X34.2312 Y47.8552 R93.1170
 X34.8377 Y43.2916 R93.1170
 X35.2023 Y38.7022 R93.1170
 X35.3302 Y33.8639 R93.1170
G03 X36.3563 Y26.0699 R31.0000
 X39.4558 Y18.5871 R31.0000
 X44.3864 Y12.1614 R31.0000
 X50.8121 Y7.2308 R31.0000
 X58.2949 Y4.1313 R31.0000
 X66.3250 Y3.0741 R31.0000
 X74.3551 Y4.1313 R31.0000
 X81.8379 Y7.2308 R31.0000
 X88.2636 Y12.1614 R31.0000
 X93.1942 Y18.5871 R31.0000
 X96.2937 Y26.0699 R31.0000
 X97.3334 Y33.9671 R31.0000
G02 X97.1268 Y38.8122 R91.3274
 X97.1729 Y43.3212 R91.3274
 X97.4572 Y47.8215 R91.3274
 X97.9788 Y52.3004 R91.3274
 X98.7363 Y56.7456 R91.3274
 X99.7276 Y61.1445 R91.3274
 X100.9499 Y65.4849 R91.3274
(Pass: 27)
G02 X102.3998 Y69.7547 Z-5.3000 R91.3274 F100 
G03 X100.9499 Y65.4849 Z-5.4000 R91.3274
G02 X102.3998 Y69.7547 R91.3274 F500 
 X104.0732 Y73.9420 R91.3274
 X105.9655 Y78.0349 R91.3274
 X108.0714 Y82.0222 R91.3274
 X109.5524 Y84.5000 R91.3274
G01 X125.650
 Y115.971
 Z-3.175
 Y129.971
G00 Z-5.100 F100 
G01 X125.650 Y173.050 Z-5.250
 X125.650 Y129.971 Z-5.400
 Y173.050 F500 
 X7.000
 Y129.647
 Z-3.175
 Y115.647
G00 Z-5.100 F100 
G01 X7.000 Y84.500 Z-5.250
 X7.000 Y115.647 Z-5.400
 Y84.500 F500 
 X19.232
G02 X21.0111 Y81.9424 R93.1170
 X23.4369 Y78.0295 R93.1170
 X25.6526 Y73.9940 R93.1170
 X27.6520 Y69.8470 R93.1170
 X29.4295 Y65.6002 R93.1170
 X30.9802 Y61.2654 R93.1170
 X32.2997 Y56.8547 R93.1170
 X33.3844 Y52.3805 R93.1170
 X34.2312 Y47.8552 R93.1170
 X34.8377 Y43.2916 R93.1170
 X35.2023 Y38.7022 R93.1170
 X35.3302 Y33.8639 R93.1170
G03 X36.3563 Y26.0699 R31.0000
 X39.4558 Y18.5871 R31.0000
 X44.3864 Y12.1614 R31.0000
 X50.8121 Y7.2308 R31.0000
 X58.2949 Y4.1313 R31.0000
 X66.3250 Y3.0741 R31.0000
 X74.3551 Y4.1313 R31.0000
 X81.8379 Y7.2308 R31.0000
 X88.2636 Y12.1614 R31.0000
 X93.1942 Y18.5871 R31.0000
 X96.2937 Y26.0699 R31.0000
 X97.3334 Y33.9671 R31.0000
G02 X97.1268 Y38.8122 R91.3274
 X97.1729 Y43.3212 R91.3274
 X97.4572 Y47.8215 R91.3274
 X97.9788 Y52.3004 R91.3274
 X98.7363 Y56.7456 R91.3274
 X99.7276 Y61.1445 R91.3274
 X100.9499 Y65.4849 R91.3274
(Pass: 28)
G02 X102.3998 Y69.7547 Z-5.5000 R91.3274 F100 
G03 X100.9499 Y65.4849 Z-5.6000 R91.3274
G02 X102.3998 Y69.7547 R91.3274 F500 
 X104.0732 Y73.9420 R91.3274
 X105.9655 Y78.0349 R91.3274
 X108.0714 Y82.0222 R91.3274
 X109.5524 Y84.5000 R91.3274
G01 X125.650
 Y115.971
 Z-3.175
 Y129.971
G00 Z-5.300 F100 
G01 X125.650 Y173.050 Z-5.450
 X125.650 Y129.971 Z-5.600
 Y173.050 F500 
 X7.000
 Y129.647
 Z-3.175
 Y115.647
G00 Z-5.300 F100 
G01 X7.000 Y84.500 Z-5.450
 X7.000 Y115.647 Z-5.600
 Y84.500 F500 
 X19.232
G02 X21.0111 Y81.9424 R93.1170
 X23.4369 Y78.0295 R93.1170
 X25.6526 Y73.9940 R93.1170
 X27.6520 Y69.8470 R93.1170
 X29.4295 Y65.6002 R93.1170
 X30.9802 Y61.2654 R93.1170
 X32.2997 Y56.8547 R93.1170
 X33.3844 Y52.3805 R93.1170
 X34.2312 Y47.8552 R93.1170
 X34.8377 Y43.2916 R93.1170
 X35.2023 Y38.7022 R93.1170
 X35.3302 Y33.8639 R93.1170
G03 X36.3563 Y26.0699 R31.0000
 X39.4558 Y18.5871 R31.0000
 X44.3864 Y12.1614 R31.0000
 X50.8121 Y7.2308 R31.0000
 X58.2949 Y4.1313 R31.0000
 X66.3250 Y3.0741 R31.0000
 X74.3551 Y4.1313 R31.0000
 X81.8379 Y7.2308 R31.0000
 X88.2636 Y12.1614 R31.0000
 X93.1942 Y18.5871 R31.0000
 X96.2937 Y26.0699 R31.0000
 X97.3334 Y33.9671 R31.0000
G02 X97.1268 Y38.8122 R91.3274
 X97.1729 Y43.3212 R91.3274
 X97.4572 Y47.8215 R91.3274
 X97.9788 Y52.3004 R91.3274
 X98.7363 Y56.7456 R91.3274
 X99.7276 Y61.1445 R91.3274
 X100.9499 Y65.4849 R91.3274
(Pass: 29)
G02 X102.3998 Y69.7547 Z-5.7000 R91.3274 F100 
G03 X100.9499 Y65.4849 Z-5.8000 R91.3274
G02 X102.3998 Y69.7547 R91.3274 F500 
 X104.0732 Y73.9420 R91.3274
 X105.9655 Y78.0349 R91.3274
 X108.0714 Y82.0222 R91.3274
 X109.5524 Y84.5000 R91.3274
G01 X125.650
 Y115.971
 Z-3.175
 Y129.971
G00 Z-5.500 F100 
G01 X125.650 Y173.050 Z-5.650
 X125.650 Y129.971 Z-5.800
 Y173.050 F500 
 X7.000
 Y129.647
 Z-3.175
 Y115.647
G00 Z-5.500 F100 
G01 X7.000 Y84.500 Z-5.650
 X7.000 Y115.647 Z-5.800
 Y84.500 F500 
 X19.232
G02 X21.0111 Y81.9424 R93.1170
 X23.4369 Y78.0295 R93.1170
 X25.6526 Y73.9940 R93.1170
 X27.6520 Y69.8470 R93.1170
 X29.4295 Y65.6002 R93.1170
 X30.9802 Y61.2654 R93.1170
 X32.2997 Y56.8547 R93.1170
 X33.3844 Y52.3805 R93.1170
 X34.2312 Y47.8552 R93.1170
 X34.8377 Y43.2916 R93.1170
 X35.2023 Y38.7022 R93.1170
 X35.3302 Y33.8639 R93.1170
G03 X36.3563 Y26.0699 R31.0000
 X39.4558 Y18.5871 R31.0000
 X44.3864 Y12.1614 R31.0000
 X50.8121 Y7.2308 R31.0000
 X58.2949 Y4.1313 R31.0000
 X66.3250 Y3.0741 R31.0000
 X74.3551 Y4.1313 R31.0000
 X81.8379 Y7.2308 R31.0000
 X88.2636 Y12.1614 R31.0000
 X93.1942 Y18.5871 R31.0000
 X96.2937 Y26.0699 R31.0000
 X97.3334 Y33.9671 R31.0000
G02 X97.1268 Y38.8122 R91.3274
 X97.1729 Y43.3212 R91.3274
 X97.4572 Y47.8215 R91.3274
 X97.9788 Y52.3004 R91.3274
 X98.7363 Y56.7456 R91.3274
 X99.7276 Y61.1445 R91.3274
 X100.9499 Y65.4849 R91.3274
(Pass: 30)
G02 X102.3998 Y69.7547 Z-5.9000 R91.3274 F100 
G03 X100.9499 Y65.4849 Z-6.0000 R91.3274
G02 X102.3998 Y69.7547 R91.3274 F500 
 X104.0732 Y73.9420 R91.3274
 X105.9655 Y78.0349 R91.3274
 X108.0714 Y82.0222 R91.3274
 X109.5524 Y84.5000 R91.3274
G01 X125.650
 Y115.971
 Z-3.175
 Y129.971
G00 Z-5.700 F100 
G01 X125.650 Y173.050 Z-5.850
 X125.650 Y129.971 Z-6.000
 Y173.050 F500 
 X7.000
 Y129.647
 Z-3.175
 Y115.647
G00 Z-5.700 F100 
G01 X7.000 Y84.500 Z-5.850
 X7.000 Y115.647 Z-6.000
 Y84.500 F500 
 X19.232
G02 X21.0111 Y81.9424 R93.1170
 X23.4369 Y78.0295 R93.1170
 X25.6526 Y73.9940 R93.1170
 X27.6520 Y69.8470 R93.1170
 X29.4295 Y65.6002 R93.1170
 X30.9802 Y61.2654 R93.1170
 X32.2997 Y56.8547 R93.1170
 X33.3844 Y52.3805 R93.1170
 X34.2312 Y47.8552 R93.1170
 X34.8377 Y43.2916 R93.1170
 X35.2023 Y38.7022 R93.1170
 X35.3302 Y33.8639 R93.1170
G03 X36.3563 Y26.0699 R31.0000
 X39.4558 Y18.5871 R31.0000
 X44.3864 Y12.1614 R31.0000
 X50.8121 Y7.2308 R31.0000
 X58.2949 Y4.1313 R31.0000
 X66.3250 Y3.0741 R31.0000
 X74.3551 Y4.1313 R31.0000
 X81.8379 Y7.2308 R31.0000
 X88.2636 Y12.1614 R31.0000
 X93.1942 Y18.5871 R31.0000
 X96.2937 Y26.0699 R31.0000
 X97.3334 Y33.9671 R31.0000
G02 X97.1268 Y38.8122 R91.3274
 X97.1729 Y43.3212 R91.3274
 X97.4572 Y47.8215 R91.3274
 X97.9788 Y52.3004 R91.3274
 X98.7363 Y56.7456 R91.3274
 X99.7276 Y61.1445 R91.3274
 X100.9499 Y65.4849 R91.3274
(Pass: 31)
G02 X102.3998 Y69.7547 Z-6.1000 R91.3274 F100 
G03 X100.9499 Y65.4849 Z-6.2000 R91.3274
G02 X102.3998 Y69.7547 R91.3274 F500 
 X104.0732 Y73.9420 R91.3274
 X105.9655 Y78.0349 R91.3274
 X108.0714 Y82.0222 R91.3274
 X109.5524 Y84.5000 R91.3274
G01 X125.650
 Y115.971
 Z-3.175
 Y129.971
G00 Z-5.900 F100 
G01 X125.650 Y173.050 Z-6.050
 X125.650 Y129.971 Z-6.200
 Y173.050 F500 
 X7.000
 Y129.647
 Z-3.175
 Y115.647
G00 Z-5.900 F100 
G01 X7.000 Y84.500 Z-6.050
 X7.000 Y115.647 Z-6.200
 Y84.500 F500 
 X19.232
G02 X21.0111 Y81.9424 R93.1170
 X23.4369 Y78.0295 R93.1170
 X25.6526 Y73.9940 R93.1170
 X27.6520 Y69.8470 R93.1170
 X29.4295 Y65.6002 R93.1170
 X30.9802 Y61.2654 R93.1170
 X32.2997 Y56.8547 R93.1170
 X33.3844 Y52.3805 R93.1170
 X34.2312 Y47.8552 R93.1170
 X34.8377 Y43.2916 R93.1170
 X35.2023 Y38.7022 R93.1170
 X35.3302 Y33.8639 R93.1170
G03 X36.3563 Y26.0699 R31.0000
 X39.4558 Y18.5871 R31.0000
 X44.3864 Y12.1614 R31.0000
 X50.8121 Y7.2308 R31.0000
 X58.2949 Y4.1313 R31.0000
 X66.3250 Y3.0741 R31.0000
 X74.3551 Y4.1313 R31.0000
 X81.8379 Y7.2308 R31.0000
 X88.2636 Y12.1614 R31.0000
 X93.1942 Y18.5871 R31.0000
 X96.2937 Y26.0699 R31.0000
 X97.3334 Y33.9671 R31.0000
G02 X97.1268 Y38.8122 R91.3274
 X97.1729 Y43.3212 R91.3274
 X97.4572 Y47.8215 R91.3274
 X97.9788 Y52.3004 R91.3274
 X98.7363 Y56.7456 R91.3274
 X99.7276 Y61.1445 R91.3274
 X100.9499 Y65.4849 R91.3274
(Pass: 32)
G02 X102.3998 Y69.7547 Z-6.3000 R91.3274 F100 
G03 X100.9499 Y65.4849 Z-6.4000 R91.3274
G02 X102.3998 Y69.7547 R91.3274 F500 
 X104.0732 Y73.9420 R91.3274
 X105.9655 Y78.0349 R91.3274
 X108.0714 Y82.0222 R91.3274
 X109.5524 Y84.5000 R91.3274
G01 X125.650
 Y115.971
 Z-3.175
 Y129.971
G00 Z-6.100 F100 
G01 X125.650 Y173.050 Z-6.250
 X125.650 Y129.971 Z-6.400
 Y173.050 F500 
 X7.000
 Y129.647
 Z-3.175
 Y115.647
G00 Z-6.100 F100 
G01 X7.000 Y84.500 Z-6.250
 X7.000 Y115.647 Z-6.400
 Y84.500 F500 
 X19.232
G02 X21.0111 Y81.9424 R93.1170
 X23.4369 Y78.0295 R93.1170
 X25.6526 Y73.9940 R93.1170
 X27.6520 Y69.8470 R93.1170
 X29.4295 Y65.6002 R93.1170
 X30.9802 Y61.2654 R93.1170
 X32.2997 Y56.8547 R93.1170
 X33.3844 Y52.3805 R93.1170
 X34.2312 Y47.8552 R93.1170
 X34.8377 Y43.2916 R93.1170
 X35.2023 Y38.7022 R93.1170
 X35.3302 Y33.8639 R93.1170
G03 X36.3563 Y26.0699 R31.0000
 X39.4558 Y18.5871 R31.0000
 X44.3864 Y12.1614 R31.0000
 X50.8121 Y7.2308 R31.0000
 X58.2949 Y4.1313 R31.0000
 X66.3250 Y3.0741 R31.0000
 X74.3551 Y4.1313 R31.0000
 X81.8379 Y7.2308 R31.0000
 X88.2636 Y12.1614 R31.0000
 X93.1942 Y18.5871 R31.0000
 X96.2937 Y26.0699 R31.0000
 X97.3334 Y33.9671 R31.0000
G02 X97.1268 Y38.8122 R91.3274
 X97.1729 Y43.3212 R91.3274
 X97.4572 Y47.8215 R91.3274
 X97.9788 Y52.3004 R91.3274
 X98.7363 Y56.7456 R91.3274
 X99.7276 Y61.1445 R91.3274
 X100.9499 Y65.4849 R91.3274
(Pass: 33)
G02 X102.3998 Y69.7547 Z-6.5000 R91.3274 F100 
G03 X100.9499 Y65.4849 Z-6.6000 R91.3274
G02 X102.3998 Y69.7547 R91.3274 F500 
 X104.0732 Y73.9420 R91.3274
 X105.9655 Y78.0349 R91.3274
 X108.0714 Y82.0222 R91.3274
 X109.5524 Y84.5000 R91.3274
G01 X125.650
 Y115.971
 Z-3.175
 Y129.971
G00 Z-6.300 F100 
G01 X125.650 Y173.050 Z-6.450
 X125.650 Y129.971 Z-6.600
 Y173.050 F500 
 X7.000
 Y129.647
 Z-3.175
 Y115.647
G00 Z-6.300 F100 
G01 X7.000 Y84.500 Z-6.450
 X7.000 Y115.647 Z-6.600
 Y84.500 F500 
 X19.232
G02 X21.0111 Y81.9424 R93.1170
 X23.4369 Y78.0295 R93.1170
 X25.6526 Y73.9940 R93.1170
 X27.6520 Y69.8470 R93.1170
 X29.4295 Y65.6002 R93.1170
 X30.9802 Y61.2654 R93.1170
 X32.2997 Y56.8547 R93.1170
 X33.3844 Y52.3805 R93.1170
 X34.2312 Y47.8552 R93.1170
 X34.8377 Y43.2916 R93.1170
 X35.2023 Y38.7022 R93.1170
 X35.3302 Y33.8639 R93.1170
G03 X36.3563 Y26.0699 R31.0000
 X39.4558 Y18.5871 R31.0000
 X44.3864 Y12.1614 R31.0000
 X50.8121 Y7.2308 R31.0000
 X58.2949 Y4.1313 R31.0000
 X66.3250 Y3.0741 R31.0000
 X74.3551 Y4.1313 R31.0000
 X81.8379 Y7.2308 R31.0000
 X88.2636 Y12.1614 R31.0000
 X93.1942 Y18.5871 R31.0000
 X96.2937 Y26.0699 R31.0000
 X97.3334 Y33.9671 R31.0000
G02 X97.1268 Y38.8122 R91.3274
 X97.1729 Y43.3212 R91.3274
 X97.4572 Y47.8215 R91.3274
 X97.9788 Y52.3004 R91.3274
 X98.7363 Y56.7456 R91.3274
