%
(Generated by SketchUcam V1.3a)
(File: DustHoseMount.skp)
(Bit diameter: 6.0mm)
(Feed rate: 500.0mm/min)
(Plunge Feed rate: 100.0mm/min)
(Material Thickness: 12.7mm)
(Material length: 2200.0mm X width: 1200.0mm)
(Overhead Gantry: true)
(Multipass enabled, Depth = 1.0mm)
(RAMPING with no angle limit)
(Optimization is ON)
(www.PhlatBoyz.com)
G90 G21 G49  G17
M3 S22000
G00 Z10.000
(Pass: 1)
 X15.000 Y165.050
(plungebore  DEPTH=13.970  DIAM=6.000)
G00 Z3.333
G01 Z-1.000 F100 
G00 Z3.333
G01 Z-2.000
G00 Z3.333
G01 Z-3.000
G00 Z3.333
G01 Z-4.000
G00 Z3.333
G01 Z-5.000
G00 Z3.333
G01 Z-6.000
G00 Z3.333
G01 Z-7.000
G00 Z3.333
G01 Z-8.000
G00 Z3.333
G01 Z-9.000
G00 Z3.333
G01 Z-10.000
G00 Z3.333
G01 Z-11.000
G00 Z3.333
G01 Z-12.000
G00 Z3.333
G01 Z-13.000
G00 Z3.333
G01 Z-13.970
G00 Z3.333
G00 Y165.050 Z10.000
(plungebore end)
(Pass: 1)
G00 Y92.500
(plungebore  DEPTH=13.970  DIAM=6.000)
G00 Z3.333
G01 Z-1.000 F100 
G00 Z3.333
G01 Z-2.000
G00 Z3.333
G01 Z-3.000
G00 Z3.333
G01 Z-4.000
G00 Z3.333
G01 Z-5.000
G00 Z3.333
G01 Z-6.000
G00 Z3.333
G01 Z-7.000
G00 Z3.333
G01 Z-8.000
G00 Z3.333
G01 Z-9.000
G00 Z3.333
G01 Z-10.000
G00 Z3.333
G01 Z-11.000
G00 Z3.333
G01 Z-12.000
G00 Z3.333
G01 Z-13.000
G00 Z3.333
G01 Z-13.970
G00 Z3.333
G00 Y92.500 Z10.000
(plungebore end)
(Pass: 1)
G00 X117.650
(plungebore  DEPTH=13.970  DIAM=6.000)
G00 Z3.333
G01 Z-1.000 F100 
G00 Z3.333
G01 Z-2.000
G00 Z3.333
G01 Z-3.000
G00 Z3.333
G01 Z-4.000
G00 Z3.333
G01 Z-5.000
G00 Z3.333
G01 Z-6.000
G00 Z3.333
G01 Z-7.000
G00 Z3.333
G01 Z-8.000
G00 Z3.333
G01 Z-9.000
G00 Z3.333
G01 Z-10.000
G00 Z3.333
G01 Z-11.000
G00 Z3.333
G01 Z-12.000
G00 Z3.333
G01 Z-13.000
G00 Z3.333
G01 Z-13.970
G00 Z3.333
G00 Y92.500 Z10.000
(plungebore end)
(Pass: 1)
G00 Y165.050
(plungebore  DEPTH=13.970  DIAM=6.000)
G00 Z3.333
G01 Z-1.000 F100 
G00 Z3.333
G01 Z-2.000
G00 Z3.333
G01 Z-3.000
G00 Z3.333
G01 Z-4.000
G00 Z3.333
G01 Z-5.000
G00 Z3.333
G01 Z-6.000
G00 Z3.333
G01 Z-7.000
G00 Z3.333
G01 Z-8.000
G00 Z3.333
G01 Z-9.000
G00 Z3.333
G01 Z-10.000
G00 Z3.333
G01 Z-11.000
G00 Z3.333
G01 Z-12.000
G00 Z3.333
G01 Z-13.000
G00 Z3.333
G01 Z-13.970
G00 Z3.333
G00 Y165.050 Z10.000
(plungebore end)
(Pass: 1)
G00 X70.265 Y48.805
G00 Z0.100
G02 X73.9371 Y47.2845 Z-0.4500 R15.2500 F100 
G03 X70.2653 Y48.8054 Z-1.0000 R15.2500
G02 X73.9371 Y47.2845 R15.2500 F500 
 X77.0901 Y44.8651 R15.2500
 X79.5095 Y41.7121 R15.2500
 X81.0304 Y38.0403 R15.2500
 X81.5491 Y34.1000 R15.2500
 X81.0304 Y30.1597 R15.2500
 X79.5095 Y26.4879 R15.2500
 X77.0901 Y23.3349 R15.2500
 X73.9371 Y20.9155 R15.2500
 X70.2653 Y19.3946 R15.2500
 X66.3250 Y18.8759 R15.2500
 X62.3847 Y19.3946 R15.2500
 X58.7129 Y20.9155 R15.2500
 X55.5599 Y23.3349 R15.2500
 X53.1405 Y26.4879 R15.2500
 X51.6196 Y30.1597 R15.2500
 X51.1009 Y34.1000 R15.2500
 X51.6196 Y38.0403 R15.2500
 X53.1405 Y41.7121 R15.2500
 X55.5599 Y44.8651 R15.2500
 X58.7129 Y47.2845 R15.2500
 X62.3847 Y48.8054 R15.2500
 X66.3250 Y49.3241 R15.2500
 X70.2653 Y48.8054 R15.2500
(Pass: 2)
G02 X73.9371 Y47.2845 Z-1.5000 R15.2500 F100 
G03 X70.2653 Y48.8054 Z-2.0000 R15.2500
G02 X73.9371 Y47.2845 R15.2500 F500 
 X77.0901 Y44.8651 R15.2500
 X79.5095 Y41.7121 R15.2500
 X81.0304 Y38.0403 R15.2500
 X81.5491 Y34.1000 R15.2500
 X81.0304 Y30.1597 R15.2500
 X79.5095 Y26.4879 R15.2500
 X77.0901 Y23.3349 R15.2500
 X73.9371 Y20.9155 R15.2500
 X70.2653 Y19.3946 R15.2500
 X66.3250 Y18.8759 R15.2500
 X62.3847 Y19.3946 R15.2500
 X58.7129 Y20.9155 R15.2500
 X55.5599 Y23.3349 R15.2500
 X53.1405 Y26.4879 R15.2500
 X51.6196 Y30.1597 R15.2500
 X51.1009 Y34.1000 R15.2500
 X51.6196 Y38.0403 R15.2500
 X53.1405 Y41.7121 R15.2500
 X55.5599 Y44.8651 R15.2500
 X58.7129 Y47.2845 R15.2500
 X62.3847 Y48.8054 R15.2500
 X66.3250 Y49.3241 R15.2500
 X70.2653 Y48.8054 R15.2500
(Pass: 3)
G02 X73.9371 Y47.2845 Z-2.5000 R15.2500 F100 
G03 X70.2653 Y48.8054 Z-3.0000 R15.2500
G02 X73.9371 Y47.2845 R15.2500 F500 
 X77.0901 Y44.8651 R15.2500
 X79.5095 Y41.7121 R15.2500
 X81.0304 Y38.0403 R15.2500
 X81.5491 Y34.1000 R15.2500
 X81.0304 Y30.1597 R15.2500
 X79.5095 Y26.4879 R15.2500
 X77.0901 Y23.3349 R15.2500
 X73.9371 Y20.9155 R15.2500
 X70.2653 Y19.3946 R15.2500
 X66.3250 Y18.8759 R15.2500
 X62.3847 Y19.3946 R15.2500
 X58.7129 Y20.9155 R15.2500
 X55.5599 Y23.3349 R15.2500
 X53.1405 Y26.4879 R15.2500
 X51.6196 Y30.1597 R15.2500
 X51.1009 Y34.1000 R15.2500
 X51.6196 Y38.0403 R15.2500
 X53.1405 Y41.7121 R15.2500
 X55.5599 Y44.8651 R15.2500
 X58.7129 Y47.2845 R15.2500
 X62.3847 Y48.8054 R15.2500
 X66.3250 Y49.3241 R15.2500
 X70.2653 Y48.8054 R15.2500
(Pass: 4)
G02 X73.9371 Y47.2845 Z-3.5000 R15.2500 F100 
G03 X70.2653 Y48.8054 Z-4.0000 R15.2500
G02 X73.9371 Y47.2845 R15.2500 F500 
 X77.0901 Y44.8651 R15.2500
 X79.5095 Y41.7121 R15.2500
 X81.0304 Y38.0403 R15.2500
 X81.5491 Y34.1000 R15.2500
 X81.0304 Y30.1597 R15.2500
 X79.5095 Y26.4879 R15.2500
 X77.0901 Y23.3349 R15.2500
 X73.9371 Y20.9155 R15.2500
 X70.2653 Y19.3946 R15.2500
 X66.3250 Y18.8759 R15.2500
 X62.3847 Y19.3946 R15.2500
 X58.7129 Y20.9155 R15.2500
 X55.5599 Y23.3349 R15.2500
 X53.1405 Y26.4879 R15.2500
 X51.6196 Y30.1597 R15.2500
 X51.1009 Y34.1000 R15.2500
 X51.6196 Y38.0403 R15.2500
 X53.1405 Y41.7121 R15.2500
 X55.5599 Y44.8651 R15.2500
 X58.7129 Y47.2845 R15.2500
 X62.3847 Y48.8054 R15.2500
 X66.3250 Y49.3241 R15.2500
 X70.2653 Y48.8054 R15.2500
(Pass: 5)
G02 X73.9371 Y47.2845 Z-4.5000 R15.2500 F100 
G03 X70.2653 Y48.8054 Z-5.0000 R15.2500
G02 X73.9371 Y47.2845 R15.2500 F500 
 X77.0901 Y44.8651 R15.2500
 X79.5095 Y41.7121 R15.2500
 X81.0304 Y38.0403 R15.2500
 X81.5491 Y34.1000 R15.2500
 X81.0304 Y30.1597 R15.2500
 X79.5095 Y26.4879 R15.2500
 X77.0901 Y23.3349 R15.2500
 X73.9371 Y20.9155 R15.2500
 X70.2653 Y19.3946 R15.2500
 X66.3250 Y18.8759 R15.2500
 X62.3847 Y19.3946 R15.2500
 X58.7129 Y20.9155 R15.2500
 X55.5599 Y23.3349 R15.2500
 X53.1405 Y26.4879 R15.2500
 X51.6196 Y30.1597 R15.2500
 X51.1009 Y34.1000 R15.2500
 X51.6196 Y38.0403 R15.2500
 X53.1405 Y41.7121 R15.2500
 X55.5599 Y44.8651 R15.2500
 X58.7129 Y47.2845 R15.2500
 X62.3847 Y48.8054 R15.2500
 X66.3250 Y49.3241 R15.2500
 X70.2653 Y48.8054 R15.2500
(Pass: 6)
G02 X73.9371 Y47.2845 Z-5.5000 R15.2500 F100 
G03 X70.2653 Y48.8054 Z-6.0000 R15.2500
G02 X73.9371 Y47.2845 R15.2500 F500 
 X77.0901 Y44.8651 R15.2500
 X79.5095 Y41.7121 R15.2500
 X81.0304 Y38.0403 R15.2500
 X81.5491 Y34.1000 R15.2500
 X81.0304 Y30.1597 R15.2500
 X79.5095 Y26.4879 R15.2500
 X77.0901 Y23.3349 R15.2500
 X73.9371 Y20.9155 R15.2500
 X70.2653 Y19.3946 R15.2500
 X66.3250 Y18.8759 R15.2500
 X62.3847 Y19.3946 R15.2500
 X58.7129 Y20.9155 R15.2500
 X55.5599 Y23.3349 R15.2500
 X53.1405 Y26.4879 R15.2500
 X51.6196 Y30.1597 R15.2500
 X51.1009 Y34.1000 R15.2500
 X51.6196 Y38.0403 R15.2500
 X53.1405 Y41.7121 R15.2500
 X55.5599 Y44.8651 R15.2500
 X58.7129 Y47.2845 R15.2500
 X62.3847 Y48.8054 R15.2500
 X66.3250 Y49.3241 R15.2500
 X70.2653 Y48.8054 R15.2500
(Pass: 7)
G02 X73.9371 Y47.2845 Z-6.5000 R15.2500 F100 
G03 X70.2653 Y48.8054 Z-7.0000 R15.2500
G02 X73.9371 Y47.2845 R15.2500 F500 
 X77.0901 Y44.8651 R15.2500
 X79.5095 Y41.7121 R15.2500
 X81.0304 Y38.0403 R15.2500
 X81.5491 Y34.1000 R15.2500
 X81.0304 Y30.1597 R15.2500
 X79.5095 Y26.4879 R15.2500
 X77.0901 Y23.3349 R15.2500
 X73.9371 Y20.9155 R15.2500
 X70.2653 Y19.3946 R15.2500
 X66.3250 Y18.8759 R15.2500
 X62.3847 Y19.3946 R15.2500
 X58.7129 Y20.9155 R15.2500
 X55.5599 Y23.3349 R15.2500
 X53.1405 Y26.4879 R15.2500
 X51.6196 Y30.1597 R15.2500
 X51.1009 Y34.1000 R15.2500
 X51.6196 Y38.0403 R15.2500
 X53.1405 Y41.7121 R15.2500
 X55.5599 Y44.8651 R15.2500
 X58.7129 Y47.2845 R15.2500
 X62.3847 Y48.8054 R15.2500
 X66.3250 Y49.3241 R15.2500
 X70.2653 Y48.8054 R15.2500
(Pass: 8)
G02 X73.9371 Y47.2845 Z-7.5000 R15.2500 F100 
G03 X70.2653 Y48.8054 Z-8.0000 R15.2500
G02 X73.9371 Y47.2845 R15.2500 F500 
 X77.0901 Y44.8651 R15.2500
 X79.5095 Y41.7121 R15.2500
 X81.0304 Y38.0403 R15.2500
 X81.5491 Y34.1000 R15.2500
 X81.0304 Y30.1597 R15.2500
 X79.5095 Y26.4879 R15.2500
 X77.0901 Y23.3349 R15.2500
 X73.9371 Y20.9155 R15.2500
 X70.2653 Y19.3946 R15.2500
 X66.3250 Y18.8759 R15.2500
 X62.3847 Y19.3946 R15.2500
 X58.7129 Y20.9155 R15.2500
 X55.5599 Y23.3349 R15.2500
 X53.1405 Y26.4879 R15.2500
 X51.6196 Y30.1597 R15.2500
 X51.1009 Y34.1000 R15.2500
 X51.6196 Y38.0403 R15.2500
 X53.1405 Y41.7121 R15.2500
 X55.5599 Y44.8651 R15.2500
 X58.7129 Y47.2845 R15.2500
 X62.3847 Y48.8054 R15.2500
 X66.3250 Y49.3241 R15.2500
 X70.2653 Y48.8054 R15.2500
(Pass: 9)
G02 X73.9371 Y47.2845 Z-8.5000 R15.2500 F100 
G03 X70.2653 Y48.8054 Z-9.0000 R15.2500
G02 X73.9371 Y47.2845 R15.2500 F500 
 X77.0901 Y44.8651 R15.2500
 X79.5095 Y41.7121 R15.2500
 X81.0304 Y38.0403 R15.2500
 X81.5491 Y34.1000 R15.2500
 X81.0304 Y30.1597 R15.2500
 X79.5095 Y26.4879 R15.2500
 X77.0901 Y23.3349 R15.2500
 X73.9371 Y20.9155 R15.2500
 X70.2653 Y19.3946 R15.2500
 X66.3250 Y18.8759 R15.2500
 X62.3847 Y19.3946 R15.2500
 X58.7129 Y20.9155 R15.2500
 X55.5599 Y23.3349 R15.2500
 X53.1405 Y26.4879 R15.2500
 X51.6196 Y30.1597 R15.2500
 X51.1009 Y34.1000 R15.2500
 X51.6196 Y38.0403 R15.2500
 X53.1405 Y41.7121 R15.2500
 X55.5599 Y44.8651 R15.2500
 X58.7129 Y47.2845 R15.2500
 X62.3847 Y48.8054 R15.2500
 X66.3250 Y49.3241 R15.2500
 X70.2653 Y48.8054 R15.2500
(Pass: 10)
G02 X73.9371 Y47.2845 Z-9.5000 R15.2500 F100 
G03 X70.2653 Y48.8054 Z-10.0000 R15.2500
G02 X73.9371 Y47.2845 R15.2500 F500 
 X77.0901 Y44.8651 R15.2500
 X79.5095 Y41.7121 R15.2500
 X81.0304 Y38.0403 R15.2500
 X81.5491 Y34.1000 R15.2500
 X81.0304 Y30.1597 R15.2500
 X79.5095 Y26.4879 R15.2500
 X77.0901 Y23.3349 R15.2500
 X73.9371 Y20.9155 R15.2500
 X70.2653 Y19.3946 R15.2500
 X66.3250 Y18.8759 R15.2500
 X62.3847 Y19.3946 R15.2500
 X58.7129 Y20.9155 R15.2500
 X55.5599 Y23.3349 R15.2500
 X53.1405 Y26.4879 R15.2500
 X51.6196 Y30.1597 R15.2500
 X51.1009 Y34.1000 R15.2500
 X51.6196 Y38.0403 R15.2500
 X53.1405 Y41.7121 R15.2500
 X55.5599 Y44.8651 R15.2500
 X58.7129 Y47.2845 R15.2500
 X62.3847 Y48.8054 R15.2500
 X66.3250 Y49.3241 R15.2500
 X70.2653 Y48.8054 R15.2500
(Pass: 11)
G02 X73.9371 Y47.2845 Z-10.5000 R15.2500 F100 
G03 X70.2653 Y48.8054 Z-11.0000 R15.2500
G02 X73.9371 Y47.2845 R15.2500 F500 
 X77.0901 Y44.8651 R15.2500
 X79.5095 Y41.7121 R15.2500
 X81.0304 Y38.0403 R15.2500
 X81.5491 Y34.1000 R15.2500
 X81.0304 Y30.1597 R15.2500
 X79.5095 Y26.4879 R15.2500
 X77.0901 Y23.3349 R15.2500
 X73.9371 Y20.9155 R15.2500
 X70.2653 Y19.3946 R15.2500
 X66.3250 Y18.8759 R15.2500
 X62.3847 Y19.3946 R15.2500
 X58.7129 Y20.9155 R15.2500
 X55.5599 Y23.3349 R15.2500
 X53.1405 Y26.4879 R15.2500
 X51.6196 Y30.1597 R15.2500
 X51.1009 Y34.1000 R15.2500
 X51.6196 Y38.0403 R15.2500
 X53.1405 Y41.7121 R15.2500
 X55.5599 Y44.8651 R15.2500
 X58.7129 Y47.2845 R15.2500
 X62.3847 Y48.8054 R15.2500
 X66.3250 Y49.3241 R15.2500
 X70.2653 Y48.8054 R15.2500
(Pass: 12)
G02 X73.9371 Y47.2845 Z-11.5000 R15.2500 F100 
G03 X70.2653 Y48.8054 Z-12.0000 R15.2500
G02 X73.9371 Y47.2845 R15.2500 F500 
 X77.0901 Y44.8651 R15.2500
 X79.5095 Y41.7121 R15.2500
 X81.0304 Y38.0403 R15.2500
 X81.5491 Y34.1000 R15.2500
 X81.0304 Y30.1597 R15.2500
 X79.5095 Y26.4879 R15.2500
 X77.0901 Y23.3349 R15.2500
 X73.9371 Y20.9155 R15.2500
 X70.2653 Y19.3946 R15.2500
 X66.3250 Y18.8759 R15.2500
 X62.3847 Y19.3946 R15.2500
 X58.7129 Y20.9155 R15.2500
 X55.5599 Y23.3349 R15.2500
 X53.1405 Y26.4879 R15.2500
 X51.6196 Y30.1597 R15.2500
 X51.1009 Y34.1000 R15.2500
 X51.6196 Y38.0403 R15.2500
 X53.1405 Y41.7121 R15.2500
 X55.5599 Y44.8651 R15.2500
 X58.7129 Y47.2845 R15.2500
 X62.3847 Y48.8054 R15.2500
 X66.3250 Y49.3241 R15.2500
 X70.2653 Y48.8054 R15.2500
(Pass: 13)
G02 X73.9371 Y47.2845 Z-12.5000 R15.2500 F100 
G03 X70.2653 Y48.8054 Z-13.0000 R15.2500
G02 X73.9371 Y47.2845 R15.2500 F500 
 X77.0901 Y44.8651 R15.2500
 X79.5095 Y41.7121 R15.2500
 X81.0304 Y38.0403 R15.2500
 X81.5491 Y34.1000 R15.2500
 X81.0304 Y30.1597 R15.2500
 X79.5095 Y26.4879 R15.2500
 X77.0901 Y23.3349 R15.2500
 X73.9371 Y20.9155 R15.2500
 X70.2653 Y19.3946 R15.2500
 X66.3250 Y18.8759 R15.2500
 X62.3847 Y19.3946 R15.2500
 X58.7129 Y20.9155 R15.2500
 X55.5599 Y23.3349 R15.2500
 X53.1405 Y26.4879 R15.2500
 X51.6196 Y30.1597 R15.2500
 X51.1009 Y34.1000 R15.2500
 X51.6196 Y38.0403 R15.2500
 X53.1405 Y41.7121 R15.2500
 X55.5599 Y44.8651 R15.2500
 X58.7129 Y47.2845 R15.2500
 X62.3847 Y48.8054 R15.2500
 X66.3250 Y49.3241 R15.2500
 X70.2653 Y48.8054 R15.2500
(Pass: 14)
G02 X73.9371 Y47.2845 Z-13.4850 R15.2500 F100 
G03 X70.2653 Y48.8054 Z-13.9700 R15.2500
G02 X73.9371 Y47.2845 R15.2500 F500 
 X77.0901 Y44.8651 R15.2500
 X79.5095 Y41.7121 R15.2500
 X81.0304 Y38.0403 R15.2500
 X81.5491 Y34.1000 R15.2500
 X81.0304 Y30.1597 R15.2500
 X79.5095 Y26.4879 R15.2500
 X77.0901 Y23.3349 R15.2500
 X73.9371 Y20.9155 R15.2500
 X70.2653 Y19.3946 R15.2500
 X66.3250 Y18.8759 R15.2500
 X62.3847 Y19.3946 R15.2500
 X58.7129 Y20.9155 R15.2500
 X55.5599 Y23.3349 R15.2500
 X53.1405 Y26.4879 R15.2500
 X51.6196 Y30.1597 R15.2500
 X51.1009 Y34.1000 R15.2500
 X51.6196 Y38.0403 R15.2500
 X53.1405 Y41.7121 R15.2500
 X55.5599 Y44.8651 R15.2500
 X58.7129 Y47.2845 R15.2500
 X62.3847 Y48.8054 R15.2500
 X66.3250 Y49.3241 R15.2500
 X70.2653 Y48.8054 R15.2500
G00 Z10.000
(Pass: 1)
 X66.325 Y77.126
G00 Z0.100
G02 X56.2378 Y78.4539 Z-0.4500 R39.0000 F100 
G03 X66.3250 Y77.1259 Z-1.0000 R39.0000
G02 X56.2378 Y78.4539 R39.0000 F500 
 X46.8379 Y82.3474 R39.0000
 X38.7661 Y88.5411 R39.0000
 X32.5724 Y96.6129 R39.0000
 X28.6789 Y106.0128 R39.0000
 X27.3509 Y116.1000 R39.0000
 X28.6789 Y126.1872 R39.0000
 X32.5724 Y135.5871 R39.0000
 X38.7661 Y143.6589 R39.0000
 X46.8379 Y149.8526 R39.0000
 X56.2378 Y153.7461 R39.0000
 X66.3250 Y155.0741 R39.0000
 X76.4122 Y153.7461 R39.0000
 X85.8121 Y149.8526 R39.0000
 X93.8839 Y143.6589 R39.0000
 X100.0776 Y135.5871 R39.0000
 X103.9711 Y126.1872 R39.0000
 X105.2991 Y116.1000 R39.0000
 X103.9711 Y106.0128 R39.0000
 X100.0776 Y96.6129 R39.0000
 X93.8839 Y88.5411 R39.0000
 X85.8121 Y82.3474 R39.0000
 X76.4122 Y78.4539 R39.0000
 X66.3250 Y77.1259 R39.0000
(Pass: 2)
G02 X56.2378 Y78.4539 Z-1.5000 R39.0000 F100 
G03 X66.3250 Y77.1259 Z-2.0000 R39.0000
G02 X56.2378 Y78.4539 R39.0000 F500 
 X46.8379 Y82.3474 R39.0000
 X38.7661 Y88.5411 R39.0000
 X32.5724 Y96.6129 R39.0000
 X28.6789 Y106.0128 R39.0000
 X27.3509 Y116.1000 R39.0000
 X28.6789 Y126.1872 R39.0000
 X32.5724 Y135.5871 R39.0000
 X38.7661 Y143.6589 R39.0000
 X46.8379 Y149.8526 R39.0000
 X56.2378 Y153.7461 R39.0000
 X66.3250 Y155.0741 R39.0000
 X76.4122 Y153.7461 R39.0000
 X85.8121 Y149.8526 R39.0000
 X93.8839 Y143.6589 R39.0000
 X100.0776 Y135.5871 R39.0000
 X103.9711 Y126.1872 R39.0000
 X105.2991 Y116.1000 R39.0000
 X103.9711 Y106.0128 R39.0000
 X100.0776 Y96.6129 R39.0000
 X93.8839 Y88.5411 R39.0000
 X85.8121 Y82.3474 R39.0000
 X76.4122 Y78.4539 R39.0000
 X66.3250 Y77.1259 R39.0000
(Pass: 3)
G02 X56.2378 Y78.4539 Z-2.5000 R39.0000 F100 
G03 X66.3250 Y77.1259 Z-3.0000 R39.0000
G02 X56.2378 Y78.4539 R39.0000 F500 
 X46.8379 Y82.3474 R39.0000
 X38.7661 Y88.5411 R39.0000
 X32.5724 Y96.6129 R39.0000
 X28.6789 Y106.0128 R39.0000
 X27.3509 Y116.1000 R39.0000
 X28.6789 Y126.1872 R39.0000
 X32.5724 Y135.5871 R39.0000
 X38.7661 Y143.6589 R39.0000
 X46.8379 Y149.8526 R39.0000
 X56.2378 Y153.7461 R39.0000
 X66.3250 Y155.0741 R39.0000
 X76.4122 Y153.7461 R39.0000
 X85.8121 Y149.8526 R39.0000
 X93.8839 Y143.6589 R39.0000
 X100.0776 Y135.5871 R39.0000
 X103.9711 Y126.1872 R39.0000
 X105.2991 Y116.1000 R39.0000
 X103.9711 Y106.0128 R39.0000
 X100.0776 Y96.6129 R39.0000
 X93.8839 Y88.5411 R39.0000
 X85.8121 Y82.3474 R39.0000
 X76.4122 Y78.4539 R39.0000
 X66.3250 Y77.1259 R39.0000
(Pass: 4)
G02 X56.2378 Y78.4539 Z-3.5000 R39.0000 F100 
G03 X66.3250 Y77.1259 Z-4.0000 R39.0000
G02 X56.2378 Y78.4539 R39.0000 F500 
 X46.8379 Y82.3474 R39.0000
 X38.7661 Y88.5411 R39.0000
 X32.5724 Y96.6129 R39.0000
 X28.6789 Y106.0128 R39.0000
 X27.3509 Y116.1000 R39.0000
 X28.6789 Y126.1872 R39.0000
 X32.5724 Y135.5871 R39.0000
 X38.7661 Y143.6589 R39.0000
 X46.8379 Y149.8526 R39.0000
 X56.2378 Y153.7461 R39.0000
 X66.3250 Y155.0741 R39.0000
 X76.4122 Y153.7461 R39.0000
 X85.8121 Y149.8526 R39.0000
 X93.8839 Y143.6589 R39.0000
 X100.0776 Y135.5871 R39.0000
 X103.9711 Y126.1872 R39.0000
 X105.2991 Y116.1000 R39.0000
 X103.9711 Y106.0128 R39.0000
 X100.0776 Y96.6129 R39.0000
 X93.8839 Y88.5411 R39.0000
 X85.8121 Y82.3474 R39.0000
 X76.4122 Y78.4539 R39.0000
 X66.3250 Y77.1259 R39.0000
(Pass: 5)
G02 X56.2378 Y78.4539 Z-4.5000 R39.0000 F100 
G03 X66.3250 Y77.1259 Z-5.0000 R39.0000
G02 X56.2378 Y78.4539 R39.0000 F500 
 X46.8379 Y82.3474 R39.0000
 X38.7661 Y88.5411 R39.0000
 X32.5724 Y96.6129 R39.0000
 X28.6789 Y106.0128 R39.0000
 X27.3509 Y116.1000 R39.0000
 X28.6789 Y126.1872 R39.0000
 X32.5724 Y135.5871 R39.0000
 X38.7661 Y143.6589 R39.0000
 X46.8379 Y149.8526 R39.0000
 X56.2378 Y153.7461 R39.0000
 X66.3250 Y155.0741 R39.0000
 X76.4122 Y153.7461 R39.0000
 X85.8121 Y149.8526 R39.0000
 X93.8839 Y143.6589 R39.0000
 X100.0776 Y135.5871 R39.0000
 X103.9711 Y126.1872 R39.0000
 X105.2991 Y116.1000 R39.0000
 X103.9711 Y106.0128 R39.0000
 X100.0776 Y96.6129 R39.0000
 X93.8839 Y88.5411 R39.0000
 X85.8121 Y82.3474 R39.0000
 X76.4122 Y78.4539 R39.0000
 X66.3250 Y77.1259 R39.0000
(Pass: 6)
G02 X56.2378 Y78.4539 Z-5.5000 R39.0000 F100 
G03 X66.3250 Y77.1259 Z-6.0000 R39.0000
G02 X56.2378 Y78.4539 R39.0000 F500 
 X46.8379 Y82.3474 R39.0000
 X38.7661 Y88.5411 R39.0000
 X32.5724 Y96.6129 R39.0000
 X28.6789 Y106.0128 R39.0000
 X27.3509 Y116.1000 R39.0000
 X28.6789 Y126.1872 R39.0000
 X32.5724 Y135.5871 R39.0000
 X38.7661 Y143.6589 R39.0000
 X46.8379 Y149.8526 R39.0000
 X56.2378 Y153.7461 R39.0000
 X66.3250 Y155.0741 R39.0000
 X76.4122 Y153.7461 R39.0000
 X85.8121 Y149.8526 R39.0000
 X93.8839 Y143.6589 R39.0000
 X100.0776 Y135.5871 R39.0000
 X103.9711 Y126.1872 R39.0000
 X105.2991 Y116.1000 R39.0000
 X103.9711 Y106.0128 R39.0000
 X100.0776 Y96.6129 R39.0000
 X93.8839 Y88.5411 R39.0000
 X85.8121 Y82.3474 R39.0000
 X76.4122 Y78.4539 R39.0000
 X66.3250 Y77.1259 R39.0000
(Pass: 7)
G02 X56.2378 Y78.4539 Z-6.5000 R39.0000 F100 
G03 X66.3250 Y77.1259 Z-7.0000 R39.0000
G02 X56.2378 Y78.4539 R39.0000 F500 
 X46.8379 Y82.3474 R39.0000
 X38.7661 Y88.5411 R39.0000
 X32.5724 Y96.6129 R39.0000
 X28.6789 Y106.0128 R39.0000
 X27.3509 Y116.1000 R39.0000
 X28.6789 Y126.1872 R39.0000
 X32.5724 Y135.5871 R39.0000
 X38.7661 Y143.6589 R39.0000
 X46.8379 Y149.8526 R39.0000
 X56.2378 Y153.7461 R39.0000
 X66.3250 Y155.0741 R39.0000
 X76.4122 Y153.7461 R39.0000
 X85.8121 Y149.8526 R39.0000
 X93.8839 Y143.6589 R39.0000
 X100.0776 Y135.5871 R39.0000
 X103.9711 Y126.1872 R39.0000
 X105.2991 Y116.1000 R39.0000
 X103.9711 Y106.0128 R39.0000
 X100.0776 Y96.6129 R39.0000
 X93.8839 Y88.5411 R39.0000
 X85.8121 Y82.3474 R39.0000
 X76.4122 Y78.4539 R39.0000
 X66.3250 Y77.1259 R39.0000
(Pass: 8)
G02 X56.2378 Y78.4539 Z-7.5000 R39.0000 F100 
G03 X66.3250 Y77.1259 Z-8.0000 R39.0000
G02 X56.2378 Y78.4539 R39.0000 F500 
 X46.8379 Y82.3474 R39.0000
 X38.7661 Y88.5411 R39.0000
 X32.5724 Y96.6129 R39.0000
 X28.6789 Y106.0128 R39.0000
 X27.3509 Y116.1000 R39.0000
 X28.6789 Y126.1872 R39.0000
 X32.5724 Y135.5871 R39.0000
 X38.7661 Y143.6589 R39.0000
 X46.8379 Y149.8526 R39.0000
 X56.2378 Y153.7461 R39.0000
 X66.3250 Y155.0741 R39.0000
 X76.4122 Y153.7461 R39.0000
 X85.8121 Y149.8526 R39.0000
 X93.8839 Y143.6589 R39.0000
 X100.0776 Y135.5871 R39.0000
 X103.9711 Y126.1872 R39.0000
 X105.2991 Y116.1000 R39.0000
 X103.9711 Y106.0128 R39.0000
 X100.0776 Y96.6129 R39.0000
 X93.8839 Y88.5411 R39.0000
 X85.8121 Y82.3474 R39.0000
 X76.4122 Y78.4539 R39.0000
 X66.3250 Y77.1259 R39.0000
(Pass: 9)
G02 X56.2378 Y78.4539 Z-8.5000 R39.0000 F100 
G03 X66.3250 Y77.1259 Z-9.0000 R39.0000
G02 X56.2378 Y78.4539 R39.0000 F500 
 X46.8379 Y82.3474 R39.0000
 X38.7661 Y88.5411 R39.0000
 X32.5724 Y96.6129 R39.0000
 X28.6789 Y106.0128 R39.0000
 X27.3509 Y116.1000 R39.0000
 X28.6789 Y126.1872 R39.0000
 X32.5724 Y135.5871 R39.0000
 X38.7661 Y143.6589 R39.0000
 X46.8379 Y149.8526 R39.0000
 X56.2378 Y153.7461 R39.0000
 X66.3250 Y155.0741 R39.0000
 X76.4122 Y153.7461 R39.0000
 X85.8121 Y149.8526 R39.0000
 X93.8839 Y143.6589 R39.0000
 X100.0776 Y135.5871 R39.0000
 X103.9711 Y126.1872 R39.0000
 X105.2991 Y116.1000 R39.0000
 X103.9711 Y106.0128 R39.0000
 X100.0776 Y96.6129 R39.0000
 X93.8839 Y88.5411 R39.0000
 X85.8121 Y82.3474 R39.0000
 X76.4122 Y78.4539 R39.0000
 X66.3250 Y77.1259 R39.0000
(Pass: 10)
G02 X56.2378 Y78.4539 Z-9.5000 R39.0000 F100 
G03 X66.3250 Y77.1259 Z-10.0000 R39.0000
G02 X56.2378 Y78.4539 R39.0000 F500 
 X46.8379 Y82.3474 R39.0000
 X38.7661 Y88.5411 R39.0000
 X32.5724 Y96.6129 R39.0000
 X28.6789 Y106.0128 R39.0000
 X27.3509 Y116.1000 R39.0000
 X28.6789 Y126.1872 R39.0000
 X32.5724 Y135.5871 R39.0000
 X38.7661 Y143.6589 R39.0000
 X46.8379 Y149.8526 R39.0000
 X56.2378 Y153.7461 R39.0000
 X66.3250 Y155.0741 R39.0000
 X76.4122 Y153.7461 R39.0000
 X85.8121 Y149.8526 R39.0000
 X93.8839 Y143.6589 R39.0000
 X100.0776 Y135.5871 R39.0000
 X103.9711 Y126.1872 R39.0000
 X105.2991 Y116.1000 R39.0000
 X103.9711 Y106.0128 R39.0000
 X100.0776 Y96.6129 R39.0000
 X93.8839 Y88.5411 R39.0000
 X85.8121 Y82.3474 R39.0000
 X76.4122 Y78.4539 R39.0000
 X66.3250 Y77.1259 R39.0000
(Pass: 11)
G02 X56.2378 Y78.4539 Z-10.5000 R39.0000 F100 
G03 X66.3250 Y77.1259 Z-11.0000 R39.0000
G02 X56.2378 Y78.4539 R39.0000 F500 
 X46.8379 Y82.3474 R39.0000
 X38.7661 Y88.5411 R39.0000
 X32.5724 Y96.6129 R39.0000
 X28.6789 Y106.0128 R39.0000
 X27.3509 Y116.1000 R39.0000
 X28.6789 Y126.1872 R39.0000
 X32.5724 Y135.5871 R39.0000
 X38.7661 Y143.6589 R39.0000
 X46.8379 Y149.8526 R39.0000
 X56.2378 Y153.7461 R39.0000
 X66.3250 Y155.0741 R39.0000
 X76.4122 Y153.7461 R39.0000
 X85.8121 Y149.8526 R39.0000
 X93.8839 Y143.6589 R39.0000
 X100.0776 Y135.5871 R39.0000
 X103.9711 Y126.1872 R39.0000
 X105.2991 Y116.1000 R39.0000
 X103.9711 Y106.0128 R39.0000
 X100.0776 Y96.6129 R39.0000
 X93.8839 Y88.5411 R39.0000
 X85.8121 Y82.3474 R39.0000
 X76.4122 Y78.4539 R39.0000
 X66.3250 Y77.1259 R39.0000
(Pass: 12)
G02 X56.2378 Y78.4539 Z-11.5000 R39.0000 F100 
G03 X66.3250 Y77.1259 Z-12.0000 R39.0000
G02 X56.2378 Y78.4539 R39.0000 F500 
 X46.8379 Y82.3474 R39.0000
 X38.7661 Y88.5411 R39.0000
 X32.5724 Y96.6129 R39.0000
 X28.6789 Y106.0128 R39.0000
 X27.3509 Y116.1000 R39.0000
 X28.6789 Y126.1872 R39.0000
 X32.5724 Y135.5871 R39.0000
 X38.7661 Y143.6589 R39.0000
 X46.8379 Y149.8526 R39.0000
 X56.2378 Y153.7461 R39.0000
 X66.3250 Y155.0741 R39.0000
 X76.4122 Y153.7461 R39.0000
 X85.8121 Y149.8526 R39.0000
 X93.8839 Y143.6589 R39.0000
 X100.0776 Y135.5871 R39.0000
 X103.9711 Y126.1872 R39.0000
 X105.2991 Y116.1000 R39.0000
 X103.9711 Y106.0128 R39.0000
 X100.0776 Y96.6129 R39.0000
 X93.8839 Y88.5411 R39.0000
 X85.8121 Y82.3474 R39.0000
 X76.4122 Y78.4539 R39.0000
 X66.3250 Y77.1259 R39.0000
(Pass: 13)
G02 X56.2378 Y78.4539 Z-12.5000 R39.0000 F100 
G03 X66.3250 Y77.1259 Z-13.0000 R39.0000
G02 X56.2378 Y78.4539 R39.0000 F500 
 X46.8379 Y82.3474 R39.0000
 X38.7661 Y88.5411 R39.0000
 X32.5724 Y96.6129 R39.0000
 X28.6789 Y106.0128 R39.0000
 X27.3509 Y116.1000 R39.0000
 X28.6789 Y126.1872 R39.0000
 X32.5724 Y135.5871 R39.0000
 X38.7661 Y143.6589 R39.0000
 X46.8379 Y149.8526 R39.0000
 X56.2378 Y153.7461 R39.0000
 X66.3250 Y155.0741 R39.0000
 X76.4122 Y153.7461 R39.0000
 X85.8121 Y149.8526 R39.0000
 X93.8839 Y143.6589 R39.0000
 X100.0776 Y135.5871 R39.0000
 X103.9711 Y126.1872 R39.0000
 X105.2991 Y116.1000 R39.0000
 X103.9711 Y106.0128 R39.0000
 X100.0776 Y96.6129 R39.0000
 X93.8839 Y88.5411 R39.0000
 X85.8121 Y82.3474 R39.0000
 X76.4122 Y78.4539 R39.0000
 X66.3250 Y77.1259 R39.0000
(Pass: 14)
G02 X56.2378 Y78.4539 Z-13.4850 R39.0000 F100 
G03 X66.3250 Y77.1259 Z-13.9700 R39.0000
G02 X56.2378 Y78.4539 R39.0000 F500 
 X46.8379 Y82.3474 R39.0000
 X38.7661 Y88.5411 R39.0000
 X32.5724 Y96.6129 R39.0000
 X28.6789 Y106.0128 R39.0000
 X27.3509 Y116.1000 R39.0000
 X28.6789 Y126.1872 R39.0000
 X32.5724 Y135.5871 R39.0000
 X38.7661 Y143.6589 R39.0000
 X46.8379 Y149.8526 R39.0000
 X56.2378 Y153.7461 R39.0000
 X66.3250 Y155.0741 R39.0000
 X76.4122 Y153.7461 R39.0000
 X85.8121 Y149.8526 R39.0000
 X93.8839 Y143.6589 R39.0000
 X100.0776 Y135.5871 R39.0000
 X103.9711 Y126.1872 R39.0000
 X105.2991 Y116.1000 R39.0000
 X103.9711 Y106.0128 R39.0000
 X100.0776 Y96.6129 R39.0000
 X93.8839 Y88.5411 R39.0000
 X85.8121 Y82.3474 R39.0000
 X76.4122 Y78.4539 R39.0000
 X66.3250 Y77.1259 R39.0000
G00 Z10.000
(Pass: 1)
 X100.950 Y65.485
G00 Z0.100
G02 X102.3998 Y69.7547 Z-0.4500 R91.3274 F100 
G03 X100.9499 Y65.4849 Z-1.0000 R91.3274
G02 X102.3998 Y69.7547 R91.3274 F500 
 X104.0732 Y73.9420 R91.3274
 X105.9655 Y78.0349 R91.3274
 X108.0714 Y82.0222 R91.3274
 X109.5524 Y84.5000 R91.3274
G01 X125.650
 Y115.971
 Y129.971
 Y173.050
 X7.000
 Y129.647
 Y115.647
 Y84.500
 X19.232
G02 X21.0111 Y81.9424 R93.1170
 X23.4369 Y78.0295 R93.1170
 X25.6526 Y73.9940 R93.1170
 X27.6520 Y69.8470 R93.1170
 X29.4295 Y65.6002 R93.1170
 X30.9802 Y61.2654 R93.1170
 X32.2997 Y56.8547 R93.1170
 X33.3844 Y52.3805 R93.1170
 X34.2312 Y47.8552 R93.1170
 X34.8377 Y43.2916 R93.1170
 X35.2023 Y38.7022 R93.1170
 X35.3302 Y33.8639 R93.1170
G03 X36.3563 Y26.0699 R31.0000
 X39.4558 Y18.5871 R31.0000
 X44.3864 Y12.1614 R31.0000
 X50.8121 Y7.2308 R31.0000
 X58.2949 Y4.1313 R31.0000
 X66.3250 Y3.0741 R31.0000
 X74.3551 Y4.1313 R31.0000
 X81.8379 Y7.2308 R31.0000
 X88.2636 Y12.1614 R31.0000
 X93.1942 Y18.5871 R31.0000
 X96.2937 Y26.0699 R31.0000
 X97.3334 Y33.9671 R31.0000
G02 X97.1268 Y38.8122 R91.3274
 X97.1729 Y43.3212 R91.3274
 X97.4572 Y47.8215 R91.3274
 X97.9788 Y52.3004 R91.3274
 X98.7363 Y56.7456 R91.3274
 X99.7276 Y61.1445 R91.3274
 X100.9499 Y65.4849 R91.3274
(Pass: 2)
G02 X102.3998 Y69.7547 Z-1.5000 R91.3274 F100 
G03 X100.9499 Y65.4849 Z-2.0000 R91.3274
G02 X102.3998 Y69.7547 R91.3274 F500 
 X104.0732 Y73.9420 R91.3274
 X105.9655 Y78.0349 R91.3274
 X108.0714 Y82.0222 R91.3274
 X109.5524 Y84.5000 R91.3274
G01 X125.650
 Y115.971
 Y129.971
 Y173.050
 X7.000
 Y129.647
 Y115.647
 Y84.500
 X19.232
G02 X21.0111 Y81.9424 R93.1170
 X23.4369 Y78.0295 R93.1170
 X25.6526 Y73.9940 R93.1170
 X27.6520 Y69.8470 R93.1170
 X29.4295 Y65.6002 R93.1170
 X30.9802 Y61.2654 R93.1170
 X32.2997 Y56.8547 R93.1170
 X33.3844 Y52.3805 R93.1170
 X34.2312 Y47.8552 R93.1170
 X34.8377 Y43.2916 R93.1170
 X35.2023 Y38.7022 R93.1170
 X35.3302 Y33.8639 R93.1170
G03 X36.3563 Y26.0699 R31.0000
 X39.4558 Y18.5871 R31.0000
 X44.3864 Y12.1614 R31.0000
 X50.8121 Y7.2308 R31.0000
 X58.2949 Y4.1313 R31.0000
 X66.3250 Y3.0741 R31.0000
 X74.3551 Y4.1313 R31.0000
 X81.8379 Y7.2308 R31.0000
 X88.2636 Y12.1614 R31.0000
 X93.1942 Y18.5871 R31.0000
 X96.2937 Y26.0699 R31.0000
 X97.3334 Y33.9671 R31.0000
G02 X97.1268 Y38.8122 R91.3274
 X97.1729 Y43.3212 R91.3274
 X97.4572 Y47.8215 R91.3274
 X97.9788 Y52.3004 R91.3274
 X98.7363 Y56.7456 R91.3274
 X99.7276 Y61.1445 R91.3274
 X100.9499 Y65.4849 R91.3274
(Pass: 3)
G02 X102.3998 Y69.7547 Z-2.5000 R91.3274 F100 
G03 X100.9499 Y65.4849 Z-3.0000 R91.3274
G02 X102.3998 Y69.7547 R91.3274 F500 
 X104.0732 Y73.9420 R91.3274
 X105.9655 Y78.0349 R91.3274
 X108.0714 Y82.0222 R91.3274
 X109.5524 Y84.5000 R91.3274
G01 X125.650
 Y115.971
 Y129.971
 Y173.050
 X7.000
 Y129.647
 Y115.647
 Y84.500
 X19.232
G02 X21.0111 Y81.9424 R93.1170
 X23.4369 Y78.0295 R93.1170
 X25.6526 Y73.9940 R93.1170
 X27.6520 Y69.8470 R93.1170
 X29.4295 Y65.6002 R93.1170
 X30.9802 Y61.2654 R93.1170
 X32.2997 Y56.8547 R93.1170
 X33.3844 Y52.3805 R93.1170
 X34.2312 Y47.8552 R93.1170
 X34.8377 Y43.2916 R93.1170
 X35.2023 Y38.7022 R93.1170
 X35.3302 Y33.8639 R93.1170
G03 X36.3563 Y26.0699 R31.0000
 X39.4558 Y18.5871 R31.0000
 X44.3864 Y12.1614 R31.0000
 X50.8121 Y7.2308 R31.0000
 X58.2949 Y4.1313 R31.0000
 X66.3250 Y3.0741 R31.0000
 X74.3551 Y4.1313 R31.0000
 X81.8379 Y7.2308 R31.0000
 X88.2636 Y12.1614 R31.0000
 X93.1942 Y18.5871 R31.0000
 X96.2937 Y26.0699 R31.0000
 X97.3334 Y33.9671 R31.0000
G02 X97.1268 Y38.8122 R91.3274
 X97.1729 Y43.3212 R91.3274
 X97.4572 Y47.8215 R91.3274
 X97.9788 Y52.3004 R91.3274
 X98.7363 Y56.7456 R91.3274
 X99.7276 Y61.1445 R91.3274
 X100.9499 Y65.4849 R91.3274
(Pass: 4)
G02 X102.3998 Y69.7547 Z-3.5000 R91.3274 F100 
G03 X100.9499 Y65.4849 Z-4.0000 R91.3274
G02 X102.3998 Y69.7547 R91.3274 F500 
 X104.0732 Y73.9420 R91.3274
 X105.9655 Y78.0349 R91.3274
 X108.0714 Y82.0222 R91.3274
 X109.5524 Y84.5000 R91.3274
G01 X125.650
 Y115.971
 Y129.971
 Y173.050
 X7.000
 Y129.647
 Y115.647
 Y84.500
 X19.232
G02 X21.0111 Y81.9424 R93.1170
 X23.4369 Y78.0295 R93.1170
 X25.6526 Y73.9940 R93.1170
 X27.6520 Y69.8470 R93.1170
 X29.4295 Y65.6002 R93.1170
 X30.9802 Y61.2654 R93.1170
 X32.2997 Y56.8547 R93.1170
 X33.3844 Y52.3805 R93.1170
 X34.2312 Y47.8552 R93.1170
 X34.8377 Y43.2916 R93.1170
 X35.2023 Y38.7022 R93.1170
 X35.3302 Y33.8639 R93.1170
G03 X36.3563 Y26.0699 R31.0000
 X39.4558 Y18.5871 R31.0000
 X44.3864 Y12.1614 R31.0000
 X50.8121 Y7.2308 R31.0000
 X58.2949 Y4.1313 R31.0000
 X66.3250 Y3.0741 R31.0000
 X74.3551 Y4.1313 R31.0000
 X81.8379 Y7.2308 R31.0000
 X88.2636 Y12.1614 R31.0000
 X93.1942 Y18.5871 R31.0000
 X96.2937 Y26.0699 R31.0000
 X97.3334 Y33.9671 R31.0000
G02 X97.1268 Y38.8122 R91.3274
 X97.1729 Y43.3212 R91.3274
 X97.4572 Y47.8215 R91.3274
 X97.9788 Y52.3004 R91.3274
 X98.7363 Y56.7456 R91.3274
 X99.7276 Y61.1445 R91.3274
 X100.9499 Y65.4849 R91.3274
(Pass: 5)
G02 X102.3998 Y69.7547 Z-4.5000 R91.3274 F100 
G03 X100.9499 Y65.4849 Z-5.0000 R91.3274
G02 X102.3998 Y69.7547 R91.3274 F500 
 X104.0732 Y73.9420 R91.3274
 X105.9655 Y78.0349 R91.3274
 X108.0714 Y82.0222 R91.3274
 X109.5524 Y84.5000 R91.3274
G01 X125.650
 Y115.971
 Y129.971
 Y173.050
 X7.000
 Y129.647
 Y115.647
 Y84.500
 X19.232
G02 X21.0111 Y81.9424 R93.1170
 X23.4369 Y78.0295 R93.1170
 X25.6526 Y73.9940 R93.1170
 X27.6520 Y69.8470 R93.1170
 X29.4295 Y65.6002 R93.1170
 X30.9802 Y61.2654 R93.1170
 X32.2997 Y56.8547 R93.1170
 X33.3844 Y52.3805 R93.1170
 X34.2312 Y47.8552 R93.1170
 X34.8377 Y43.2916 R93.1170
 X35.2023 Y38.7022 R93.1170
 X35.3302 Y33.8639 R93.1170
G03 X36.3563 Y26.0699 R31.0000
 X39.4558 Y18.5871 R31.0000
 X44.3864 Y12.1614 R31.0000
 X50.8121 Y7.2308 R31.0000
 X58.2949 Y4.1313 R31.0000
 X66.3250 Y3.0741 R31.0000
 X74.3551 Y4.1313 R31.0000
 X81.8379 Y7.2308 R31.0000
 X88.2636 Y12.1614 R31.0000
 X93.1942 Y18.5871 R31.0000
 X96.2937 Y26.0699 R31.0000
 X97.3334 Y33.9671 R31.0000
G02 X97.1268 Y38.8122 R91.3274
 X97.1729 Y43.3212 R91.3274
 X97.4572 Y47.8215 R91.3274
 X97.9788 Y52.3004 R91.3274
 X98.7363 Y56.7456 R91.3274
 X99.7276 Y61.1445 R91.3274
 X100.9499 Y65.4849 R91.3274
(Pass: 6)
G02 X102.3998 Y69.7547 Z-5.5000 R91.3274 F100 
G03 X100.9499 Y65.4849 Z-6.0000 R91.3274
G02 X102.3998 Y69.7547 R91.3274 F500 
 X104.0732 Y73.9420 R91.3274
 X105.9655 Y78.0349 R91.3274
 X108.0714 Y82.0222 R91.3274
 X109.5524 Y84.5000 R91.3274
G01 X125.650
 Y115.971
 Y129.971
 Y173.050
 X7.000
 Y129.647
 Y115.647
 Y84.500
 X19.232
G02 X21.0111 Y81.9424 R93.1170
 X23.4369 Y78.0295 R93.1170
 X25.6526 Y73.9940 R93.1170
 X27.6520 Y69.8470 R93.1170
 X29.4295 Y65.6002 R93.1170
 X30.9802 Y61.2654 R93.1170
 X32.2997 Y56.8547 R93.1170
 X33.3844 Y52.3805 R93.1170
 X34.2312 Y47.8552 R93.1170
 X34.8377 Y43.2916 R93.1170
 X35.2023 Y38.7022 R93.1170
 X35.3302 Y33.8639 R93.1170
G03 X36.3563 Y26.0699 R31.0000
 X39.4558 Y18.5871 R31.0000
 X44.3864 Y12.1614 R31.0000
 X50.8121 Y7.2308 R31.0000
 X58.2949 Y4.1313 R31.0000
 X66.3250 Y3.0741 R31.0000
 X74.3551 Y4.1313 R31.0000
 X81.8379 Y7.2308 R31.0000
 X88.2636 Y12.1614 R31.0000
 X93.1942 Y18.5871 R31.0000
 X96.2937 Y26.0699 R31.0000
 X97.3334 Y33.9671 R31.0000
G02 X97.1268 Y38.8122 R91.3274
 X97.1729 Y43.3212 R91.3274
 X97.4572 Y47.8215 R91.3274
 X97.9788 Y52.3004 R91.3274
 X98.7363 Y56.7456 R91.3274
 X99.7276 Y61.1445 R91.3274
 X100.9499 Y65.4849 R91.3274
(Pass: 7)
G02 X102.3998 Y69.7547 Z-6.5000 R91.3274 F100 
G03 X100.9499 Y65.4849 Z-7.0000 R91.3274
G02 X102.3998 Y69.7547 R91.3274 F500 
 X104.0732 Y73.9420 R91.3274
 X105.9655 Y78.0349 R91.3274
 X108.0714 Y82.0222 R91.3274
 X109.5524 Y84.5000 R91.3274
G01 X125.650
 Y115.971
 Z-6.350
 Y129.971
 X125.650 Y173.050 Z-6.675 F100 
 X125.650 Y129.971 Z-7.000
 Y173.050 F500 
 X7.000
 Y129.647
 Z-6.350
 Y115.647
 X7.000 Y84.500 Z-6.675 F100 
 X7.000 Y115.647 Z-7.000
 Y84.500 F500 
 X19.232
G02 X21.0111 Y81.9424 R93.1170
 X23.4369 Y78.0295 R93.1170
 X25.6526 Y73.9940 R93.1170
 X27.6520 Y69.8470 R93.1170
 X29.4295 Y65.6002 R93.1170
 X30.9802 Y61.2654 R93.1170
 X32.2997 Y56.8547 R93.1170
 X33.3844 Y52.3805 R93.1170
 X34.2312 Y47.8552 R93.1170
 X34.8377 Y43.2916 R93.1170
 X35.2023 Y38.7022 R93.1170
 X35.3302 Y33.8639 R93.1170
G03 X36.3563 Y26.0699 R31.0000
 X39.4558 Y18.5871 R31.0000
 X44.3864 Y12.1614 R31.0000
 X50.8121 Y7.2308 R31.0000
 X58.2949 Y4.1313 R31.0000
 X66.3250 Y3.0741 R31.0000
 X74.3551 Y4.1313 R31.0000
 X81.8379 Y7.2308 R31.0000
 X88.2636 Y12.1614 R31.0000
 X93.1942 Y18.5871 R31.0000
 X96.2937 Y26.0699 R31.0000
 X97.3334 Y33.9671 R31.0000
G02 X97.1268 Y38.8122 R91.3274
 X97.1729 Y43.3212 R91.3274
 X97.4572 Y47.8215 R91.3274
 X97.9788 Y52.3004 R91.3274
 X98.7363 Y56.7456 R91.3274
 X99.7276 Y61.1445 R91.3274
 X100.9499 Y65.4849 R91.3274
(Pass: 8)
G02 X102.3998 Y69.7547 Z-7.5000 R91.3274 F100 
G03 X100.9499 Y65.4849 Z-8.0000 R91.3274
G02 X102.3998 Y69.7547 R91.3274 F500 
 X104.0732 Y73.9420 R91.3274
 X105.9655 Y78.0349 R91.3274
 X108.0714 Y82.0222 R91.3274
 X109.5524 Y84.5000 R91.3274
G01 X125.650
 Y115.971
 Z-6.350
 Y129.971
G00 Z-6.750 F100 
G01 X125.650 Y173.050 Z-7.375
 X125.650 Y129.971 Z-8.000
 Y173.050 F500 
 X7.000
 Y129.647
 Z-6.350
 Y115.647
G00 Z-6.750 F100 
G01 X7.000 Y84.500 Z-7.375
 X7.000 Y115.647 Z-8.000
 Y84.500 F500 
 X19.232
G02 X21.0111 Y81.9424 R93.1170
 X23.4369 Y78.0295 R93.1170
 X25.6526 Y73.9940 R93.1170
 X27.6520 Y69.8470 R93.1170
 X29.4295 Y65.6002 R93.1170
 X30.9802 Y61.2654 R93.1170
 X32.2997 Y56.8547 R93.1170
 X33.3844 Y52.3805 R93.1170
 X34.2312 Y47.8552 R93.1170
 X34.8377 Y43.2916 R93.1170
 X35.2023 Y38.7022 R93.1170
 X35.3302 Y33.8639 R93.1170
G03 X36.3563 Y26.0699 R31.0000
 X39.4558 Y18.5871 R31.0000
 X44.3864 Y12.1614 R31.0000
 X50.8121 Y7.2308 R31.0000
 X58.2949 Y4.1313 R31.0000
 X66.3250 Y3.0741 R31.0000
 X74.3551 Y4.1313 R31.0000
 X81.8379 Y7.2308 R31.0000
 X88.2636 Y12.1614 R31.0000
 X93.1942 Y18.5871 R31.0000
 X96.2937 Y26.0699 R31.0000
 X97.3334 Y33.9671 R31.0000
G02 X97.1268 Y38.8122 R91.3274
 X97.1729 Y43.3212 R91.3274
 X97.4572 Y47.8215 R91.3274
 X97.9788 Y52.3004 R91.3274
 X98.7363 Y56.7456 R91.3274
 X99.7276 Y61.1445 R91.3274
 X100.9499 Y65.4849 R91.3274
(Pass: 9)
G02 X102.3998 Y69.7547 Z-8.5000 R91.3274 F100 
G03 X100.9499 Y65.4849 Z-9.0000 R91.3274
G02 X102.3998 Y69.7547 R91.3274 F500 
 X104.0732 Y73.9420 R91.3274
 X105.9655 Y78.0349 R91.3274
 X108.0714 Y82.0222 R91.3274
 X109.5524 Y84.5000 R91.3274
G01 X125.650
 Y115.971
 Z-6.350
 Y129.971
G00 Z-7.750 F100 
G01 X125.650 Y173.050 Z-8.375
 X125.650 Y129.971 Z-9.000
 Y173.050 F500 
 X7.000
 Y129.647
 Z-6.350
 Y115.647
G00 Z-7.750 F100 
G01 X7.000 Y84.500 Z-8.375
 X7.000 Y115.647 Z-9.000
 Y84.500 F500 
 X19.232
G02 X21.0111 Y81.9424 R93.1170
 X23.4369 Y78.0295 R93.1170
 X25.6526 Y73.9940 R93.1170
 X27.6520 Y69.8470 R93.1170
 X29.4295 Y65.6002 R93.1170
 X30.9802 Y61.2654 R93.1170
 X32.2997 Y56.8547 R93.1170
 X33.3844 Y52.3805 R93.1170
 X34.2312 Y47.8552 R93.1170
 X34.8377 Y43.2916 R93.1170
 X35.2023 Y38.7022 R93.1170
 X35.3302 Y33.8639 R93.1170
G03 X36.3563 Y26.0699 R31.0000
 X39.4558 Y18.5871 R31.0000
 X44.3864 Y12.1614 R31.0000
 X50.8121 Y7.2308 R31.0000
 X58.2949 Y4.1313 R31.0000
 X66.3250 Y3.0741 R31.0000
 X74.3551 Y4.1313 R31.0000
 X81.8379 Y7.2308 R31.0000
 X88.2636 Y12.1614 R31.0000
 X93.1942 Y18.5871 R31.0000
 X96.2937 Y26.0699 R31.0000
 X97.3334 Y33.9671 R31.0000
G02 X97.1268 Y38.8122 R91.3274
 X97.1729 Y43.3212 R91.3274
 X97.4572 Y47.8215 R91.3274
 X97.9788 Y52.3004 R91.3274
 X98.7363 Y56.7456 R91.3274
 X99.7276 Y61.1445 R91.3274
 X100.9499 Y65.4849 R91.3274
(Pass: 10)
G02 X102.3998 Y69.7547 Z-9.5000 R91.3274 F100 
G03 X100.9499 Y65.4849 Z-10.0000 R91.3274
G02 X102.3998 Y69.7547 R91.3274 F500 
 X104.0732 Y73.9420 R91.3274
 X105.9655 Y78.0349 R91.3274
 X108.0714 Y82.0222 R91.3274
 X109.5524 Y84.5000 R91.3274
G01 X125.650
 Y115.971
 Z-6.350
 Y129.971
G00 Z-8.750 F100 
G01 X125.650 Y173.050 Z-9.375
 X125.650 Y129.971 Z-10.000
 Y173.050 F500 
 X7.000
 Y129.647
 Z-6.350
 Y115.647
G00 Z-8.750 F100 
G01 X7.000 Y84.500 Z-9.375
 X7.000 Y115.647 Z-10.000
 Y84.500 F500 
 X19.232
G02 X21.0111 Y81.9424 R93.1170
 X23.4369 Y78.0295 R93.1170
 X25.6526 Y73.9940 R93.1170
 X27.6520 Y69.8470 R93.1170
 X29.4295 Y65.6002 R93.1170
 X30.9802 Y61.2654 R93.1170
 X32.2997 Y56.8547 R93.1170
 X33.3844 Y52.3805 R93.1170
 X34.2312 Y47.8552 R93.1170
 X34.8377 Y43.2916 R93.1170
 X35.2023 Y38.7022 R93.1170
 X35.3302 Y33.8639 R93.1170
G03 X36.3563 Y26.0699 R31.0000
 X39.4558 Y18.5871 R31.0000
 X44.3864 Y12.1614 R31.0000
 X50.8121 Y7.2308 R31.0000
 X58.2949 Y4.1313 R31.0000
 X66.3250 Y3.0741 R31.0000
 X74.3551 Y4.1313 R31.0000
 X81.8379 Y7.2308 R31.0000
 X88.2636 Y12.1614 R31.0000
 X93.1942 Y18.5871 R31.0000
 X96.2937 Y26.0699 R31.0000
 X97.3334 Y33.9671 R31.0000
G02 X97.1268 Y38.8122 R91.3274
 X97.1729 Y43.3212 R91.3274
 X97.4572 Y47.8215 R91.3274
 X97.9788 Y52.3004 R91.3274
 X98.7363 Y56.7456 R91.3274
 X99.7276 Y61.1445 R91.3274
 X100.9499 Y65.4849 R91.3274
(Pass: 11)
G02 X102.3998 Y69.7547 Z-10.5000 R91.3274 F100 
G03 X100.9499 Y65.4849 Z-11.0000 R91.3274
G02 X102.3998 Y69.7547 R91.3274 F500 
 X104.0732 Y73.9420 R91.3274
 X105.9655 Y78.0349 R91.3274
 X108.0714 Y82.0222 R91.3274
 X109.5524 Y84.5000 R91.3274
G01 X125.650
 Y115.971
 Z-6.350
 Y129.971
G00 Z-9.750 F100 
G01 X125.650 Y173.050 Z-10.375
 X125.650 Y129.971 Z-11.000
 Y173.050 F500 
 X7.000
 Y129.647
 Z-6.350
 Y115.647
G00 Z-9.750 F100 
G01 X7.000 Y84.500 Z-10.375
 X7.000 Y115.647 Z-11.000
 Y84.500 F500 
 X19.232
G02 X21.0111 Y81.9424 R93.1170
 X23.4369 Y78.0295 R93.1170
 X25.6526 Y73.9940 R93.1170
 X27.6520 Y69.8470 R93.1170
 X29.4295 Y65.6002 R93.1170
 X30.9802 Y61.2654 R93.1170
 X32.2997 Y56.8547 R93.1170
 X33.3844 Y52.3805 R93.1170
 X34.2312 Y47.8552 R93.1170
 X34.8377 Y43.2916 R93.1170
 X35.2023 Y38.7022 R93.1170
 X35.3302 Y33.8639 R93.1170
G03 X36.3563 Y26.0699 R31.0000
 X39.4558 Y18.5871 R31.0000
 X44.3864 Y12.1614 R31.0000
 X50.8121 Y7.2308 R31.0000
 X58.2949 Y4.1313 R31.0000
 X66.3250 Y3.0741 R31.0000
 X74.3551 Y4.1313 R31.0000
 X81.8379 Y7.2308 R31.0000
 X88.2636 Y12.1614 R31.0000
 X93.1942 Y18.5871 R31.0000
 X96.2937 Y26.0699 R31.0000
 X97.3334 Y33.9671 R31.0000
G02 X97.1268 Y38.8122 R91.3274
 X97.1729 Y43.3212 R91.3274
 X97.4572 Y47.8215 R91.3274
 X97.9788 Y52.3004 R91.3274
 X98.7363 Y56.7456 R91.3274
 X99.7276 Y61.1445 R91.3274
 X100.9499 Y65.4849 R91.3274
(Pass: 12)
G02 X102.3998 Y69.7547 Z-11.5000 R91.3274 F100 
G03 X100.9499 Y65.4849 Z-12.0000 R91.3274
G02 X102.3998 Y69.7547 R91.3274 F500 
 X104.0732 Y73.9420 R91.3274
 X105.9655 Y78.0349 R91.3274
 X108.0714 Y82.0222 R91.3274
 X109.5524 Y84.5000 R91.3274
G01 X125.650
 Y115.971
 Z-6.350
 Y129.971
G00 Z-10.750 F100 
G01 X125.650 Y173.050 Z-11.375
 X125.650 Y129.971 Z-12.000
 Y173.050 F500 
 X7.000
 Y129.647
 Z-6.350
 Y115.647
G00 Z-10.750 F100 
G01 X7.000 Y84.500 Z-11.375
 X7.000 Y115.647 Z-12.000
 Y84.500 F500 
 X19.232
G02 X21.0111 Y81.9424 R93.1170
 X23.4369 Y78.0295 R93.1170
 X25.6526 Y73.9940 R93.1170
 X27.6520 Y69.8470 R93.1170
 X29.4295 Y65.6002 R93.1170
 X30.9802 Y61.2654 R93.1170
 X32.2997 Y56.8547 R93.1170
 X33.3844 Y52.3805 R93.1170
 X34.2312 Y47.8552 R93.1170
 X34.8377 Y43.2916 R93.1170
 X35.2023 Y38.7022 R93.1170
 X35.3302 Y33.8639 R93.1170
G03 X36.3563 Y26.0699 R31.0000
 X39.4558 Y18.5871 R31.0000
 X44.3864 Y12.1614 R31.0000
 X50.8121 Y7.2308 R31.0000
 X58.2949 Y4.1313 R31.0000
 X66.3250 Y3.0741 R31.0000
 X74.3551 Y4.1313 R31.0000
 X81.8379 Y7.2308 R31.0000
 X88.2636 Y12.1614 R31.0000
 X93.1942 Y18.5871 R31.0000
 X96.2937 Y26.0699 R31.0000
 X97.3334 Y33.9671 R31.0000
G02 X97.1268 Y38.8122 R91.3274
 X97.1729 Y43.3212 R91.3274
 X97.4572 Y47.8215 R91.3274
 X97.9788 Y52.3004 R91.3274
 X98.7363 Y56.7456 R91.3274
 X99.7276 Y61.1445 R91.3274
 X100.9499 Y65.4849 R91.3274
(Pass: 13)
G02 X102.3998 Y69.7547 Z-12.5000 R91.3274 F100 
G03 X100.9499 Y65.4849 Z-13.0000 R91.3274
G02 X102.3998 Y69.7547 R91.3274 F500 
 X104.0732 Y73.9420 R91.3274
 X105.9655 Y78.0349 R91.3274
 X108.0714 Y82.0222 R91.3274
 X109.5524 Y84.5000 R91.3274
G01 X125.650
 Y115.971
 Z-6.350
 Y129.971
G00 Z-11.750 F100 
G01 X125.650 Y173.050 Z-12.375
 X125.650 Y129.971 Z-13.000
 Y173.050 F500 
 X7.000
 Y129.647
 Z-6.350
 Y115.647
G00 Z-11.750 F100 
G01 X7.000 Y84.500 Z-12.375
 X7.000 Y115.647 Z-13.000
 Y84.500 F500 
 X19.232
G02 X21.0111 Y81.9424 R93.1170
 X23.4369 Y78.0295 R93.1170
 X25.6526 Y73.9940 R93.1170
 X27.6520 Y69.8470 R93.1170
 X29.4295 Y65.6002 R93.1170
 X30.9802 Y61.2654 R93.1170
 X32.2997 Y56.8547 R93.1170
 X33.3844 Y52.3805 R93.1170
 X34.2312 Y47.8552 R93.1170
 X34.8377 Y43.2916 R93.1170
 X35.2023 Y38.7022 R93.1170
 X35.3302 Y33.8639 R93.1170
G03 X36.3563 Y26.0699 R31.0000
 X39.4558 Y18.5871 R31.0000
 X44.3864 Y12.1614 R31.0000
 X50.8121 Y7.2308 R31.0000
 X58.2949 Y4.1313 R31.0000
 X66.3250 Y3.0741 R31.0000
 X74.3551 Y4.1313 R31.0000
 X81.8379 Y7.2308 R31.0000
 X88.2636 Y12.1614 R31.0000
 X93.1942 Y18.5871 R31.0000
 X96.2937 Y26.0699 R31.0000
 X97.3334 Y33.9671 R31.0000
G02 X97.1268 Y38.8122 R91.3274
 X97.1729 Y43.3212 R91.3274
 X97.4572 Y47.8215 R91.3274
 X97.9788 Y52.3004 R91.3274
 X98.7363 Y56.7456 R91.3274
 X99.7276 Y61.1445 R91.3274
 X100.9499 Y65.4849 R91.3274
(Pass: 14)
G02 X102.3998 Y69.7547 Z-13.4850 R91.3274 F100 
G03 X100.9499 Y65.4849 Z-13.9700 R91.3274
G02 X102.3998 Y69.7547 R91.3274 F500 
 X104.0732 Y73.9420 R91.3274
 X105.9655 Y78.0349 R91.3274
 X108.0714 Y82.0222 R91.3274
 X109.5524 Y84.5000 R91.3274
G01 X125.650
 Y115.971
 Z-6.350
 Y129.971
G00 Z-12.750 F100 
G01 X125.650 Y173.050 Z-13.360
 X125.650 Y129.971 Z-13.970
 Y173.050 F500 
 X7.000
 Y129.647
 Z-6.350
 Y115.647
G00 Z-12.750 F100 
G01 X7.000 Y84.500 Z-13.360
 X7.000 Y115.647 Z-13.970
 Y84.500 F500 
 X19.232
G02 X21.0111 Y81.9424 R93.1170
 X23.4369 Y78.0295 R93.1170
 X25.6526 Y73.9940 R93.1170
 X27.6520 Y69.8470 R93.1170
 X29.4295 Y65.6002 R93.1170
 X30.9802 Y61.2654 R93.1170
 X32.2997 Y56.8547 R93.1170
 X33.3844 Y52.3805 R93.1170
 X34.2312 Y47.8552 R93.1170
 X34.8377 Y43.2916 R93.1170
 X35.2023 Y38.7022 R93.1170
 X35.3302 Y33.8639 R93.1170
G03 X36.3563 Y26.0699 R31.0000
 X39.4558 Y18.5871 R31.0000
 X44.3864 Y12.1614 R31.0000
 X50.8121 Y7.2308 R31.0000
 X58.2949 Y4.1313 R31.0000
 X66.3250 Y3.0741 R31.0000
 X74.3551 Y4.1313 R31.0000
 X81.8379 Y7.2308 R31.0000
 X88.2636 Y12.1614 R31.0000
 X93.1942 Y18.5871 R31.0000
 X96.2937 Y26.0699 R31.0000
 X97.3334 Y33.9671 R31.0000
G02 X97.1268 Y38.8122 R91.3274
 X97.1729 Y43.3212 R91.3274
 X97.4572 Y47.8215 R91.3274
 X97.9788 Y52.3004 R91.3274
 X98.7363 Y56.7456 R91.3274
 X99.7276 Y61.1445 R91.3274
 X100.9499 Y65.4849 R91.3274
G00 Z10.000
G00 X0 Y0 (home)
M05
M30
%
