%
(Generated by SketchUcam V1.3a)
(File: ElectronicsPanel.skp)
(Bit diameter: 5.0mm)
(Feed rate: 600.0mm/min)
(Plunge Feed rate: 100.0mm/min)
(Material Thickness: 1.8mm)
(Material length: 2200.0mm X width: 1200.0mm)
(Overhead Gantry: true)
(Multipass enabled, Depth = 0.1mm)
(Optimization is ON)
(www.PhlatBoyz.com)
G90 G21 G49  G17
M3 S16000
G00 Z5.000
(Pass: 1)
 X1.000 Y1.000
G01 Z-0.100 F100 
 Y604.000 F600 
 X501.000
 Y527.414
 X576.414 Y452.000
 X653.000
 Y1.000
 X1.000
(Pass: 2)
 Z-0.200 F100 
 Y604.000 F600 
 X501.000
 Y527.414
 X576.414 Y452.000
 X653.000
 Y1.000
 X1.000
(Pass: 3)
 Z-0.300 F100 
 Y604.000 F600 
 X501.000
 Y527.414
 X576.414 Y452.000
 X653.000
 Y1.000
 X1.000
(Pass: 4)
 Z-0.400 F100 
 Y604.000 F600 
 X501.000
 Y527.414
 X576.414 Y452.000
 X653.000
 Y1.000
 X1.000
(Pass: 5)
 Z-0.500 F100 
 Y604.000 F600 
 X501.000
 Y527.414
 X576.414 Y452.000
 X653.000
 Y1.000
 X1.000
(Pass: 6)
 Z-0.600 F100 
 Y604.000 F600 
 X501.000
 Y527.414
 X576.414 Y452.000
 X653.000
 Y1.000
 X1.000
(Pass: 7)
 Z-0.700 F100 
 Y604.000 F600 
 X501.000
 Y527.414
 X576.414 Y452.000
 X653.000
 Y1.000
 X1.000
(Pass: 8)
 Z-0.800 F100 
 Y604.000 F600 
 X501.000
 Y527.414
 X576.414 Y452.000
 X653.000
 Y1.000
 X1.000
(Pass: 9)
 Z-0.900 F100 
 Y604.000 F600 
 X501.000
 Y527.414
 X576.414 Y452.000
 X653.000
 Y1.000
 X1.000
(Pass: 10)
 Z-1.000 F100 
 Y604.000 F600 
 X501.000
 Y527.414
 X576.414 Y452.000
 X653.000
 Y1.000
 X1.000
(Pass: 11)
 Z-1.100 F100 
 Y604.000 F600 
 X501.000
 Y527.414
 X576.414 Y452.000
 X653.000
 Y1.000
 X1.000
(Pass: 12)
 Z-1.200 F100 
 Y604.000 F600 
 X501.000
 Y527.414
 X576.414 Y452.000
 X653.000
 Y1.000
 X1.000
(Pass: 13)
 Z-1.300 F100 
 Y604.000 F600 
 X501.000
 Y527.414
 X576.414 Y452.000
 X653.000
 Y1.000
 X1.000
(Pass: 14)
 Z-1.400 F100 
 Y604.000 F600 
 X501.000
 Y527.414
 X576.414 Y452.000
 X653.000
 Y1.000
 X1.000
(Pass: 15)
 Z-1.500 F100 
 Y604.000 F600 
 X501.000
 Y527.414
 X576.414 Y452.000
 X653.000
 Y1.000
 X1.000
(Pass: 16)
 Z-1.600 F100 
 Y604.000 F600 
 X501.000
 Y527.414
 X576.414 Y452.000
 X653.000
 Y1.000
 X1.000
(Pass: 17)
 Z-1.700 F100 
 Y604.000 F600 
 X501.000
 Y527.414
 X576.414 Y452.000
 X653.000
 Y1.000
 X1.000
(Pass: 18)
 Z-1.800 F100 
 Y604.000 F600 
 X501.000
 Y527.414
 X576.414 Y452.000
 X653.000
 Y1.000
 X1.000
(Pass: 19)
 Z-1.900 F100 
 Y604.000 F600 
 X501.000
 Y527.414
 X576.414 Y452.000
 X653.000
 Y1.000
 X1.000
(Pass: 20)
 Z-2.000 F100 
 Y604.000 F600 
 X501.000
 Y527.414
 X576.414 Y452.000
 X653.000
 Y1.000
 X1.000
(BREAK pass 20)
G00 Z5.000
G00 X0 Y0 (home)
M05
M30
%
