%
(Generated by SketchUcam V1.3a)
(File: ElectronicsPanel.skp)
(Bit diameter: 2.0mm)
(Feed rate: 600.0mm/min)
(Plunge Feed rate: 100.0mm/min)
(Material Thickness: 1.8mm)
(Material length: 2200.0mm X width: 1200.0mm)
(Overhead Gantry: true)
(Multipass enabled, Depth = 0.1mm)
(Optimization is ON)
(www.PhlatBoyz.com)
G90 G21 G49  G17
M3 S22000
(Group: _diam_6.0mm)
G00 Z5.000
(Pass: 1)
 X18.000 Y584.000
(plungebore  DEPTH=2.160  DIAM=6.000)
G00 Z1.667
G01 Z-0.100 F100 
G00 Z1.667
G01 Z-0.200
G00 Z1.667
G01 Z-0.300
G00 Z1.667
G01 Z-0.400
G00 Z1.667
G01 Z-0.500
G00 Z1.667
G01 Z-0.600
G00 Z1.667
G01 Z-0.700
G00 Z1.667
G01 Z-0.800
G00 Z1.667
G01 Z-0.900
G00 Z1.667
G01 Z-1.000
G00 Z1.667
G01 Z-1.100
G00 Z1.667
G01 Z-1.200
G00 Z1.667
G01 Z-1.300
G00 Z1.667
G01 Z-1.400
G00 Z1.667
G01 Z-1.500
G00 Z1.667
G01 Z-1.600
G00 Z1.667
G01 Z-1.700
G00 Z1.667
G01 Z-1.800
G00 Z1.667
G01 Z-1.900
G00 Z1.667
G01 Z-2.000
G00 Z1.667
G01 Z-2.100
G00 Z1.667
G01 Z-2.160
G00 Z1.667
G00 Y582.6000
G01 Z0.0000 F600 
G03 X19.4000 Y584.0000 Z-0.0250 I0.0000 J1.4000
G03 X18.0000 Y585.4000 Z-0.0500 I-1.4000 J0.0000
G03 X16.6000 Y584.0000 Z-0.0750 I0.0000 J-1.4000
G03 X18.0000 Y582.6000 Z-0.1000 I1.4000 J0.0000
G03 X19.4000 Y584.0000 Z-0.1250 I0.0000 J1.4000
G03 X18.0000 Y585.4000 Z-0.1500 I-1.4000 J0.0000
G03 X16.6000 Y584.0000 Z-0.1750 I0.0000 J-1.4000
G03 X18.0000 Y582.6000 Z-0.2000 I1.4000 J0.0000
G03 X19.4000 Y584.0000 Z-0.2250 I0.0000 J1.4000
G03 X18.0000 Y585.4000 Z-0.2500 I-1.4000 J0.0000
G03 X16.6000 Y584.0000 Z-0.2750 I0.0000 J-1.4000
G03 X18.0000 Y582.6000 Z-0.3000 I1.4000 J0.0000
G03 X19.4000 Y584.0000 Z-0.3250 I0.0000 J1.4000
G03 X18.0000 Y585.4000 Z-0.3500 I-1.4000 J0.0000
G03 X16.6000 Y584.0000 Z-0.3750 I0.0000 J-1.4000
G03 X18.0000 Y582.6000 Z-0.4000 I1.4000 J0.0000
G03 X19.4000 Y584.0000 Z-0.4250 I0.0000 J1.4000
G03 X18.0000 Y585.4000 Z-0.4500 I-1.4000 J0.0000
G03 X16.6000 Y584.0000 Z-0.4750 I0.0000 J-1.4000
G03 X18.0000 Y582.6000 Z-0.5000 I1.4000 J0.0000
G03 X19.4000 Y584.0000 Z-0.5250 I0.0000 J1.4000
G03 X18.0000 Y585.4000 Z-0.5500 I-1.4000 J0.0000
G03 X16.6000 Y584.0000 Z-0.5750 I0.0000 J-1.4000
G03 X18.0000 Y582.6000 Z-0.6000 I1.4000 J0.0000
G03 X19.4000 Y584.0000 Z-0.6250 I0.0000 J1.4000
G03 X18.0000 Y585.4000 Z-0.6500 I-1.4000 J0.0000
G03 X16.6000 Y584.0000 Z-0.6750 I0.0000 J-1.4000
G03 X18.0000 Y582.6000 Z-0.7000 I1.4000 J0.0000
G03 X19.4000 Y584.0000 Z-0.7250 I0.0000 J1.4000
G03 X18.0000 Y585.4000 Z-0.7500 I-1.4000 J0.0000
G03 X16.6000 Y584.0000 Z-0.7750 I0.0000 J-1.4000
G03 X18.0000 Y582.6000 Z-0.8000 I1.4000 J0.0000
G03 X19.4000 Y584.0000 Z-0.8250 I0.0000 J1.4000
G03 X18.0000 Y585.4000 Z-0.8500 I-1.4000 J0.0000
G03 X16.6000 Y584.0000 Z-0.8750 I0.0000 J-1.4000
G03 X18.0000 Y582.6000 Z-0.9000 I1.4000 J0.0000
G03 X19.4000 Y584.0000 Z-0.9250 I0.0000 J1.4000
G03 X18.0000 Y585.4000 Z-0.9500 I-1.4000 J0.0000
G03 X16.6000 Y584.0000 Z-0.9750 I0.0000 J-1.4000
G03 X18.0000 Y582.6000 Z-1.0000 I1.4000 J0.0000
G03 X19.4000 Y584.0000 Z-1.0250 I0.0000 J1.4000
G03 X18.0000 Y585.4000 Z-1.0500 I-1.4000 J0.0000
G03 X16.6000 Y584.0000 Z-1.0750 I0.0000 J-1.4000
G03 X18.0000 Y582.6000 Z-1.1000 I1.4000 J0.0000
G03 X19.4000 Y584.0000 Z-1.1250 I0.0000 J1.4000
G03 X18.0000 Y585.4000 Z-1.1500 I-1.4000 J0.0000
G03 X16.6000 Y584.0000 Z-1.1750 I0.0000 J-1.4000
G03 X18.0000 Y582.6000 Z-1.2000 I1.4000 J0.0000
G03 X19.4000 Y584.0000 Z-1.2250 I0.0000 J1.4000
G03 X18.0000 Y585.4000 Z-1.2500 I-1.4000 J0.0000
G03 X16.6000 Y584.0000 Z-1.2750 I0.0000 J-1.4000
G03 X18.0000 Y582.6000 Z-1.3000 I1.4000 J0.0000
G03 X19.4000 Y584.0000 Z-1.3250 I0.0000 J1.4000
G03 X18.0000 Y585.4000 Z-1.3500 I-1.4000 J0.0000
G03 X16.6000 Y584.0000 Z-1.3750 I0.0000 J-1.4000
G03 X18.0000 Y582.6000 Z-1.4000 I1.4000 J0.0000
G03 X19.4000 Y584.0000 Z-1.4250 I0.0000 J1.4000
G03 X18.0000 Y585.4000 Z-1.4500 I-1.4000 J0.0000
G03 X16.6000 Y584.0000 Z-1.4750 I0.0000 J-1.4000
G03 X18.0000 Y582.6000 Z-1.5000 I1.4000 J0.0000
G03 X19.4000 Y584.0000 Z-1.5250 I0.0000 J1.4000
G03 X18.0000 Y585.4000 Z-1.5500 I-1.4000 J0.0000
G03 X16.6000 Y584.0000 Z-1.5750 I0.0000 J-1.4000
G03 X18.0000 Y582.6000 Z-1.6000 I1.4000 J0.0000
G03 X19.4000 Y584.0000 Z-1.6250 I0.0000 J1.4000
G03 X18.0000 Y585.4000 Z-1.6500 I-1.4000 J0.0000
G03 X16.6000 Y584.0000 Z-1.6750 I0.0000 J-1.4000
G03 X18.0000 Y582.6000 Z-1.7000 I1.4000 J0.0000
G03 X19.4000 Y584.0000 Z-1.7250 I0.0000 J1.4000
G03 X18.0000 Y585.4000 Z-1.7500 I-1.4000 J0.0000
G03 X16.6000 Y584.0000 Z-1.7750 I0.0000 J-1.4000
G03 X18.0000 Y582.6000 Z-1.8000 I1.4000 J0.0000
G03 X19.4000 Y584.0000 Z-1.8250 I0.0000 J1.4000
G03 X18.0000 Y585.4000 Z-1.8500 I-1.4000 J0.0000
G03 X16.6000 Y584.0000 Z-1.8750 I0.0000 J-1.4000
G03 X18.0000 Y582.6000 Z-1.9000 I1.4000 J0.0000
G03 X19.4000 Y584.0000 Z-1.9650 I0.0000 J1.4000
G03 X18.0000 Y585.4000 Z-2.0300 I-1.4000 J0.0000
G03 X16.6000 Y584.0000 Z-2.0950 I0.0000 J-1.4000
G03 X18.0000 Y582.6000 Z-2.1600 I1.4000 J0.0000
G03 X19.4000 Y584.0000 I0.0000 J1.4000
G03 X18.0000 Y585.4000 I-1.4000 J0.0000
G03 X16.6000 Y584.0000 I0.0000 J-1.4000
G03 X18.0000 Y582.6000 I1.4000 J0.0000
G00 Z1.667
G00 Y582.0000
G01 Z0.0000
G03 X20.0000 Y584.0000 Z-0.0250 I0.0000 J2.0000
G03 X18.0000 Y586.0000 Z-0.0500 I-2.0000 J0.0000
G03 X16.0000 Y584.0000 Z-0.0750 I0.0000 J-2.0000
G03 X18.0000 Y582.0000 Z-0.1000 I2.0000 J0.0000
G03 X20.0000 Y584.0000 Z-0.1250 I0.0000 J2.0000
G03 X18.0000 Y586.0000 Z-0.1500 I-2.0000 J0.0000
G03 X16.0000 Y584.0000 Z-0.1750 I0.0000 J-2.0000
G03 X18.0000 Y582.0000 Z-0.2000 I2.0000 J0.0000
G03 X20.0000 Y584.0000 Z-0.2250 I0.0000 J2.0000
G03 X18.0000 Y586.0000 Z-0.2500 I-2.0000 J0.0000
G03 X16.0000 Y584.0000 Z-0.2750 I0.0000 J-2.0000
G03 X18.0000 Y582.0000 Z-0.3000 I2.0000 J0.0000
G03 X20.0000 Y584.0000 Z-0.3250 I0.0000 J2.0000
G03 X18.0000 Y586.0000 Z-0.3500 I-2.0000 J0.0000
G03 X16.0000 Y584.0000 Z-0.3750 I0.0000 J-2.0000
G03 X18.0000 Y582.0000 Z-0.4000 I2.0000 J0.0000
G03 X20.0000 Y584.0000 Z-0.4250 I0.0000 J2.0000
G03 X18.0000 Y586.0000 Z-0.4500 I-2.0000 J0.0000
G03 X16.0000 Y584.0000 Z-0.4750 I0.0000 J-2.0000
G03 X18.0000 Y582.0000 Z-0.5000 I2.0000 J0.0000
G03 X20.0000 Y584.0000 Z-0.5250 I0.0000 J2.0000
G03 X18.0000 Y586.0000 Z-0.5500 I-2.0000 J0.0000
G03 X16.0000 Y584.0000 Z-0.5750 I0.0000 J-2.0000
G03 X18.0000 Y582.0000 Z-0.6000 I2.0000 J0.0000
G03 X20.0000 Y584.0000 Z-0.6250 I0.0000 J2.0000
G03 X18.0000 Y586.0000 Z-0.6500 I-2.0000 J0.0000
G03 X16.0000 Y584.0000 Z-0.6750 I0.0000 J-2.0000
G03 X18.0000 Y582.0000 Z-0.7000 I2.0000 J0.0000
G03 X20.0000 Y584.0000 Z-0.7250 I0.0000 J2.0000
G03 X18.0000 Y586.0000 Z-0.7500 I-2.0000 J0.0000
G03 X16.0000 Y584.0000 Z-0.7750 I0.0000 J-2.0000
G03 X18.0000 Y582.0000 Z-0.8000 I2.0000 J0.0000
G03 X20.0000 Y584.0000 Z-0.8250 I0.0000 J2.0000
G03 X18.0000 Y586.0000 Z-0.8500 I-2.0000 J0.0000
G03 X16.0000 Y584.0000 Z-0.8750 I0.0000 J-2.0000
G03 X18.0000 Y582.0000 Z-0.9000 I2.0000 J0.0000
G03 X20.0000 Y584.0000 Z-0.9250 I0.0000 J2.0000
G03 X18.0000 Y586.0000 Z-0.9500 I-2.0000 J0.0000
G03 X16.0000 Y584.0000 Z-0.9750 I0.0000 J-2.0000
G03 X18.0000 Y582.0000 Z-1.0000 I2.0000 J0.0000
G03 X20.0000 Y584.0000 Z-1.0250 I0.0000 J2.0000
G03 X18.0000 Y586.0000 Z-1.0500 I-2.0000 J0.0000
G03 X16.0000 Y584.0000 Z-1.0750 I0.0000 J-2.0000
G03 X18.0000 Y582.0000 Z-1.1000 I2.0000 J0.0000
G03 X20.0000 Y584.0000 Z-1.1250 I0.0000 J2.0000
G03 X18.0000 Y586.0000 Z-1.1500 I-2.0000 J0.0000
G03 X16.0000 Y584.0000 Z-1.1750 I0.0000 J-2.0000
G03 X18.0000 Y582.0000 Z-1.2000 I2.0000 J0.0000
G03 X20.0000 Y584.0000 Z-1.2250 I0.0000 J2.0000
G03 X18.0000 Y586.0000 Z-1.2500 I-2.0000 J0.0000
G03 X16.0000 Y584.0000 Z-1.2750 I0.0000 J-2.0000
G03 X18.0000 Y582.0000 Z-1.3000 I2.0000 J0.0000
G03 X20.0000 Y584.0000 Z-1.3250 I0.0000 J2.0000
G03 X18.0000 Y586.0000 Z-1.3500 I-2.0000 J0.0000
G03 X16.0000 Y584.0000 Z-1.3750 I0.0000 J-2.0000
G03 X18.0000 Y582.0000 Z-1.4000 I2.0000 J0.0000
G03 X20.0000 Y584.0000 Z-1.4250 I0.0000 J2.0000
G03 X18.0000 Y586.0000 Z-1.4500 I-2.0000 J0.0000
G03 X16.0000 Y584.0000 Z-1.4750 I0.0000 J-2.0000
G03 X18.0000 Y582.0000 Z-1.5000 I2.0000 J0.0000
G03 X20.0000 Y584.0000 Z-1.5250 I0.0000 J2.0000
G03 X18.0000 Y586.0000 Z-1.5500 I-2.0000 J0.0000
G03 X16.0000 Y584.0000 Z-1.5750 I0.0000 J-2.0000
G03 X18.0000 Y582.0000 Z-1.6000 I2.0000 J0.0000
G03 X20.0000 Y584.0000 Z-1.6250 I0.0000 J2.0000
G03 X18.0000 Y586.0000 Z-1.6500 I-2.0000 J0.0000
G03 X16.0000 Y584.0000 Z-1.6750 I0.0000 J-2.0000
G03 X18.0000 Y582.0000 Z-1.7000 I2.0000 J0.0000
G03 X20.0000 Y584.0000 Z-1.7250 I0.0000 J2.0000
G03 X18.0000 Y586.0000 Z-1.7500 I-2.0000 J0.0000
G03 X16.0000 Y584.0000 Z-1.7750 I0.0000 J-2.0000
G03 X18.0000 Y582.0000 Z-1.8000 I2.0000 J0.0000
G03 X20.0000 Y584.0000 Z-1.8250 I0.0000 J2.0000
G03 X18.0000 Y586.0000 Z-1.8500 I-2.0000 J0.0000
G03 X16.0000 Y584.0000 Z-1.8750 I0.0000 J-2.0000
G03 X18.0000 Y582.0000 Z-1.9000 I2.0000 J0.0000
G03 X20.0000 Y584.0000 Z-1.9650 I0.0000 J2.0000
G03 X18.0000 Y586.0000 Z-2.0300 I-2.0000 J0.0000
G03 X16.0000 Y584.0000 Z-2.0950 I0.0000 J-2.0000
G03 X18.0000 Y582.0000 Z-2.1600 I2.0000 J0.0000
G03 X20.0000 Y584.0000 I0.0000 J2.0000
G03 X18.0000 Y586.0000 I-2.0000 J0.0000
G03 X16.0000 Y584.0000 I0.0000 J-2.0000
G03 X18.0000 Y582.0000 I2.0000 J0.0000
G00 Y584.000 Z5.000
(plungebore end)
(BREAK pass 20)
(Group complete: _diam_6.0mm)
(Group: _diam_6.0mm)
(Pass: 1)
G00 Y21.000
(plungebore  DEPTH=2.160  DIAM=6.000)
G00 Z1.667
G01 Z-0.100 F100 
G00 Z1.667
G01 Z-0.200
G00 Z1.667
G01 Z-0.300
G00 Z1.667
G01 Z-0.400
G00 Z1.667
G01 Z-0.500
G00 Z1.667
G01 Z-0.600
G00 Z1.667
G01 Z-0.700
G00 Z1.667
G01 Z-0.800
G00 Z1.667
G01 Z-0.900
G00 Z1.667
G01 Z-1.000
G00 Z1.667
G01 Z-1.100
G00 Z1.667
G01 Z-1.200
G00 Z1.667
G01 Z-1.300
G00 Z1.667
G01 Z-1.400
G00 Z1.667
G01 Z-1.500
G00 Z1.667
G01 Z-1.600
G00 Z1.667
G01 Z-1.700
G00 Z1.667
G01 Z-1.800
G00 Z1.667
G01 Z-1.900
G00 Z1.667
G01 Z-2.000
G00 Z1.667
G01 Z-2.100
G00 Z1.667
G01 Z-2.160
G00 Z1.667
G00 Y19.6000
G01 Z0.0000 F600 
G03 X19.4000 Y21.0000 Z-0.0250 I0.0000 J1.4000
G03 X18.0000 Y22.4000 Z-0.0500 I-1.4000 J0.0000
G03 X16.6000 Y21.0000 Z-0.0750 I0.0000 J-1.4000
G03 X18.0000 Y19.6000 Z-0.1000 I1.4000 J0.0000
G03 X19.4000 Y21.0000 Z-0.1250 I0.0000 J1.4000
G03 X18.0000 Y22.4000 Z-0.1500 I-1.4000 J0.0000
G03 X16.6000 Y21.0000 Z-0.1750 I0.0000 J-1.4000
G03 X18.0000 Y19.6000 Z-0.2000 I1.4000 J0.0000
G03 X19.4000 Y21.0000 Z-0.2250 I0.0000 J1.4000
G03 X18.0000 Y22.4000 Z-0.2500 I-1.4000 J0.0000
G03 X16.6000 Y21.0000 Z-0.2750 I0.0000 J-1.4000
G03 X18.0000 Y19.6000 Z-0.3000 I1.4000 J0.0000
G03 X19.4000 Y21.0000 Z-0.3250 I0.0000 J1.4000
G03 X18.0000 Y22.4000 Z-0.3500 I-1.4000 J0.0000
G03 X16.6000 Y21.0000 Z-0.3750 I0.0000 J-1.4000
G03 X18.0000 Y19.6000 Z-0.4000 I1.4000 J0.0000
G03 X19.4000 Y21.0000 Z-0.4250 I0.0000 J1.4000
G03 X18.0000 Y22.4000 Z-0.4500 I-1.4000 J0.0000
G03 X16.6000 Y21.0000 Z-0.4750 I0.0000 J-1.4000
G03 X18.0000 Y19.6000 Z-0.5000 I1.4000 J0.0000
G03 X19.4000 Y21.0000 Z-0.5250 I0.0000 J1.4000
G03 X18.0000 Y22.4000 Z-0.5500 I-1.4000 J0.0000
G03 X16.6000 Y21.0000 Z-0.5750 I0.0000 J-1.4000
G03 X18.0000 Y19.6000 Z-0.6000 I1.4000 J0.0000
G03 X19.4000 Y21.0000 Z-0.6250 I0.0000 J1.4000
G03 X18.0000 Y22.4000 Z-0.6500 I-1.4000 J0.0000
G03 X16.6000 Y21.0000 Z-0.6750 I0.0000 J-1.4000
G03 X18.0000 Y19.6000 Z-0.7000 I1.4000 J0.0000
G03 X19.4000 Y21.0000 Z-0.7250 I0.0000 J1.4000
G03 X18.0000 Y22.4000 Z-0.7500 I-1.4000 J0.0000
G03 X16.6000 Y21.0000 Z-0.7750 I0.0000 J-1.4000
G03 X18.0000 Y19.6000 Z-0.8000 I1.4000 J0.0000
G03 X19.4000 Y21.0000 Z-0.8250 I0.0000 J1.4000
G03 X18.0000 Y22.4000 Z-0.8500 I-1.4000 J0.0000
G03 X16.6000 Y21.0000 Z-0.8750 I0.0000 J-1.4000
G03 X18.0000 Y19.6000 Z-0.9000 I1.4000 J0.0000
G03 X19.4000 Y21.0000 Z-0.9250 I0.0000 J1.4000
G03 X18.0000 Y22.4000 Z-0.9500 I-1.4000 J0.0000
G03 X16.6000 Y21.0000 Z-0.9750 I0.0000 J-1.4000
G03 X18.0000 Y19.6000 Z-1.0000 I1.4000 J0.0000
G03 X19.4000 Y21.0000 Z-1.0250 I0.0000 J1.4000
G03 X18.0000 Y22.4000 Z-1.0500 I-1.4000 J0.0000
G03 X16.6000 Y21.0000 Z-1.0750 I0.0000 J-1.4000
G03 X18.0000 Y19.6000 Z-1.1000 I1.4000 J0.0000
G03 X19.4000 Y21.0000 Z-1.1250 I0.0000 J1.4000
G03 X18.0000 Y22.4000 Z-1.1500 I-1.4000 J0.0000
G03 X16.6000 Y21.0000 Z-1.1750 I0.0000 J-1.4000
G03 X18.0000 Y19.6000 Z-1.2000 I1.4000 J0.0000
G03 X19.4000 Y21.0000 Z-1.2250 I0.0000 J1.4000
G03 X18.0000 Y22.4000 Z-1.2500 I-1.4000 J0.0000
G03 X16.6000 Y21.0000 Z-1.2750 I0.0000 J-1.4000
G03 X18.0000 Y19.6000 Z-1.3000 I1.4000 J0.0000
G03 X19.4000 Y21.0000 Z-1.3250 I0.0000 J1.4000
G03 X18.0000 Y22.4000 Z-1.3500 I-1.4000 J0.0000
G03 X16.6000 Y21.0000 Z-1.3750 I0.0000 J-1.4000
G03 X18.0000 Y19.6000 Z-1.4000 I1.4000 J0.0000
G03 X19.4000 Y21.0000 Z-1.4250 I0.0000 J1.4000
G03 X18.0000 Y22.4000 Z-1.4500 I-1.4000 J0.0000
G03 X16.6000 Y21.0000 Z-1.4750 I0.0000 J-1.4000
G03 X18.0000 Y19.6000 Z-1.5000 I1.4000 J0.0000
G03 X19.4000 Y21.0000 Z-1.5250 I0.0000 J1.4000
G03 X18.0000 Y22.4000 Z-1.5500 I-1.4000 J0.0000
G03 X16.6000 Y21.0000 Z-1.5750 I0.0000 J-1.4000
G03 X18.0000 Y19.6000 Z-1.6000 I1.4000 J0.0000
G03 X19.4000 Y21.0000 Z-1.6250 I0.0000 J1.4000
G03 X18.0000 Y22.4000 Z-1.6500 I-1.4000 J0.0000
G03 X16.6000 Y21.0000 Z-1.6750 I0.0000 J-1.4000
G03 X18.0000 Y19.6000 Z-1.7000 I1.4000 J0.0000
G03 X19.4000 Y21.0000 Z-1.7250 I0.0000 J1.4000
G03 X18.0000 Y22.4000 Z-1.7500 I-1.4000 J0.0000
G03 X16.6000 Y21.0000 Z-1.7750 I0.0000 J-1.4000
G03 X18.0000 Y19.6000 Z-1.8000 I1.4000 J0.0000
G03 X19.4000 Y21.0000 Z-1.8250 I0.0000 J1.4000
G03 X18.0000 Y22.4000 Z-1.8500 I-1.4000 J0.0000
G03 X16.6000 Y21.0000 Z-1.8750 I0.0000 J-1.4000
G03 X18.0000 Y19.6000 Z-1.9000 I1.4000 J0.0000
G03 X19.4000 Y21.0000 Z-1.9650 I0.0000 J1.4000
G03 X18.0000 Y22.4000 Z-2.0300 I-1.4000 J0.0000
G03 X16.6000 Y21.0000 Z-2.0950 I0.0000 J-1.4000
G03 X18.0000 Y19.6000 Z-2.1600 I1.4000 J0.0000
G03 X19.4000 Y21.0000 I0.0000 J1.4000
G03 X18.0000 Y22.4000 I-1.4000 J0.0000
G03 X16.6000 Y21.0000 I0.0000 J-1.4000
G03 X18.0000 Y19.6000 I1.4000 J0.0000
G00 Z1.667
G00 Y19.0000
G01 Z0.0000
G03 X20.0000 Y21.0000 Z-0.0250 I0.0000 J2.0000
G03 X18.0000 Y23.0000 Z-0.0500 I-2.0000 J0.0000
G03 X16.0000 Y21.0000 Z-0.0750 I0.0000 J-2.0000
G03 X18.0000 Y19.0000 Z-0.1000 I2.0000 J0.0000
G03 X20.0000 Y21.0000 Z-0.1250 I0.0000 J2.0000
G03 X18.0000 Y23.0000 Z-0.1500 I-2.0000 J0.0000
G03 X16.0000 Y21.0000 Z-0.1750 I0.0000 J-2.0000
G03 X18.0000 Y19.0000 Z-0.2000 I2.0000 J0.0000
G03 X20.0000 Y21.0000 Z-0.2250 I0.0000 J2.0000
G03 X18.0000 Y23.0000 Z-0.2500 I-2.0000 J0.0000
G03 X16.0000 Y21.0000 Z-0.2750 I0.0000 J-2.0000
G03 X18.0000 Y19.0000 Z-0.3000 I2.0000 J0.0000
G03 X20.0000 Y21.0000 Z-0.3250 I0.0000 J2.0000
G03 X18.0000 Y23.0000 Z-0.3500 I-2.0000 J0.0000
G03 X16.0000 Y21.0000 Z-0.3750 I0.0000 J-2.0000
G03 X18.0000 Y19.0000 Z-0.4000 I2.0000 J0.0000
G03 X20.0000 Y21.0000 Z-0.4250 I0.0000 J2.0000
G03 X18.0000 Y23.0000 Z-0.4500 I-2.0000 J0.0000
G03 X16.0000 Y21.0000 Z-0.4750 I0.0000 J-2.0000
G03 X18.0000 Y19.0000 Z-0.5000 I2.0000 J0.0000
G03 X20.0000 Y21.0000 Z-0.5250 I0.0000 J2.0000
G03 X18.0000 Y23.0000 Z-0.5500 I-2.0000 J0.0000
G03 X16.0000 Y21.0000 Z-0.5750 I0.0000 J-2.0000
G03 X18.0000 Y19.0000 Z-0.6000 I2.0000 J0.0000
G03 X20.0000 Y21.0000 Z-0.6250 I0.0000 J2.0000
G03 X18.0000 Y23.0000 Z-0.6500 I-2.0000 J0.0000
G03 X16.0000 Y21.0000 Z-0.6750 I0.0000 J-2.0000
G03 X18.0000 Y19.0000 Z-0.7000 I2.0000 J0.0000
G03 X20.0000 Y21.0000 Z-0.7250 I0.0000 J2.0000
G03 X18.0000 Y23.0000 Z-0.7500 I-2.0000 J0.0000
G03 X16.0000 Y21.0000 Z-0.7750 I0.0000 J-2.0000
G03 X18.0000 Y19.0000 Z-0.8000 I2.0000 J0.0000
G03 X20.0000 Y21.0000 Z-0.8250 I0.0000 J2.0000
G03 X18.0000 Y23.0000 Z-0.8500 I-2.0000 J0.0000
G03 X16.0000 Y21.0000 Z-0.8750 I0.0000 J-2.0000
G03 X18.0000 Y19.0000 Z-0.9000 I2.0000 J0.0000
G03 X20.0000 Y21.0000 Z-0.9250 I0.0000 J2.0000
G03 X18.0000 Y23.0000 Z-0.9500 I-2.0000 J0.0000
G03 X16.0000 Y21.0000 Z-0.9750 I0.0000 J-2.0000
G03 X18.0000 Y19.0000 Z-1.0000 I2.0000 J0.0000
G03 X20.0000 Y21.0000 Z-1.0250 I0.0000 J2.0000
G03 X18.0000 Y23.0000 Z-1.0500 I-2.0000 J0.0000
G03 X16.0000 Y21.0000 Z-1.0750 I0.0000 J-2.0000
G03 X18.0000 Y19.0000 Z-1.1000 I2.0000 J0.0000
G03 X20.0000 Y21.0000 Z-1.1250 I0.0000 J2.0000
G03 X18.0000 Y23.0000 Z-1.1500 I-2.0000 J0.0000
G03 X16.0000 Y21.0000 Z-1.1750 I0.0000 J-2.0000
G03 X18.0000 Y19.0000 Z-1.2000 I2.0000 J0.0000
G03 X20.0000 Y21.0000 Z-1.2250 I0.0000 J2.0000
G03 X18.0000 Y23.0000 Z-1.2500 I-2.0000 J0.0000
G03 X16.0000 Y21.0000 Z-1.2750 I0.0000 J-2.0000
G03 X18.0000 Y19.0000 Z-1.3000 I2.0000 J0.0000
G03 X20.0000 Y21.0000 Z-1.3250 I0.0000 J2.0000
G03 X18.0000 Y23.0000 Z-1.3500 I-2.0000 J0.0000
G03 X16.0000 Y21.0000 Z-1.3750 I0.0000 J-2.0000
G03 X18.0000 Y19.0000 Z-1.4000 I2.0000 J0.0000
G03 X20.0000 Y21.0000 Z-1.4250 I0.0000 J2.0000
G03 X18.0000 Y23.0000 Z-1.4500 I-2.0000 J0.0000
G03 X16.0000 Y21.0000 Z-1.4750 I0.0000 J-2.0000
G03 X18.0000 Y19.0000 Z-1.5000 I2.0000 J0.0000
G03 X20.0000 Y21.0000 Z-1.5250 I0.0000 J2.0000
G03 X18.0000 Y23.0000 Z-1.5500 I-2.0000 J0.0000
G03 X16.0000 Y21.0000 Z-1.5750 I0.0000 J-2.0000
G03 X18.0000 Y19.0000 Z-1.6000 I2.0000 J0.0000
G03 X20.0000 Y21.0000 Z-1.6250 I0.0000 J2.0000
G03 X18.0000 Y23.0000 Z-1.6500 I-2.0000 J0.0000
G03 X16.0000 Y21.0000 Z-1.6750 I0.0000 J-2.0000
G03 X18.0000 Y19.0000 Z-1.7000 I2.0000 J0.0000
G03 X20.0000 Y21.0000 Z-1.7250 I0.0000 J2.0000
G03 X18.0000 Y23.0000 Z-1.7500 I-2.0000 J0.0000
G03 X16.0000 Y21.0000 Z-1.7750 I0.0000 J-2.0000
G03 X18.0000 Y19.0000 Z-1.8000 I2.0000 J0.0000
G03 X20.0000 Y21.0000 Z-1.8250 I0.0000 J2.0000
G03 X18.0000 Y23.0000 Z-1.8500 I-2.0000 J0.0000
G03 X16.0000 Y21.0000 Z-1.8750 I0.0000 J-2.0000
G03 X18.0000 Y19.0000 Z-1.9000 I2.0000 J0.0000
G03 X20.0000 Y21.0000 Z-1.9650 I0.0000 J2.0000
G03 X18.0000 Y23.0000 Z-2.0300 I-2.0000 J0.0000
G03 X16.0000 Y21.0000 Z-2.0950 I0.0000 J-2.0000
G03 X18.0000 Y19.0000 Z-2.1600 I2.0000 J0.0000
G03 X20.0000 Y21.0000 I0.0000 J2.0000
G03 X18.0000 Y23.0000 I-2.0000 J0.0000
G03 X16.0000 Y21.0000 I0.0000 J-2.0000
G03 X18.0000 Y19.0000 I2.0000 J0.0000
G00 Y21.000 Z5.000
(plungebore end)
(BREAK pass 20)
(Group complete: _diam_6.0mm)
(Group: _diam_6.0mm)
(Pass: 1)
G00 X636.000
(plungebore  DEPTH=2.160  DIAM=6.000)
G00 Z1.667
G01 Z-0.100 F100 
G00 Z1.667
G01 Z-0.200
G00 Z1.667
G01 Z-0.300
G00 Z1.667
G01 Z-0.400
G00 Z1.667
G01 Z-0.500
G00 Z1.667
G01 Z-0.600
G00 Z1.667
G01 Z-0.700
G00 Z1.667
G01 Z-0.800
G00 Z1.667
G01 Z-0.900
G00 Z1.667
G01 Z-1.000
G00 Z1.667
G01 Z-1.100
G00 Z1.667
G01 Z-1.200
G00 Z1.667
G01 Z-1.300
G00 Z1.667
G01 Z-1.400
G00 Z1.667
G01 Z-1.500
G00 Z1.667
G01 Z-1.600
G00 Z1.667
G01 Z-1.700
G00 Z1.667
G01 Z-1.800
G00 Z1.667
G01 Z-1.900
G00 Z1.667
G01 Z-2.000
G00 Z1.667
G01 Z-2.100
G00 Z1.667
G01 Z-2.160
G00 Z1.667
G00 Y19.6000
G01 Z0.0000 F600 
G03 X637.4000 Y21.0000 Z-0.0250 I0.0000 J1.4000
G03 X636.0000 Y22.4000 Z-0.0500 I-1.4000 J0.0000
G03 X634.6000 Y21.0000 Z-0.0750 I0.0000 J-1.4000
G03 X636.0000 Y19.6000 Z-0.1000 I1.4000 J0.0000
G03 X637.4000 Y21.0000 Z-0.1250 I0.0000 J1.4000
G03 X636.0000 Y22.4000 Z-0.1500 I-1.4000 J0.0000
G03 X634.6000 Y21.0000 Z-0.1750 I0.0000 J-1.4000
G03 X636.0000 Y19.6000 Z-0.2000 I1.4000 J0.0000
G03 X637.4000 Y21.0000 Z-0.2250 I0.0000 J1.4000
G03 X636.0000 Y22.4000 Z-0.2500 I-1.4000 J0.0000
G03 X634.6000 Y21.0000 Z-0.2750 I0.0000 J-1.4000
G03 X636.0000 Y19.6000 Z-0.3000 I1.4000 J0.0000
G03 X637.4000 Y21.0000 Z-0.3250 I0.0000 J1.4000
G03 X636.0000 Y22.4000 Z-0.3500 I-1.4000 J0.0000
G03 X634.6000 Y21.0000 Z-0.3750 I0.0000 J-1.4000
G03 X636.0000 Y19.6000 Z-0.4000 I1.4000 J0.0000
G03 X637.4000 Y21.0000 Z-0.4250 I0.0000 J1.4000
G03 X636.0000 Y22.4000 Z-0.4500 I-1.4000 J0.0000
G03 X634.6000 Y21.0000 Z-0.4750 I0.0000 J-1.4000
G03 X636.0000 Y19.6000 Z-0.5000 I1.4000 J0.0000
G03 X637.4000 Y21.0000 Z-0.5250 I0.0000 J1.4000
G03 X636.0000 Y22.4000 Z-0.5500 I-1.4000 J0.0000
G03 X634.6000 Y21.0000 Z-0.5750 I0.0000 J-1.4000
G03 X636.0000 Y19.6000 Z-0.6000 I1.4000 J0.0000
G03 X637.4000 Y21.0000 Z-0.6250 I0.0000 J1.4000
G03 X636.0000 Y22.4000 Z-0.6500 I-1.4000 J0.0000
G03 X634.6000 Y21.0000 Z-0.6750 I0.0000 J-1.4000
G03 X636.0000 Y19.6000 Z-0.7000 I1.4000 J0.0000
G03 X637.4000 Y21.0000 Z-0.7250 I0.0000 J1.4000
G03 X636.0000 Y22.4000 Z-0.7500 I-1.4000 J0.0000
G03 X634.6000 Y21.0000 Z-0.7750 I0.0000 J-1.4000
G03 X636.0000 Y19.6000 Z-0.8000 I1.4000 J0.0000
G03 X637.4000 Y21.0000 Z-0.8250 I0.0000 J1.4000
G03 X636.0000 Y22.4000 Z-0.8500 I-1.4000 J0.0000
G03 X634.6000 Y21.0000 Z-0.8750 I0.0000 J-1.4000
G03 X636.0000 Y19.6000 Z-0.9000 I1.4000 J0.0000
G03 X637.4000 Y21.0000 Z-0.9250 I0.0000 J1.4000
G03 X636.0000 Y22.4000 Z-0.9500 I-1.4000 J0.0000
G03 X634.6000 Y21.0000 Z-0.9750 I0.0000 J-1.4000
G03 X636.0000 Y19.6000 Z-1.0000 I1.4000 J0.0000
G03 X637.4000 Y21.0000 Z-1.0250 I0.0000 J1.4000
G03 X636.0000 Y22.4000 Z-1.0500 I-1.4000 J0.0000
G03 X634.6000 Y21.0000 Z-1.0750 I0.0000 J-1.4000
G03 X636.0000 Y19.6000 Z-1.1000 I1.4000 J0.0000
G03 X637.4000 Y21.0000 Z-1.1250 I0.0000 J1.4000
G03 X636.0000 Y22.4000 Z-1.1500 I-1.4000 J0.0000
G03 X634.6000 Y21.0000 Z-1.1750 I0.0000 J-1.4000
G03 X636.0000 Y19.6000 Z-1.2000 I1.4000 J0.0000
G03 X637.4000 Y21.0000 Z-1.2250 I0.0000 J1.4000
G03 X636.0000 Y22.4000 Z-1.2500 I-1.4000 J0.0000
G03 X634.6000 Y21.0000 Z-1.2750 I0.0000 J-1.4000
G03 X636.0000 Y19.6000 Z-1.3000 I1.4000 J0.0000
G03 X637.4000 Y21.0000 Z-1.3250 I0.0000 J1.4000
G03 X636.0000 Y22.4000 Z-1.3500 I-1.4000 J0.0000
G03 X634.6000 Y21.0000 Z-1.3750 I0.0000 J-1.4000
G03 X636.0000 Y19.6000 Z-1.4000 I1.4000 J0.0000
G03 X637.4000 Y21.0000 Z-1.4250 I0.0000 J1.4000
G03 X636.0000 Y22.4000 Z-1.4500 I-1.4000 J0.0000
G03 X634.6000 Y21.0000 Z-1.4750 I0.0000 J-1.4000
G03 X636.0000 Y19.6000 Z-1.5000 I1.4000 J0.0000
G03 X637.4000 Y21.0000 Z-1.5250 I0.0000 J1.4000
G03 X636.0000 Y22.4000 Z-1.5500 I-1.4000 J0.0000
G03 X634.6000 Y21.0000 Z-1.5750 I0.0000 J-1.4000
G03 X636.0000 Y19.6000 Z-1.6000 I1.4000 J0.0000
G03 X637.4000 Y21.0000 Z-1.6250 I0.0000 J1.4000
G03 X636.0000 Y22.4000 Z-1.6500 I-1.4000 J0.0000
G03 X634.6000 Y21.0000 Z-1.6750 I0.0000 J-1.4000
G03 X636.0000 Y19.6000 Z-1.7000 I1.4000 J0.0000
G03 X637.4000 Y21.0000 Z-1.7250 I0.0000 J1.4000
G03 X636.0000 Y22.4000 Z-1.7500 I-1.4000 J0.0000
G03 X634.6000 Y21.0000 Z-1.7750 I0.0000 J-1.4000
G03 X636.0000 Y19.6000 Z-1.8000 I1.4000 J0.0000
G03 X637.4000 Y21.0000 Z-1.8250 I0.0000 J1.4000
G03 X636.0000 Y22.4000 Z-1.8500 I-1.4000 J0.0000
G03 X634.6000 Y21.0000 Z-1.8750 I0.0000 J-1.4000
G03 X636.0000 Y19.6000 Z-1.9000 I1.4000 J0.0000
G03 X637.4000 Y21.0000 Z-1.9650 I0.0000 J1.4000
G03 X636.0000 Y22.4000 Z-2.0300 I-1.4000 J0.0000
G03 X634.6000 Y21.0000 Z-2.0950 I0.0000 J-1.4000
G03 X636.0000 Y19.6000 Z-2.1600 I1.4000 J0.0000
G03 X637.4000 Y21.0000 I0.0000 J1.4000
G03 X636.0000 Y22.4000 I-1.4000 J0.0000
G03 X634.6000 Y21.0000 I0.0000 J-1.4000
G03 X636.0000 Y19.6000 I1.4000 J0.0000
G00 Z1.667
G00 Y19.0000
G01 Z0.0000
G03 X638.0000 Y21.0000 Z-0.0250 I0.0000 J2.0000
G03 X636.0000 Y23.0000 Z-0.0500 I-2.0000 J0.0000
G03 X634.0000 Y21.0000 Z-0.0750 I0.0000 J-2.0000
G03 X636.0000 Y19.0000 Z-0.1000 I2.0000 J0.0000
G03 X638.0000 Y21.0000 Z-0.1250 I0.0000 J2.0000
G03 X636.0000 Y23.0000 Z-0.1500 I-2.0000 J0.0000
G03 X634.0000 Y21.0000 Z-0.1750 I0.0000 J-2.0000
G03 X636.0000 Y19.0000 Z-0.2000 I2.0000 J0.0000
G03 X638.0000 Y21.0000 Z-0.2250 I0.0000 J2.0000
G03 X636.0000 Y23.0000 Z-0.2500 I-2.0000 J0.0000
G03 X634.0000 Y21.0000 Z-0.2750 I0.0000 J-2.0000
G03 X636.0000 Y19.0000 Z-0.3000 I2.0000 J0.0000
G03 X638.0000 Y21.0000 Z-0.3250 I0.0000 J2.0000
G03 X636.0000 Y23.0000 Z-0.3500 I-2.0000 J0.0000
G03 X634.0000 Y21.0000 Z-0.3750 I0.0000 J-2.0000
G03 X636.0000 Y19.0000 Z-0.4000 I2.0000 J0.0000
G03 X638.0000 Y21.0000 Z-0.4250 I0.0000 J2.0000
G03 X636.0000 Y23.0000 Z-0.4500 I-2.0000 J0.0000
G03 X634.0000 Y21.0000 Z-0.4750 I0.0000 J-2.0000
G03 X636.0000 Y19.0000 Z-0.5000 I2.0000 J0.0000
G03 X638.0000 Y21.0000 Z-0.5250 I0.0000 J2.0000
G03 X636.0000 Y23.0000 Z-0.5500 I-2.0000 J0.0000
G03 X634.0000 Y21.0000 Z-0.5750 I0.0000 J-2.0000
G03 X636.0000 Y19.0000 Z-0.6000 I2.0000 J0.0000
G03 X638.0000 Y21.0000 Z-0.6250 I0.0000 J2.0000
G03 X636.0000 Y23.0000 Z-0.6500 I-2.0000 J0.0000
G03 X634.0000 Y21.0000 Z-0.6750 I0.0000 J-2.0000
G03 X636.0000 Y19.0000 Z-0.7000 I2.0000 J0.0000
G03 X638.0000 Y21.0000 Z-0.7250 I0.0000 J2.0000
G03 X636.0000 Y23.0000 Z-0.7500 I-2.0000 J0.0000
G03 X634.0000 Y21.0000 Z-0.7750 I0.0000 J-2.0000
G03 X636.0000 Y19.0000 Z-0.8000 I2.0000 J0.0000
G03 X638.0000 Y21.0000 Z-0.8250 I0.0000 J2.0000
G03 X636.0000 Y23.0000 Z-0.8500 I-2.0000 J0.0000
G03 X634.0000 Y21.0000 Z-0.8750 I0.0000 J-2.0000
G03 X636.0000 Y19.0000 Z-0.9000 I2.0000 J0.0000
G03 X638.0000 Y21.0000 Z-0.9250 I0.0000 J2.0000
G03 X636.0000 Y23.0000 Z-0.9500 I-2.0000 J0.0000
G03 X634.0000 Y21.0000 Z-0.9750 I0.0000 J-2.0000
G03 X636.0000 Y19.0000 Z-1.0000 I2.0000 J0.0000
G03 X638.0000 Y21.0000 Z-1.0250 I0.0000 J2.0000
G03 X636.0000 Y23.0000 Z-1.0500 I-2.0000 J0.0000
G03 X634.0000 Y21.0000 Z-1.0750 I0.0000 J-2.0000
G03 X636.0000 Y19.0000 Z-1.1000 I2.0000 J0.0000
G03 X638.0000 Y21.0000 Z-1.1250 I0.0000 J2.0000
G03 X636.0000 Y23.0000 Z-1.1500 I-2.0000 J0.0000
G03 X634.0000 Y21.0000 Z-1.1750 I0.0000 J-2.0000
G03 X636.0000 Y19.0000 Z-1.2000 I2.0000 J0.0000
G03 X638.0000 Y21.0000 Z-1.2250 I0.0000 J2.0000
G03 X636.0000 Y23.0000 Z-1.2500 I-2.0000 J0.0000
G03 X634.0000 Y21.0000 Z-1.2750 I0.0000 J-2.0000
G03 X636.0000 Y19.0000 Z-1.3000 I2.0000 J0.0000
G03 X638.0000 Y21.0000 Z-1.3250 I0.0000 J2.0000
G03 X636.0000 Y23.0000 Z-1.3500 I-2.0000 J0.0000
G03 X634.0000 Y21.0000 Z-1.3750 I0.0000 J-2.0000
G03 X636.0000 Y19.0000 Z-1.4000 I2.0000 J0.0000
G03 X638.0000 Y21.0000 Z-1.4250 I0.0000 J2.0000
G03 X636.0000 Y23.0000 Z-1.4500 I-2.0000 J0.0000
G03 X634.0000 Y21.0000 Z-1.4750 I0.0000 J-2.0000
G03 X636.0000 Y19.0000 Z-1.5000 I2.0000 J0.0000
G03 X638.0000 Y21.0000 Z-1.5250 I0.0000 J2.0000
G03 X636.0000 Y23.0000 Z-1.5500 I-2.0000 J0.0000
G03 X634.0000 Y21.0000 Z-1.5750 I0.0000 J-2.0000
G03 X636.0000 Y19.0000 Z-1.6000 I2.0000 J0.0000
G03 X638.0000 Y21.0000 Z-1.6250 I0.0000 J2.0000
G03 X636.0000 Y23.0000 Z-1.6500 I-2.0000 J0.0000
G03 X634.0000 Y21.0000 Z-1.6750 I0.0000 J-2.0000
G03 X636.0000 Y19.0000 Z-1.7000 I2.0000 J0.0000
G03 X638.0000 Y21.0000 Z-1.7250 I0.0000 J2.0000
G03 X636.0000 Y23.0000 Z-1.7500 I-2.0000 J0.0000
G03 X634.0000 Y21.0000 Z-1.7750 I0.0000 J-2.0000
G03 X636.0000 Y19.0000 Z-1.8000 I2.0000 J0.0000
G03 X638.0000 Y21.0000 Z-1.8250 I0.0000 J2.0000
G03 X636.0000 Y23.0000 Z-1.8500 I-2.0000 J0.0000
G03 X634.0000 Y21.0000 Z-1.8750 I0.0000 J-2.0000
G03 X636.0000 Y19.0000 Z-1.9000 I2.0000 J0.0000
G03 X638.0000 Y21.0000 Z-1.9650 I0.0000 J2.0000
G03 X636.0000 Y23.0000 Z-2.0300 I-2.0000 J0.0000
G03 X634.0000 Y21.0000 Z-2.0950 I0.0000 J-2.0000
G03 X636.0000 Y19.0000 Z-2.1600 I2.0000 J0.0000
G03 X638.0000 Y21.0000 I0.0000 J2.0000
G03 X636.0000 Y23.0000 I-2.0000 J0.0000
G03 X634.0000 Y21.0000 I0.0000 J-2.0000
G03 X636.0000 Y19.0000 I2.0000 J0.0000
G00 Y21.000 Z5.000
(plungebore end)
(BREAK pass 20)
(Group complete: _diam_6.0mm)
(Group: _diam_6.0mm)
(Pass: 1)
G00 Y432.000
(plungebore  DEPTH=2.160  DIAM=6.000)
G00 Z1.667
G01 Z-0.100 F100 
G00 Z1.667
G01 Z-0.200
G00 Z1.667
G01 Z-0.300
G00 Z1.667
G01 Z-0.400
G00 Z1.667
G01 Z-0.500
G00 Z1.667
G01 Z-0.600
G00 Z1.667
G01 Z-0.700
G00 Z1.667
G01 Z-0.800
G00 Z1.667
G01 Z-0.900
G00 Z1.667
G01 Z-1.000
G00 Z1.667
G01 Z-1.100
G00 Z1.667
G01 Z-1.200
G00 Z1.667
G01 Z-1.300
G00 Z1.667
G01 Z-1.400
G00 Z1.667
G01 Z-1.500
G00 Z1.667
G01 Z-1.600
G00 Z1.667
G01 Z-1.700
G00 Z1.667
G01 Z-1.800
G00 Z1.667
G01 Z-1.900
G00 Z1.667
G01 Z-2.000
G00 Z1.667
G01 Z-2.100
G00 Z1.667
G01 Z-2.160
G00 Z1.667
G00 Y430.6000
G01 Z0.0000 F600 
G03 X637.4000 Y432.0000 Z-0.0250 I0.0000 J1.4000
G03 X636.0000 Y433.4000 Z-0.0500 I-1.4000 J0.0000
G03 X634.6000 Y432.0000 Z-0.0750 I0.0000 J-1.4000
G03 X636.0000 Y430.6000 Z-0.1000 I1.4000 J0.0000
G03 X637.4000 Y432.0000 Z-0.1250 I0.0000 J1.4000
G03 X636.0000 Y433.4000 Z-0.1500 I-1.4000 J0.0000
G03 X634.6000 Y432.0000 Z-0.1750 I0.0000 J-1.4000
G03 X636.0000 Y430.6000 Z-0.2000 I1.4000 J0.0000
G03 X637.4000 Y432.0000 Z-0.2250 I0.0000 J1.4000
G03 X636.0000 Y433.4000 Z-0.2500 I-1.4000 J0.0000
G03 X634.6000 Y432.0000 Z-0.2750 I0.0000 J-1.4000
G03 X636.0000 Y430.6000 Z-0.3000 I1.4000 J0.0000
G03 X637.4000 Y432.0000 Z-0.3250 I0.0000 J1.4000
G03 X636.0000 Y433.4000 Z-0.3500 I-1.4000 J0.0000
G03 X634.6000 Y432.0000 Z-0.3750 I0.0000 J-1.4000
G03 X636.0000 Y430.6000 Z-0.4000 I1.4000 J0.0000
G03 X637.4000 Y432.0000 Z-0.4250 I0.0000 J1.4000
G03 X636.0000 Y433.4000 Z-0.4500 I-1.4000 J0.0000
G03 X634.6000 Y432.0000 Z-0.4750 I0.0000 J-1.4000
G03 X636.0000 Y430.6000 Z-0.5000 I1.4000 J0.0000
G03 X637.4000 Y432.0000 Z-0.5250 I0.0000 J1.4000
G03 X636.0000 Y433.4000 Z-0.5500 I-1.4000 J0.0000
G03 X634.6000 Y432.0000 Z-0.5750 I0.0000 J-1.4000
G03 X636.0000 Y430.6000 Z-0.6000 I1.4000 J0.0000
G03 X637.4000 Y432.0000 Z-0.6250 I0.0000 J1.4000
G03 X636.0000 Y433.4000 Z-0.6500 I-1.4000 J0.0000
G03 X634.6000 Y432.0000 Z-0.6750 I0.0000 J-1.4000
G03 X636.0000 Y430.6000 Z-0.7000 I1.4000 J0.0000
G03 X637.4000 Y432.0000 Z-0.7250 I0.0000 J1.4000
G03 X636.0000 Y433.4000 Z-0.7500 I-1.4000 J0.0000
G03 X634.6000 Y432.0000 Z-0.7750 I0.0000 J-1.4000
G03 X636.0000 Y430.6000 Z-0.8000 I1.4000 J0.0000
G03 X637.4000 Y432.0000 Z-0.8250 I0.0000 J1.4000
G03 X636.0000 Y433.4000 Z-0.8500 I-1.4000 J0.0000
G03 X634.6000 Y432.0000 Z-0.8750 I0.0000 J-1.4000
G03 X636.0000 Y430.6000 Z-0.9000 I1.4000 J0.0000
G03 X637.4000 Y432.0000 Z-0.9250 I0.0000 J1.4000
G03 X636.0000 Y433.4000 Z-0.9500 I-1.4000 J0.0000
G03 X634.6000 Y432.0000 Z-0.9750 I0.0000 J-1.4000
G03 X636.0000 Y430.6000 Z-1.0000 I1.4000 J0.0000
G03 X637.4000 Y432.0000 Z-1.0250 I0.0000 J1.4000
G03 X636.0000 Y433.4000 Z-1.0500 I-1.4000 J0.0000
G03 X634.6000 Y432.0000 Z-1.0750 I0.0000 J-1.4000
G03 X636.0000 Y430.6000 Z-1.1000 I1.4000 J0.0000
G03 X637.4000 Y432.0000 Z-1.1250 I0.0000 J1.4000
G03 X636.0000 Y433.4000 Z-1.1500 I-1.4000 J0.0000
G03 X634.6000 Y432.0000 Z-1.1750 I0.0000 J-1.4000
G03 X636.0000 Y430.6000 Z-1.2000 I1.4000 J0.0000
G03 X637.4000 Y432.0000 Z-1.2250 I0.0000 J1.4000
G03 X636.0000 Y433.4000 Z-1.2500 I-1.4000 J0.0000
G03 X634.6000 Y432.0000 Z-1.2750 I0.0000 J-1.4000
G03 X636.0000 Y430.6000 Z-1.3000 I1.4000 J0.0000
G03 X637.4000 Y432.0000 Z-1.3250 I0.0000 J1.4000
G03 X636.0000 Y433.4000 Z-1.3500 I-1.4000 J0.0000
G03 X634.6000 Y432.0000 Z-1.3750 I0.0000 J-1.4000
G03 X636.0000 Y430.6000 Z-1.4000 I1.4000 J0.0000
G03 X637.4000 Y432.0000 Z-1.4250 I0.0000 J1.4000
G03 X636.0000 Y433.4000 Z-1.4500 I-1.4000 J0.0000
G03 X634.6000 Y432.0000 Z-1.4750 I0.0000 J-1.4000
G03 X636.0000 Y430.6000 Z-1.5000 I1.4000 J0.0000
G03 X637.4000 Y432.0000 Z-1.5250 I0.0000 J1.4000
G03 X636.0000 Y433.4000 Z-1.5500 I-1.4000 J0.0000
G03 X634.6000 Y432.0000 Z-1.5750 I0.0000 J-1.4000
G03 X636.0000 Y430.6000 Z-1.6000 I1.4000 J0.0000
G03 X637.4000 Y432.0000 Z-1.6250 I0.0000 J1.4000
G03 X636.0000 Y433.4000 Z-1.6500 I-1.4000 J0.0000
G03 X634.6000 Y432.0000 Z-1.6750 I0.0000 J-1.4000
G03 X636.0000 Y430.6000 Z-1.7000 I1.4000 J0.0000
G03 X637.4000 Y432.0000 Z-1.7250 I0.0000 J1.4000
G03 X636.0000 Y433.4000 Z-1.7500 I-1.4000 J0.0000
G03 X634.6000 Y432.0000 Z-1.7750 I0.0000 J-1.4000
G03 X636.0000 Y430.6000 Z-1.8000 I1.4000 J0.0000
G03 X637.4000 Y432.0000 Z-1.8250 I0.0000 J1.4000
G03 X636.0000 Y433.4000 Z-1.8500 I-1.4000 J0.0000
G03 X634.6000 Y432.0000 Z-1.8750 I0.0000 J-1.4000
G03 X636.0000 Y430.6000 Z-1.9000 I1.4000 J0.0000
G03 X637.4000 Y432.0000 Z-1.9650 I0.0000 J1.4000
G03 X636.0000 Y433.4000 Z-2.0300 I-1.4000 J0.0000
G03 X634.6000 Y432.0000 Z-2.0950 I0.0000 J-1.4000
G03 X636.0000 Y430.6000 Z-2.1600 I1.4000 J0.0000
G03 X637.4000 Y432.0000 I0.0000 J1.4000
G03 X636.0000 Y433.4000 I-1.4000 J0.0000
G03 X634.6000 Y432.0000 I0.0000 J-1.4000
G03 X636.0000 Y430.6000 I1.4000 J0.0000
G00 Z1.667
G00 Y430.0000
G01 Z0.0000
G03 X638.0000 Y432.0000 Z-0.0250 I0.0000 J2.0000
G03 X636.0000 Y434.0000 Z-0.0500 I-2.0000 J0.0000
G03 X634.0000 Y432.0000 Z-0.0750 I0.0000 J-2.0000
G03 X636.0000 Y430.0000 Z-0.1000 I2.0000 J0.0000
G03 X638.0000 Y432.0000 Z-0.1250 I0.0000 J2.0000
G03 X636.0000 Y434.0000 Z-0.1500 I-2.0000 J0.0000
G03 X634.0000 Y432.0000 Z-0.1750 I0.0000 J-2.0000
G03 X636.0000 Y430.0000 Z-0.2000 I2.0000 J0.0000
G03 X638.0000 Y432.0000 Z-0.2250 I0.0000 J2.0000
G03 X636.0000 Y434.0000 Z-0.2500 I-2.0000 J0.0000
G03 X634.0000 Y432.0000 Z-0.2750 I0.0000 J-2.0000
G03 X636.0000 Y430.0000 Z-0.3000 I2.0000 J0.0000
G03 X638.0000 Y432.0000 Z-0.3250 I0.0000 J2.0000
G03 X636.0000 Y434.0000 Z-0.3500 I-2.0000 J0.0000
G03 X634.0000 Y432.0000 Z-0.3750 I0.0000 J-2.0000
G03 X636.0000 Y430.0000 Z-0.4000 I2.0000 J0.0000
G03 X638.0000 Y432.0000 Z-0.4250 I0.0000 J2.0000
G03 X636.0000 Y434.0000 Z-0.4500 I-2.0000 J0.0000
G03 X634.0000 Y432.0000 Z-0.4750 I0.0000 J-2.0000
G03 X636.0000 Y430.0000 Z-0.5000 I2.0000 J0.0000
G03 X638.0000 Y432.0000 Z-0.5250 I0.0000 J2.0000
G03 X636.0000 Y434.0000 Z-0.5500 I-2.0000 J0.0000
G03 X634.0000 Y432.0000 Z-0.5750 I0.0000 J-2.0000
G03 X636.0000 Y430.0000 Z-0.6000 I2.0000 J0.0000
G03 X638.0000 Y432.0000 Z-0.6250 I0.0000 J2.0000
G03 X636.0000 Y434.0000 Z-0.6500 I-2.0000 J0.0000
G03 X634.0000 Y432.0000 Z-0.6750 I0.0000 J-2.0000
G03 X636.0000 Y430.0000 Z-0.7000 I2.0000 J0.0000
G03 X638.0000 Y432.0000 Z-0.7250 I0.0000 J2.0000
G03 X636.0000 Y434.0000 Z-0.7500 I-2.0000 J0.0000
G03 X634.0000 Y432.0000 Z-0.7750 I0.0000 J-2.0000
G03 X636.0000 Y430.0000 Z-0.8000 I2.0000 J0.0000
G03 X638.0000 Y432.0000 Z-0.8250 I0.0000 J2.0000
G03 X636.0000 Y434.0000 Z-0.8500 I-2.0000 J0.0000
G03 X634.0000 Y432.0000 Z-0.8750 I0.0000 J-2.0000
G03 X636.0000 Y430.0000 Z-0.9000 I2.0000 J0.0000
G03 X638.0000 Y432.0000 Z-0.9250 I0.0000 J2.0000
G03 X636.0000 Y434.0000 Z-0.9500 I-2.0000 J0.0000
G03 X634.0000 Y432.0000 Z-0.9750 I0.0000 J-2.0000
G03 X636.0000 Y430.0000 Z-1.0000 I2.0000 J0.0000
G03 X638.0000 Y432.0000 Z-1.0250 I0.0000 J2.0000
G03 X636.0000 Y434.0000 Z-1.0500 I-2.0000 J0.0000
G03 X634.0000 Y432.0000 Z-1.0750 I0.0000 J-2.0000
G03 X636.0000 Y430.0000 Z-1.1000 I2.0000 J0.0000
G03 X638.0000 Y432.0000 Z-1.1250 I0.0000 J2.0000
G03 X636.0000 Y434.0000 Z-1.1500 I-2.0000 J0.0000
G03 X634.0000 Y432.0000 Z-1.1750 I0.0000 J-2.0000
G03 X636.0000 Y430.0000 Z-1.2000 I2.0000 J0.0000
G03 X638.0000 Y432.0000 Z-1.2250 I0.0000 J2.0000
G03 X636.0000 Y434.0000 Z-1.2500 I-2.0000 J0.0000
G03 X634.0000 Y432.0000 Z-1.2750 I0.0000 J-2.0000
G03 X636.0000 Y430.0000 Z-1.3000 I2.0000 J0.0000
G03 X638.0000 Y432.0000 Z-1.3250 I0.0000 J2.0000
G03 X636.0000 Y434.0000 Z-1.3500 I-2.0000 J0.0000
G03 X634.0000 Y432.0000 Z-1.3750 I0.0000 J-2.0000
G03 X636.0000 Y430.0000 Z-1.4000 I2.0000 J0.0000
G03 X638.0000 Y432.0000 Z-1.4250 I0.0000 J2.0000
G03 X636.0000 Y434.0000 Z-1.4500 I-2.0000 J0.0000
G03 X634.0000 Y432.0000 Z-1.4750 I0.0000 J-2.0000
G03 X636.0000 Y430.0000 Z-1.5000 I2.0000 J0.0000
G03 X638.0000 Y432.0000 Z-1.5250 I0.0000 J2.0000
G03 X636.0000 Y434.0000 Z-1.5500 I-2.0000 J0.0000
G03 X634.0000 Y432.0000 Z-1.5750 I0.0000 J-2.0000
G03 X636.0000 Y430.0000 Z-1.6000 I2.0000 J0.0000
G03 X638.0000 Y432.0000 Z-1.6250 I0.0000 J2.0000
G03 X636.0000 Y434.0000 Z-1.6500 I-2.0000 J0.0000
G03 X634.0000 Y432.0000 Z-1.6750 I0.0000 J-2.0000
G03 X636.0000 Y430.0000 Z-1.7000 I2.0000 J0.0000
G03 X638.0000 Y432.0000 Z-1.7250 I0.0000 J2.0000
G03 X636.0000 Y434.0000 Z-1.7500 I-2.0000 J0.0000
G03 X634.0000 Y432.0000 Z-1.7750 I0.0000 J-2.0000
G03 X636.0000 Y430.0000 Z-1.8000 I2.0000 J0.0000
G03 X638.0000 Y432.0000 Z-1.8250 I0.0000 J2.0000
G03 X636.0000 Y434.0000 Z-1.8500 I-2.0000 J0.0000
G03 X634.0000 Y432.0000 Z-1.8750 I0.0000 J-2.0000
G03 X636.0000 Y430.0000 Z-1.9000 I2.0000 J0.0000
G03 X638.0000 Y432.0000 Z-1.9650 I0.0000 J2.0000
G03 X636.0000 Y434.0000 Z-2.0300 I-2.0000 J0.0000
G03 X634.0000 Y432.0000 Z-2.0950 I0.0000 J-2.0000
G03 X636.0000 Y430.0000 Z-2.1600 I2.0000 J0.0000
G03 X638.0000 Y432.0000 I0.0000 J2.0000
G03 X636.0000 Y434.0000 I-2.0000 J0.0000
G03 X634.0000 Y432.0000 I0.0000 J-2.0000
G03 X636.0000 Y430.0000 I2.0000 J0.0000
G00 Y432.000 Z5.000
(plungebore end)
(BREAK pass 20)
(Group complete: _diam_6.0mm)
(Group: _diam_6.0mm)
(Pass: 1)
G00 X481.000 Y584.000
(plungebore  DEPTH=2.160  DIAM=6.000)
G00 Z1.667
G01 Z-0.100 F100 
G00 Z1.667
G01 Z-0.200
G00 Z1.667
G01 Z-0.300
G00 Z1.667
G01 Z-0.400
G00 Z1.667
G01 Z-0.500
G00 Z1.667
G01 Z-0.600
G00 Z1.667
G01 Z-0.700
G00 Z1.667
G01 Z-0.800
G00 Z1.667
G01 Z-0.900
G00 Z1.667
G01 Z-1.000
G00 Z1.667
G01 Z-1.100
G00 Z1.667
G01 Z-1.200
G00 Z1.667
G01 Z-1.300
G00 Z1.667
G01 Z-1.400
G00 Z1.667
G01 Z-1.500
G00 Z1.667
G01 Z-1.600
G00 Z1.667
G01 Z-1.700
G00 Z1.667
G01 Z-1.800
G00 Z1.667
G01 Z-1.900
G00 Z1.667
G01 Z-2.000
G00 Z1.667
G01 Z-2.100
G00 Z1.667
G01 Z-2.160
G00 Z1.667
G00 Y582.6000
G01 Z0.0000 F600 
G03 X482.4000 Y584.0000 Z-0.0250 I0.0000 J1.4000
G03 X481.0000 Y585.4000 Z-0.0500 I-1.4000 J0.0000
G03 X479.6000 Y584.0000 Z-0.0750 I0.0000 J-1.4000
G03 X481.0000 Y582.6000 Z-0.1000 I1.4000 J0.0000
G03 X482.4000 Y584.0000 Z-0.1250 I0.0000 J1.4000
G03 X481.0000 Y585.4000 Z-0.1500 I-1.4000 J0.0000
G03 X479.6000 Y584.0000 Z-0.1750 I0.0000 J-1.4000
G03 X481.0000 Y582.6000 Z-0.2000 I1.4000 J0.0000
G03 X482.4000 Y584.0000 Z-0.2250 I0.0000 J1.4000
G03 X481.0000 Y585.4000 Z-0.2500 I-1.4000 J0.0000
G03 X479.6000 Y584.0000 Z-0.2750 I0.0000 J-1.4000
G03 X481.0000 Y582.6000 Z-0.3000 I1.4000 J0.0000
G03 X482.4000 Y584.0000 Z-0.3250 I0.0000 J1.4000
G03 X481.0000 Y585.4000 Z-0.3500 I-1.4000 J0.0000
G03 X479.6000 Y584.0000 Z-0.3750 I0.0000 J-1.4000
G03 X481.0000 Y582.6000 Z-0.4000 I1.4000 J0.0000
G03 X482.4000 Y584.0000 Z-0.4250 I0.0000 J1.4000
G03 X481.0000 Y585.4000 Z-0.4500 I-1.4000 J0.0000
G03 X479.6000 Y584.0000 Z-0.4750 I0.0000 J-1.4000
G03 X481.0000 Y582.6000 Z-0.5000 I1.4000 J0.0000
G03 X482.4000 Y584.0000 Z-0.5250 I0.0000 J1.4000
G03 X481.0000 Y585.4000 Z-0.5500 I-1.4000 J0.0000
G03 X479.6000 Y584.0000 Z-0.5750 I0.0000 J-1.4000
G03 X481.0000 Y582.6000 Z-0.6000 I1.4000 J0.0000
G03 X482.4000 Y584.0000 Z-0.6250 I0.0000 J1.4000
G03 X481.0000 Y585.4000 Z-0.6500 I-1.4000 J0.0000
G03 X479.6000 Y584.0000 Z-0.6750 I0.0000 J-1.4000
G03 X481.0000 Y582.6000 Z-0.7000 I1.4000 J0.0000
G03 X482.4000 Y584.0000 Z-0.7250 I0.0000 J1.4000
G03 X481.0000 Y585.4000 Z-0.7500 I-1.4000 J0.0000
G03 X479.6000 Y584.0000 Z-0.7750 I0.0000 J-1.4000
G03 X481.0000 Y582.6000 Z-0.8000 I1.4000 J0.0000
G03 X482.4000 Y584.0000 Z-0.8250 I0.0000 J1.4000
G03 X481.0000 Y585.4000 Z-0.8500 I-1.4000 J0.0000
G03 X479.6000 Y584.0000 Z-0.8750 I0.0000 J-1.4000
G03 X481.0000 Y582.6000 Z-0.9000 I1.4000 J0.0000
G03 X482.4000 Y584.0000 Z-0.9250 I0.0000 J1.4000
G03 X481.0000 Y585.4000 Z-0.9500 I-1.4000 J0.0000
G03 X479.6000 Y584.0000 Z-0.9750 I0.0000 J-1.4000
G03 X481.0000 Y582.6000 Z-1.0000 I1.4000 J0.0000
G03 X482.4000 Y584.0000 Z-1.0250 I0.0000 J1.4000
G03 X481.0000 Y585.4000 Z-1.0500 I-1.4000 J0.0000
G03 X479.6000 Y584.0000 Z-1.0750 I0.0000 J-1.4000
G03 X481.0000 Y582.6000 Z-1.1000 I1.4000 J0.0000
G03 X482.4000 Y584.0000 Z-1.1250 I0.0000 J1.4000
G03 X481.0000 Y585.4000 Z-1.1500 I-1.4000 J0.0000
G03 X479.6000 Y584.0000 Z-1.1750 I0.0000 J-1.4000
G03 X481.0000 Y582.6000 Z-1.2000 I1.4000 J0.0000
G03 X482.4000 Y584.0000 Z-1.2250 I0.0000 J1.4000
G03 X481.0000 Y585.4000 Z-1.2500 I-1.4000 J0.0000
G03 X479.6000 Y584.0000 Z-1.2750 I0.0000 J-1.4000
G03 X481.0000 Y582.6000 Z-1.3000 I1.4000 J0.0000
G03 X482.4000 Y584.0000 Z-1.3250 I0.0000 J1.4000
G03 X481.0000 Y585.4000 Z-1.3500 I-1.4000 J0.0000
G03 X479.6000 Y584.0000 Z-1.3750 I0.0000 J-1.4000
G03 X481.0000 Y582.6000 Z-1.4000 I1.4000 J0.0000
G03 X482.4000 Y584.0000 Z-1.4250 I0.0000 J1.4000
G03 X481.0000 Y585.4000 Z-1.4500 I-1.4000 J0.0000
G03 X479.6000 Y584.0000 Z-1.4750 I0.0000 J-1.4000
G03 X481.0000 Y582.6000 Z-1.5000 I1.4000 J0.0000
G03 X482.4000 Y584.0000 Z-1.5250 I0.0000 J1.4000
G03 X481.0000 Y585.4000 Z-1.5500 I-1.4000 J0.0000
G03 X479.6000 Y584.0000 Z-1.5750 I0.0000 J-1.4000
G03 X481.0000 Y582.6000 Z-1.6000 I1.4000 J0.0000
G03 X482.4000 Y584.0000 Z-1.6250 I0.0000 J1.4000
G03 X481.0000 Y585.4000 Z-1.6500 I-1.4000 J0.0000
G03 X479.6000 Y584.0000 Z-1.6750 I0.0000 J-1.4000
G03 X481.0000 Y582.6000 Z-1.7000 I1.4000 J0.0000
G03 X482.4000 Y584.0000 Z-1.7250 I0.0000 J1.4000
G03 X481.0000 Y585.4000 Z-1.7500 I-1.4000 J0.0000
G03 X479.6000 Y584.0000 Z-1.7750 I0.0000 J-1.4000
G03 X481.0000 Y582.6000 Z-1.8000 I1.4000 J0.0000
G03 X482.4000 Y584.0000 Z-1.8250 I0.0000 J1.4000
G03 X481.0000 Y585.4000 Z-1.8500 I-1.4000 J0.0000
G03 X479.6000 Y584.0000 Z-1.8750 I0.0000 J-1.4000
G03 X481.0000 Y582.6000 Z-1.9000 I1.4000 J0.0000
G03 X482.4000 Y584.0000 Z-1.9650 I0.0000 J1.4000
G03 X481.0000 Y585.4000 Z-2.0300 I-1.4000 J0.0000
G03 X479.6000 Y584.0000 Z-2.0950 I0.0000 J-1.4000
G03 X481.0000 Y582.6000 Z-2.1600 I1.4000 J0.0000
G03 X482.4000 Y584.0000 I0.0000 J1.4000
G03 X481.0000 Y585.4000 I-1.4000 J0.0000
G03 X479.6000 Y584.0000 I0.0000 J-1.4000
G03 X481.0000 Y582.6000 I1.4000 J0.0000
G00 Z1.667
G00 Y582.0000
G01 Z0.0000
G03 X483.0000 Y584.0000 Z-0.0250 I0.0000 J2.0000
G03 X481.0000 Y586.0000 Z-0.0500 I-2.0000 J0.0000
G03 X479.0000 Y584.0000 Z-0.0750 I0.0000 J-2.0000
G03 X481.0000 Y582.0000 Z-0.1000 I2.0000 J0.0000
G03 X483.0000 Y584.0000 Z-0.1250 I0.0000 J2.0000
G03 X481.0000 Y586.0000 Z-0.1500 I-2.0000 J0.0000
G03 X479.0000 Y584.0000 Z-0.1750 I0.0000 J-2.0000
G03 X481.0000 Y582.0000 Z-0.2000 I2.0000 J0.0000
G03 X483.0000 Y584.0000 Z-0.2250 I0.0000 J2.0000
G03 X481.0000 Y586.0000 Z-0.2500 I-2.0000 J0.0000
G03 X479.0000 Y584.0000 Z-0.2750 I0.0000 J-2.0000
G03 X481.0000 Y582.0000 Z-0.3000 I2.0000 J0.0000
G03 X483.0000 Y584.0000 Z-0.3250 I0.0000 J2.0000
G03 X481.0000 Y586.0000 Z-0.3500 I-2.0000 J0.0000
G03 X479.0000 Y584.0000 Z-0.3750 I0.0000 J-2.0000
G03 X481.0000 Y582.0000 Z-0.4000 I2.0000 J0.0000
G03 X483.0000 Y584.0000 Z-0.4250 I0.0000 J2.0000
G03 X481.0000 Y586.0000 Z-0.4500 I-2.0000 J0.0000
G03 X479.0000 Y584.0000 Z-0.4750 I0.0000 J-2.0000
G03 X481.0000 Y582.0000 Z-0.5000 I2.0000 J0.0000
G03 X483.0000 Y584.0000 Z-0.5250 I0.0000 J2.0000
G03 X481.0000 Y586.0000 Z-0.5500 I-2.0000 J0.0000
G03 X479.0000 Y584.0000 Z-0.5750 I0.0000 J-2.0000
G03 X481.0000 Y582.0000 Z-0.6000 I2.0000 J0.0000
G03 X483.0000 Y584.0000 Z-0.6250 I0.0000 J2.0000
G03 X481.0000 Y586.0000 Z-0.6500 I-2.0000 J0.0000
G03 X479.0000 Y584.0000 Z-0.6750 I0.0000 J-2.0000
G03 X481.0000 Y582.0000 Z-0.7000 I2.0000 J0.0000
G03 X483.0000 Y584.0000 Z-0.7250 I0.0000 J2.0000
G03 X481.0000 Y586.0000 Z-0.7500 I-2.0000 J0.0000
G03 X479.0000 Y584.0000 Z-0.7750 I0.0000 J-2.0000
G03 X481.0000 Y582.0000 Z-0.8000 I2.0000 J0.0000
G03 X483.0000 Y584.0000 Z-0.8250 I0.0000 J2.0000
G03 X481.0000 Y586.0000 Z-0.8500 I-2.0000 J0.0000
G03 X479.0000 Y584.0000 Z-0.8750 I0.0000 J-2.0000
G03 X481.0000 Y582.0000 Z-0.9000 I2.0000 J0.0000
G03 X483.0000 Y584.0000 Z-0.9250 I0.0000 J2.0000
G03 X481.0000 Y586.0000 Z-0.9500 I-2.0000 J0.0000
G03 X479.0000 Y584.0000 Z-0.9750 I0.0000 J-2.0000
G03 X481.0000 Y582.0000 Z-1.0000 I2.0000 J0.0000
G03 X483.0000 Y584.0000 Z-1.0250 I0.0000 J2.0000
G03 X481.0000 Y586.0000 Z-1.0500 I-2.0000 J0.0000
G03 X479.0000 Y584.0000 Z-1.0750 I0.0000 J-2.0000
G03 X481.0000 Y582.0000 Z-1.1000 I2.0000 J0.0000
G03 X483.0000 Y584.0000 Z-1.1250 I0.0000 J2.0000
G03 X481.0000 Y586.0000 Z-1.1500 I-2.0000 J0.0000
G03 X479.0000 Y584.0000 Z-1.1750 I0.0000 J-2.0000
G03 X481.0000 Y582.0000 Z-1.2000 I2.0000 J0.0000
G03 X483.0000 Y584.0000 Z-1.2250 I0.0000 J2.0000
G03 X481.0000 Y586.0000 Z-1.2500 I-2.0000 J0.0000
G03 X479.0000 Y584.0000 Z-1.2750 I0.0000 J-2.0000
G03 X481.0000 Y582.0000 Z-1.3000 I2.0000 J0.0000
G03 X483.0000 Y584.0000 Z-1.3250 I0.0000 J2.0000
G03 X481.0000 Y586.0000 Z-1.3500 I-2.0000 J0.0000
G03 X479.0000 Y584.0000 Z-1.3750 I0.0000 J-2.0000
G03 X481.0000 Y582.0000 Z-1.4000 I2.0000 J0.0000
G03 X483.0000 Y584.0000 Z-1.4250 I0.0000 J2.0000
G03 X481.0000 Y586.0000 Z-1.4500 I-2.0000 J0.0000
G03 X479.0000 Y584.0000 Z-1.4750 I0.0000 J-2.0000
G03 X481.0000 Y582.0000 Z-1.5000 I2.0000 J0.0000
G03 X483.0000 Y584.0000 Z-1.5250 I0.0000 J2.0000
G03 X481.0000 Y586.0000 Z-1.5500 I-2.0000 J0.0000
G03 X479.0000 Y584.0000 Z-1.5750 I0.0000 J-2.0000
G03 X481.0000 Y582.0000 Z-1.6000 I2.0000 J0.0000
G03 X483.0000 Y584.0000 Z-1.6250 I0.0000 J2.0000
G03 X481.0000 Y586.0000 Z-1.6500 I-2.0000 J0.0000
G03 X479.0000 Y584.0000 Z-1.6750 I0.0000 J-2.0000
G03 X481.0000 Y582.0000 Z-1.7000 I2.0000 J0.0000
G03 X483.0000 Y584.0000 Z-1.7250 I0.0000 J2.0000
G03 X481.0000 Y586.0000 Z-1.7500 I-2.0000 J0.0000
G03 X479.0000 Y584.0000 Z-1.7750 I0.0000 J-2.0000
G03 X481.0000 Y582.0000 Z-1.8000 I2.0000 J0.0000
G03 X483.0000 Y584.0000 Z-1.8250 I0.0000 J2.0000
G03 X481.0000 Y586.0000 Z-1.8500 I-2.0000 J0.0000
G03 X479.0000 Y584.0000 Z-1.8750 I0.0000 J-2.0000
G03 X481.0000 Y582.0000 Z-1.9000 I2.0000 J0.0000
G03 X483.0000 Y584.0000 Z-1.9650 I0.0000 J2.0000
G03 X481.0000 Y586.0000 Z-2.0300 I-2.0000 J0.0000
G03 X479.0000 Y584.0000 Z-2.0950 I0.0000 J-2.0000
G03 X481.0000 Y582.0000 Z-2.1600 I2.0000 J0.0000
G03 X483.0000 Y584.0000 I0.0000 J2.0000
G03 X481.0000 Y586.0000 I-2.0000 J0.0000
G03 X479.0000 Y584.0000 I0.0000 J-2.0000
G03 X481.0000 Y582.0000 I2.0000 J0.0000
G00 Y584.000 Z5.000
(plungebore end)
(BREAK pass 20)
(Group complete: _diam_6.0mm)
(Group: _diam_3.9999999999999996mm)
(Pass: 1)
G00 X452.000 Y302.000
(plungebore  DEPTH=2.160  DIAM=4.000)
G00 Z1.667
G01 Z-0.100 F100 
G00 Z1.667
G01 Z-0.200
G00 Z1.667
G01 Z-0.300
G00 Z1.667
G01 Z-0.400
G00 Z1.667
G01 Z-0.500
G00 Z1.667
G01 Z-0.600
G00 Z1.667
G01 Z-0.700
G00 Z1.667
G01 Z-0.800
G00 Z1.667
G01 Z-0.900
G00 Z1.667
G01 Z-1.000
G00 Z1.667
G01 Z-1.100
G00 Z1.667
G01 Z-1.200
G00 Z1.667
G01 Z-1.300
G00 Z1.667
G01 Z-1.400
G00 Z1.667
G01 Z-1.500
G00 Z1.667
G01 Z-1.600
G00 Z1.667
G01 Z-1.700
G00 Z1.667
G01 Z-1.800
G00 Z1.667
G01 Z-1.900
G00 Z1.667
G01 Z-2.000
G00 Z1.667
G01 Z-2.100
G00 Z1.667
G01 Z-2.160
G00 Z1.667
G00 Y301.0000
G01 Z0.0000 F600 
G03 X453.0000 Y302.0000 Z-0.0250 I0.0000 J1.0000
G03 X452.0000 Y303.0000 Z-0.0500 I-1.0000 J0.0000
G03 X451.0000 Y302.0000 Z-0.0750 I0.0000 J-1.0000
G03 X452.0000 Y301.0000 Z-0.1000 I1.0000 J0.0000
G03 X453.0000 Y302.0000 Z-0.1250 I0.0000 J1.0000
G03 X452.0000 Y303.0000 Z-0.1500 I-1.0000 J0.0000
G03 X451.0000 Y302.0000 Z-0.1750 I0.0000 J-1.0000
G03 X452.0000 Y301.0000 Z-0.2000 I1.0000 J0.0000
G03 X453.0000 Y302.0000 Z-0.2250 I0.0000 J1.0000
G03 X452.0000 Y303.0000 Z-0.2500 I-1.0000 J0.0000
G03 X451.0000 Y302.0000 Z-0.2750 I0.0000 J-1.0000
G03 X452.0000 Y301.0000 Z-0.3000 I1.0000 J0.0000
G03 X453.0000 Y302.0000 Z-0.3250 I0.0000 J1.0000
G03 X452.0000 Y303.0000 Z-0.3500 I-1.0000 J0.0000
G03 X451.0000 Y302.0000 Z-0.3750 I0.0000 J-1.0000
G03 X452.0000 Y301.0000 Z-0.4000 I1.0000 J0.0000
G03 X453.0000 Y302.0000 Z-0.4250 I0.0000 J1.0000
G03 X452.0000 Y303.0000 Z-0.4500 I-1.0000 J0.0000
G03 X451.0000 Y302.0000 Z-0.4750 I0.0000 J-1.0000
G03 X452.0000 Y301.0000 Z-0.5000 I1.0000 J0.0000
G03 X453.0000 Y302.0000 Z-0.5250 I0.0000 J1.0000
G03 X452.0000 Y303.0000 Z-0.5500 I-1.0000 J0.0000
G03 X451.0000 Y302.0000 Z-0.5750 I0.0000 J-1.0000
G03 X452.0000 Y301.0000 Z-0.6000 I1.0000 J0.0000
G03 X453.0000 Y302.0000 Z-0.6250 I0.0000 J1.0000
G03 X452.0000 Y303.0000 Z-0.6500 I-1.0000 J0.0000
G03 X451.0000 Y302.0000 Z-0.6750 I0.0000 J-1.0000
G03 X452.0000 Y301.0000 Z-0.7000 I1.0000 J0.0000
G03 X453.0000 Y302.0000 Z-0.7250 I0.0000 J1.0000
G03 X452.0000 Y303.0000 Z-0.7500 I-1.0000 J0.0000
G03 X451.0000 Y302.0000 Z-0.7750 I0.0000 J-1.0000
G03 X452.0000 Y301.0000 Z-0.8000 I1.0000 J0.0000
G03 X453.0000 Y302.0000 Z-0.8250 I0.0000 J1.0000
G03 X452.0000 Y303.0000 Z-0.8500 I-1.0000 J0.0000
G03 X451.0000 Y302.0000 Z-0.8750 I0.0000 J-1.0000
G03 X452.0000 Y301.0000 Z-0.9000 I1.0000 J0.0000
G03 X453.0000 Y302.0000 Z-0.9250 I0.0000 J1.0000
G03 X452.0000 Y303.0000 Z-0.9500 I-1.0000 J0.0000
G03 X451.0000 Y302.0000 Z-0.9750 I0.0000 J-1.0000
G03 X452.0000 Y301.0000 Z-1.0000 I1.0000 J0.0000
G03 X453.0000 Y302.0000 Z-1.0250 I0.0000 J1.0000
G03 X452.0000 Y303.0000 Z-1.0500 I-1.0000 J0.0000
G03 X451.0000 Y302.0000 Z-1.0750 I0.0000 J-1.0000
G03 X452.0000 Y301.0000 Z-1.1000 I1.0000 J0.0000
G03 X453.0000 Y302.0000 Z-1.1250 I0.0000 J1.0000
G03 X452.0000 Y303.0000 Z-1.1500 I-1.0000 J0.0000
G03 X451.0000 Y302.0000 Z-1.1750 I0.0000 J-1.0000
G03 X452.0000 Y301.0000 Z-1.2000 I1.0000 J0.0000
G03 X453.0000 Y302.0000 Z-1.2250 I0.0000 J1.0000
G03 X452.0000 Y303.0000 Z-1.2500 I-1.0000 J0.0000
G03 X451.0000 Y302.0000 Z-1.2750 I0.0000 J-1.0000
G03 X452.0000 Y301.0000 Z-1.3000 I1.0000 J0.0000
G03 X453.0000 Y302.0000 Z-1.3250 I0.0000 J1.0000
G03 X452.0000 Y303.0000 Z-1.3500 I-1.0000 J0.0000
G03 X451.0000 Y302.0000 Z-1.3750 I0.0000 J-1.0000
G03 X452.0000 Y301.0000 Z-1.4000 I1.0000 J0.0000
G03 X453.0000 Y302.0000 Z-1.4250 I0.0000 J1.0000
G03 X452.0000 Y303.0000 Z-1.4500 I-1.0000 J0.0000
G03 X451.0000 Y302.0000 Z-1.4750 I0.0000 J-1.0000
G03 X452.0000 Y301.0000 Z-1.5000 I1.0000 J0.0000
G03 X453.0000 Y302.0000 Z-1.5250 I0.0000 J1.0000
G03 X452.0000 Y303.0000 Z-1.5500 I-1.0000 J0.0000
G03 X451.0000 Y302.0000 Z-1.5750 I0.0000 J-1.0000
G03 X452.0000 Y301.0000 Z-1.6000 I1.0000 J0.0000
G03 X453.0000 Y302.0000 Z-1.6250 I0.0000 J1.0000
G03 X452.0000 Y303.0000 Z-1.6500 I-1.0000 J0.0000
G03 X451.0000 Y302.0000 Z-1.6750 I0.0000 J-1.0000
G03 X452.0000 Y301.0000 Z-1.7000 I1.0000 J0.0000
G03 X453.0000 Y302.0000 Z-1.7250 I0.0000 J1.0000
G03 X452.0000 Y303.0000 Z-1.7500 I-1.0000 J0.0000
G03 X451.0000 Y302.0000 Z-1.7750 I0.0000 J-1.0000
G03 X452.0000 Y301.0000 Z-1.8000 I1.0000 J0.0000
G03 X453.0000 Y302.0000 Z-1.8250 I0.0000 J1.0000
G03 X452.0000 Y303.0000 Z-1.8500 I-1.0000 J0.0000
G03 X451.0000 Y302.0000 Z-1.8750 I0.0000 J-1.0000
G03 X452.0000 Y301.0000 Z-1.9000 I1.0000 J0.0000
G03 X453.0000 Y302.0000 Z-1.9650 I0.0000 J1.0000
G03 X452.0000 Y303.0000 Z-2.0300 I-1.0000 J0.0000
G03 X451.0000 Y302.0000 Z-2.0950 I0.0000 J-1.0000
G03 X452.0000 Y301.0000 Z-2.1600 I1.0000 J0.0000
G03 X453.0000 Y302.0000 I0.0000 J1.0000
G03 X452.0000 Y303.0000 I-1.0000 J0.0000
G03 X451.0000 Y302.0000 I0.0000 J-1.0000
G03 X452.0000 Y301.0000 I1.0000 J0.0000
G00 Y302.000 Z5.000
(plungebore end)
(BREAK pass 20)
(Group complete: _diam_3.9999999999999996mm)
(Group: _diam_3.9999999999999996mm)
(Pass: 1)
G00 Y102.000
(plungebore  DEPTH=2.160  DIAM=4.000)
G00 Z1.667
G01 Z-0.100 F100 
G00 Z1.667
G01 Z-0.200
G00 Z1.667
G01 Z-0.300
G00 Z1.667
G01 Z-0.400
G00 Z1.667
G01 Z-0.500
G00 Z1.667
G01 Z-0.600
G00 Z1.667
G01 Z-0.700
G00 Z1.667
G01 Z-0.800
G00 Z1.667
G01 Z-0.900
G00 Z1.667
G01 Z-1.000
G00 Z1.667
G01 Z-1.100
G00 Z1.667
G01 Z-1.200
G00 Z1.667
G01 Z-1.300
G00 Z1.667
G01 Z-1.400
G00 Z1.667
G01 Z-1.500
G00 Z1.667
G01 Z-1.600
G00 Z1.667
G01 Z-1.700
G00 Z1.667
G01 Z-1.800
G00 Z1.667
G01 Z-1.900
G00 Z1.667
G01 Z-2.000
G00 Z1.667
G01 Z-2.100
G00 Z1.667
G01 Z-2.160
G00 Z1.667
G00 Y101.0000
G01 Z0.0000 F600 
G03 X453.0000 Y102.0000 Z-0.0250 I0.0000 J1.0000
G03 X452.0000 Y103.0000 Z-0.0500 I-1.0000 J0.0000
G03 X451.0000 Y102.0000 Z-0.0750 I0.0000 J-1.0000
G03 X452.0000 Y101.0000 Z-0.1000 I1.0000 J0.0000
G03 X453.0000 Y102.0000 Z-0.1250 I0.0000 J1.0000
G03 X452.0000 Y103.0000 Z-0.1500 I-1.0000 J0.0000
G03 X451.0000 Y102.0000 Z-0.1750 I0.0000 J-1.0000
G03 X452.0000 Y101.0000 Z-0.2000 I1.0000 J0.0000
G03 X453.0000 Y102.0000 Z-0.2250 I0.0000 J1.0000
G03 X452.0000 Y103.0000 Z-0.2500 I-1.0000 J0.0000
G03 X451.0000 Y102.0000 Z-0.2750 I0.0000 J-1.0000
G03 X452.0000 Y101.0000 Z-0.3000 I1.0000 J0.0000
G03 X453.0000 Y102.0000 Z-0.3250 I0.0000 J1.0000
G03 X452.0000 Y103.0000 Z-0.3500 I-1.0000 J0.0000
G03 X451.0000 Y102.0000 Z-0.3750 I0.0000 J-1.0000
G03 X452.0000 Y101.0000 Z-0.4000 I1.0000 J0.0000
G03 X453.0000 Y102.0000 Z-0.4250 I0.0000 J1.0000
G03 X452.0000 Y103.0000 Z-0.4500 I-1.0000 J0.0000
G03 X451.0000 Y102.0000 Z-0.4750 I0.0000 J-1.0000
G03 X452.0000 Y101.0000 Z-0.5000 I1.0000 J0.0000
G03 X453.0000 Y102.0000 Z-0.5250 I0.0000 J1.0000
G03 X452.0000 Y103.0000 Z-0.5500 I-1.0000 J0.0000
G03 X451.0000 Y102.0000 Z-0.5750 I0.0000 J-1.0000
G03 X452.0000 Y101.0000 Z-0.6000 I1.0000 J0.0000
G03 X453.0000 Y102.0000 Z-0.6250 I0.0000 J1.0000
G03 X452.0000 Y103.0000 Z-0.6500 I-1.0000 J0.0000
G03 X451.0000 Y102.0000 Z-0.6750 I0.0000 J-1.0000
G03 X452.0000 Y101.0000 Z-0.7000 I1.0000 J0.0000
G03 X453.0000 Y102.0000 Z-0.7250 I0.0000 J1.0000
G03 X452.0000 Y103.0000 Z-0.7500 I-1.0000 J0.0000
G03 X451.0000 Y102.0000 Z-0.7750 I0.0000 J-1.0000
G03 X452.0000 Y101.0000 Z-0.8000 I1.0000 J0.0000
G03 X453.0000 Y102.0000 Z-0.8250 I0.0000 J1.0000
G03 X452.0000 Y103.0000 Z-0.8500 I-1.0000 J0.0000
G03 X451.0000 Y102.0000 Z-0.8750 I0.0000 J-1.0000
G03 X452.0000 Y101.0000 Z-0.9000 I1.0000 J0.0000
G03 X453.0000 Y102.0000 Z-0.9250 I0.0000 J1.0000
G03 X452.0000 Y103.0000 Z-0.9500 I-1.0000 J0.0000
G03 X451.0000 Y102.0000 Z-0.9750 I0.0000 J-1.0000
G03 X452.0000 Y101.0000 Z-1.0000 I1.0000 J0.0000
G03 X453.0000 Y102.0000 Z-1.0250 I0.0000 J1.0000
G03 X452.0000 Y103.0000 Z-1.0500 I-1.0000 J0.0000
G03 X451.0000 Y102.0000 Z-1.0750 I0.0000 J-1.0000
G03 X452.0000 Y101.0000 Z-1.1000 I1.0000 J0.0000
G03 X453.0000 Y102.0000 Z-1.1250 I0.0000 J1.0000
G03 X452.0000 Y103.0000 Z-1.1500 I-1.0000 J0.0000
G03 X451.0000 Y102.0000 Z-1.1750 I0.0000 J-1.0000
G03 X452.0000 Y101.0000 Z-1.2000 I1.0000 J0.0000
G03 X453.0000 Y102.0000 Z-1.2250 I0.0000 J1.0000
G03 X452.0000 Y103.0000 Z-1.2500 I-1.0000 J0.0000
G03 X451.0000 Y102.0000 Z-1.2750 I0.0000 J-1.0000
G03 X452.0000 Y101.0000 Z-1.3000 I1.0000 J0.0000
G03 X453.0000 Y102.0000 Z-1.3250 I0.0000 J1.0000
G03 X452.0000 Y103.0000 Z-1.3500 I-1.0000 J0.0000
G03 X451.0000 Y102.0000 Z-1.3750 I0.0000 J-1.0000
G03 X452.0000 Y101.0000 Z-1.4000 I1.0000 J0.0000
G03 X453.0000 Y102.0000 Z-1.4250 I0.0000 J1.0000
G03 X452.0000 Y103.0000 Z-1.4500 I-1.0000 J0.0000
G03 X451.0000 Y102.0000 Z-1.4750 I0.0000 J-1.0000
G03 X452.0000 Y101.0000 Z-1.5000 I1.0000 J0.0000
G03 X453.0000 Y102.0000 Z-1.5250 I0.0000 J1.0000
G03 X452.0000 Y103.0000 Z-1.5500 I-1.0000 J0.0000
G03 X451.0000 Y102.0000 Z-1.5750 I0.0000 J-1.0000
G03 X452.0000 Y101.0000 Z-1.6000 I1.0000 J0.0000
G03 X453.0000 Y102.0000 Z-1.6250 I0.0000 J1.0000
G03 X452.0000 Y103.0000 Z-1.6500 I-1.0000 J0.0000
G03 X451.0000 Y102.0000 Z-1.6750 I0.0000 J-1.0000
G03 X452.0000 Y101.0000 Z-1.7000 I1.0000 J0.0000
G03 X453.0000 Y102.0000 Z-1.7250 I0.0000 J1.0000
G03 X452.0000 Y103.0000 Z-1.7500 I-1.0000 J0.0000
G03 X451.0000 Y102.0000 Z-1.7750 I0.0000 J-1.0000
G03 X452.0000 Y101.0000 Z-1.8000 I1.0000 J0.0000
G03 X453.0000 Y102.0000 Z-1.8250 I0.0000 J1.0000
G03 X452.0000 Y103.0000 Z-1.8500 I-1.0000 J0.0000
G03 X451.0000 Y102.0000 Z-1.8750 I0.0000 J-1.0000
G03 X452.0000 Y101.0000 Z-1.9000 I1.0000 J0.0000
G03 X453.0000 Y102.0000 Z-1.9650 I0.0000 J1.0000
G03 X452.0000 Y103.0000 Z-2.0300 I-1.0000 J0.0000
G03 X451.0000 Y102.0000 Z-2.0950 I0.0000 J-1.0000
G03 X452.0000 Y101.0000 Z-2.1600 I1.0000 J0.0000
G03 X453.0000 Y102.0000 I0.0000 J1.0000
G03 X452.0000 Y103.0000 I-1.0000 J0.0000
G03 X451.0000 Y102.0000 I0.0000 J-1.0000
G03 X452.0000 Y101.0000 I1.0000 J0.0000
G00 Y102.000 Z5.000
(plungebore end)
(BREAK pass 20)
(Group complete: _diam_3.9999999999999996mm)
(Group: _diam_3.9999999999999996mm)
(Pass: 1)
G00 X202.000
(plungebore  DEPTH=2.160  DIAM=4.000)
G00 Z1.667
G01 Z-0.100 F100 
G00 Z1.667
G01 Z-0.200
G00 Z1.667
G01 Z-0.300
G00 Z1.667
G01 Z-0.400
G00 Z1.667
G01 Z-0.500
G00 Z1.667
G01 Z-0.600
G00 Z1.667
G01 Z-0.700
G00 Z1.667
G01 Z-0.800
G00 Z1.667
G01 Z-0.900
G00 Z1.667
G01 Z-1.000
G00 Z1.667
G01 Z-1.100
G00 Z1.667
G01 Z-1.200
G00 Z1.667
G01 Z-1.300
G00 Z1.667
G01 Z-1.400
G00 Z1.667
G01 Z-1.500
G00 Z1.667
G01 Z-1.600
G00 Z1.667
G01 Z-1.700
G00 Z1.667
G01 Z-1.800
G00 Z1.667
G01 Z-1.900
G00 Z1.667
G01 Z-2.000
G00 Z1.667
G01 Z-2.100
G00 Z1.667
G01 Z-2.160
G00 Z1.667
G00 Y101.0000
G01 Z0.0000 F600 
G03 X203.0000 Y102.0000 Z-0.0250 I0.0000 J1.0000
G03 X202.0000 Y103.0000 Z-0.0500 I-1.0000 J0.0000
G03 X201.0000 Y102.0000 Z-0.0750 I0.0000 J-1.0000
G03 X202.0000 Y101.0000 Z-0.1000 I1.0000 J0.0000
G03 X203.0000 Y102.0000 Z-0.1250 I0.0000 J1.0000
G03 X202.0000 Y103.0000 Z-0.1500 I-1.0000 J0.0000
G03 X201.0000 Y102.0000 Z-0.1750 I0.0000 J-1.0000
G03 X202.0000 Y101.0000 Z-0.2000 I1.0000 J0.0000
G03 X203.0000 Y102.0000 Z-0.2250 I0.0000 J1.0000
G03 X202.0000 Y103.0000 Z-0.2500 I-1.0000 J0.0000
G03 X201.0000 Y102.0000 Z-0.2750 I0.0000 J-1.0000
G03 X202.0000 Y101.0000 Z-0.3000 I1.0000 J0.0000
G03 X203.0000 Y102.0000 Z-0.3250 I0.0000 J1.0000
G03 X202.0000 Y103.0000 Z-0.3500 I-1.0000 J0.0000
G03 X201.0000 Y102.0000 Z-0.3750 I0.0000 J-1.0000
G03 X202.0000 Y101.0000 Z-0.4000 I1.0000 J0.0000
G03 X203.0000 Y102.0000 Z-0.4250 I0.0000 J1.0000
G03 X202.0000 Y103.0000 Z-0.4500 I-1.0000 J0.0000
G03 X201.0000 Y102.0000 Z-0.4750 I0.0000 J-1.0000
G03 X202.0000 Y101.0000 Z-0.5000 I1.0000 J0.0000
G03 X203.0000 Y102.0000 Z-0.5250 I0.0000 J1.0000
G03 X202.0000 Y103.0000 Z-0.5500 I-1.0000 J0.0000
G03 X201.0000 Y102.0000 Z-0.5750 I0.0000 J-1.0000
G03 X202.0000 Y101.0000 Z-0.6000 I1.0000 J0.0000
G03 X203.0000 Y102.0000 Z-0.6250 I0.0000 J1.0000
G03 X202.0000 Y103.0000 Z-0.6500 I-1.0000 J0.0000
G03 X201.0000 Y102.0000 Z-0.6750 I0.0000 J-1.0000
G03 X202.0000 Y101.0000 Z-0.7000 I1.0000 J0.0000
G03 X203.0000 Y102.0000 Z-0.7250 I0.0000 J1.0000
G03 X202.0000 Y103.0000 Z-0.7500 I-1.0000 J0.0000
G03 X201.0000 Y102.0000 Z-0.7750 I0.0000 J-1.0000
G03 X202.0000 Y101.0000 Z-0.8000 I1.0000 J0.0000
G03 X203.0000 Y102.0000 Z-0.8250 I0.0000 J1.0000
G03 X202.0000 Y103.0000 Z-0.8500 I-1.0000 J0.0000
G03 X201.0000 Y102.0000 Z-0.8750 I0.0000 J-1.0000
G03 X202.0000 Y101.0000 Z-0.9000 I1.0000 J0.0000
G03 X203.0000 Y102.0000 Z-0.9250 I0.0000 J1.0000
G03 X202.0000 Y103.0000 Z-0.9500 I-1.0000 J0.0000
G03 X201.0000 Y102.0000 Z-0.9750 I0.0000 J-1.0000
G03 X202.0000 Y101.0000 Z-1.0000 I1.0000 J0.0000
G03 X203.0000 Y102.0000 Z-1.0250 I0.0000 J1.0000
G03 X202.0000 Y103.0000 Z-1.0500 I-1.0000 J0.0000
G03 X201.0000 Y102.0000 Z-1.0750 I0.0000 J-1.0000
G03 X202.0000 Y101.0000 Z-1.1000 I1.0000 J0.0000
G03 X203.0000 Y102.0000 Z-1.1250 I0.0000 J1.0000
G03 X202.0000 Y103.0000 Z-1.1500 I-1.0000 J0.0000
G03 X201.0000 Y102.0000 Z-1.1750 I0.0000 J-1.0000
G03 X202.0000 Y101.0000 Z-1.2000 I1.0000 J0.0000
G03 X203.0000 Y102.0000 Z-1.2250 I0.0000 J1.0000
G03 X202.0000 Y103.0000 Z-1.2500 I-1.0000 J0.0000
G03 X201.0000 Y102.0000 Z-1.2750 I0.0000 J-1.0000
G03 X202.0000 Y101.0000 Z-1.3000 I1.0000 J0.0000
G03 X203.0000 Y102.0000 Z-1.3250 I0.0000 J1.0000
G03 X202.0000 Y103.0000 Z-1.3500 I-1.0000 J0.0000
G03 X201.0000 Y102.0000 Z-1.3750 I0.0000 J-1.0000
G03 X202.0000 Y101.0000 Z-1.4000 I1.0000 J0.0000
G03 X203.0000 Y102.0000 Z-1.4250 I0.0000 J1.0000
G03 X202.0000 Y103.0000 Z-1.4500 I-1.0000 J0.0000
G03 X201.0000 Y102.0000 Z-1.4750 I0.0000 J-1.0000
G03 X202.0000 Y101.0000 Z-1.5000 I1.0000 J0.0000
G03 X203.0000 Y102.0000 Z-1.5250 I0.0000 J1.0000
G03 X202.0000 Y103.0000 Z-1.5500 I-1.0000 J0.0000
G03 X201.0000 Y102.0000 Z-1.5750 I0.0000 J-1.0000
G03 X202.0000 Y101.0000 Z-1.6000 I1.0000 J0.0000
G03 X203.0000 Y102.0000 Z-1.6250 I0.0000 J1.0000
G03 X202.0000 Y103.0000 Z-1.6500 I-1.0000 J0.0000
G03 X201.0000 Y102.0000 Z-1.6750 I0.0000 J-1.0000
G03 X202.0000 Y101.0000 Z-1.7000 I1.0000 J0.0000
G03 X203.0000 Y102.0000 Z-1.7250 I0.0000 J1.0000
G03 X202.0000 Y103.0000 Z-1.7500 I-1.0000 J0.0000
G03 X201.0000 Y102.0000 Z-1.7750 I0.0000 J-1.0000
G03 X202.0000 Y101.0000 Z-1.8000 I1.0000 J0.0000
G03 X203.0000 Y102.0000 Z-1.8250 I0.0000 J1.0000
G03 X202.0000 Y103.0000 Z-1.8500 I-1.0000 J0.0000
G03 X201.0000 Y102.0000 Z-1.8750 I0.0000 J-1.0000
G03 X202.0000 Y101.0000 Z-1.9000 I1.0000 J0.0000
G03 X203.0000 Y102.0000 Z-1.9650 I0.0000 J1.0000
G03 X202.0000 Y103.0000 Z-2.0300 I-1.0000 J0.0000
G03 X201.0000 Y102.0000 Z-2.0950 I0.0000 J-1.0000
G03 X202.0000 Y101.0000 Z-2.1600 I1.0000 J0.0000
G03 X203.0000 Y102.0000 I0.0000 J1.0000
G03 X202.0000 Y103.0000 I-1.0000 J0.0000
G03 X201.0000 Y102.0000 I0.0000 J-1.0000
G03 X202.0000 Y101.0000 I1.0000 J0.0000
G00 Y102.000 Z5.000
(plungebore end)
(BREAK pass 20)
(Group complete: _diam_3.9999999999999996mm)
(Group: _diam_3.9999999999999996mm)
(Pass: 1)
G00 Y302.000
(plungebore  DEPTH=2.160  DIAM=4.000)
G00 Z1.667
G01 Z-0.100 F100 
G00 Z1.667
G01 Z-0.200
G00 Z1.667
G01 Z-0.300
G00 Z1.667
G01 Z-0.400
G00 Z1.667
G01 Z-0.500
G00 Z1.667
G01 Z-0.600
G00 Z1.667
G01 Z-0.700
G00 Z1.667
G01 Z-0.800
G00 Z1.667
G01 Z-0.900
G00 Z1.667
G01 Z-1.000
G00 Z1.667
G01 Z-1.100
G00 Z1.667
G01 Z-1.200
G00 Z1.667
G01 Z-1.300
G00 Z1.667
G01 Z-1.400
G00 Z1.667
G01 Z-1.500
G00 Z1.667
G01 Z-1.600
G00 Z1.667
G01 Z-1.700
G00 Z1.667
G01 Z-1.800
G00 Z1.667
G01 Z-1.900
G00 Z1.667
G01 Z-2.000
G00 Z1.667
G01 Z-2.100
G00 Z1.667
G01 Z-2.160
G00 Z1.667
G00 Y301.0000
G01 Z0.0000 F600 
G03 X203.0000 Y302.0000 Z-0.0250 I0.0000 J1.0000
G03 X202.0000 Y303.0000 Z-0.0500 I-1.0000 J0.0000
G03 X201.0000 Y302.0000 Z-0.0750 I0.0000 J-1.0000
G03 X202.0000 Y301.0000 Z-0.1000 I1.0000 J0.0000
G03 X203.0000 Y302.0000 Z-0.1250 I0.0000 J1.0000
G03 X202.0000 Y303.0000 Z-0.1500 I-1.0000 J0.0000
G03 X201.0000 Y302.0000 Z-0.1750 I0.0000 J-1.0000
G03 X202.0000 Y301.0000 Z-0.2000 I1.0000 J0.0000
G03 X203.0000 Y302.0000 Z-0.2250 I0.0000 J1.0000
G03 X202.0000 Y303.0000 Z-0.2500 I-1.0000 J0.0000
G03 X201.0000 Y302.0000 Z-0.2750 I0.0000 J-1.0000
G03 X202.0000 Y301.0000 Z-0.3000 I1.0000 J0.0000
G03 X203.0000 Y302.0000 Z-0.3250 I0.0000 J1.0000
G03 X202.0000 Y303.0000 Z-0.3500 I-1.0000 J0.0000
G03 X201.0000 Y302.0000 Z-0.3750 I0.0000 J-1.0000
G03 X202.0000 Y301.0000 Z-0.4000 I1.0000 J0.0000
G03 X203.0000 Y302.0000 Z-0.4250 I0.0000 J1.0000
G03 X202.0000 Y303.0000 Z-0.4500 I-1.0000 J0.0000
G03 X201.0000 Y302.0000 Z-0.4750 I0.0000 J-1.0000
G03 X202.0000 Y301.0000 Z-0.5000 I1.0000 J0.0000
G03 X203.0000 Y302.0000 Z-0.5250 I0.0000 J1.0000
G03 X202.0000 Y303.0000 Z-0.5500 I-1.0000 J0.0000
G03 X201.0000 Y302.0000 Z-0.5750 I0.0000 J-1.0000
G03 X202.0000 Y301.0000 Z-0.6000 I1.0000 J0.0000
G03 X203.0000 Y302.0000 Z-0.6250 I0.0000 J1.0000
G03 X202.0000 Y303.0000 Z-0.6500 I-1.0000 J0.0000
G03 X201.0000 Y302.0000 Z-0.6750 I0.0000 J-1.0000
G03 X202.0000 Y301.0000 Z-0.7000 I1.0000 J0.0000
G03 X203.0000 Y302.0000 Z-0.7250 I0.0000 J1.0000
G03 X202.0000 Y303.0000 Z-0.7500 I-1.0000 J0.0000
G03 X201.0000 Y302.0000 Z-0.7750 I0.0000 J-1.0000
G03 X202.0000 Y301.0000 Z-0.8000 I1.0000 J0.0000
G03 X203.0000 Y302.0000 Z-0.8250 I0.0000 J1.0000
G03 X202.0000 Y303.0000 Z-0.8500 I-1.0000 J0.0000
G03 X201.0000 Y302.0000 Z-0.8750 I0.0000 J-1.0000
G03 X202.0000 Y301.0000 Z-0.9000 I1.0000 J0.0000
G03 X203.0000 Y302.0000 Z-0.9250 I0.0000 J1.0000
G03 X202.0000 Y303.0000 Z-0.9500 I-1.0000 J0.0000
G03 X201.0000 Y302.0000 Z-0.9750 I0.0000 J-1.0000
G03 X202.0000 Y301.0000 Z-1.0000 I1.0000 J0.0000
G03 X203.0000 Y302.0000 Z-1.0250 I0.0000 J1.0000
G03 X202.0000 Y303.0000 Z-1.0500 I-1.0000 J0.0000
G03 X201.0000 Y302.0000 Z-1.0750 I0.0000 J-1.0000
G03 X202.0000 Y301.0000 Z-1.1000 I1.0000 J0.0000
G03 X203.0000 Y302.0000 Z-1.1250 I0.0000 J1.0000
G03 X202.0000 Y303.0000 Z-1.1500 I-1.0000 J0.0000
G03 X201.0000 Y302.0000 Z-1.1750 I0.0000 J-1.0000
G03 X202.0000 Y301.0000 Z-1.2000 I1.0000 J0.0000
G03 X203.0000 Y302.0000 Z-1.2250 I0.0000 J1.0000
G03 X202.0000 Y303.0000 Z-1.2500 I-1.0000 J0.0000
G03 X201.0000 Y302.0000 Z-1.2750 I0.0000 J-1.0000
G03 X202.0000 Y301.0000 Z-1.3000 I1.0000 J0.0000
G03 X203.0000 Y302.0000 Z-1.3250 I0.0000 J1.0000
G03 X202.0000 Y303.0000 Z-1.3500 I-1.0000 J0.0000
G03 X201.0000 Y302.0000 Z-1.3750 I0.0000 J-1.0000
G03 X202.0000 Y301.0000 Z-1.4000 I1.0000 J0.0000
G03 X203.0000 Y302.0000 Z-1.4250 I0.0000 J1.0000
G03 X202.0000 Y303.0000 Z-1.4500 I-1.0000 J0.0000
G03 X201.0000 Y302.0000 Z-1.4750 I0.0000 J-1.0000
G03 X202.0000 Y301.0000 Z-1.5000 I1.0000 J0.0000
G03 X203.0000 Y302.0000 Z-1.5250 I0.0000 J1.0000
G03 X202.0000 Y303.0000 Z-1.5500 I-1.0000 J0.0000
G03 X201.0000 Y302.0000 Z-1.5750 I0.0000 J-1.0000
G03 X202.0000 Y301.0000 Z-1.6000 I1.0000 J0.0000
G03 X203.0000 Y302.0000 Z-1.6250 I0.0000 J1.0000
G03 X202.0000 Y303.0000 Z-1.6500 I-1.0000 J0.0000
G03 X201.0000 Y302.0000 Z-1.6750 I0.0000 J-1.0000
G03 X202.0000 Y301.0000 Z-1.7000 I1.0000 J0.0000
G03 X203.0000 Y302.0000 Z-1.7250 I0.0000 J1.0000
G03 X202.0000 Y303.0000 Z-1.7500 I-1.0000 J0.0000
G03 X201.0000 Y302.0000 Z-1.7750 I0.0000 J-1.0000
G03 X202.0000 Y301.0000 Z-1.8000 I1.0000 J0.0000
G03 X203.0000 Y302.0000 Z-1.8250 I0.0000 J1.0000
G03 X202.0000 Y303.0000 Z-1.8500 I-1.0000 J0.0000
G03 X201.0000 Y302.0000 Z-1.8750 I0.0000 J-1.0000
G03 X202.0000 Y301.0000 Z-1.9000 I1.0000 J0.0000
G03 X203.0000 Y302.0000 Z-1.9650 I0.0000 J1.0000
G03 X202.0000 Y303.0000 Z-2.0300 I-1.0000 J0.0000
G03 X201.0000 Y302.0000 Z-2.0950 I0.0000 J-1.0000
G03 X202.0000 Y301.0000 Z-2.1600 I1.0000 J0.0000
G03 X203.0000 Y302.0000 I0.0000 J1.0000
G03 X202.0000 Y303.0000 I-1.0000 J0.0000
G03 X201.0000 Y302.0000 I0.0000 J-1.0000
G03 X202.0000 Y301.0000 I1.0000 J0.0000
G00 Y302.000 Z5.000
(plungebore end)
(BREAK pass 20)
(Group complete: _diam_3.9999999999999996mm)
(Group: _diam_3.9999999999999996mm)
(Pass: 1)
G00 X221.000 Y398.000
(plungebore  DEPTH=2.160  DIAM=4.000)
G00 Z1.667
G01 Z-0.100 F100 
G00 Z1.667
G01 Z-0.200
G00 Z1.667
G01 Z-0.300
G00 Z1.667
G01 Z-0.400
G00 Z1.667
G01 Z-0.500
G00 Z1.667
G01 Z-0.600
G00 Z1.667
G01 Z-0.700
G00 Z1.667
G01 Z-0.800
G00 Z1.667
G01 Z-0.900
G00 Z1.667
G01 Z-1.000
G00 Z1.667
G01 Z-1.100
G00 Z1.667
G01 Z-1.200
G00 Z1.667
G01 Z-1.300
G00 Z1.667
G01 Z-1.400
G00 Z1.667
G01 Z-1.500
G00 Z1.667
G01 Z-1.600
G00 Z1.667
G01 Z-1.700
G00 Z1.667
G01 Z-1.800
G00 Z1.667
G01 Z-1.900
G00 Z1.667
G01 Z-2.000
G00 Z1.667
G01 Z-2.100
G00 Z1.667
G01 Z-2.160
G00 Z1.667
G00 Y397.0000
G01 Z0.0000 F600 
G03 X222.0000 Y398.0000 Z-0.0250 I0.0000 J1.0000
G03 X221.0000 Y399.0000 Z-0.0500 I-1.0000 J0.0000
G03 X220.0000 Y398.0000 Z-0.0750 I0.0000 J-1.0000
G03 X221.0000 Y397.0000 Z-0.1000 I1.0000 J0.0000
G03 X222.0000 Y398.0000 Z-0.1250 I0.0000 J1.0000
G03 X221.0000 Y399.0000 Z-0.1500 I-1.0000 J0.0000
G03 X220.0000 Y398.0000 Z-0.1750 I0.0000 J-1.0000
G03 X221.0000 Y397.0000 Z-0.2000 I1.0000 J0.0000
G03 X222.0000 Y398.0000 Z-0.2250 I0.0000 J1.0000
G03 X221.0000 Y399.0000 Z-0.2500 I-1.0000 J0.0000
G03 X220.0000 Y398.0000 Z-0.2750 I0.0000 J-1.0000
G03 X221.0000 Y397.0000 Z-0.3000 I1.0000 J0.0000
G03 X222.0000 Y398.0000 Z-0.3250 I0.0000 J1.0000
G03 X221.0000 Y399.0000 Z-0.3500 I-1.0000 J0.0000
G03 X220.0000 Y398.0000 Z-0.3750 I0.0000 J-1.0000
G03 X221.0000 Y397.0000 Z-0.4000 I1.0000 J0.0000
G03 X222.0000 Y398.0000 Z-0.4250 I0.0000 J1.0000
G03 X221.0000 Y399.0000 Z-0.4500 I-1.0000 J0.0000
G03 X220.0000 Y398.0000 Z-0.4750 I0.0000 J-1.0000
G03 X221.0000 Y397.0000 Z-0.5000 I1.0000 J0.0000
G03 X222.0000 Y398.0000 Z-0.5250 I0.0000 J1.0000
G03 X221.0000 Y399.0000 Z-0.5500 I-1.0000 J0.0000
G03 X220.0000 Y398.0000 Z-0.5750 I0.0000 J-1.0000
G03 X221.0000 Y397.0000 Z-0.6000 I1.0000 J0.0000
G03 X222.0000 Y398.0000 Z-0.6250 I0.0000 J1.0000
G03 X221.0000 Y399.0000 Z-0.6500 I-1.0000 J0.0000
G03 X220.0000 Y398.0000 Z-0.6750 I0.0000 J-1.0000
G03 X221.0000 Y397.0000 Z-0.7000 I1.0000 J0.0000
G03 X222.0000 Y398.0000 Z-0.7250 I0.0000 J1.0000
G03 X221.0000 Y399.0000 Z-0.7500 I-1.0000 J0.0000
G03 X220.0000 Y398.0000 Z-0.7750 I0.0000 J-1.0000
G03 X221.0000 Y397.0000 Z-0.8000 I1.0000 J0.0000
G03 X222.0000 Y398.0000 Z-0.8250 I0.0000 J1.0000
G03 X221.0000 Y399.0000 Z-0.8500 I-1.0000 J0.0000
G03 X220.0000 Y398.0000 Z-0.8750 I0.0000 J-1.0000
G03 X221.0000 Y397.0000 Z-0.9000 I1.0000 J0.0000
G03 X222.0000 Y398.0000 Z-0.9250 I0.0000 J1.0000
G03 X221.0000 Y399.0000 Z-0.9500 I-1.0000 J0.0000
G03 X220.0000 Y398.0000 Z-0.9750 I0.0000 J-1.0000
G03 X221.0000 Y397.0000 Z-1.0000 I1.0000 J0.0000
G03 X222.0000 Y398.0000 Z-1.0250 I0.0000 J1.0000
G03 X221.0000 Y399.0000 Z-1.0500 I-1.0000 J0.0000
G03 X220.0000 Y398.0000 Z-1.0750 I0.0000 J-1.0000
G03 X221.0000 Y397.0000 Z-1.1000 I1.0000 J0.0000
G03 X222.0000 Y398.0000 Z-1.1250 I0.0000 J1.0000
G03 X221.0000 Y399.0000 Z-1.1500 I-1.0000 J0.0000
G03 X220.0000 Y398.0000 Z-1.1750 I0.0000 J-1.0000
G03 X221.0000 Y397.0000 Z-1.2000 I1.0000 J0.0000
G03 X222.0000 Y398.0000 Z-1.2250 I0.0000 J1.0000
G03 X221.0000 Y399.0000 Z-1.2500 I-1.0000 J0.0000
G03 X220.0000 Y398.0000 Z-1.2750 I0.0000 J-1.0000
G03 X221.0000 Y397.0000 Z-1.3000 I1.0000 J0.0000
G03 X222.0000 Y398.0000 Z-1.3250 I0.0000 J1.0000
G03 X221.0000 Y399.0000 Z-1.3500 I-1.0000 J0.0000
G03 X220.0000 Y398.0000 Z-1.3750 I0.0000 J-1.0000
G03 X221.0000 Y397.0000 Z-1.4000 I1.0000 J0.0000
G03 X222.0000 Y398.0000 Z-1.4250 I0.0000 J1.0000
G03 X221.0000 Y399.0000 Z-1.4500 I-1.0000 J0.0000
G03 X220.0000 Y398.0000 Z-1.4750 I0.0000 J-1.0000
G03 X221.0000 Y397.0000 Z-1.5000 I1.0000 J0.0000
G03 X222.0000 Y398.0000 Z-1.5250 I0.0000 J1.0000
G03 X221.0000 Y399.0000 Z-1.5500 I-1.0000 J0.0000
G03 X220.0000 Y398.0000 Z-1.5750 I0.0000 J-1.0000
G03 X221.0000 Y397.0000 Z-1.6000 I1.0000 J0.0000
G03 X222.0000 Y398.0000 Z-1.6250 I0.0000 J1.0000
G03 X221.0000 Y399.0000 Z-1.6500 I-1.0000 J0.0000
G03 X220.0000 Y398.0000 Z-1.6750 I0.0000 J-1.0000
G03 X221.0000 Y397.0000 Z-1.7000 I1.0000 J0.0000
G03 X222.0000 Y398.0000 Z-1.7250 I0.0000 J1.0000
G03 X221.0000 Y399.0000 Z-1.7500 I-1.0000 J0.0000
G03 X220.0000 Y398.0000 Z-1.7750 I0.0000 J-1.0000
G03 X221.0000 Y397.0000 Z-1.8000 I1.0000 J0.0000
G03 X222.0000 Y398.0000 Z-1.8250 I0.0000 J1.0000
G03 X221.0000 Y399.0000 Z-1.8500 I-1.0000 J0.0000
G03 X220.0000 Y398.0000 Z-1.8750 I0.0000 J-1.0000
G03 X221.0000 Y397.0000 Z-1.9000 I1.0000 J0.0000
G03 X222.0000 Y398.0000 Z-1.9650 I0.0000 J1.0000
G03 X221.0000 Y399.0000 Z-2.0300 I-1.0000 J0.0000
G03 X220.0000 Y398.0000 Z-2.0950 I0.0000 J-1.0000
G03 X221.0000 Y397.0000 Z-2.1600 I1.0000 J0.0000
G03 X222.0000 Y398.0000 I0.0000 J1.0000
G03 X221.0000 Y399.0000 I-1.0000 J0.0000
G03 X220.0000 Y398.0000 I0.0000 J-1.0000
G03 X221.0000 Y397.0000 I1.0000 J0.0000
G00 Y398.000 Z5.000
(plungebore end)
(BREAK pass 20)
(Group complete: _diam_3.9999999999999996mm)
(Group: _diam_3.9999999999999996mm)
(Pass: 1)
G00 X381.000
(plungebore  DEPTH=2.160  DIAM=4.000)
G00 Z1.667
G01 Z-0.100 F100 
G00 Z1.667
G01 Z-0.200
G00 Z1.667
G01 Z-0.300
G00 Z1.667
G01 Z-0.400
G00 Z1.667
G01 Z-0.500
G00 Z1.667
G01 Z-0.600
G00 Z1.667
G01 Z-0.700
G00 Z1.667
G01 Z-0.800
G00 Z1.667
G01 Z-0.900
G00 Z1.667
G01 Z-1.000
G00 Z1.667
G01 Z-1.100
G00 Z1.667
G01 Z-1.200
G00 Z1.667
G01 Z-1.300
G00 Z1.667
G01 Z-1.400
G00 Z1.667
G01 Z-1.500
G00 Z1.667
G01 Z-1.600
G00 Z1.667
G01 Z-1.700
G00 Z1.667
G01 Z-1.800
G00 Z1.667
G01 Z-1.900
G00 Z1.667
G01 Z-2.000
G00 Z1.667
G01 Z-2.100
G00 Z1.667
G01 Z-2.160
G00 Z1.667
G00 Y397.0000
G01 Z0.0000 F600 
G03 X382.0000 Y398.0000 Z-0.0250 I0.0000 J1.0000
G03 X381.0000 Y399.0000 Z-0.0500 I-1.0000 J0.0000
G03 X380.0000 Y398.0000 Z-0.0750 I0.0000 J-1.0000
G03 X381.0000 Y397.0000 Z-0.1000 I1.0000 J0.0000
G03 X382.0000 Y398.0000 Z-0.1250 I0.0000 J1.0000
G03 X381.0000 Y399.0000 Z-0.1500 I-1.0000 J0.0000
G03 X380.0000 Y398.0000 Z-0.1750 I0.0000 J-1.0000
G03 X381.0000 Y397.0000 Z-0.2000 I1.0000 J0.0000
G03 X382.0000 Y398.0000 Z-0.2250 I0.0000 J1.0000
G03 X381.0000 Y399.0000 Z-0.2500 I-1.0000 J0.0000
G03 X380.0000 Y398.0000 Z-0.2750 I0.0000 J-1.0000
G03 X381.0000 Y397.0000 Z-0.3000 I1.0000 J0.0000
G03 X382.0000 Y398.0000 Z-0.3250 I0.0000 J1.0000
G03 X381.0000 Y399.0000 Z-0.3500 I-1.0000 J0.0000
G03 X380.0000 Y398.0000 Z-0.3750 I0.0000 J-1.0000
G03 X381.0000 Y397.0000 Z-0.4000 I1.0000 J0.0000
G03 X382.0000 Y398.0000 Z-0.4250 I0.0000 J1.0000
G03 X381.0000 Y399.0000 Z-0.4500 I-1.0000 J0.0000
G03 X380.0000 Y398.0000 Z-0.4750 I0.0000 J-1.0000
G03 X381.0000 Y397.0000 Z-0.5000 I1.0000 J0.0000
G03 X382.0000 Y398.0000 Z-0.5250 I0.0000 J1.0000
G03 X381.0000 Y399.0000 Z-0.5500 I-1.0000 J0.0000
G03 X380.0000 Y398.0000 Z-0.5750 I0.0000 J-1.0000
G03 X381.0000 Y397.0000 Z-0.6000 I1.0000 J0.0000
G03 X382.0000 Y398.0000 Z-0.6250 I0.0000 J1.0000
G03 X381.0000 Y399.0000 Z-0.6500 I-1.0000 J0.0000
G03 X380.0000 Y398.0000 Z-0.6750 I0.0000 J-1.0000
G03 X381.0000 Y397.0000 Z-0.7000 I1.0000 J0.0000
G03 X382.0000 Y398.0000 Z-0.7250 I0.0000 J1.0000
G03 X381.0000 Y399.0000 Z-0.7500 I-1.0000 J0.0000
G03 X380.0000 Y398.0000 Z-0.7750 I0.0000 J-1.0000
G03 X381.0000 Y397.0000 Z-0.8000 I1.0000 J0.0000
G03 X382.0000 Y398.0000 Z-0.8250 I0.0000 J1.0000
G03 X381.0000 Y399.0000 Z-0.8500 I-1.0000 J0.0000
G03 X380.0000 Y398.0000 Z-0.8750 I0.0000 J-1.0000
G03 X381.0000 Y397.0000 Z-0.9000 I1.0000 J0.0000
G03 X382.0000 Y398.0000 Z-0.9250 I0.0000 J1.0000
G03 X381.0000 Y399.0000 Z-0.9500 I-1.0000 J0.0000
G03 X380.0000 Y398.0000 Z-0.9750 I0.0000 J-1.0000
G03 X381.0000 Y397.0000 Z-1.0000 I1.0000 J0.0000
G03 X382.0000 Y398.0000 Z-1.0250 I0.0000 J1.0000
G03 X381.0000 Y399.0000 Z-1.0500 I-1.0000 J0.0000
G03 X380.0000 Y398.0000 Z-1.0750 I0.0000 J-1.0000
G03 X381.0000 Y397.0000 Z-1.1000 I1.0000 J0.0000
G03 X382.0000 Y398.0000 Z-1.1250 I0.0000 J1.0000
G03 X381.0000 Y399.0000 Z-1.1500 I-1.0000 J0.0000
G03 X380.0000 Y398.0000 Z-1.1750 I0.0000 J-1.0000
G03 X381.0000 Y397.0000 Z-1.2000 I1.0000 J0.0000
G03 X382.0000 Y398.0000 Z-1.2250 I0.0000 J1.0000
G03 X381.0000 Y399.0000 Z-1.2500 I-1.0000 J0.0000
G03 X380.0000 Y398.0000 Z-1.2750 I0.0000 J-1.0000
G03 X381.0000 Y397.0000 Z-1.3000 I1.0000 J0.0000
G03 X382.0000 Y398.0000 Z-1.3250 I0.0000 J1.0000
G03 X381.0000 Y399.0000 Z-1.3500 I-1.0000 J0.0000
G03 X380.0000 Y398.0000 Z-1.3750 I0.0000 J-1.0000
G03 X381.0000 Y397.0000 Z-1.4000 I1.0000 J0.0000
G03 X382.0000 Y398.0000 Z-1.4250 I0.0000 J1.0000
G03 X381.0000 Y399.0000 Z-1.4500 I-1.0000 J0.0000
G03 X380.0000 Y398.0000 Z-1.4750 I0.0000 J-1.0000
G03 X381.0000 Y397.0000 Z-1.5000 I1.0000 J0.0000
G03 X382.0000 Y398.0000 Z-1.5250 I0.0000 J1.0000
G03 X381.0000 Y399.0000 Z-1.5500 I-1.0000 J0.0000
G03 X380.0000 Y398.0000 Z-1.5750 I0.0000 J-1.0000
G03 X381.0000 Y397.0000 Z-1.6000 I1.0000 J0.0000
G03 X382.0000 Y398.0000 Z-1.6250 I0.0000 J1.0000
G03 X381.0000 Y399.0000 Z-1.6500 I-1.0000 J0.0000
G03 X380.0000 Y398.0000 Z-1.6750 I0.0000 J-1.0000
G03 X381.0000 Y397.0000 Z-1.7000 I1.0000 J0.0000
G03 X382.0000 Y398.0000 Z-1.7250 I0.0000 J1.0000
G03 X381.0000 Y399.0000 Z-1.7500 I-1.0000 J0.0000
G03 X380.0000 Y398.0000 Z-1.7750 I0.0000 J-1.0000
G03 X381.0000 Y397.0000 Z-1.8000 I1.0000 J0.0000
G03 X382.0000 Y398.0000 Z-1.8250 I0.0000 J1.0000
G03 X381.0000 Y399.0000 Z-1.8500 I-1.0000 J0.0000
G03 X380.0000 Y398.0000 Z-1.8750 I0.0000 J-1.0000
G03 X381.0000 Y397.0000 Z-1.9000 I1.0000 J0.0000
G03 X382.0000 Y398.0000 Z-1.9650 I0.0000 J1.0000
G03 X381.0000 Y399.0000 Z-2.0300 I-1.0000 J0.0000
G03 X380.0000 Y398.0000 Z-2.0950 I0.0000 J-1.0000
G03 X381.0000 Y397.0000 Z-2.1600 I1.0000 J0.0000
G03 X382.0000 Y398.0000 I0.0000 J1.0000
G03 X381.0000 Y399.0000 I-1.0000 J0.0000
G03 X380.0000 Y398.0000 I0.0000 J-1.0000
G03 X381.0000 Y397.0000 I1.0000 J0.0000
G00 Y398.000 Z5.000
(plungebore end)
(BREAK pass 20)
(Group complete: _diam_3.9999999999999996mm)
(Group: _diam_3.9999999999999996mm)
(Pass: 1)
G00 Y508.000
(plungebore  DEPTH=2.160  DIAM=4.000)
G00 Z1.667
G01 Z-0.100 F100 
G00 Z1.667
G01 Z-0.200
G00 Z1.667
G01 Z-0.300
G00 Z1.667
G01 Z-0.400
G00 Z1.667
G01 Z-0.500
G00 Z1.667
G01 Z-0.600
G00 Z1.667
G01 Z-0.700
G00 Z1.667
G01 Z-0.800
G00 Z1.667
G01 Z-0.900
G00 Z1.667
G01 Z-1.000
G00 Z1.667
G01 Z-1.100
G00 Z1.667
G01 Z-1.200
G00 Z1.667
G01 Z-1.300
G00 Z1.667
G01 Z-1.400
G00 Z1.667
G01 Z-1.500
G00 Z1.667
G01 Z-1.600
G00 Z1.667
G01 Z-1.700
G00 Z1.667
G01 Z-1.800
G00 Z1.667
G01 Z-1.900
G00 Z1.667
G01 Z-2.000
G00 Z1.667
G01 Z-2.100
G00 Z1.667
G01 Z-2.160
G00 Z1.667
G00 Y507.0000
G01 Z0.0000 F600 
G03 X382.0000 Y508.0000 Z-0.0250 I0.0000 J1.0000
G03 X381.0000 Y509.0000 Z-0.0500 I-1.0000 J0.0000
G03 X380.0000 Y508.0000 Z-0.0750 I0.0000 J-1.0000
G03 X381.0000 Y507.0000 Z-0.1000 I1.0000 J0.0000
G03 X382.0000 Y508.0000 Z-0.1250 I0.0000 J1.0000
G03 X381.0000 Y509.0000 Z-0.1500 I-1.0000 J0.0000
G03 X380.0000 Y508.0000 Z-0.1750 I0.0000 J-1.0000
G03 X381.0000 Y507.0000 Z-0.2000 I1.0000 J0.0000
G03 X382.0000 Y508.0000 Z-0.2250 I0.0000 J1.0000
G03 X381.0000 Y509.0000 Z-0.2500 I-1.0000 J0.0000
G03 X380.0000 Y508.0000 Z-0.2750 I0.0000 J-1.0000
G03 X381.0000 Y507.0000 Z-0.3000 I1.0000 J0.0000
G03 X382.0000 Y508.0000 Z-0.3250 I0.0000 J1.0000
G03 X381.0000 Y509.0000 Z-0.3500 I-1.0000 J0.0000
G03 X380.0000 Y508.0000 Z-0.3750 I0.0000 J-1.0000
G03 X381.0000 Y507.0000 Z-0.4000 I1.0000 J0.0000
G03 X382.0000 Y508.0000 Z-0.4250 I0.0000 J1.0000
G03 X381.0000 Y509.0000 Z-0.4500 I-1.0000 J0.0000
G03 X380.0000 Y508.0000 Z-0.4750 I0.0000 J-1.0000
G03 X381.0000 Y507.0000 Z-0.5000 I1.0000 J0.0000
G03 X382.0000 Y508.0000 Z-0.5250 I0.0000 J1.0000
G03 X381.0000 Y509.0000 Z-0.5500 I-1.0000 J0.0000
G03 X380.0000 Y508.0000 Z-0.5750 I0.0000 J-1.0000
G03 X381.0000 Y507.0000 Z-0.6000 I1.0000 J0.0000
G03 X382.0000 Y508.0000 Z-0.6250 I0.0000 J1.0000
G03 X381.0000 Y509.0000 Z-0.6500 I-1.0000 J0.0000
G03 X380.0000 Y508.0000 Z-0.6750 I0.0000 J-1.0000
G03 X381.0000 Y507.0000 Z-0.7000 I1.0000 J0.0000
G03 X382.0000 Y508.0000 Z-0.7250 I0.0000 J1.0000
G03 X381.0000 Y509.0000 Z-0.7500 I-1.0000 J0.0000
G03 X380.0000 Y508.0000 Z-0.7750 I0.0000 J-1.0000
G03 X381.0000 Y507.0000 Z-0.8000 I1.0000 J0.0000
G03 X382.0000 Y508.0000 Z-0.8250 I0.0000 J1.0000
G03 X381.0000 Y509.0000 Z-0.8500 I-1.0000 J0.0000
G03 X380.0000 Y508.0000 Z-0.8750 I0.0000 J-1.0000
G03 X381.0000 Y507.0000 Z-0.9000 I1.0000 J0.0000
G03 X382.0000 Y508.0000 Z-0.9250 I0.0000 J1.0000
G03 X381.0000 Y509.0000 Z-0.9500 I-1.0000 J0.0000
G03 X380.0000 Y508.0000 Z-0.9750 I0.0000 J-1.0000
G03 X381.0000 Y507.0000 Z-1.0000 I1.0000 J0.0000
G03 X382.0000 Y508.0000 Z-1.0250 I0.0000 J1.0000
G03 X381.0000 Y509.0000 Z-1.0500 I-1.0000 J0.0000
G03 X380.0000 Y508.0000 Z-1.0750 I0.0000 J-1.0000
G03 X381.0000 Y507.0000 Z-1.1000 I1.0000 J0.0000
G03 X382.0000 Y508.0000 Z-1.1250 I0.0000 J1.0000
G03 X381.0000 Y509.0000 Z-1.1500 I-1.0000 J0.0000
G03 X380.0000 Y508.0000 Z-1.1750 I0.0000 J-1.0000
G03 X381.0000 Y507.0000 Z-1.2000 I1.0000 J0.0000
G03 X382.0000 Y508.0000 Z-1.2250 I0.0000 J1.0000
G03 X381.0000 Y509.0000 Z-1.2500 I-1.0000 J0.0000
G03 X380.0000 Y508.0000 Z-1.2750 I0.0000 J-1.0000
G03 X381.0000 Y507.0000 Z-1.3000 I1.0000 J0.0000
G03 X382.0000 Y508.0000 Z-1.3250 I0.0000 J1.0000
G03 X381.0000 Y509.0000 Z-1.3500 I-1.0000 J0.0000
G03 X380.0000 Y508.0000 Z-1.3750 I0.0000 J-1.0000
G03 X381.0000 Y507.0000 Z-1.4000 I1.0000 J0.0000
G03 X382.0000 Y508.0000 Z-1.4250 I0.0000 J1.0000
G03 X381.0000 Y509.0000 Z-1.4500 I-1.0000 J0.0000
G03 X380.0000 Y508.0000 Z-1.4750 I0.0000 J-1.0000
G03 X381.0000 Y507.0000 Z-1.5000 I1.0000 J0.0000
G03 X382.0000 Y508.0000 Z-1.5250 I0.0000 J1.0000
G03 X381.0000 Y509.0000 Z-1.5500 I-1.0000 J0.0000
G03 X380.0000 Y508.0000 Z-1.5750 I0.0000 J-1.0000
G03 X381.0000 Y507.0000 Z-1.6000 I1.0000 J0.0000
G03 X382.0000 Y508.0000 Z-1.6250 I0.0000 J1.0000
G03 X381.0000 Y509.0000 Z-1.6500 I-1.0000 J0.0000
G03 X380.0000 Y508.0000 Z-1.6750 I0.0000 J-1.0000
G03 X381.0000 Y507.0000 Z-1.7000 I1.0000 J0.0000
G03 X382.0000 Y508.0000 Z-1.7250 I0.0000 J1.0000
G03 X381.0000 Y509.0000 Z-1.7500 I-1.0000 J0.0000
G03 X380.0000 Y508.0000 Z-1.7750 I0.0000 J-1.0000
G03 X381.0000 Y507.0000 Z-1.8000 I1.0000 J0.0000
G03 X382.0000 Y508.0000 Z-1.8250 I0.0000 J1.0000
G03 X381.0000 Y509.0000 Z-1.8500 I-1.0000 J0.0000
G03 X380.0000 Y508.0000 Z-1.8750 I0.0000 J-1.0000
G03 X381.0000 Y507.0000 Z-1.9000 I1.0000 J0.0000
G03 X382.0000 Y508.0000 Z-1.9650 I0.0000 J1.0000
G03 X381.0000 Y509.0000 Z-2.0300 I-1.0000 J0.0000
G03 X380.0000 Y508.0000 Z-2.0950 I0.0000 J-1.0000
G03 X381.0000 Y507.0000 Z-2.1600 I1.0000 J0.0000
G03 X382.0000 Y508.0000 I0.0000 J1.0000
G03 X381.0000 Y509.0000 I-1.0000 J0.0000
G03 X380.0000 Y508.0000 I0.0000 J-1.0000
G03 X381.0000 Y507.0000 I1.0000 J0.0000
G00 Y508.000 Z5.000
(plungebore end)
(BREAK pass 20)
(Group complete: _diam_3.9999999999999996mm)
(Group: _diam_3.9999999999999996mm)
(Pass: 1)
G00 X221.000
(plungebore  DEPTH=2.160  DIAM=4.000)
G00 Z1.667
G01 Z-0.100 F100 
G00 Z1.667
G01 Z-0.200
G00 Z1.667
G01 Z-0.300
G00 Z1.667
G01 Z-0.400
G00 Z1.667
G01 Z-0.500
G00 Z1.667
G01 Z-0.600
G00 Z1.667
G01 Z-0.700
G00 Z1.667
G01 Z-0.800
G00 Z1.667
G01 Z-0.900
G00 Z1.667
G01 Z-1.000
G00 Z1.667
G01 Z-1.100
G00 Z1.667
G01 Z-1.200
G00 Z1.667
G01 Z-1.300
G00 Z1.667
G01 Z-1.400
G00 Z1.667
G01 Z-1.500
G00 Z1.667
G01 Z-1.600
G00 Z1.667
G01 Z-1.700
G00 Z1.667
G01 Z-1.800
G00 Z1.667
G01 Z-1.900
G00 Z1.667
G01 Z-2.000
G00 Z1.667
G01 Z-2.100
G00 Z1.667
G01 Z-2.160
G00 Z1.667
G00 Y507.0000
G01 Z0.0000 F600 
G03 X222.0000 Y508.0000 Z-0.0250 I0.0000 J1.0000
G03 X221.0000 Y509.0000 Z-0.0500 I-1.0000 J0.0000
G03 X220.0000 Y508.0000 Z-0.0750 I0.0000 J-1.0000
G03 X221.0000 Y507.0000 Z-0.1000 I1.0000 J0.0000
G03 X222.0000 Y508.0000 Z-0.1250 I0.0000 J1.0000
G03 X221.0000 Y509.0000 Z-0.1500 I-1.0000 J0.0000
G03 X220.0000 Y508.0000 Z-0.1750 I0.0000 J-1.0000
G03 X221.0000 Y507.0000 Z-0.2000 I1.0000 J0.0000
G03 X222.0000 Y508.0000 Z-0.2250 I0.0000 J1.0000
G03 X221.0000 Y509.0000 Z-0.2500 I-1.0000 J0.0000
G03 X220.0000 Y508.0000 Z-0.2750 I0.0000 J-1.0000
G03 X221.0000 Y507.0000 Z-0.3000 I1.0000 J0.0000
G03 X222.0000 Y508.0000 Z-0.3250 I0.0000 J1.0000
G03 X221.0000 Y509.0000 Z-0.3500 I-1.0000 J0.0000
G03 X220.0000 Y508.0000 Z-0.3750 I0.0000 J-1.0000
G03 X221.0000 Y507.0000 Z-0.4000 I1.0000 J0.0000
G03 X222.0000 Y508.0000 Z-0.4250 I0.0000 J1.0000
G03 X221.0000 Y509.0000 Z-0.4500 I-1.0000 J0.0000
G03 X220.0000 Y508.0000 Z-0.4750 I0.0000 J-1.0000
G03 X221.0000 Y507.0000 Z-0.5000 I1.0000 J0.0000
G03 X222.0000 Y508.0000 Z-0.5250 I0.0000 J1.0000
G03 X221.0000 Y509.0000 Z-0.5500 I-1.0000 J0.0000
G03 X220.0000 Y508.0000 Z-0.5750 I0.0000 J-1.0000
G03 X221.0000 Y507.0000 Z-0.6000 I1.0000 J0.0000
G03 X222.0000 Y508.0000 Z-0.6250 I0.0000 J1.0000
G03 X221.0000 Y509.0000 Z-0.6500 I-1.0000 J0.0000
G03 X220.0000 Y508.0000 Z-0.6750 I0.0000 J-1.0000
G03 X221.0000 Y507.0000 Z-0.7000 I1.0000 J0.0000
G03 X222.0000 Y508.0000 Z-0.7250 I0.0000 J1.0000
G03 X221.0000 Y509.0000 Z-0.7500 I-1.0000 J0.0000
G03 X220.0000 Y508.0000 Z-0.7750 I0.0000 J-1.0000
G03 X221.0000 Y507.0000 Z-0.8000 I1.0000 J0.0000
G03 X222.0000 Y508.0000 Z-0.8250 I0.0000 J1.0000
G03 X221.0000 Y509.0000 Z-0.8500 I-1.0000 J0.0000
G03 X220.0000 Y508.0000 Z-0.8750 I0.0000 J-1.0000
G03 X221.0000 Y507.0000 Z-0.9000 I1.0000 J0.0000
G03 X222.0000 Y508.0000 Z-0.9250 I0.0000 J1.0000
G03 X221.0000 Y509.0000 Z-0.9500 I-1.0000 J0.0000
G03 X220.0000 Y508.0000 Z-0.9750 I0.0000 J-1.0000
G03 X221.0000 Y507.0000 Z-1.0000 I1.0000 J0.0000
G03 X222.0000 Y508.0000 Z-1.0250 I0.0000 J1.0000
G03 X221.0000 Y509.0000 Z-1.0500 I-1.0000 J0.0000
G03 X220.0000 Y508.0000 Z-1.0750 I0.0000 J-1.0000
G03 X221.0000 Y507.0000 Z-1.1000 I1.0000 J0.0000
G03 X222.0000 Y508.0000 Z-1.1250 I0.0000 J1.0000
G03 X221.0000 Y509.0000 Z-1.1500 I-1.0000 J0.0000
G03 X220.0000 Y508.0000 Z-1.1750 I0.0000 J-1.0000
G03 X221.0000 Y507.0000 Z-1.2000 I1.0000 J0.0000
G03 X222.0000 Y508.0000 Z-1.2250 I0.0000 J1.0000
G03 X221.0000 Y509.0000 Z-1.2500 I-1.0000 J0.0000
G03 X220.0000 Y508.0000 Z-1.2750 I0.0000 J-1.0000
G03 X221.0000 Y507.0000 Z-1.3000 I1.0000 J0.0000
G03 X222.0000 Y508.0000 Z-1.3250 I0.0000 J1.0000
G03 X221.0000 Y509.0000 Z-1.3500 I-1.0000 J0.0000
G03 X220.0000 Y508.0000 Z-1.3750 I0.0000 J-1.0000
G03 X221.0000 Y507.0000 Z-1.4000 I1.0000 J0.0000
G03 X222.0000 Y508.0000 Z-1.4250 I0.0000 J1.0000
G03 X221.0000 Y509.0000 Z-1.4500 I-1.0000 J0.0000
G03 X220.0000 Y508.0000 Z-1.4750 I0.0000 J-1.0000
G03 X221.0000 Y507.0000 Z-1.5000 I1.0000 J0.0000
G03 X222.0000 Y508.0000 Z-1.5250 I0.0000 J1.0000
G03 X221.0000 Y509.0000 Z-1.5500 I-1.0000 J0.0000
G03 X220.0000 Y508.0000 Z-1.5750 I0.0000 J-1.0000
G03 X221.0000 Y507.0000 Z-1.6000 I1.0000 J0.0000
G03 X222.0000 Y508.0000 Z-1.6250 I0.0000 J1.0000
G03 X221.0000 Y509.0000 Z-1.6500 I-1.0000 J0.0000
G03 X220.0000 Y508.0000 Z-1.6750 I0.0000 J-1.0000
G03 X221.0000 Y507.0000 Z-1.7000 I1.0000 J0.0000
G03 X222.0000 Y508.0000 Z-1.7250 I0.0000 J1.0000
G03 X221.0000 Y509.0000 Z-1.7500 I-1.0000 J0.0000
G03 X220.0000 Y508.0000 Z-1.7750 I0.0000 J-1.0000
G03 X221.0000 Y507.0000 Z-1.8000 I1.0000 J0.0000
G03 X222.0000 Y508.0000 Z-1.8250 I0.0000 J1.0000
G03 X221.0000 Y509.0000 Z-1.8500 I-1.0000 J0.0000
G03 X220.0000 Y508.0000 Z-1.8750 I0.0000 J-1.0000
G03 X221.0000 Y507.0000 Z-1.9000 I1.0000 J0.0000
G03 X222.0000 Y508.0000 Z-1.9650 I0.0000 J1.0000
G03 X221.0000 Y509.0000 Z-2.0300 I-1.0000 J0.0000
G03 X220.0000 Y508.0000 Z-2.0950 I0.0000 J-1.0000
G03 X221.0000 Y507.0000 Z-2.1600 I1.0000 J0.0000
G03 X222.0000 Y508.0000 I0.0000 J1.0000
G03 X221.0000 Y509.0000 I-1.0000 J0.0000
G03 X220.0000 Y508.0000 I0.0000 J-1.0000
G03 X221.0000 Y507.0000 I1.0000 J0.0000
G00 Y508.000 Z5.000
(plungebore end)
(BREAK pass 20)
(Group complete: _diam_3.9999999999999996mm)
(Pass: 1)
G00 X160.600 Y465.500
(plungebore  DEPTH=2.160  DIAM=2.000)
G00 Z1.667
G01 Z-0.100 F100 
G00 Z1.667
G01 Z-0.200
G00 Z1.667
G01 Z-0.300
G00 Z1.667
G01 Z-0.400
G00 Z1.667
G01 Z-0.500
G00 Z1.667
G01 Z-0.600
G00 Z1.667
G01 Z-0.700
G00 Z1.667
G01 Z-0.800
G00 Z1.667
G01 Z-0.900
G00 Z1.667
G01 Z-1.000
G00 Z1.667
G01 Z-1.100
G00 Z1.667
G01 Z-1.200
G00 Z1.667
G01 Z-1.300
G00 Z1.667
G01 Z-1.400
G00 Z1.667
G01 Z-1.500
G00 Z1.667
G01 Z-1.600
G00 Z1.667
G01 Z-1.700
G00 Z1.667
G01 Z-1.800
G00 Z1.667
G01 Z-1.900
G00 Z1.667
G01 Z-2.000
G00 Z1.667
G01 Z-2.100
G00 Z1.667
G01 Z-2.160
G00 Z1.667
G00 Y465.500 Z5.000
(plungebore end)
(BREAK pass 20)
(Pass: 1)
G00 Y440.500
(plungebore  DEPTH=2.160  DIAM=2.000)
G00 Z1.667
G01 Z-0.100 F100 
G00 Z1.667
G01 Z-0.200
G00 Z1.667
G01 Z-0.300
G00 Z1.667
G01 Z-0.400
G00 Z1.667
G01 Z-0.500
G00 Z1.667
G01 Z-0.600
G00 Z1.667
G01 Z-0.700
G00 Z1.667
G01 Z-0.800
G00 Z1.667
G01 Z-0.900
G00 Z1.667
G01 Z-1.000
G00 Z1.667
G01 Z-1.100
G00 Z1.667
G01 Z-1.200
G00 Z1.667
G01 Z-1.300
G00 Z1.667
G01 Z-1.400
G00 Z1.667
G01 Z-1.500
G00 Z1.667
G01 Z-1.600
G00 Z1.667
G01 Z-1.700
G00 Z1.667
G01 Z-1.800
G00 Z1.667
G01 Z-1.900
G00 Z1.667
G01 Z-2.000
G00 Z1.667
G01 Z-2.100
G00 Z1.667
G01 Z-2.160
G00 Z1.667
G00 Y440.500 Z5.000
(plungebore end)
(BREAK pass 20)
(Pass: 1)
G00 X115.150 Y431.950
(plungebore  DEPTH=2.160  DIAM=2.000)
G00 Z1.667
G01 Z-0.100 F100 
G00 Z1.667
G01 Z-0.200
G00 Z1.667
G01 Z-0.300
G00 Z1.667
G01 Z-0.400
G00 Z1.667
G01 Z-0.500
G00 Z1.667
G01 Z-0.600
G00 Z1.667
G01 Z-0.700
G00 Z1.667
G01 Z-0.800
G00 Z1.667
G01 Z-0.900
G00 Z1.667
G01 Z-1.000
G00 Z1.667
G01 Z-1.100
G00 Z1.667
G01 Z-1.200
G00 Z1.667
G01 Z-1.300
G00 Z1.667
G01 Z-1.400
G00 Z1.667
G01 Z-1.500
G00 Z1.667
G01 Z-1.600
G00 Z1.667
G01 Z-1.700
G00 Z1.667
G01 Z-1.800
G00 Z1.667
G01 Z-1.900
G00 Z1.667
G01 Z-2.000
G00 Z1.667
G01 Z-2.100
G00 Z1.667
G01 Z-2.160
G00 Z1.667
G00 Y431.950 Z5.000
(plungebore end)
(BREAK pass 20)
(Pass: 1)
G00 Y474.050
(plungebore  DEPTH=2.160  DIAM=2.000)
G00 Z1.667
G01 Z-0.100 F100 
G00 Z1.667
G01 Z-0.200
G00 Z1.667
G01 Z-0.300
G00 Z1.667
G01 Z-0.400
G00 Z1.667
G01 Z-0.500
G00 Z1.667
G01 Z-0.600
G00 Z1.667
G01 Z-0.700
G00 Z1.667
G01 Z-0.800
G00 Z1.667
G01 Z-0.900
G00 Z1.667
G01 Z-1.000
G00 Z1.667
G01 Z-1.100
G00 Z1.667
G01 Z-1.200
G00 Z1.667
G01 Z-1.300
G00 Z1.667
G01 Z-1.400
G00 Z1.667
G01 Z-1.500
G00 Z1.667
G01 Z-1.600
G00 Z1.667
G01 Z-1.700
G00 Z1.667
G01 Z-1.800
G00 Z1.667
G01 Z-1.900
G00 Z1.667
G01 Z-2.000
G00 Z1.667
G01 Z-2.100
G00 Z1.667
G01 Z-2.160
G00 Z1.667
G00 Y474.050 Z5.000
(plungebore end)
(BREAK pass 20)
(Pass: 1)
G00 X127.300 Y468.250
G01 Z-0.100 F100 
 X103.000 F600 
 Y437.750
 X127.300
 Y468.250
(Pass: 2)
 Z-0.200 F100 
 X103.000 F600 
 Y437.750
 X127.300
 Y468.250
(Pass: 3)
 Z-0.300 F100 
 X103.000 F600 
 Y437.750
 X127.300
 Y468.250
(Pass: 4)
 Z-0.400 F100 
 X103.000 F600 
 Y437.750
 X127.300
 Y468.250
(Pass: 5)
 Z-0.500 F100 
 X103.000 F600 
 Y437.750
 X127.300
 Y468.250
(Pass: 6)
 Z-0.600 F100 
 X103.000 F600 
 Y437.750
 X127.300
 Y468.250
(Pass: 7)
 Z-0.700 F100 
 X103.000 F600 
 Y437.750
 X127.300
 Y468.250
(Pass: 8)
 Z-0.800 F100 
 X103.000 F600 
 Y437.750
 X127.300
 Y468.250
(Pass: 9)
 Z-0.900 F100 
 X103.000 F600 
 Y437.750
 X127.300
 Y468.250
(Pass: 10)
 Z-1.000 F100 
 X103.000 F600 
 Y437.750
 X127.300
 Y468.250
(Pass: 11)
 Z-1.100 F100 
 X103.000 F600 
 Y437.750
 X127.300
 Y468.250
(Pass: 12)
 Z-1.200 F100 
 X103.000 F600 
 Y437.750
 X127.300
 Y468.250
(Pass: 13)
 Z-1.300 F100 
 X103.000 F600 
 Y437.750
 X127.300
 Y468.250
(Pass: 14)
 Z-1.400 F100 
 X103.000 F600 
 Y437.750
 X127.300
 Y468.250
(Pass: 15)
 Z-1.500 F100 
 X103.000 F600 
 Y437.750
 X127.300
 Y468.250
(Pass: 16)
 Z-1.600 F100 
 X103.000 F600 
 Y437.750
 X127.300
 Y468.250
(Pass: 17)
 Z-1.700 F100 
 X103.000 F600 
 Y437.750
 X127.300
 Y468.250
(Pass: 18)
 Z-1.800 F100 
 X103.000 F600 
 Y437.750
 X127.300
 Y468.250
(Pass: 19)
 Z-1.900 F100 
 X103.000 F600 
 Y437.750
 X127.300
 Y468.250
(Pass: 20)
 Z-2.000 F100 
 X103.000 F600 
 Y437.750
 X127.300
 Y468.250
(BREAK pass 20)
G00 Z5.000
(Pass: 1)
 X155.600 Y458.000
G01 Z-0.100 F100 
 Y448.000 F600 
 X165.600
 Y458.000
 X155.600
(Pass: 2)
 Z-0.200 F100 
 Y448.000 F600 
 X165.600
 Y458.000
 X155.600
(Pass: 3)
 Z-0.300 F100 
 Y448.000 F600 
 X165.600
 Y458.000
 X155.600
(Pass: 4)
 Z-0.400 F100 
 Y448.000 F600 
 X165.600
 Y458.000
 X155.600
(Pass: 5)
 Z-0.500 F100 
 Y448.000 F600 
 X165.600
 Y458.000
 X155.600
(Pass: 6)
 Z-0.600 F100 
 Y448.000 F600 
 X165.600
 Y458.000
 X155.600
(Pass: 7)
 Z-0.700 F100 
 Y448.000 F600 
 X165.600
 Y458.000
 X155.600
(Pass: 8)
 Z-0.800 F100 
 Y448.000 F600 
 X165.600
 Y458.000
 X155.600
(Pass: 9)
 Z-0.900 F100 
 Y448.000 F600 
 X165.600
 Y458.000
 X155.600
(Pass: 10)
 Z-1.000 F100 
 Y448.000 F600 
 X165.600
 Y458.000
 X155.600
(Pass: 11)
 Z-1.100 F100 
 Y448.000 F600 
 X165.600
 Y458.000
 X155.600
(Pass: 12)
 Z-1.200 F100 
 Y448.000 F600 
 X165.600
 Y458.000
 X155.600
(Pass: 13)
 Z-1.300 F100 
 Y448.000 F600 
 X165.600
 Y458.000
 X155.600
(Pass: 14)
 Z-1.400 F100 
 Y448.000 F600 
 X165.600
 Y458.000
 X155.600
(Pass: 15)
 Z-1.500 F100 
 Y448.000 F600 
 X165.600
 Y458.000
 X155.600
(Pass: 16)
 Z-1.600 F100 
 Y448.000 F600 
 X165.600
 Y458.000
 X155.600
(Pass: 17)
 Z-1.700 F100 
 Y448.000 F600 
 X165.600
 Y458.000
 X155.600
(Pass: 18)
 Z-1.800 F100 
 Y448.000 F600 
 X165.600
 Y458.000
 X155.600
(Pass: 19)
 Z-1.900 F100 
 Y448.000 F600 
 X165.600
 Y458.000
 X155.600
(Pass: 20)
 Z-2.000 F100 
 Y448.000 F600 
 X165.600
 Y458.000
 X155.600
(BREAK pass 20)
G00 Z5.000
(Pass: 1)
 X179.796 Y454.421
G01 Z-0.100 F100 
G02 X179.6086 Y453.0000 R7.5000 F600 
 X179.7957 Y451.5787 R7.5000
 X180.3443 Y450.2543 R7.5000
 X181.2170 Y449.1170 R7.5000
 X182.3543 Y448.2443 R7.5000
 X183.6787 Y447.6957 R7.5000
 X185.1000 Y447.5086 R7.5000
 X186.5213 Y447.6957 R7.5000
 X187.8457 Y448.2443 R7.5000
 X188.9830 Y449.1170 R7.5000
 X189.8557 Y450.2543 R7.5000
 X190.4043 Y451.5787 R7.5000
 X190.5914 Y453.0000 R7.5000
 X190.4043 Y454.4213 R7.5000
 X189.8557 Y455.7457 R7.5000
 X188.9830 Y456.8830 R7.5000
 X187.8457 Y457.7557 R7.5000
 X186.5213 Y458.3043 R7.5000
 X185.1000 Y458.4914 R7.5000
 X183.6787 Y458.3043 R7.5000
 X182.3543 Y457.7557 R7.5000
 X181.2170 Y456.8830 R7.5000
 X180.3443 Y455.7457 R7.5000
 X179.7957 Y454.4213 R7.5000
(Pass: 2)
G01 Z-0.200 F100 
G02 X179.6086 Y453.0000 R7.5000 F600 
 X179.7957 Y451.5787 R7.5000
 X180.3443 Y450.2543 R7.5000
 X181.2170 Y449.1170 R7.5000
 X182.3543 Y448.2443 R7.5000
 X183.6787 Y447.6957 R7.5000
 X185.1000 Y447.5086 R7.5000
 X186.5213 Y447.6957 R7.5000
 X187.8457 Y448.2443 R7.5000
 X188.9830 Y449.1170 R7.5000
 X189.8557 Y450.2543 R7.5000
 X190.4043 Y451.5787 R7.5000
 X190.5914 Y453.0000 R7.5000
 X190.4043 Y454.4213 R7.5000
 X189.8557 Y455.7457 R7.5000
 X188.9830 Y456.8830 R7.5000
 X187.8457 Y457.7557 R7.5000
 X186.5213 Y458.3043 R7.5000
 X185.1000 Y458.4914 R7.5000
 X183.6787 Y458.3043 R7.5000
 X182.3543 Y457.7557 R7.5000
 X181.2170 Y456.8830 R7.5000
 X180.3443 Y455.7457 R7.5000
 X179.7957 Y454.4213 R7.5000
(Pass: 3)
G01 Z-0.300 F100 
G02 X179.6086 Y453.0000 R7.5000 F600 
 X179.7957 Y451.5787 R7.5000
 X180.3443 Y450.2543 R7.5000
 X181.2170 Y449.1170 R7.5000
 X182.3543 Y448.2443 R7.5000
 X183.6787 Y447.6957 R7.5000
 X185.1000 Y447.5086 R7.5000
 X186.5213 Y447.6957 R7.5000
 X187.8457 Y448.2443 R7.5000
 X188.9830 Y449.1170 R7.5000
 X189.8557 Y450.2543 R7.5000
 X190.4043 Y451.5787 R7.5000
 X190.5914 Y453.0000 R7.5000
 X190.4043 Y454.4213 R7.5000
 X189.8557 Y455.7457 R7.5000
 X188.9830 Y456.8830 R7.5000
 X187.8457 Y457.7557 R7.5000
 X186.5213 Y458.3043 R7.5000
 X185.1000 Y458.4914 R7.5000
 X183.6787 Y458.3043 R7.5000
 X182.3543 Y457.7557 R7.5000
 X181.2170 Y456.8830 R7.5000
 X180.3443 Y455.7457 R7.5000
 X179.7957 Y454.4213 R7.5000
(Pass: 4)
G01 Z-0.400 F100 
G02 X179.6086 Y453.0000 R7.5000 F600 
 X179.7957 Y451.5787 R7.5000
 X180.3443 Y450.2543 R7.5000
 X181.2170 Y449.1170 R7.5000
 X182.3543 Y448.2443 R7.5000
 X183.6787 Y447.6957 R7.5000
 X185.1000 Y447.5086 R7.5000
 X186.5213 Y447.6957 R7.5000
 X187.8457 Y448.2443 R7.5000
 X188.9830 Y449.1170 R7.5000
 X189.8557 Y450.2543 R7.5000
 X190.4043 Y451.5787 R7.5000
 X190.5914 Y453.0000 R7.5000
 X190.4043 Y454.4213 R7.5000
 X189.8557 Y455.7457 R7.5000
 X188.9830 Y456.8830 R7.5000
 X187.8457 Y457.7557 R7.5000
 X186.5213 Y458.3043 R7.5000
 X185.1000 Y458.4914 R7.5000
 X183.6787 Y458.3043 R7.5000
 X182.3543 Y457.7557 R7.5000
 X181.2170 Y456.8830 R7.5000
 X180.3443 Y455.7457 R7.5000
 X179.7957 Y454.4213 R7.5000
(Pass: 5)
G01 Z-0.500 F100 
G02 X179.6086 Y453.0000 R7.5000 F600 
 X179.7957 Y451.5787 R7.5000
 X180.3443 Y450.2543 R7.5000
 X181.2170 Y449.1170 R7.5000
 X182.3543 Y448.2443 R7.5000
 X183.6787 Y447.6957 R7.5000
 X185.1000 Y447.5086 R7.5000
 X186.5213 Y447.6957 R7.5000
 X187.8457 Y448.2443 R7.5000
 X188.9830 Y449.1170 R7.5000
 X189.8557 Y450.2543 R7.5000
 X190.4043 Y451.5787 R7.5000
 X190.5914 Y453.0000 R7.5000
 X190.4043 Y454.4213 R7.5000
 X189.8557 Y455.7457 R7.5000
 X188.9830 Y456.8830 R7.5000
 X187.8457 Y457.7557 R7.5000
 X186.5213 Y458.3043 R7.5000
 X185.1000 Y458.4914 R7.5000
 X183.6787 Y458.3043 R7.5000
 X182.3543 Y457.7557 R7.5000
 X181.2170 Y456.8830 R7.5000
 X180.3443 Y455.7457 R7.5000
 X179.7957 Y454.4213 R7.5000
(Pass: 6)
G01 Z-0.600 F100 
G02 X179.6086 Y453.0000 R7.5000 F600 
 X179.7957 Y451.5787 R7.5000
 X180.3443 Y450.2543 R7.5000
 X181.2170 Y449.1170 R7.5000
 X182.3543 Y448.2443 R7.5000
 X183.6787 Y447.6957 R7.5000
 X185.1000 Y447.5086 R7.5000
 X186.5213 Y447.6957 R7.5000
 X187.8457 Y448.2443 R7.5000
 X188.9830 Y449.1170 R7.5000
 X189.8557 Y450.2543 R7.5000
 X190.4043 Y451.5787 R7.5000
 X190.5914 Y453.0000 R7.5000
 X190.4043 Y454.4213 R7.5000
 X189.8557 Y455.7457 R7.5000
 X188.9830 Y456.8830 R7.5000
 X187.8457 Y457.7557 R7.5000
 X186.5213 Y458.3043 R7.5000
 X185.1000 Y458.4914 R7.5000
 X183.6787 Y458.3043 R7.5000
 X182.3543 Y457.7557 R7.5000
 X181.2170 Y456.8830 R7.5000
 X180.3443 Y455.7457 R7.5000
 X179.7957 Y454.4213 R7.5000
(Pass: 7)
G01 Z-0.700 F100 
G02 X179.6086 Y453.0000 R7.5000 F600 
 X179.7957 Y451.5787 R7.5000
 X180.3443 Y450.2543 R7.5000
 X181.2170 Y449.1170 R7.5000
 X182.3543 Y448.2443 R7.5000
 X183.6787 Y447.6957 R7.5000
 X185.1000 Y447.5086 R7.5000
 X186.5213 Y447.6957 R7.5000
 X187.8457 Y448.2443 R7.5000
 X188.9830 Y449.1170 R7.5000
 X189.8557 Y450.2543 R7.5000
 X190.4043 Y451.5787 R7.5000
 X190.5914 Y453.0000 R7.5000
 X190.4043 Y454.4213 R7.5000
 X189.8557 Y455.7457 R7.5000
 X188.9830 Y456.8830 R7.5000
 X187.8457 Y457.7557 R7.5000
 X186.5213 Y458.3043 R7.5000
 X185.1000 Y458.4914 R7.5000
 X183.6787 Y458.3043 R7.5000
 X182.3543 Y457.7557 R7.5000
 X181.2170 Y456.8830 R7.5000
 X180.3443 Y455.7457 R7.5000
 X179.7957 Y454.4213 R7.5000
(Pass: 8)
G01 Z-0.800 F100 
G02 X179.6086 Y453.0000 R7.5000 F600 
 X179.7957 Y451.5787 R7.5000
 X180.3443 Y450.2543 R7.5000
 X181.2170 Y449.1170 R7.5000
 X182.3543 Y448.2443 R7.5000
 X183.6787 Y447.6957 R7.5000
 X185.1000 Y447.5086 R7.5000
 X186.5213 Y447.6957 R7.5000
 X187.8457 Y448.2443 R7.5000
 X188.9830 Y449.1170 R7.5000
 X189.8557 Y450.2543 R7.5000
 X190.4043 Y451.5787 R7.5000
 X190.5914 Y453.0000 R7.5000
 X190.4043 Y454.4213 R7.5000
 X189.8557 Y455.7457 R7.5000
 X188.9830 Y456.8830 R7.5000
 X187.8457 Y457.7557 R7.5000
 X186.5213 Y458.3043 R7.5000
 X185.1000 Y458.4914 R7.5000
 X183.6787 Y458.3043 R7.5000
 X182.3543 Y457.7557 R7.5000
 X181.2170 Y456.8830 R7.5000
 X180.3443 Y455.7457 R7.5000
 X179.7957 Y454.4213 R7.5000
(Pass: 9)
G01 Z-0.900 F100 
G02 X179.6086 Y453.0000 R7.5000 F600 
 X179.7957 Y451.5787 R7.5000
 X180.3443 Y450.2543 R7.5000
 X181.2170 Y449.1170 R7.5000
 X182.3543 Y448.2443 R7.5000
 X183.6787 Y447.6957 R7.5000
 X185.1000 Y447.5086 R7.5000
 X186.5213 Y447.6957 R7.5000
 X187.8457 Y448.2443 R7.5000
 X188.9830 Y449.1170 R7.5000
 X189.8557 Y450.2543 R7.5000
 X190.4043 Y451.5787 R7.5000
 X190.5914 Y453.0000 R7.5000
 X190.4043 Y454.4213 R7.5000
 X189.8557 Y455.7457 R7.5000
 X188.9830 Y456.8830 R7.5000
 X187.8457 Y457.7557 R7.5000
 X186.5213 Y458.3043 R7.5000
 X185.1000 Y458.4914 R7.5000
 X183.6787 Y458.3043 R7.5000
 X182.3543 Y457.7557 R7.5000
 X181.2170 Y456.8830 R7.5000
 X180.3443 Y455.7457 R7.5000
 X179.7957 Y454.4213 R7.5000
(Pass: 10)
G01 Z-1.000 F100 
G02 X179.6086 Y453.0000 R7.5000 F600 
 X179.7957 Y451.5787 R7.5000
 X180.3443 Y450.2543 R7.5000
 X181.2170 Y449.1170 R7.5000
 X182.3543 Y448.2443 R7.5000
 X183.6787 Y447.6957 R7.5000
 X185.1000 Y447.5086 R7.5000
 X186.5213 Y447.6957 R7.5000
 X187.8457 Y448.2443 R7.5000
 X188.9830 Y449.1170 R7.5000
 X189.8557 Y450.2543 R7.5000
 X190.4043 Y451.5787 R7.5000
 X190.5914 Y453.0000 R7.5000
 X190.4043 Y454.4213 R7.5000
 X189.8557 Y455.7457 R7.5000
 X188.9830 Y456.8830 R7.5000
 X187.8457 Y457.7557 R7.5000
 X186.5213 Y458.3043 R7.5000
 X185.1000 Y458.4914 R7.5000
 X183.6787 Y458.3043 R7.5000
 X182.3543 Y457.7557 R7.5000
 X181.2170 Y456.8830 R7.5000
 X180.3443 Y455.7457 R7.5000
 X179.7957 Y454.4213 R7.5000
(Pass: 11)
G01 Z-1.100 F100 
G02 X179.6086 Y453.0000 R7.5000 F600 
 X179.7957 Y451.5787 R7.5000
 X180.3443 Y450.2543 R7.5000
 X181.2170 Y449.1170 R7.5000
 X182.3543 Y448.2443 R7.5000
 X183.6787 Y447.6957 R7.5000
 X185.1000 Y447.5086 R7.5000
 X186.5213 Y447.6957 R7.5000
 X187.8457 Y448.2443 R7.5000
 X188.9830 Y449.1170 R7.5000
 X189.8557 Y450.2543 R7.5000
 X190.4043 Y451.5787 R7.5000
 X190.5914 Y453.0000 R7.5000
 X190.4043 Y454.4213 R7.5000
 X189.8557 Y455.7457 R7.5000
 X188.9830 Y456.8830 R7.5000
 X187.8457 Y457.7557 R7.5000
 X186.5213 Y458.3043 R7.5000
 X185.1000 Y458.4914 R7.5000
 X183.6787 Y458.3043 R7.5000
 X182.3543 Y457.7557 R7.5000
 X181.2170 Y456.8830 R7.5000
 X180.3443 Y455.7457 R7.5000
 X179.7957 Y454.4213 R7.5000
(Pass: 12)
G01 Z-1.200 F100 
G02 X179.6086 Y453.0000 R7.5000 F600 
 X179.7957 Y451.5787 R7.5000
 X180.3443 Y450.2543 R7.5000
 X181.2170 Y449.1170 R7.5000
 X182.3543 Y448.2443 R7.5000
 X183.6787 Y447.6957 R7.5000
 X185.1000 Y447.5086 R7.5000
 X186.5213 Y447.6957 R7.5000
 X187.8457 Y448.2443 R7.5000
 X188.9830 Y449.1170 R7.5000
 X189.8557 Y450.2543 R7.5000
 X190.4043 Y451.5787 R7.5000
 X190.5914 Y453.0000 R7.5000
 X190.4043 Y454.4213 R7.5000
 X189.8557 Y455.7457 R7.5000
 X188.9830 Y456.8830 R7.5000
 X187.8457 Y457.7557 R7.5000
 X186.5213 Y458.3043 R7.5000
 X185.1000 Y458.4914 R7.5000
 X183.6787 Y458.3043 R7.5000
 X182.3543 Y457.7557 R7.5000
 X181.2170 Y456.8830 R7.5000
 X180.3443 Y455.7457 R7.5000
 X179.7957 Y454.4213 R7.5000
(Pass: 13)
G01 Z-1.300 F100 
G02 X179.6086 Y453.0000 R7.5000 F600 
 X179.7957 Y451.5787 R7.5000
 X180.3443 Y450.2543 R7.5000
 X181.2170 Y449.1170 R7.5000
 X182.3543 Y448.2443 R7.5000
 X183.6787 Y447.6957 R7.5000
 X185.1000 Y447.5086 R7.5000
 X186.5213 Y447.6957 R7.5000
 X187.8457 Y448.2443 R7.5000
 X188.9830 Y449.1170 R7.5000
 X189.8557 Y450.2543 R7.5000
 X190.4043 Y451.5787 R7.5000
 X190.5914 Y453.0000 R7.5000
 X190.4043 Y454.4213 R7.5000
 X189.8557 Y455.7457 R7.5000
 X188.9830 Y456.8830 R7.5000
 X187.8457 Y457.7557 R7.5000
 X186.5213 Y458.3043 R7.5000
 X185.1000 Y458.4914 R7.5000
 X183.6787 Y458.3043 R7.5000
 X182.3543 Y457.7557 R7.5000
 X181.2170 Y456.8830 R7.5000
 X180.3443 Y455.7457 R7.5000
 X179.7957 Y454.4213 R7.5000
(Pass: 14)
G01 Z-1.400 F100 
G02 X179.6086 Y453.0000 R7.5000 F600 
 X179.7957 Y451.5787 R7.5000
 X180.3443 Y450.2543 R7.5000
 X181.2170 Y449.1170 R7.5000
 X182.3543 Y448.2443 R7.5000
 X183.6787 Y447.6957 R7.5000
 X185.1000 Y447.5086 R7.5000
 X186.5213 Y447.6957 R7.5000
 X187.8457 Y448.2443 R7.5000
 X188.9830 Y449.1170 R7.5000
 X189.8557 Y450.2543 R7.5000
 X190.4043 Y451.5787 R7.5000
 X190.5914 Y453.0000 R7.5000
 X190.4043 Y454.4213 R7.5000
 X189.8557 Y455.7457 R7.5000
 X188.9830 Y456.8830 R7.5000
 X187.8457 Y457.7557 R7.5000
 X186.5213 Y458.3043 R7.5000
 X185.1000 Y458.4914 R7.5000
 X183.6787 Y458.3043 R7.5000
 X182.3543 Y457.7557 R7.5000
 X181.2170 Y456.8830 R7.5000
 X180.3443 Y455.7457 R7.5000
 X179.7957 Y454.4213 R7.5000
(Pass: 15)
G01 Z-1.500 F100 
G02 X179.6086 Y453.0000 R7.5000 F600 
 X179.7957 Y451.5787 R7.5000
 X180.3443 Y450.2543 R7.5000
 X181.2170 Y449.1170 R7.5000
 X182.3543 Y448.2443 R7.5000
 X183.6787 Y447.6957 R7.5000
 X185.1000 Y447.5086 R7.5000
 X186.5213 Y447.6957 R7.5000
 X187.8457 Y448.2443 R7.5000
 X188.9830 Y449.1170 R7.5000
 X189.8557 Y450.2543 R7.5000
 X190.4043 Y451.5787 R7.5000
 X190.5914 Y453.0000 R7.5000
 X190.4043 Y454.4213 R7.5000
 X189.8557 Y455.7457 R7.5000
