%
(Generated by SketchUcam {1.2a})
(File: MotorMount4mm.skp)
(Bit diameter: 4.0mm)
(Feed rate: 150.0mm/min)
(Plunge Feed rate: 50.0mm/min)
(Material Thickness: 6.3mm)
(Material length: 558.8mm X width: 1066.8mm)
(Overhead Gantry: true)
(Retract feed rate NOT limited to plunge feed rate)
(Multipass enabled, Depth = 0.5mm)
(Optimization is ON)
(www.PhlatBoyz.com)
G90 G21 G49 
M3 S11000
G0   Z5.000     
(Pass: 1)
   X12.204       Y12.407    
(plungebore    depth=7.560         diam=4.000     )
G00   Z1.667     
G01   Z-0.500     F50  
G00   z1.667     
G01   Z-1.000    
G00   z1.667     
G01   Z-1.500    
G00   z1.667     
G01   Z-2.000    
G00   z1.667     
G01   Z-2.500    
G00   z1.667     
G01   Z-3.000    
G00   z1.667     
G01   Z-3.500    
G00   z1.667     
G01   Z-4.000    
G00   z1.667     
G01   Z-4.500    
G00   z1.667     
G01   Z-5.000    
G00   z1.667     
G01   Z-5.500    
G00   z1.667     
G01   Z-6.000    
G00   z1.667     
G01   Z-6.500    
G00   z1.667     
G01   Z-7.000    
G00   z1.667     
G01   Z-7.500    
G00   z1.667     
G01   Z-7.560    
G00   z1.667     
G00   Y12.407        Z5.000     
(plungebore end)
(BREAK pass 14)
(Pass: 1)
G0   X59.330       Y12.494    
(plungebore    depth=7.560         diam=4.000     )
G00   Z1.667     
G01   Z-0.500     F50  
G00   z1.667     
G01   Z-1.000    
G00   z1.667     
G01   Z-1.500    
G00   z1.667     
G01   Z-2.000    
G00   z1.667     
G01   Z-2.500    
G00   z1.667     
G01   Z-3.000    
G00   z1.667     
G01   Z-3.500    
G00   z1.667     
G01   Z-4.000    
G00   z1.667     
G01   Z-4.500    
G00   z1.667     
G01   Z-5.000    
G00   z1.667     
G01   Z-5.500    
G00   z1.667     
G01   Z-6.000    
G00   z1.667     
G01   Z-6.500    
G00   z1.667     
G01   Z-7.000    
G00   z1.667     
G01   Z-7.500    
G00   z1.667     
G01   Z-7.560    
G00   z1.667     
G00   Y12.494        Z5.000     
(plungebore end)
(BREAK pass 14)
(Pass: 1)
G0   X59.235       Y59.438    
(plungebore    depth=7.560         diam=4.000     )
G00   Z1.667     
G01   Z-0.500     F50  
G00   z1.667     
G01   Z-1.000    
G00   z1.667     
G01   Z-1.500    
G00   z1.667     
G01   Z-2.000    
G00   z1.667     
G01   Z-2.500    
G00   z1.667     
G01   Z-3.000    
G00   z1.667     
G01   Z-3.500    
G00   z1.667     
G01   Z-4.000    
G00   z1.667     
G01   Z-4.500    
G00   z1.667     
G01   Z-5.000    
G00   z1.667     
G01   Z-5.500    
G00   z1.667     
G01   Z-6.000    
G00   z1.667     
G01   Z-6.500    
G00   z1.667     
G01   Z-7.000    
G00   z1.667     
G01   Z-7.500    
G00   z1.667     
G01   Z-7.560    
G00   z1.667     
G00   Y59.438        Z5.000     
(plungebore end)
(BREAK pass 14)
(Pass: 1)
G0   X12.330       Y59.466    
(plungebore    depth=7.560         diam=4.000     )
G00   Z1.667     
G01   Z-0.500     F50  
G00   z1.667     
G01   Z-1.000    
G00   z1.667     
G01   Z-1.500    
G00   z1.667     
G01   Z-2.000    
G00   z1.667     
G01   Z-2.500    
G00   z1.667     
G01   Z-3.000    
G00   z1.667     
G01   Z-3.500    
G00   z1.667     
G01   Z-4.000    
G00   z1.667     
G01   Z-4.500    
G00   z1.667     
G01   Z-5.000    
G00   z1.667     
G01   Z-5.500    
G00   z1.667     
G01   Z-6.000    
G00   z1.667     
G01   Z-6.500    
G00   z1.667     
G01   Z-7.000    
G00   z1.667     
G01   Z-7.500    
G00   z1.667     
G01   Z-7.560    
G00   z1.667     
G00   Y59.466        Z5.000     
(plungebore end)
(BREAK pass 14)
(Pass: 1)
G0   X18.821       Y52.975    
G1   Z-0.500     F50  
   X18.937     F150 
   X52.675    
   X52.791    
   Y52.859    
   Y19.121    
   Y19.005    
   X52.675    
   X18.937    
   X18.821    
   Y19.121    
   Y52.859    
   Y52.975    
(Pass: 2)
   Z-1.000     F50  
   X18.937     F150 
   X52.675    
   X52.791    
   Y52.859    
   Y19.121    
   Y19.005    
   X52.675    
   X18.937    
   X18.821    
   Y19.121    
   Y52.859    
   Y52.975    
(Pass: 3)
   Z-1.500     F50  
   X18.937     F150 
   X52.675    
   X52.791    
   Y52.859    
   Y19.121    
   Y19.005    
   X52.675    
   X18.937    
   X18.821    
   Y19.121    
   Y52.859    
   Y52.975    
(Pass: 4)
   Z-2.000     F50  
   X18.937     F150 
   X52.675    
   X52.791    
   Y52.859    
   Y19.121    
   Y19.005    
   X52.675    
   X18.937    
   X18.821    
   Y19.121    
   Y52.859    
   Y52.975    
(Pass: 5)
   Z-2.500     F50  
   X18.937     F150 
   X52.675    
   X52.791    
   Y52.859    
   Y19.121    
   Y19.005    
   X52.675    
   X18.937    
   X18.821    
   Y19.121    
   Y52.859    
   Y52.975    
(Pass: 6)
   Z-3.000     F50  
   X18.937     F150 
   X52.675    
   X52.791    
   Y52.859    
   Y19.121    
   Y19.005    
   X52.675    
   X18.937    
   X18.821    
   Y19.121    
   Y52.859    
   Y52.975    
(Pass: 7)
   Z-3.500     F50  
   X18.937     F150 
   X52.675    
   X52.791    
   Y52.859    
   Y19.121    
   Y19.005    
   X52.675    
   X18.937    
   X18.821    
   Y19.121    
   Y52.859    
   Y52.975    
(Pass: 8)
   Z-4.000     F50  
   X18.937     F150 
   X52.675    
   X52.791    
   Y52.859    
   Y19.121    
   Y19.005    
   X52.675    
   X18.937    
   X18.821    
   Y19.121    
   Y52.859    
   Y52.975    
(Pass: 9)
   Z-4.500     F50  
   X18.937     F150 
   X52.675    
   X52.791    
   Y52.859    
   Y19.121    
   Y19.005    
   X52.675    
   X18.937    
   X18.821    
   Y19.121    
   Y52.859    
   Y52.975    
(Pass: 10)
   Z-5.000     F50  
   X18.937     F150 
   X52.675    
   X52.791    
   Y52.859    
   Y19.121    
   Y19.005    
   X52.675    
   X18.937    
   X18.821    
   Y19.121    
   Y52.859    
   Y52.975    
(Pass: 11)
   Z-5.500     F50  
   X18.937     F150 
   X52.675    
   X52.791    
   Y52.859    
   Y19.121    
   Y19.005    
   X52.675    
   X18.937    
   X18.821    
   Y19.121    
   Y52.859    
   Y52.975    
(Pass: 12)
   Z-6.000     F50  
   X18.937     F150 
   X52.675    
   X52.791    
   Y52.859    
   Y19.121    
   Y19.005    
   X52.675    
   X18.937    
   X18.821    
   Y19.121    
   Y52.859    
   Y52.975    
(Pass: 13)
   Z-6.500     F50  
   X18.937     F150 
   X52.675    
   X52.791    
   Y52.859    
   Y19.121    
   Y19.005    
   X52.675    
   X18.937    
   X18.821    
   Y19.121    
   Y52.859    
   Y52.975    
(Pass: 14)
   Z-7.000     F50  
   X18.937     F150 
   X52.675    
   X52.791    
   Y52.859    
   Y19.121    
   Y19.005    
   X52.675    
   X18.937    
   X18.821    
   Y19.121    
   Y52.859    
   Y52.975    
(BREAK pass 14)
G0   Z5.000     
(Pass: 1)
   X22.123       Y83.895    
G1   Z-0.500     F50  
   X21.766       Y84.043     F150 
   X21.459       Y84.278    
   X21.223       Y84.586    
   X21.075       Y84.943    
   X21.024       Y85.327    
   X21.075       Y85.711    
   X21.223       Y86.068    
   X21.459       Y86.375    
   X21.766       Y86.611    
   X22.123       Y86.759    
   X22.507       Y86.810    
   X22.891       Y86.759    
   X23.249       Y86.611    
   X23.556       Y86.375    
   X23.791       Y86.068    
   X23.939       Y85.711    
   X23.990       Y85.327    
   X23.939       Y84.943    
   X23.791       Y84.586    
   X23.556       Y84.278    
   X23.249       Y84.043    
   X22.891       Y83.895    
   X22.507       Y83.844    
   X22.123       Y83.895    
(Pass: 2)
   Z-1.000     F50  
   X21.766       Y84.043     F150 
   X21.459       Y84.278    
   X21.223       Y84.586    
   X21.075       Y84.943    
   X21.024       Y85.327    
   X21.075       Y85.711    
   X21.223       Y86.068    
   X21.459       Y86.375    
   X21.766       Y86.611    
   X22.123       Y86.759    
   X22.507       Y86.810    
   X22.891       Y86.759    
   X23.249       Y86.611    
   X23.556       Y86.375    
   X23.791       Y86.068    
   X23.939       Y85.711    
   X23.990       Y85.327    
   X23.939       Y84.943    
   X23.791       Y84.586    
   X23.556       Y84.278    
   X23.249       Y84.043    
   X22.891       Y83.895    
   X22.507       Y83.844    
   X22.123       Y83.895    
(Pass: 3)
   Z-1.500     F50  
   X21.766       Y84.043     F150 
   X21.459       Y84.278    
   X21.223       Y84.586    
   X21.075       Y84.943    
   X21.024       Y85.327    
   X21.075       Y85.711    
   X21.223       Y86.068    
   X21.459       Y86.375    
   X21.766       Y86.611    
   X22.123       Y86.759    
   X22.507       Y86.810    
   X22.891       Y86.759    
   X23.249       Y86.611    
   X23.556       Y86.375    
   X23.791       Y86.068    
   X23.939       Y85.711    
   X23.990       Y85.327    
   X23.939       Y84.943    
   X23.791       Y84.586    
   X23.556       Y84.278    
   X23.249       Y84.043    
   X22.891       Y83.895    
   X22.507       Y83.844    
   X22.123       Y83.895    
(Pass: 4)
   Z-2.000     F50  
   X21.766       Y84.043     F150 
   X21.459       Y84.278    
   X21.223       Y84.586    
   X21.075       Y84.943    
   X21.024       Y85.327    
   X21.075       Y85.711    
   X21.223       Y86.068    
   X21.459       Y86.375    
   X21.766       Y86.611    
   X22.123       Y86.759    
   X22.507       Y86.810    
   X22.891       Y86.759    
   X23.249       Y86.611    
   X23.556       Y86.375    
   X23.791       Y86.068    
   X23.939       Y85.711    
   X23.990       Y85.327    
   X23.939       Y84.943    
   X23.791       Y84.586    
   X23.556       Y84.278    
   X23.249       Y84.043    
   X22.891       Y83.895    
   X22.507       Y83.844    
   X22.123       Y83.895    
(Pass: 5)
   Z-2.500     F50  
   X21.766       Y84.043     F150 
   X21.459       Y84.278    
   X21.223       Y84.586    
   X21.075       Y84.943    
   X21.024       Y85.327    
   X21.075       Y85.711    
   X21.223       Y86.068    
   X21.459       Y86.375    
   X21.766       Y86.611    
   X22.123       Y86.759    
   X22.507       Y86.810    
   X22.891       Y86.759    
   X23.249       Y86.611    
   X23.556       Y86.375    
   X23.791       Y86.068    
   X23.939       Y85.711    
   X23.990       Y85.327    
   X23.939       Y84.943    
   X23.791       Y84.586    
   X23.556       Y84.278    
   X23.249       Y84.043    
   X22.891       Y83.895    
   X22.507       Y83.844    
   X22.123       Y83.895    
(Pass: 6)
   Z-3.000     F50  
   X21.766       Y84.043     F150 
   X21.459       Y84.278    
   X21.223       Y84.586    
   X21.075       Y84.943    
   X21.024       Y85.327    
   X21.075       Y85.711    
   X21.223       Y86.068    
   X21.459       Y86.375    
   X21.766       Y86.611    
   X22.123       Y86.759    
   X22.507       Y86.810    
   X22.891       Y86.759    
   X23.249       Y86.611    
   X23.556       Y86.375    
   X23.791       Y86.068    
   X23.939       Y85.711    
   X23.990       Y85.327    
   X23.939       Y84.943    
   X23.791       Y84.586    
   X23.556       Y84.278    
   X23.249       Y84.043    
   X22.891       Y83.895    
   X22.507       Y83.844    
   X22.123       Y83.895    
(Pass: 7)
   Z-3.500     F50  
   X21.766       Y84.043     F150 
   X21.459       Y84.278    
   X21.223       Y84.586    
   X21.075       Y84.943    
   X21.024       Y85.327    
   X21.075       Y85.711    
   X21.223       Y86.068    
   X21.459       Y86.375    
   X21.766       Y86.611    
   X22.123       Y86.759    
   X22.507       Y86.810    
   X22.891       Y86.759    
   X23.249       Y86.611    
   X23.556       Y86.375    
   X23.791       Y86.068    
   X23.939       Y85.711    
   X23.990       Y85.327    
   X23.939       Y84.943    
   X23.791       Y84.586    
   X23.556       Y84.278    
   X23.249       Y84.043    
   X22.891       Y83.895    
   X22.507       Y83.844    
   X22.123       Y83.895    
(Pass: 8)
   Z-4.000     F50  
   X21.766       Y84.043     F150 
   X21.459       Y84.278    
   X21.223       Y84.586    
   X21.075       Y84.943    
   X21.024       Y85.327    
   X21.075       Y85.711    
   X21.223       Y86.068    
   X21.459       Y86.375    
   X21.766       Y86.611    
   X22.123       Y86.759    
   X22.507       Y86.810    
   X22.891       Y86.759    
   X23.249       Y86.611    
   X23.556       Y86.375    
   X23.791       Y86.068    
   X23.939       Y85.711    
   X23.990       Y85.327    
   X23.939       Y84.943    
   X23.791       Y84.586    
   X23.556       Y84.278    
   X23.249       Y84.043    
   X22.891       Y83.895    
   X22.507       Y83.844    
   X22.123       Y83.895    
(Pass: 9)
   Z-4.500     F50  
   X21.766       Y84.043     F150 
   X21.459       Y84.278    
   X21.223       Y84.586    
   X21.075       Y84.943    
   X21.024       Y85.327    
   X21.075       Y85.711    
   X21.223       Y86.068    
   X21.459       Y86.375    
   X21.766       Y86.611    
   X22.123       Y86.759    
   X22.507       Y86.810    
   X22.891       Y86.759    
   X23.249       Y86.611    
   X23.556       Y86.375    
   X23.791       Y86.068    
   X23.939       Y85.711    
   X23.990       Y85.327    
   X23.939       Y84.943    
   X23.791       Y84.586    
   X23.556       Y84.278    
   X23.249       Y84.043    
   X22.891       Y83.895    
   X22.507       Y83.844    
   X22.123       Y83.895    
(Pass: 10)
   Z-5.000     F50  
   X21.766       Y84.043     F150 
   X21.459       Y84.278    
   X21.223       Y84.586    
   X21.075       Y84.943    
   X21.024       Y85.327    
   X21.075       Y85.711    
   X21.223       Y86.068    
   X21.459       Y86.375    
   X21.766       Y86.611    
   X22.123       Y86.759    
   X22.507       Y86.810    
   X22.891       Y86.759    
   X23.249       Y86.611    
   X23.556       Y86.375    
   X23.791       Y86.068    
   X23.939       Y85.711    
   X23.990       Y85.327    
   X23.939       Y84.943    
   X23.791       Y84.586    
   X23.556       Y84.278    
   X23.249       Y84.043    
   X22.891       Y83.895    
   X22.507       Y83.844    
   X22.123       Y83.895    
(Pass: 11)
   Z-5.500     F50  
   X21.766       Y84.043     F150 
   X21.459       Y84.278    
   X21.223       Y84.586    
   X21.075       Y84.943    
   X21.024       Y85.327    
   X21.075       Y85.711    
   X21.223       Y86.068    
   X21.459       Y86.375    
   X21.766       Y86.611    
   X22.123       Y86.759    
   X22.507       Y86.810    
   X22.891       Y86.759    
   X23.249       Y86.611    
   X23.556       Y86.375    
   X23.791       Y86.068    
   X23.939       Y85.711    
   X23.990       Y85.327    
   X23.939       Y84.943    
   X23.791       Y84.586    
   X23.556       Y84.278    
   X23.249       Y84.043    
   X22.891       Y83.895    
   X22.507       Y83.844    
   X22.123       Y83.895    
(Pass: 12)
   Z-6.000     F50  
   X21.766       Y84.043     F150 
   X21.459       Y84.278    
   X21.223       Y84.586    
   X21.075       Y84.943    
   X21.024       Y85.327    
   X21.075       Y85.711    
   X21.223       Y86.068    
   X21.459       Y86.375    
   X21.766       Y86.611    
   X22.123       Y86.759    
   X22.507       Y86.810    
   X22.891       Y86.759    
   X23.249       Y86.611    
   X23.556       Y86.375    
   X23.791       Y86.068    
   X23.939       Y85.711    
   X23.990       Y85.327    
   X23.939       Y84.943    
   X23.791       Y84.586    
   X23.556       Y84.278    
   X23.249       Y84.043    
   X22.891       Y83.895    
   X22.507       Y83.844    
   X22.123       Y83.895    
(Pass: 13)
   Z-6.500     F50  
   X21.766       Y84.043     F150 
   X21.459       Y84.278    
   X21.223       Y84.586    
   X21.075       Y84.943    
   X21.024       Y85.327    
   X21.075       Y85.711    
   X21.223       Y86.068    
   X21.459       Y86.375    
   X21.766       Y86.611    
   X22.123       Y86.759    
   X22.507       Y86.810    
   X22.891       Y86.759    
   X23.249       Y86.611    
   X23.556       Y86.375    
   X23.791       Y86.068    
   X23.939       Y85.711    
   X23.990       Y85.327    
   X23.939       Y84.943    
   X23.791       Y84.586    
   X23.556       Y84.278    
   X23.249       Y84.043    
   X22.891       Y83.895    
   X22.507       Y83.844    
   X22.123       Y83.895    
(Pass: 14)
   Z-7.000     F50  
   X21.766       Y84.043     F150 
   X21.459       Y84.278    
   X21.223       Y84.586    
   X21.075       Y84.943    
   X21.024       Y85.327    
   X21.075       Y85.711    
   X21.223       Y86.068    
   X21.459       Y86.375    
   X21.766       Y86.611    
   X22.123       Y86.759    
   X22.507       Y86.810    
   X22.891       Y86.759    
   X23.249       Y86.611    
   X23.556       Y86.375    
   X23.791       Y86.068    
   X23.939       Y85.711    
   X23.990       Y85.327    
   X23.939       Y84.943    
   X23.791       Y84.586    
   X23.556       Y84.278    
   X23.249       Y84.043    
   X22.891       Y83.895    
   X22.507       Y83.844    
   X22.123       Y83.895    
(BREAK pass 14)
G0   Z5.000     
(Pass: 1)
   X47.624       Y85.348    
G1   Z-0.500     F50  
   X47.675       Y85.732     F150 
   X47.823       Y86.089    
   X48.059       Y86.396    
   X48.366       Y86.632    
   X48.723       Y86.780    
   X49.107       Y86.831    
   X49.491       Y86.780    
   X49.849       Y86.632    
   X50.156       Y86.396    
   X50.391       Y86.089    
   X50.539       Y85.732    
   X50.590       Y85.348    
   X50.539       Y84.964    
   X50.391       Y84.607    
   X50.156       Y84.300    
   X49.849       Y84.064    
   X49.491       Y83.916    
   X49.107       Y83.865    
   X48.723       Y83.916    
   X48.366       Y84.064    
   X48.059       Y84.300    
   X47.823       Y84.607    
   X47.675       Y84.964    
   X47.624       Y85.348    
(Pass: 2)
   Z-1.000     F50  
   X47.675       Y85.732     F150 
   X47.823       Y86.089    
   X48.059       Y86.396    
   X48.366       Y86.632    
   X48.723       Y86.780    
   X49.107       Y86.831    
   X49.491       Y86.780    
   X49.849       Y86.632    
   X50.156       Y86.396    
   X50.391       Y86.089    
   X50.539       Y85.732    
   X50.590       Y85.348    
   X50.539       Y84.964    
   X50.391       Y84.607    
   X50.156       Y84.300    
   X49.849       Y84.064    
   X49.491       Y83.916    
   X49.107       Y83.865    
   X48.723       Y83.916    
   X48.366       Y84.064    
   X48.059       Y84.300    
   X47.823       Y84.607    
   X47.675       Y84.964    
   X47.624       Y85.348    
(Pass: 3)
   Z-1.500     F50  
   X47.675       Y85.732     F150 
   X47.823       Y86.089    
   X48.059       Y86.396    
   X48.366       Y86.632    
   X48.723       Y86.780    
   X49.107       Y86.831    
   X49.491       Y86.780    
   X49.849       Y86.632    
   X50.156       Y86.396    
   X50.391       Y86.089    
   X50.539       Y85.732    
   X50.590       Y85.348    
   X50.539       Y84.964    
   X50.391       Y84.607    
   X50.156       Y84.300    
   X49.849       Y84.064    
   X49.491       Y83.916    
   X49.107       Y83.865    
   X48.723       Y83.916    
   X48.366       Y84.064    
   X48.059       Y84.300    
   X47.823       Y84.607    
   X47.675       Y84.964    
   X47.624       Y85.348    
(Pass: 4)
   Z-2.000     F50  
   X47.675       Y85.732     F150 
   X47.823       Y86.089    
   X48.059       Y86.396    
   X48.366       Y86.632    
   X48.723       Y86.780    
   X49.107       Y86.831    
   X49.491       Y86.780    
   X49.849       Y86.632    
   X50.156       Y86.396    
   X50.391       Y86.089    
   X50.539       Y85.732    
   X50.590       Y85.348    
   X50.539       Y84.964    
   X50.391       Y84.607    
   X50.156       Y84.300    
   X49.849       Y84.064    
   X49.491       Y83.916    
   X49.107       Y83.865    
   X48.723       Y83.916    
   X48.366       Y84.064    
   X48.059       Y84.300    
   X47.823       Y84.607    
   X47.675       Y84.964    
   X47.624       Y85.348    
(Pass: 5)
   Z-2.500     F50  
   X47.675       Y85.732     F150 
   X47.823       Y86.089    
   X48.059       Y86.396    
   X48.366       Y86.632    
   X48.723       Y86.780    
   X49.107       Y86.831    
   X49.491       Y86.780    
   X49.849       Y86.632    
   X50.156       Y86.396    
   X50.391       Y86.089    
   X50.539       Y85.732    
   X50.590       Y85.348    
   X50.539       Y84.964    
   X50.391       Y84.607    
   X50.156       Y84.300    
   X49.849       Y84.064    
   X49.491       Y83.916    
   X49.107       Y83.865    
   X48.723       Y83.916    
   X48.366       Y84.064    
   X48.059       Y84.300    
   X47.823       Y84.607    
   X47.675       Y84.964    
   X47.624       Y85.348    
(Pass: 6)
   Z-3.000     F50  
   X47.675       Y85.732     F150 
   X47.823       Y86.089    
   X48.059       Y86.396    
   X48.366       Y86.632    
   X48.723       Y86.780    
   X49.107       Y86.831    
   X49.491       Y86.780    
   X49.849       Y86.632    
   X50.156       Y86.396    
   X50.391       Y86.089    
   X50.539       Y85.732    
   X50.590       Y85.348    
   X50.539       Y84.964    
   X50.391       Y84.607    
   X50.156       Y84.300    
   X49.849       Y84.064    
   X49.491       Y83.916    
   X49.107       Y83.865    
   X48.723       Y83.916    
   X48.366       Y84.064    
   X48.059       Y84.300    
   X47.823       Y84.607    
   X47.675       Y84.964    
   X47.624       Y85.348    
(Pass: 7)
   Z-3.500     F50  
   X47.675       Y85.732     F150 
   X47.823       Y86.089    
   X48.059       Y86.396    
   X48.366       Y86.632    
   X48.723       Y86.780    
   X49.107       Y86.831    
   X49.491       Y86.780    
   X49.849       Y86.632    
   X50.156       Y86.396    
   X50.391       Y86.089    
   X50.539       Y85.732    
   X50.590       Y85.348    
   X50.539       Y84.964    
   X50.391       Y84.607    
   X50.156       Y84.300    
   X49.849       Y84.064    
   X49.491       Y83.916    
   X49.107       Y83.865    
   X48.723       Y83.916    
   X48.366       Y84.064    
   X48.059       Y84.300    
   X47.823       Y84.607    
   X47.675       Y84.964    
   X47.624       Y85.348    
(Pass: 8)
   Z-4.000     F50  
   X47.675       Y85.732     F150 
   X47.823       Y86.089    
   X48.059       Y86.396    
   X48.366       Y86.632    
   X48.723       Y86.780    
   X49.107       Y86.831    
   X49.491       Y86.780    
   X49.849       Y86.632    
   X50.156       Y86.396    
   X50.391       Y86.089    
   X50.539       Y85.732    
   X50.590       Y85.348    
   X50.539       Y84.964    
   X50.391       Y84.607    
   X50.156       Y84.300    
   X49.849       Y84.064    
   X49.491       Y83.916    
   X49.107       Y83.865    
   X48.723       Y83.916    
   X48.366       Y84.064    
   X48.059       Y84.300    
   X47.823       Y84.607    
   X47.675       Y84.964    
   X47.624       Y85.348    
(Pass: 9)
   Z-4.500     F50  
   X47.675       Y85.732     F150 
   X47.823       Y86.089    
   X48.059       Y86.396    
   X48.366       Y86.632    
   X48.723       Y86.780    
   X49.107       Y86.831    
   X49.491       Y86.780    
   X49.849       Y86.632    
   X50.156       Y86.396    
   X50.391       Y86.089    
   X50.539       Y85.732    
   X50.590       Y85.348    
   X50.539       Y84.964    
   X50.391       Y84.607    
   X50.156       Y84.300    
   X49.849       Y84.064    
   X49.491       Y83.916    
   X49.107       Y83.865    
   X48.723       Y83.916    
   X48.366       Y84.064    
   X48.059       Y84.300    
   X47.823       Y84.607    
   X47.675       Y84.964    
   X47.624       Y85.348    
(Pass: 10)
   Z-5.000     F50  
   X47.675       Y85.732     F150 
   X47.823       Y86.089    
   X48.059       Y86.396    
   X48.366       Y86.632    
   X48.723       Y86.780    
   X49.107       Y86.831    
   X49.491       Y86.780    
   X49.849       Y86.632    
   X50.156       Y86.396    
   X50.391       Y86.089    
   X50.539       Y85.732    
   X50.590       Y85.348    
   X50.539       Y84.964    
   X50.391       Y84.607    
   X50.156       Y84.300    
   X49.849       Y84.064    
   X49.491       Y83.916    
   X49.107       Y83.865    
   X48.723       Y83.916    
   X48.366       Y84.064    
   X48.059       Y84.300    
   X47.823       Y84.607    
   X47.675       Y84.964    
   X47.624       Y85.348    
(Pass: 11)
   Z-5.500     F50  
   X47.675       Y85.732     F150 
   X47.823       Y86.089    
   X48.059       Y86.396    
   X48.366       Y86.632    
   X48.723       Y86.780    
   X49.107       Y86.831    
   X49.491       Y86.780    
   X49.849       Y86.632    
   X50.156       Y86.396    
   X50.391       Y86.089    
   X50.539       Y85.732    
   X50.590       Y85.348    
   X50.539       Y84.964    
   X50.391       Y84.607    
   X50.156       Y84.300    
   X49.849       Y84.064    
   X49.491       Y83.916    
   X49.107       Y83.865    
   X48.723       Y83.916    
   X48.366       Y84.064    
   X48.059       Y84.300    
   X47.823       Y84.607    
   X47.675       Y84.964    
   X47.624       Y85.348    
(Pass: 12)
   Z-6.000     F50  
   X47.675       Y85.732     F150 
   X47.823       Y86.089    
   X48.059       Y86.396    
   X48.366       Y86.632    
   X48.723       Y86.780    
   X49.107       Y86.831    
   X49.491       Y86.780    
   X49.849       Y86.632    
   X50.156       Y86.396    
   X50.391       Y86.089    
   X50.539       Y85.732    
   X50.590       Y85.348    
   X50.539       Y84.964    
   X50.391       Y84.607    
   X50.156       Y84.300    
   X49.849       Y84.064    
   X49.491       Y83.916    
   X49.107       Y83.865    
   X48.723       Y83.916    
   X48.366       Y84.064    
   X48.059       Y84.300    
   X47.823       Y84.607    
   X47.675       Y84.964    
   X47.624       Y85.348    
(Pass: 13)
   Z-6.500     F50  
   X47.675       Y85.732     F150 
   X47.823       Y86.089    
   X48.059       Y86.396    
   X48.366       Y86.632    
   X48.723       Y86.780    
   X49.107       Y86.831    
   X49.491       Y86.780    
   X49.849       Y86.632    
   X50.156       Y86.396    
   X50.391       Y86.089    
   X50.539       Y85.732    
   X50.590       Y85.348    
   X50.539       Y84.964    
   X50.391       Y84.607    
   X50.156       Y84.300    
   X49.849       Y84.064    
   X49.491       Y83.916    
   X49.107       Y83.865    
   X48.723       Y83.916    
   X48.366       Y84.064    
   X48.059       Y84.300    
   X47.823       Y84.607    
   X47.675       Y84.964    
   X47.624       Y85.348    
(Pass: 14)
   Z-7.000     F50  
   X47.675       Y85.732     F150 
   X47.823       Y86.089    
   X48.059       Y86.396    
   X48.366       Y86.632    
   X48.723       Y86.780    
   X49.107       Y86.831    
   X49.491       Y86.780    
   X49.849       Y86.632    
   X50.156       Y86.396    
   X50.391       Y86.089    
   X50.539       Y85.732    
   X50.590       Y85.348    
   X50.539       Y84.964    
   X50.391       Y84.607    
   X50.156       Y84.300    
   X49.849       Y84.064    
   X49.491       Y83.916    
   X49.107       Y83.865    
   X48.723       Y83.916    
   X48.366       Y84.064    
   X48.059       Y84.300    
   X47.823       Y84.607    
   X47.675       Y84.964    
   X47.624       Y85.348    
(BREAK pass 14)
G0   Z5.000     
(Pass: 1)
   X49.106       Y121.865   
G1   Z-0.500     F50  
   X48.723       Y121.916    F150 
   X48.365       Y122.064   
   X48.058       Y122.300   
   X47.822       Y122.607   
   X47.674       Y122.964   
   X47.624       Y123.348   
   X47.674       Y123.732   
   X47.822       Y124.089   
   X48.058       Y124.396   
   X48.365       Y124.632   
   X48.723       Y124.780   
   X49.106       Y124.831   
   X49.490       Y124.780   
   X49.848       Y124.632   
   X50.155       Y124.396   
   X50.391       Y124.089   
   X50.539       Y123.732   
   X50.589       Y123.348   
   X50.539       Y122.964   
   X50.391       Y122.607   
   X50.155       Y122.300   
   X49.848       Y122.064   
   X49.490       Y121.916   
   X49.106       Y121.865   
(Pass: 2)
   Z-1.000     F50  
   X48.723       Y121.916    F150 
   X48.365       Y122.064   
   X48.058       Y122.300   
   X47.822       Y122.607   
   X47.674       Y122.964   
   X47.624       Y123.348   
   X47.674       Y123.732   
   X47.822       Y124.089   
   X48.058       Y124.396   
   X48.365       Y124.632   
   X48.723       Y124.780   
   X49.106       Y124.831   
   X49.490       Y124.780   
   X49.848       Y124.632   
   X50.155       Y124.396   
   X50.391       Y124.089   
   X50.539       Y123.732   
   X50.589       Y123.348   
   X50.539       Y122.964   
   X50.391       Y122.607   
   X50.155       Y122.300   
   X49.848       Y122.064   
   X49.490       Y121.916   
   X49.106       Y121.865   
(Pass: 3)
   Z-1.500     F50  
   X48.723       Y121.916    F150 
   X48.365       Y122.064   
   X48.058       Y122.300   
   X47.822       Y122.607   
   X47.674       Y122.964   
   X47.624       Y123.348   
   X47.674       Y123.732   
   X47.822       Y124.089   
   X48.058       Y124.396   
   X48.365       Y124.632   
   X48.723       Y124.780   
   X49.106       Y124.831   
   X49.490       Y124.780   
   X49.848       Y124.632   
   X50.155       Y124.396   
   X50.391       Y124.089   
   X50.539       Y123.732   
   X50.589       Y123.348   
   X50.539       Y122.964   
   X50.391       Y122.607   
   X50.155       Y122.300   
   X49.848       Y122.064   
   X49.490       Y121.916   
   X49.106       Y121.865   
(Pass: 4)
   Z-2.000     F50  
   X48.723       Y121.916    F150 
   X48.365       Y122.064   
   X48.058       Y122.300   
   X47.822       Y122.607   
   X47.674       Y122.964   
   X47.624       Y123.348   
   X47.674       Y123.732   
   X47.822       Y124.089   
   X48.058       Y124.396   
   X48.365       Y124.632   
   X48.723       Y124.780   
   X49.106       Y124.831   
   X49.490       Y124.780   
   X49.848       Y124.632   
   X50.155       Y124.396   
   X50.391       Y124.089   
   X50.539       Y123.732   
   X50.589       Y123.348   
   X50.539       Y122.964   
   X50.391       Y122.607   
   X50.155       Y122.300   
   X49.848       Y122.064   
   X49.490       Y121.916   
   X49.106       Y121.865   
(Pass: 5)
   Z-2.500     F50  
   X48.723       Y121.916    F150 
   X48.365       Y122.064   
   X48.058       Y122.300   
   X47.822       Y122.607   
   X47.674       Y122.964   
   X47.624       Y123.348   
   X47.674       Y123.732   
   X47.822       Y124.089   
   X48.058       Y124.396   
   X48.365       Y124.632   
   X48.723       Y124.780   
   X49.106       Y124.831   
   X49.490       Y124.780   
   X49.848       Y124.632   
   X50.155       Y124.396   
   X50.391       Y124.089   
   X50.539       Y123.732   
   X50.589       Y123.348   
   X50.539       Y122.964   
   X50.391       Y122.607   
   X50.155       Y122.300   
   X49.848       Y122.064   
   X49.490       Y121.916   
   X49.106       Y121.865   
(Pass: 6)
   Z-3.000     F50  
   X48.723       Y121.916    F150 
   X48.365       Y122.064   
   X48.058       Y122.300   
   X47.822       Y122.607   
   X47.674       Y122.964   
   X47.624       Y123.348   
   X47.674       Y123.732   
   X47.822       Y124.089   
   X48.058       Y124.396   
   X48.365       Y124.632   
   X48.723       Y124.780   
   X49.106       Y124.831   
   X49.490       Y124.780   
   X49.848       Y124.632   
   X50.155       Y124.396   
   X50.391       Y124.089   
   X50.539       Y123.732   
   X50.589       Y123.348   
   X50.539       Y122.964   
   X50.391       Y122.607   
   X50.155       Y122.300   
   X49.848       Y122.064   
   X49.490       Y121.916   
   X49.106       Y121.865   
(Pass: 7)
   Z-3.500     F50  
   X48.723       Y121.916    F150 
   X48.365       Y122.064   
   X48.058       Y122.300   
   X47.822       Y122.607   
   X47.674       Y122.964   
   X47.624       Y123.348   
   X47.674       Y123.732   
   X47.822       Y124.089   
   X48.058       Y124.396   
   X48.365       Y124.632   
   X48.723       Y124.780   
   X49.106       Y124.831   
   X49.490       Y124.780   
   X49.848       Y124.632   
   X50.155       Y124.396   
   X50.391       Y124.089   
   X50.539       Y123.732   
   X50.589       Y123.348   
   X50.539       Y122.964   
   X50.391       Y122.607   
   X50.155       Y122.300   
   X49.848       Y122.064   
   X49.490       Y121.916   
   X49.106       Y121.865   
(Pass: 8)
   Z-4.000     F50  
   X48.723       Y121.916    F150 
   X48.365       Y122.064   
   X48.058       Y122.300   
   X47.822       Y122.607   
   X47.674       Y122.964   
   X47.624       Y123.348   
   X47.674       Y123.732   
   X47.822       Y124.089   
   X48.058       Y124.396   
   X48.365       Y124.632   
   X48.723       Y124.780   
   X49.106       Y124.831   
   X49.490       Y124.780   
   X49.848       Y124.632   
   X50.155       Y124.396   
   X50.391       Y124.089   
   X50.539       Y123.732   
   X50.589       Y123.348   
   X50.539       Y122.964   
   X50.391       Y122.607   
   X50.155       Y122.300   
   X49.848       Y122.064   
   X49.490       Y121.916   
   X49.106       Y121.865   
(Pass: 9)
   Z-4.500     F50  
   X48.723       Y121.916    F150 
   X48.365       Y122.064   
   X48.058       Y122.300   
   X47.822       Y122.607   
   X47.674       Y122.964   
   X47.624       Y123.348   
   X47.674       Y123.732   
   X47.822       Y124.089   
   X48.058       Y124.396   
   X48.365       Y124.632   
   X48.723       Y124.780   
   X49.106       Y124.831   
   X49.490       Y124.780   
   X49.848       Y124.632   
   X50.155       Y124.396   
   X50.391       Y124.089   
   X50.539       Y123.732   
   X50.589       Y123.348   
   X50.539       Y122.964   
   X50.391       Y122.607   
   X50.155       Y122.300   
   X49.848       Y122.064   
   X49.490       Y121.916   
   X49.106       Y121.865   
(Pass: 10)
   Z-5.000     F50  
   X48.723       Y121.916    F150 
   X48.365       Y122.064   
   X48.058       Y122.300   
   X47.822       Y122.607   
   X47.674       Y122.964   
   X47.624       Y123.348   
   X47.674       Y123.732   
   X47.822       Y124.089   
   X48.058       Y124.396   
   X48.365       Y124.632   
   X48.723       Y124.780   
   X49.106       Y124.831   
   X49.490       Y124.780   
   X49.848       Y124.632   
   X50.155       Y124.396   
   X50.391       Y124.089   
   X50.539       Y123.732   
   X50.589       Y123.348   
   X50.539       Y122.964   
   X50.391       Y122.607   
   X50.155       Y122.300   
   X49.848       Y122.064   
   X49.490       Y121.916   
   X49.106       Y121.865   
(Pass: 11)
   Z-5.500     F50  
   X48.723       Y121.916    F150 
   X48.365       Y122.064   
   X48.058       Y122.300   
   X47.822       Y122.607   
   X47.674       Y122.964   
   X47.624       Y123.348   
   X47.674       Y123.732   
   X47.822       Y124.089   
   X48.058       Y124.396   
   X48.365       Y124.632   
   X48.723       Y124.780   
   X49.106       Y124.831   
   X49.490       Y124.780   
   X49.848       Y124.632   
   X50.155       Y124.396   
   X50.391       Y124.089   
   X50.539       Y123.732   
   X50.589       Y123.348   
   X50.539       Y122.964   
   X50.391       Y122.607   
   X50.155       Y122.300   
   X49.848       Y122.064   
   X49.490       Y121.916   
   X49.106       Y121.865   
(Pass: 12)
   Z-6.000     F50  
   X48.723       Y121.916    F150 
   X48.365       Y122.064   
   X48.058       Y122.300   
   X47.822       Y122.607   
   X47.674       Y122.964   
   X47.624       Y123.348   
   X47.674       Y123.732   
   X47.822       Y124.089   
   X48.058       Y124.396   
   X48.365       Y124.632   
   X48.723       Y124.780   
   X49.106       Y124.831   
   X49.490       Y124.780   
   X49.848       Y124.632   
   X50.155       Y124.396   
   X50.391       Y124.089   
   X50.539       Y123.732   
   X50.589       Y123.348   
   X50.539       Y122.964   
   X50.391       Y122.607   
   X50.155       Y122.300   
   X49.848       Y122.064   
   X49.490       Y121.916   
   X49.106       Y121.865   
(Pass: 13)
   Z-6.500     F50  
   X48.723       Y121.916    F150 
   X48.365       Y122.064   
   X48.058       Y122.300   
   X47.822       Y122.607   
   X47.674       Y122.964   
   X47.624       Y123.348   
   X47.674       Y123.732   
   X47.822       Y124.089   
   X48.058       Y124.396   
   X48.365       Y124.632   
   X48.723       Y124.780   
   X49.106       Y124.831   
   X49.490       Y124.780   
   X49.848       Y124.632   
   X50.155       Y124.396   
   X50.391       Y124.089   
   X50.539       Y123.732   
   X50.589       Y123.348   
   X50.539       Y122.964   
   X50.391       Y122.607   
   X50.155       Y122.300   
   X49.848       Y122.064   
   X49.490       Y121.916   
   X49.106       Y121.865   
(Pass: 14)
   Z-7.000     F50  
   X48.723       Y121.916    F150 
   X48.365       Y122.064   
   X48.058       Y122.300   
   X47.822       Y122.607   
   X47.674       Y122.964   
   X47.624       Y123.348   
   X47.674       Y123.732   
   X47.822       Y124.089   
   X48.058       Y124.396   
   X48.365       Y124.632   
   X48.723       Y124.780   
   X49.106       Y124.831   
   X49.490       Y124.780   
   X49.848       Y124.632   
   X50.155       Y124.396   
   X50.391       Y124.089   
   X50.539       Y123.732   
   X50.589       Y123.348   
   X50.539       Y122.964   
   X50.391       Y122.607   
   X50.155       Y122.300   
   X49.848       Y122.064   
   X49.490       Y121.916   
   X49.106       Y121.865   
(BREAK pass 14)
G0   Z5.000     
(Pass: 1)
   X23.989       Y123.327   
G1   Z-0.500     F50  
   X23.939       Y122.943    F150 
   X23.790       Y122.586   
   X23.555       Y122.278   
   X23.248       Y122.043   
   X22.890       Y121.895   
   X22.506       Y121.844   
   X22.123       Y121.895   
   X21.765       Y122.043   
   X21.458       Y122.278   
   X21.222       Y122.586   
   X21.074       Y122.943   
   X21.024       Y123.327   
   X21.074       Y123.711   
   X21.222       Y124.068   
   X21.458       Y124.375   
   X21.765       Y124.611   
   X22.123       Y124.759   
   X22.506       Y124.810   
   X22.890       Y124.759   
   X23.248       Y124.611   
   X23.555       Y124.375   
   X23.790       Y124.068   
   X23.939       Y123.711   
   X23.989       Y123.327   
(Pass: 2)
   Z-1.000     F50  
   X23.939       Y122.943    F150 
   X23.790       Y122.586   
   X23.555       Y122.278   
   X23.248       Y122.043   
   X22.890       Y121.895   
   X22.506       Y121.844   
   X22.123       Y121.895   
   X21.765       Y122.043   
   X21.458       Y122.278   
   X21.222       Y122.586   
   X21.074       Y122.943   
   X21.024       Y123.327   
   X21.074       Y123.711   
   X21.222       Y124.068   
   X21.458       Y124.375   
   X21.765       Y124.611   
   X22.123       Y124.759   
   X22.506       Y124.810   
   X22.890       Y124.759   
   X23.248       Y124.611   
   X23.555       Y124.375   
   X23.790       Y124.068   
   X23.939       Y123.711   
   X23.989       Y123.327   
(Pass: 3)
   Z-1.500     F50  
   X23.939       Y122.943    F150 
   X23.790       Y122.586   
   X23.555       Y122.278   
   X23.248       Y122.043   
   X22.890       Y121.895   
   X22.506       Y121.844   
   X22.123       Y121.895   
   X21.765       Y122.043   
   X21.458       Y122.278   
   X21.222       Y122.586   
   X21.074       Y122.943   
   X21.024       Y123.327   
   X21.074       Y123.711   
   X21.222       Y124.068   
   X21.458       Y124.375   
   X21.765       Y124.611   
   X22.123       Y124.759   
   X22.506       Y124.810   
   X22.890       Y124.759   
   X23.248       Y124.611   
   X23.555       Y124.375   
   X23.790       Y124.068   
   X23.939       Y123.711   
   X23.989       Y123.327   
(Pass: 4)
   Z-2.000     F50  
   X23.939       Y122.943    F150 
   X23.790       Y122.586   
   X23.555       Y122.278   
   X23.248       Y122.043   
   X22.890       Y121.895   
   X22.506       Y121.844   
   X22.123       Y121.895   
   X21.765       Y122.043   
   X21.458       Y122.278   
   X21.222       Y122.586   
   X21.074       Y122.943   
   X21.024       Y123.327   
   X21.074       Y123.711   
   X21.222       Y124.068   
   X21.458       Y124.375   
   X21.765       Y124.611   
   X22.123       Y124.759   
   X22.506       Y124.810   
   X22.890       Y124.759   
   X23.248       Y124.611   
   X23.555       Y124.375   
   X23.790       Y124.068   
   X23.939       Y123.711   
   X23.989       Y123.327   
(Pass: 5)
   Z-2.500     F50  
   X23.939       Y122.943    F150 
   X23.790       Y122.586   
   X23.555       Y122.278   
   X23.248       Y122.043   
   X22.890       Y121.895   
   X22.506       Y121.844   
   X22.123       Y121.895   
   X21.765       Y122.043   
   X21.458       Y122.278   
   X21.222       Y122.586   
   X21.074       Y122.943   
   X21.024       Y123.327   
   X21.074       Y123.711   
   X21.222       Y124.068   
   X21.458       Y124.375   
   X21.765       Y124.611   
   X22.123       Y124.759   
   X22.506       Y124.810   
   X22.890       Y124.759   
   X23.248       Y124.611   
   X23.555       Y124.375   
   X23.790       Y124.068   
   X23.939       Y123.711   
   X23.989       Y123.327   
(Pass: 6)
   Z-3.000     F50  
   X23.939       Y122.943    F150 
   X23.790       Y122.586   
   X23.555       Y122.278   
   X23.248       Y122.043   
   X22.890       Y121.895   
   X22.506       Y121.844   
   X22.123       Y121.895   
   X21.765       Y122.043   
   X21.458       Y122.278   
   X21.222       Y122.586   
   X21.074       Y122.943   
   X21.024       Y123.327   
   X21.074       Y123.711   
   X21.222       Y124.068   
   X21.458       Y124.375   
   X21.765       Y124.611   
   X22.123       Y124.759   
   X22.506       Y124.810   
   X22.890       Y124.759   
   X23.248       Y124.611   
   X23.555       Y124.375   
   X23.790       Y124.068   
   X23.939       Y123.711   
   X23.989       Y123.327   
(Pass: 7)
   Z-3.500     F50  
   X23.939       Y122.943    F150 
   X23.790       Y122.586   
   X23.555       Y122.278   
   X23.248       Y122.043   
   X22.890       Y121.895   
   X22.506       Y121.844   
   X22.123       Y121.895   
   X21.765       Y122.043   
   X21.458       Y122.278   
   X21.222       Y122.586   
   X21.074       Y122.943   
   X21.024       Y123.327   
   X21.074       Y123.711   
   X21.222       Y124.068   
   X21.458       Y124.375   
   X21.765       Y124.611   
   X22.123       Y124.759   
   X22.506       Y124.810   
   X22.890       Y124.759   
   X23.248       Y124.611   
   X23.555       Y124.375   
   X23.790       Y124.068   
   X23.939       Y123.711   
   X23.989       Y123.327   
(Pass: 8)
   Z-4.000     F50  
   X23.939       Y122.943    F150 
   X23.790       Y122.586   
   X23.555       Y122.278   
   X23.248       Y122.043   
   X22.890       Y121.895   
   X22.506       Y121.844   
   X22.123       Y121.895   
   X21.765       Y122.043   
   X21.458       Y122.278   
   X21.222       Y122.586   
   X21.074       Y122.943   
   X21.024       Y123.327   
   X21.074       Y123.711   
   X21.222       Y124.068   
   X21.458       Y124.375   
   X21.765       Y124.611   
   X22.123       Y124.759   
   X22.506       Y124.810   
   X22.890       Y124.759   
   X23.248       Y124.611   
   X23.555       Y124.375   
   X23.790       Y124.068   
   X23.939       Y123.711   
   X23.989       Y123.327   
(Pass: 9)
   Z-4.500     F50  
   X23.939       Y122.943    F150 
   X23.790       Y122.586   
   X23.555       Y122.278   
   X23.248       Y122.043   
   X22.890       Y121.895   
   X22.506       Y121.844   
   X22.123       Y121.895   
   X21.765       Y122.043   
   X21.458       Y122.278   
   X21.222       Y122.586   
   X21.074       Y122.943   
   X21.024       Y123.327   
   X21.074       Y123.711   
   X21.222       Y124.068   
   X21.458       Y124.375   
   X21.765       Y124.611   
   X22.123       Y124.759   
   X22.506       Y124.810   
   X22.890       Y124.759   
   X23.248       Y124.611   
   X23.555       Y124.375   
   X23.790       Y124.068   
   X23.939       Y123.711   
   X23.989       Y123.327   
(Pass: 10)
   Z-5.000     F50  
   X23.939       Y122.943    F150 
   X23.790       Y122.586   
   X23.555       Y122.278   
   X23.248       Y122.043   
   X22.890       Y121.895   
   X22.506       Y121.844   
   X22.123       Y121.895   
   X21.765       Y122.043   
   X21.458       Y122.278   
   X21.222       Y122.586   
   X21.074       Y122.943   
   X21.024       Y123.327   
   X21.074       Y123.711   
   X21.222       Y124.068   
   X21.458       Y124.375   
   X21.765       Y124.611   
   X22.123       Y124.759   
   X22.506       Y124.810   
   X22.890       Y124.759   
   X23.248       Y124.611   
   X23.555       Y124.375   
   X23.790       Y124.068   
   X23.939       Y123.711   
   X23.989       Y123.327   
(Pass: 11)
   Z-5.500     F50  
   X23.939       Y122.943    F150 
   X23.790       Y122.586   
   X23.555       Y122.278   
   X23.248       Y122.043   
   X22.890       Y121.895   
   X22.506       Y121.844   
   X22.123       Y121.895   
   X21.765       Y122.043   
   X21.458       Y122.278   
   X21.222       Y122.586   
   X21.074       Y122.943   
   X21.024       Y123.327   
   X21.074       Y123.711   
   X21.222       Y124.068   
   X21.458       Y124.375   
   X21.765       Y124.611   
   X22.123       Y124.759   
   X22.506       Y124.810   
   X22.890       Y124.759   
   X23.248       Y124.611   
   X23.555       Y124.375   
   X23.790       Y124.068   
   X23.939       Y123.711   
   X23.989       Y123.327   
(Pass: 12)
   Z-6.000     F50  
   X23.939       Y122.943    F150 
   X23.790       Y122.586   
   X23.555       Y122.278   
   X23.248       Y122.043   
   X22.890       Y121.895   
   X22.506       Y121.844   
   X22.123       Y121.895   
   X21.765       Y122.043   
   X21.458       Y122.278   
   X21.222       Y122.586   
   X21.074       Y122.943   
   X21.024       Y123.327   
   X21.074       Y123.711   
   X21.222       Y124.068   
   X21.458       Y124.375   
   X21.765       Y124.611   
   X22.123       Y124.759   
   X22.506       Y124.810   
   X22.890       Y124.759   
   X23.248       Y124.611   
   X23.555       Y124.375   
   X23.790       Y124.068   
   X23.939       Y123.711   
   X23.989       Y123.327   
(Pass: 13)
   Z-6.500     F50  
   X23.939       Y122.943    F150 
   X23.790       Y122.586   
   X23.555       Y122.278   
   X23.248       Y122.043   
   X22.890       Y121.895   
   X22.506       Y121.844   
   X22.123       Y121.895   
   X21.765       Y122.043   
   X21.458       Y122.278   
   X21.222       Y122.586   
   X21.074       Y122.943   
   X21.024       Y123.327   
   X21.074       Y123.711   
   X21.222       Y124.068   
   X21.458       Y124.375   
   X21.765       Y124.611   
   X22.123       Y124.759   
   X22.506       Y124.810   
   X22.890       Y124.759   
   X23.248       Y124.611   
   X23.555       Y124.375   
   X23.790       Y124.068   
   X23.939       Y123.711   
   X23.989       Y123.327   
(Pass: 14)
   Z-7.000     F50  
   X23.939       Y122.943    F150 
   X23.790       Y122.586   
   X23.555       Y122.278   
   X23.248       Y122.043   
   X22.890       Y121.895   
   X22.506       Y121.844   
   X22.123       Y121.895   
   X21.765       Y122.043   
   X21.458       Y122.278   
   X21.222       Y122.586   
   X21.074       Y122.943   
   X21.024       Y123.327   
   X21.074       Y123.711   
   X21.222       Y124.068   
   X21.458       Y124.375   
   X21.765       Y124.611   
   X22.123       Y124.759   
   X22.506       Y124.810   
   X22.890       Y124.759   
   X23.248       Y124.611   
   X23.555       Y124.375   
   X23.790       Y124.068   
   X23.939       Y123.711   
   X23.989       Y123.327   
(BREAK pass 14)
G0   Z5.000     
(Pass: 1)
   X10.330       Y140.958   
G1   Z-0.500     F50  
   Y69.596     F150 
   X10.292       Y69.304    
   X10.210       Y69.162    
   X10.095       Y69.046    
   X9.945        Y68.983    
   X9.685        Y68.947    
   X7.363     
   X6.391        Y68.796    
   X5.711        Y68.560    
   X4.750        Y67.999    
   X3.919        Y67.163    
   X3.365        Y66.198    
   X3.135        Y65.516    
   X3.008        Y64.543    
   Y6.842     
   X3.120        Y5.999     
   X3.331        Y5.379     
   X3.822        Y4.528     
   X4.564        Y3.786     
   X5.415        Y3.296     
   X6.036        Y3.085     
   X6.879        Y2.974     
   X64.741       Y3.001     
   X65.584       Y3.112     
   X66.204       Y3.323     
   X67.055       Y3.814     
   X67.796       Y4.556     
   X68.287       Y5.407     
   X68.498       Y6.028     
   X68.609       Y6.870     
   Y65.003    
   X68.454       Y66.048    
   X67.974       Y67.072    
   X67.517       Y67.665    
   X66.649       Y68.388    
   X65.540       Y68.860    
   X64.417       Y68.985    
   X63.999       Y68.940    
   X61.865    
   X61.610       Y68.972    
   X61.464       Y69.033    
   X61.329       Y69.167    
   X61.269       Y69.313    
   X61.235       Y69.569    
   Y140.979   
   X61.107       Y141.952   
   X60.875       Y142.634   
   X60.352       Y143.541   
   X59.876       Y144.083   
   X58.993       Y144.760   
   X57.903       Y145.211   
   X56.865       Y145.347   
   X14.698    
   X13.660       Y145.191   
   X12.571       Y144.739   
   X11.688       Y144.061   
   X11.213       Y143.519   
   X10.690       Y142.613   
   X10.458       Y141.930   
   X10.330       Y140.958   
(Pass: 2)
   Z-1.000     F50  
   Y69.596     F150 
   X10.292       Y69.304    
   X10.210       Y69.162    
   X10.095       Y69.046    
   X9.945        Y68.983    
   X9.685        Y68.947    
   X7.363     
   X6.391        Y68.796    
   X5.711        Y68.560    
   X4.750        Y67.999    
   X3.919        Y67.163    
   X3.365        Y66.198    
   X3.135        Y65.516    
   X3.008        Y64.543    
   Y6.842     
   X3.120        Y5.999     
   X3.331        Y5.379     
   X3.822        Y4.528     
   X4.564        Y3.786     
   X5.415        Y3.296     
   X6.036        Y3.085     
   X6.879        Y2.974     
   X64.741       Y3.001     
   X65.584       Y3.112     
   X66.204       Y3.323     
   X67.055       Y3.814     
   X67.796       Y4.556     
   X68.287       Y5.407     
   X68.498       Y6.028     
   X68.609       Y6.870     
   Y65.003    
   X68.454       Y66.048    
   X67.974       Y67.072    
   X67.517       Y67.665    
   X66.649       Y68.388    
   X65.540       Y68.860    
   X64.417       Y68.985    
   X63.999       Y68.940    
   X61.865    
   X61.610       Y68.972    
   X61.464       Y69.033    
   X61.329       Y69.167    
   X61.269       Y69.313    
   X61.235       Y69.569    
   Y140.979   
   X61.107       Y141.952   
   X60.875       Y142.634   
   X60.352       Y143.541   
   X59.876       Y144.083   
   X58.993       Y144.760   
   X57.903       Y145.211   
   X56.865       Y145.347   
   X14.698    
   X13.660       Y145.191   
   X12.571       Y144.739   
   X11.688       Y144.061   
   X11.213       Y143.519   
   X10.690       Y142.613   
   X10.458       Y141.930   
   X10.330       Y140.958   
(Pass: 3)
   Z-1.500     F50  
   Y69.596     F150 
   X10.292       Y69.304    
   X10.210       Y69.162    
   X10.095       Y69.046    
   X9.945        Y68.983    
   X9.685        Y68.947    
   X7.363     
   X6.391        Y68.796    
   X5.711        Y68.560    
   X4.750        Y67.999    
   X3.919        Y67.163    
   X3.365        Y66.198    
   X3.135        Y65.516    
   X3.008        Y64.543    
   Y6.842     
   X3.120        Y5.999     
   X3.331        Y5.379     
   X3.822        Y4.528     
   X4.564        Y3.786     
   X5.415        Y3.296     
   X6.036        Y3.085     
   X6.879        Y2.974     
   X64.741       Y3.001     
   X65.584       Y3.112     
   X66.204       Y3.323     
   X67.055       Y3.814     
   X67.796       Y4.556     
   X68.287       Y5.407     
   X68.498       Y6.028     
   X68.609       Y6.870     
   Y65.003    
   X68.454       Y66.048    
   X67.974       Y67.072    
   X67.517       Y67.665    
   X66.649       Y68.388    
   X65.540       Y68.860    
   X64.417       Y68.985    
   X63.999       Y68.940    
   X61.865    
   X61.610       Y68.972    
   X61.464       Y69.033    
   X61.329       Y69.167    
   X61.269       Y69.313    
   X61.235       Y69.569    
   Y140.979   
   X61.107       Y141.952   
   X60.875       Y142.634   
   X60.352       Y143.541   
   X59.876       Y144.083   
   X58.993       Y144.760   
   X57.903       Y145.211   
   X56.865       Y145.347   
   X14.698    
   X13.660       Y145.191   
   X12.571       Y144.739   
   X11.688       Y144.061   
   X11.213       Y143.519   
   X10.690       Y142.613   
   X10.458       Y141.930   
   X10.330       Y140.958   
(Pass: 4)
   Z-2.000     F50  
   Y69.596     F150 
   X10.292       Y69.304    
   X10.210       Y69.162    
   X10.095       Y69.046    
   X9.945        Y68.983    
   X9.685        Y68.947    
   X7.363     
   X6.391        Y68.796    
   X5.711        Y68.560    
   X4.750        Y67.999    
   X3.919        Y67.163    
   X3.365        Y66.198    
   X3.135        Y65.516    
   X3.008        Y64.543    
   Y6.842     
   X3.120        Y5.999     
   X3.331        Y5.379     
   X3.822        Y4.528     
   X4.564        Y3.786     
   X5.415        Y3.296     
   X6.036        Y3.085     
   X6.879        Y2.974     
   X64.741       Y3.001     
   X65.584       Y3.112     
   X66.204       Y3.323     
   X67.055       Y3.814     
   X67.796       Y4.556     
   X68.287       Y5.407     
   X68.498       Y6.028     
   X68.609       Y6.870     
   Y65.003    
   X68.454       Y66.048    
   X67.974       Y67.072    
   X67.517       Y67.665    
   X66.649       Y68.388    
   X65.540       Y68.860    
   X64.417       Y68.985    
   X63.999       Y68.940    
   X61.865    
   X61.610       Y68.972    
   X61.464       Y69.033    
   X61.329       Y69.167    
   X61.269       Y69.313    
   X61.235       Y69.569    
   Y140.979   
   X61.107       Y141.952   
   X60.875       Y142.634   
   X60.352       Y143.541   
   X59.876       Y144.083   
   X58.993       Y144.760   
   X57.903       Y145.211   
   X56.865       Y145.347   
   X14.698    
   X13.660       Y145.191   
   X12.571       Y144.739   
   X11.688       Y144.061   
   X11.213       Y143.519   
   X10.690       Y142.613   
   X10.458       Y141.930   
   X10.330       Y140.958   
(Pass: 5)
   Z-2.500     F50  
   Y69.596     F150 
   X10.292       Y69.304    
   X10.210       Y69.162    
   X10.095       Y69.046    
   X9.945        Y68.983    
   X9.685        Y68.947    
   X7.363     
   X6.391        Y68.796    
   X5.711        Y68.560    
   X4.750        Y67.999    
   X3.919        Y67.163    
   X3.365        Y66.198    
   X3.135        Y65.516    
   X3.008        Y64.543    
   Y6.842     
   X3.120        Y5.999     
   X3.331        Y5.379     
   X3.822        Y4.528     
   X4.564        Y3.786     
   X5.415        Y3.296     
   X6.036        Y3.085     
   X6.879        Y2.974     
   X64.741       Y3.001     
   X65.584       Y3.112     
   X66.204       Y3.323     
   X67.055       Y3.814     
   X67.796       Y4.556     
   X68.287       Y5.407     
   X68.498       Y6.028     
   X68.609       Y6.870     
   Y65.003    
   X68.454       Y66.048    
   X67.974       Y67.072    
   X67.517       Y67.665    
   X66.649       Y68.388    
   X65.540       Y68.860    
   X64.417       Y68.985    
   X63.999       Y68.940    
   X61.865    
   X61.610       Y68.972    
   X61.464       Y69.033    
   X61.329       Y69.167    
   X61.269       Y69.313    
   X61.235       Y69.569    
   Y140.979   
   X61.107       Y141.952   
   X60.875       Y142.634   
   X60.352       Y143.541   
   X59.876       Y144.083   
   X58.993       Y144.760   
   X57.903       Y145.211   
   X56.865       Y145.347   
   X14.698    
   X13.660       Y145.191   
   X12.571       Y144.739   
   X11.688       Y144.061   
   X11.213       Y143.519   
   X10.690       Y142.613   
   X10.458       Y141.930   
   X10.330       Y140.958   
(Pass: 6)
   Z-3.000     F50  
   Y69.596     F150 
   X10.292       Y69.304    
   X10.210       Y69.162    
   X10.095       Y69.046    
   X9.945        Y68.983    
   X9.685        Y68.947    
   X7.363     
   X6.391        Y68.796    
   X5.711        Y68.560    
   X4.750        Y67.999    
   X3.919        Y67.163    
   X3.365        Y66.198    
   X3.135        Y65.516    
   X3.008        Y64.543    
   Y6.842     
   X3.120        Y5.999     
   X3.331        Y5.379     
   X3.822        Y4.528     
   X4.564        Y3.786     
   X5.415        Y3.296     
   X6.036        Y3.085     
   X6.879        Y2.974     
   X64.741       Y3.001     
   X65.584       Y3.112     
   X66.204       Y3.323     
   X67.055       Y3.814     
   X67.796       Y4.556     
   X68.287       Y5.407     
   X68.498       Y6.028     
   X68.609       Y6.870     
   Y65.003    
   X68.454       Y66.048    
   X67.974       Y67.072    
   X67.517       Y67.665    
   X66.649       Y68.388    
   X65.540       Y68.860    
   X64.417       Y68.985    
   X63.999       Y68.940    
   X61.865    
   X61.610       Y68.972    
   X61.464       Y69.033    
   X61.329       Y69.167    
   X61.269       Y69.313    
   X61.235       Y69.569    
   Y140.979   
   X61.107       Y141.952   
   X60.875       Y142.634   
   X60.352       Y143.541   
   X59.876       Y144.083   
   X58.993       Y144.760   
   X57.903       Y145.211   
   X56.865       Y145.347   
   X14.698    
   X13.660       Y145.191   
   X12.571       Y144.739   
   X11.688       Y144.061   
   X11.213       Y143.519   
   X10.690       Y142.613   
   X10.458       Y141.930   
   X10.330       Y140.958   
(Pass: 7)
   Z-3.500     F50  
   Y69.596     F150 
   X10.292       Y69.304    
   X10.210       Y69.162    
   X10.095       Y69.046    
   X9.945        Y68.983    
   X9.685        Y68.947    
   X7.363     
   X6.391        Y68.796    
   X5.711        Y68.560    
   X4.750        Y67.999    
   X3.919        Y67.163    
   X3.365        Y66.198    
   X3.135        Y65.516    
   X3.008        Y64.543    
   Y6.842     
   X3.120        Y5.999     
   X3.331        Y5.379     
   X3.822        Y4.528     
   X4.564        Y3.786     
   X5.415        Y3.296     
   X6.036        Y3.085     
   X6.879        Y2.974     
   X64.741       Y3.001     
   X65.584       Y3.112     
   X66.204       Y3.323     
   X67.055       Y3.814     
   X67.796       Y4.556     
   X68.287       Y5.407     
   X68.498       Y6.028     
   X68.609       Y6.870     
   Y65.003    
   X68.454       Y66.048    
   X67.974       Y67.072    
   X67.517       Y67.665    
   X66.649       Y68.388    
   X65.540       Y68.860    
   X64.417       Y68.985    
   X63.999       Y68.940    
   X61.865    
   X61.610       Y68.972    
   X61.464       Y69.033    
   X61.329       Y69.167    
   X61.269       Y69.313    
   X61.235       Y69.569    
   Y140.979   
   X61.107       Y141.952   
   X60.875       Y142.634   
   X60.352       Y143.541   
   X59.876       Y144.083   
   X58.993       Y144.760   
   X57.903       Y145.211   
   X56.865       Y145.347   
   X14.698    
   X13.660       Y145.191   
   X12.571       Y144.739   
   X11.688       Y144.061   
   X11.213       Y143.519   
   X10.690       Y142.613   
   X10.458       Y141.930   
   X10.330       Y140.958   
(Pass: 8)
   Z-4.000     F50  
   Y69.596     F150 
   X10.292       Y69.304    
   X10.210       Y69.162    
   X10.095       Y69.046    
   X9.945        Y68.983    
   X9.685        Y68.947    
   X7.363     
   X6.391        Y68.796    
   X5.711        Y68.560    
   X4.750        Y67.999    
   X3.919        Y67.163    
   X3.365        Y66.198    
   X3.135        Y65.516    
   X3.008        Y64.543    
   Y6.842     
   X3.120        Y5.999     
   X3.331        Y5.379     
   X3.822        Y4.528     
   X4.564        Y3.786     
   X5.415        Y3.296     
   X6.036        Y3.085     
   X6.879        Y2.974     
   X64.741       Y3.001     
   X65.584       Y3.112     
   X66.204       Y3.323     
   X67.055       Y3.814     
   X67.796       Y4.556     
   X68.287       Y5.407     
   X68.498       Y6.028     
   X68.609       Y6.870     
   Y65.003    
   X68.454       Y66.048    
   X67.974       Y67.072    
   X67.517       Y67.665    
   X66.649       Y68.388    
   X65.540       Y68.860    
   X64.417       Y68.985    
   X63.999       Y68.940    
   X61.865    
   X61.610       Y68.972    
   X61.464       Y69.033    
   X61.329       Y69.167    
   X61.269       Y69.313    
   X61.235       Y69.569    
   Y140.979   
   X61.107       Y141.952   
   X60.875       Y142.634   
   X60.352       Y143.541   
   X59.876       Y144.083   
   X58.993       Y144.760   
   X57.903       Y145.211   
   X56.865       Y145.347   
   X14.698    
   X13.660       Y145.191   
   X12.571       Y144.739   
   X11.688       Y144.061   
   X11.213       Y143.519   
   X10.690       Y142.613   
   X10.458       Y141.930   
   X10.330       Y140.958   
(Pass: 9)
   Z-4.500     F50  
   Y69.596     F150 
   X10.292       Y69.304    
   X10.210       Y69.162    
   X10.095       Y69.046    
   X9.945        Y68.983    
   X9.685        Y68.947    
   X7.363     
   X6.391        Y68.796    
   X5.711        Y68.560    
   X4.750        Y67.999    
   X3.919        Y67.163    
   X3.365        Y66.198    
   X3.135        Y65.516    
   X3.008        Y64.543    
   Y6.842     
   X3.120        Y5.999     
   X3.331        Y5.379     
   X3.822        Y4.528     
   X4.564        Y3.786     
   X5.415        Y3.296     
   X6.036        Y3.085     
   X6.879        Y2.974     
   X64.741       Y3.001     
   X65.584       Y3.112     
   X66.204       Y3.323     
   X67.055       Y3.814     
   X67.796       Y4.556     
   X68.287       Y5.407     
   X68.498       Y6.028     
   X68.609       Y6.870     
   Y65.003    
   X68.454       Y66.048    
   X67.974       Y67.072    
   X67.517       Y67.665    
   X66.649       Y68.388    
   X65.540       Y68.860    
   X64.417       Y68.985    
   X63.999       Y68.940    
   X61.865    
   X61.610       Y68.972    
   X61.464       Y69.033    
   X61.329       Y69.167    
   X61.269       Y69.313    
   X61.235       Y69.569    
   Y140.979   
   X61.107       Y141.952   
   X60.875       Y142.634   
   X60.352       Y143.541   
   X59.876       Y144.083   
   X58.993       Y144.760   
   X57.903       Y145.211   
   X56.865       Y145.347   
   X14.698    
   X13.660       Y145.191   
   X12.571       Y144.739   
   X11.688       Y144.061   
   X11.213       Y143.519   
   X10.690       Y142.613   
   X10.458       Y141.930   
   X10.330       Y140.958   
(Pass: 10)
   Z-5.000     F50  
   Y69.596     F150 
   X10.292       Y69.304    
   X10.210       Y69.162    
   X10.095       Y69.046    
   X9.945        Y68.983    
   X9.685        Y68.947    
   X7.363     
   X6.391        Y68.796    
   X5.711        Y68.560    
   X4.750        Y67.999    
   X3.919        Y67.163    
   X3.365        Y66.198    
   X3.135        Y65.516    
   X3.008        Y64.543    
   Y6.842     
   X3.120        Y5.999     
   X3.331        Y5.379     
   X3.822        Y4.528     
   X4.564        Y3.786     
   X5.415        Y3.296     
   X6.036        Y3.085     
   X6.879        Y2.974     
   X64.741       Y3.001     
   X65.584       Y3.112     
   X66.204       Y3.323     
   X67.055       Y3.814     
   X67.796       Y4.556     
   X68.287       Y5.407     
   X68.498       Y6.028     
   X68.609       Y6.870     
   Y65.003    
   X68.454       Y66.048    
   X67.974       Y67.072    
   X67.517       Y67.665    
   X66.649       Y68.388    
   X65.540       Y68.860    
   X64.417       Y68.985    
   X63.999       Y68.940    
   X61.865    
   X61.610       Y68.972    
   X61.464       Y69.033    
   X61.329       Y69.167    
   X61.269       Y69.313    
   X61.235       Y69.569    
   Y140.979   
   X61.107       Y141.952   
   X60.875       Y142.634   
   X60.352       Y143.541   
   X59.876       Y144.083   
   X58.993       Y144.760   
   X57.903       Y145.211   
   X56.865       Y145.347   
   X14.698    
   X13.660       Y145.191   
   X12.571       Y144.739   
   X11.688       Y144.061   
   X11.213       Y143.519   
   X10.690       Y142.613   
   X10.458       Y141.930   
   X10.330       Y140.958   
(Pass: 11)
   Z-5.500     F50  
   Y69.596     F150 
   X10.292       Y69.304    
   X10.210       Y69.162    
   X10.095       Y69.046    
   X9.945        Y68.983    
   X9.685        Y68.947    
   X7.363     
   X6.391        Y68.796    
   X5.711        Y68.560    
   X4.750        Y67.999    
   X3.919        Y67.163    
   X3.365        Y66.198    
   X3.135        Y65.516    
   X3.008        Y64.543    
   Y6.842     
   X3.120        Y5.999     
   X3.331        Y5.379     
   X3.822        Y4.528     
   X4.564        Y3.786     
   X5.415        Y3.296     
   X6.036        Y3.085     
   X6.879        Y2.974     
   X64.741       Y3.001     
   X65.584       Y3.112     
   X66.204       Y3.323     
   X67.055       Y3.814     
   X67.796       Y4.556     
   X68.287       Y5.407     
   X68.498       Y6.028     
   X68.609       Y6.870     
   Y65.003    
   X68.454       Y66.048    
   X67.974       Y67.072    
   X67.517       Y67.665    
   X66.649       Y68.388    
   X65.540       Y68.860    
   X64.417       Y68.985    
   X63.999       Y68.940    
   X61.865    
   X61.610       Y68.972    
   X61.464       Y69.033    
   X61.329       Y69.167    
   X61.269       Y69.313    
   X61.235       Y69.569    
   Y140.979   
   X61.107       Y141.952   
   X60.875       Y142.634   
   X60.352       Y143.541   
   X59.876       Y144.083   
   X58.993       Y144.760   
   X57.903       Y145.211   
   X56.865       Y145.347   
   X14.698    
   X13.660       Y145.191   
   X12.571       Y144.739   
   X11.688       Y144.061   
   X11.213       Y143.519   
   X10.690       Y142.613   
   X10.458       Y141.930   
   X10.330       Y140.958   
(Pass: 12)
   Z-6.000     F50  
   Y69.596     F150 
   X10.292       Y69.304    
   X10.210       Y69.162    
   X10.095       Y69.046    
   X9.945        Y68.983    
   X9.685        Y68.947    
   X7.363     
   X6.391        Y68.796    
   X5.711        Y68.560    
   X4.750        Y67.999    
   X3.919        Y67.163    
   X3.365        Y66.198    
   X3.135        Y65.516    
   X3.008        Y64.543    
   Y6.842     
   X3.120        Y5.999     
   X3.331        Y5.379     
   X3.822        Y4.528     
   X4.564        Y3.786     
   X5.415        Y3.296     
   X6.036        Y3.085     
   X6.879        Y2.974     
   X64.741       Y3.001     
   X65.584       Y3.112     
   X66.204       Y3.323     
   X67.055       Y3.814     
   X67.796       Y4.556     
   X68.287       Y5.407     
   X68.498       Y6.028     
   X68.609       Y6.870     
   Y65.003    
   X68.454       Y66.048    
   X67.974       Y67.072    
   X67.517       Y67.665    
   X66.649       Y68.388    
   X65.540       Y68.860    
   X64.417       Y68.985    
   X63.999       Y68.940    
   X61.865    
   X61.610       Y68.972    
   X61.464       Y69.033    
   X61.329       Y69.167    
   X61.269       Y69.313    
   X61.235       Y69.569    
   Y140.979   
   X61.107       Y141.952   
   X60.875       Y142.634   
   X60.352       Y143.541   
   X59.876       Y144.083   
   X58.993       Y144.760   
   X57.903       Y145.211   
   X56.865       Y145.347   
   X14.698    
   X13.660       Y145.191   
   X12.571       Y144.739   
   X11.688       Y144.061   
   X11.213       Y143.519   
   X10.690       Y142.613   
   X10.458       Y141.930   
   X10.330       Y140.958   
(Pass: 13)
   Z-6.500     F50  
   Y69.596     F150 
   X10.292       Y69.304    
   X10.210       Y69.162    
   X10.095       Y69.046    
   X9.945        Y68.983    
   X9.685        Y68.947    
   X7.363     
   X6.391        Y68.796    
   X5.711        Y68.560    
   X4.750        Y67.999    
   X3.919        Y67.163    
   X3.365        Y66.198    
   X3.135        Y65.516    
   X3.008        Y64.543    
   Y6.842     
   X3.120        Y5.999     
   X3.331        Y5.379     
   X3.822        Y4.528     
   X4.564        Y3.786     
   X5.415        Y3.296     
   X6.036        Y3.085     
   X6.879        Y2.974     
   X64.741       Y3.001     
   X65.584       Y3.112     
   X66.204       Y3.323     
   X67.055       Y3.814     
   X67.796       Y4.556     
   X68.287       Y5.407     
   X68.498       Y6.028     
   X68.609       Y6.870     
   Y65.003    
   X68.454       Y66.048    
   X67.974       Y67.072    
   X67.517       Y67.665    
   X66.649       Y68.388    
   X65.540       Y68.860    
   X64.417       Y68.985    
   X63.999       Y68.940    
   X61.865    
   X61.610       Y68.972    
   X61.464       Y69.033    
   X61.329       Y69.167    
   X61.269       Y69.313    
   X61.235       Y69.569    
   Y140.979   
   X61.107       Y141.952   
   X60.875       Y142.634   
   X60.352       Y143.541   
   X59.876       Y144.083   
   X58.993       Y144.760   
   X57.903       Y145.211   
   X56.865       Y145.347   
   X14.698    
   X13.660       Y145.191   
   X12.571       Y144.739   
   X11.688       Y144.061   
   X11.213       Y143.519   
   X10.690       Y142.613   
   X10.458       Y141.930   
   X10.330       Y140.958   
(Pass: 14)
   Z-7.000     F50  
   Y69.596     F150 
   X10.292       Y69.304    
   X10.210       Y69.162    
   X10.095       Y69.046    
   X9.945        Y68.983    
   X9.685        Y68.947    
   X7.363     
   X6.391        Y68.796    
   X5.711        Y68.560    
   X4.750        Y67.999    
   X3.919        Y67.163    
   X3.365        Y66.198    
   X3.135        Y65.516    
   X3.008        Y64.543    
   Y6.842     
   X3.120        Y5.999     
   X3.331        Y5.379     
   X3.822        Y4.528     
   X4.564        Y3.786     
   X5.415        Y3.296     
   X6.036        Y3.085     
   X6.879        Y2.974     
   X64.741       Y3.001     
   X65.584       Y3.112     
   X66.204       Y3.323     
   X67.055       Y3.814     
   X67.796       Y4.556     
   X68.287       Y5.407     
   X68.498       Y6.028     
   X68.609       Y6.870     
   Y65.003    
   X68.454       Y66.048    
   X67.974       Y67.072    
   X67.517       Y67.665    
   X66.649       Y68.388    
   X65.540       Y68.860    
   X64.417       Y68.985    
   X63.999       Y68.940    
   X61.865    
   X61.610       Y68.972    
   X61.464       Y69.033    
   X61.329       Y69.167    
   X61.269       Y69.313    
   X61.235       Y69.569    
   Y140.979   
   X61.107       Y141.952   
   X60.875       Y142.634   
   X60.352       Y143.541   
   X59.876       Y144.083   
   X58.993       Y144.760   
   X57.903       Y145.211   
   X56.865       Y145.347   
   X14.698    
   X13.660       Y145.191   
   X12.571       Y144.739   
   X11.688       Y144.061   
   X11.213       Y143.519   
   X10.690       Y142.613   
   X10.458       Y141.930   
   X10.330       Y140.958   
(BREAK pass 14)
G0   Z5.000     
G0 X0 Y0 (home)
M05
M30
%
