%
(Generated by SketchUcam {1.2a})
(File: MotorBallscrewMount4mm.skp)
(Bit diameter: 4.0mm)
(Feed rate: 300.0mm/min)
(Material Thickness: 6.3mm)
(Material length: 558.8mm X width: 1066.8mm)
(Overhead Gantry: true)
(Retract feed rate NOT limited to plunge feed rate)
(Multipass enabled, Depth = 0.1mm)
(Optimization is ON)
(www.PhlatBoyz.com)
G90 G21 G49 
M3 S11000
G0   Z3.200     
(Pass: 1)
   X45.783       Y12.746    
(plungebore    depth=7.560         diam=4.000     )
G00   Z1.067     
G01   Z-0.100     F300 
G00   z1.067     
G01   Z-0.200    
G00   z1.067     
G01   Z-0.300    
G00   z1.067     
G01   Z-0.400    
G00   z1.067     
G01   Z-0.500    
G00   z1.067     
G01   Z-0.600    
G00   z1.067     
G01   Z-0.700    
G00   z1.067     
G01   Z-0.800    
G00   z1.067     
G01   Z-0.900    
G00   z1.067     
G01   Z-1.000    
G00   z1.067     
G01   Z-1.100    
G00   z1.067     
G01   Z-1.200    
G00   z1.067     
G01   Z-1.300    
G00   z1.067     
G01   Z-1.400    
G00   z1.067     
G01   Z-1.500    
G00   z1.067     
G01   Z-1.600    
G00   z1.067     
G01   Z-1.700    
G00   z1.067     
G01   Z-1.800    
G00   z1.067     
G01   Z-1.900    
G00   z1.067     
G01   Z-2.000    
G00   z1.067     
G01   Z-2.100    
G00   z1.067     
G01   Z-2.200    
G00   z1.067     
G01   Z-2.300    
G00   z1.067     
G01   Z-2.400    
G00   z1.067     
G01   Z-2.500    
G00   z1.067     
G01   Z-2.600    
G00   z1.067     
G01   Z-2.700    
G00   z1.067     
G01   Z-2.800    
G00   z1.067     
G01   Z-2.900    
G00   z1.067     
G01   Z-3.000    
G00   z1.067     
G01   Z-3.100    
G00   z1.067     
G01   Z-3.200    
G00   z1.067     
G01   Z-3.300    
G00   z1.067     
G01   Z-3.400    
G00   z1.067     
G01   Z-3.500    
G00   z1.067     
G01   Z-3.600    
G00   z1.067     
G01   Z-3.700    
G00   z1.067     
G01   Z-3.800    
G00   z1.067     
G01   Z-3.900    
G00   z1.067     
G01   Z-4.000    
G00   z1.067     
G01   Z-4.100    
G00   z1.067     
G01   Z-4.200    
G00   z1.067     
G01   Z-4.300    
G00   z1.067     
G01   Z-4.400    
G00   z1.067     
G01   Z-4.500    
G00   z1.067     
G01   Z-4.600    
G00   z1.067     
G01   Z-4.700    
G00   z1.067     
G01   Z-4.800    
G00   z1.067     
G01   Z-4.900    
G00   z1.067     
G01   Z-5.000    
G00   z1.067     
G01   Z-5.100    
G00   z1.067     
G01   Z-5.200    
G00   z1.067     
G01   Z-5.300    
G00   z1.067     
G01   Z-5.400    
G00   z1.067     
G01   Z-5.500    
G00   z1.067     
G01   Z-5.600    
G00   z1.067     
G01   Z-5.700    
G00   z1.067     
G01   Z-5.800    
G00   z1.067     
G01   Z-5.900    
G00   z1.067     
G01   Z-6.000    
G00   z1.067     
G01   Z-6.100    
G00   z1.067     
G01   Z-6.200    
G00   z1.067     
G01   Z-6.300    
G00   z1.067     
G01   Z-6.400    
G00   z1.067     
G01   Z-6.500    
G00   z1.067     
G01   Z-6.600    
G00   z1.067     
G01   Z-6.700    
G00   z1.067     
G01   Z-6.800    
G00   z1.067     
G01   Z-6.900    
G00   z1.067     
G01   Z-7.000    
G00   z1.067     
G01   Z-7.100    
G00   z1.067     
G01   Z-7.200    
G00   z1.067     
G01   Z-7.300    
G00   z1.067     
G01   Z-7.400    
G00   z1.067     
G01   Z-7.500    
G00   z1.067     
G01   Z-7.560    
G00   z1.067     
G00   Y12.746        Z3.200     
(plungebore end)
(BREAK pass 64)
(Pass: 1)
G0   X12.656       Y46.007    
(plungebore    depth=7.560         diam=4.000     )
G00   Z1.067     
G01   Z-0.100     F300 
G00   z1.067     
G01   Z-0.200    
G00   z1.067     
G01   Z-0.300    
G00   z1.067     
G01   Z-0.400    
G00   z1.067     
G01   Z-0.500    
G00   z1.067     
G01   Z-0.600    
G00   z1.067     
G01   Z-0.700    
G00   z1.067     
G01   Z-0.800    
G00   z1.067     
G01   Z-0.900    
G00   z1.067     
G01   Z-1.000    
G00   z1.067     
G01   Z-1.100    
G00   z1.067     
G01   Z-1.200    
G00   z1.067     
G01   Z-1.300    
G00   z1.067     
G01   Z-1.400    
G00   z1.067     
G01   Z-1.500    
G00   z1.067     
G01   Z-1.600    
G00   z1.067     
G01   Z-1.700    
G00   z1.067     
G01   Z-1.800    
G00   z1.067     
G01   Z-1.900    
G00   z1.067     
G01   Z-2.000    
G00   z1.067     
G01   Z-2.100    
G00   z1.067     
G01   Z-2.200    
G00   z1.067     
G01   Z-2.300    
G00   z1.067     
G01   Z-2.400    
G00   z1.067     
G01   Z-2.500    
G00   z1.067     
G01   Z-2.600    
G00   z1.067     
G01   Z-2.700    
G00   z1.067     
G01   Z-2.800    
G00   z1.067     
G01   Z-2.900    
G00   z1.067     
G01   Z-3.000    
G00   z1.067     
G01   Z-3.100    
G00   z1.067     
G01   Z-3.200    
G00   z1.067     
G01   Z-3.300    
G00   z1.067     
G01   Z-3.400    
G00   z1.067     
G01   Z-3.500    
G00   z1.067     
G01   Z-3.600    
G00   z1.067     
G01   Z-3.700    
G00   z1.067     
G01   Z-3.800    
G00   z1.067     
G01   Z-3.900    
G00   z1.067     
G01   Z-4.000    
G00   z1.067     
G01   Z-4.100    
G00   z1.067     
G01   Z-4.200    
G00   z1.067     
G01   Z-4.300    
G00   z1.067     
G01   Z-4.400    
G00   z1.067     
G01   Z-4.500    
G00   z1.067     
G01   Z-4.600    
G00   z1.067     
G01   Z-4.700    
G00   z1.067     
G01   Z-4.800    
G00   z1.067     
G01   Z-4.900    
G00   z1.067     
G01   Z-5.000    
G00   z1.067     
G01   Z-5.100    
G00   z1.067     
G01   Z-5.200    
G00   z1.067     
G01   Z-5.300    
G00   z1.067     
G01   Z-5.400    
G00   z1.067     
G01   Z-5.500    
G00   z1.067     
G01   Z-5.600    
G00   z1.067     
G01   Z-5.700    
G00   z1.067     
G01   Z-5.800    
G00   z1.067     
G01   Z-5.900    
G00   z1.067     
G01   Z-6.000    
G00   z1.067     
G01   Z-6.100    
G00   z1.067     
G01   Z-6.200    
G00   z1.067     
G01   Z-6.300    
G00   z1.067     
G01   Z-6.400    
G00   z1.067     
G01   Z-6.500    
G00   z1.067     
G01   Z-6.600    
G00   z1.067     
G01   Z-6.700    
G00   z1.067     
G01   Z-6.800    
G00   z1.067     
G01   Z-6.900    
G00   z1.067     
G01   Z-7.000    
G00   z1.067     
G01   Z-7.100    
G00   z1.067     
G01   Z-7.200    
G00   z1.067     
G01   Z-7.300    
G00   z1.067     
G01   Z-7.400    
G00   z1.067     
G01   Z-7.500    
G00   z1.067     
G01   Z-7.560    
G00   z1.067     
G00   Y46.007        Z3.200     
(plungebore end)
(BREAK pass 64)
(Pass: 1)
G0   X22.803    
(plungebore    depth=7.560         diam=4.000     )
G00   Z1.067     
G01   Z-0.100     F300 
G00   z1.067     
G01   Z-0.200    
G00   z1.067     
G01   Z-0.300    
G00   z1.067     
G01   Z-0.400    
G00   z1.067     
G01   Z-0.500    
G00   z1.067     
G01   Z-0.600    
G00   z1.067     
G01   Z-0.700    
G00   z1.067     
G01   Z-0.800    
G00   z1.067     
G01   Z-0.900    
G00   z1.067     
G01   Z-1.000    
G00   z1.067     
G01   Z-1.100    
G00   z1.067     
G01   Z-1.200    
G00   z1.067     
G01   Z-1.300    
G00   z1.067     
G01   Z-1.400    
G00   z1.067     
G01   Z-1.500    
G00   z1.067     
G01   Z-1.600    
G00   z1.067     
G01   Z-1.700    
G00   z1.067     
G01   Z-1.800    
G00   z1.067     
G01   Z-1.900    
G00   z1.067     
G01   Z-2.000    
G00   z1.067     
G01   Z-2.100    
G00   z1.067     
G01   Z-2.200    
G00   z1.067     
G01   Z-2.300    
G00   z1.067     
G01   Z-2.400    
G00   z1.067     
G01   Z-2.500    
G00   z1.067     
G01   Z-2.600    
G00   z1.067     
G01   Z-2.700    
G00   z1.067     
G01   Z-2.800    
G00   z1.067     
G01   Z-2.900    
G00   z1.067     
G01   Z-3.000    
G00   z1.067     
G01   Z-3.100    
G00   z1.067     
G01   Z-3.200    
G00   z1.067     
G01   Z-3.300    
G00   z1.067     
G01   Z-3.400    
G00   z1.067     
G01   Z-3.500    
G00   z1.067     
G01   Z-3.600    
G00   z1.067     
G01   Z-3.700    
G00   z1.067     
G01   Z-3.800    
G00   z1.067     
G01   Z-3.900    
G00   z1.067     
G01   Z-4.000    
G00   z1.067     
G01   Z-4.100    
G00   z1.067     
G01   Z-4.200    
G00   z1.067     
G01   Z-4.300    
G00   z1.067     
G01   Z-4.400    
G00   z1.067     
G01   Z-4.500    
G00   z1.067     
G01   Z-4.600    
G00   z1.067     
G01   Z-4.700    
G00   z1.067     
G01   Z-4.800    
G00   z1.067     
G01   Z-4.900    
G00   z1.067     
G01   Z-5.000    
G00   z1.067     
G01   Z-5.100    
G00   z1.067     
G01   Z-5.200    
G00   z1.067     
G01   Z-5.300    
G00   z1.067     
G01   Z-5.400    
G00   z1.067     
G01   Z-5.500    
G00   z1.067     
G01   Z-5.600    
G00   z1.067     
G01   Z-5.700    
G00   z1.067     
G01   Z-5.800    
G00   z1.067     
G01   Z-5.900    
G00   z1.067     
G01   Z-6.000    
G00   z1.067     
G01   Z-6.100    
G00   z1.067     
G01   Z-6.200    
G00   z1.067     
G01   Z-6.300    
G00   z1.067     
G01   Z-6.400    
G00   z1.067     
G01   Z-6.500    
G00   z1.067     
G01   Z-6.600    
G00   z1.067     
G01   Z-6.700    
G00   z1.067     
G01   Z-6.800    
G00   z1.067     
G01   Z-6.900    
G00   z1.067     
G01   Z-7.000    
G00   z1.067     
G01   Z-7.100    
G00   z1.067     
G01   Z-7.200    
G00   z1.067     
G01   Z-7.300    
G00   z1.067     
G01   Z-7.400    
G00   z1.067     
G01   Z-7.500    
G00   z1.067     
G01   Z-7.560    
G00   z1.067     
G00   Y45.994        Z3.200     
(plungebore end)
(BREAK pass 64)
(Pass: 1)
G0   X68.803    
(plungebore    depth=7.560         diam=4.000     )
G00   Z1.067     
G01   Z-0.100     F300 
G00   z1.067     
G01   Z-0.200    
G00   z1.067     
G01   Z-0.300    
G00   z1.067     
G01   Z-0.400    
G00   z1.067     
G01   Z-0.500    
G00   z1.067     
G01   Z-0.600    
G00   z1.067     
G01   Z-0.700    
G00   z1.067     
G01   Z-0.800    
G00   z1.067     
G01   Z-0.900    
G00   z1.067     
G01   Z-1.000    
G00   z1.067     
G01   Z-1.100    
G00   z1.067     
G01   Z-1.200    
G00   z1.067     
G01   Z-1.300    
G00   z1.067     
G01   Z-1.400    
G00   z1.067     
G01   Z-1.500    
G00   z1.067     
G01   Z-1.600    
G00   z1.067     
G01   Z-1.700    
G00   z1.067     
G01   Z-1.800    
G00   z1.067     
G01   Z-1.900    
G00   z1.067     
G01   Z-2.000    
G00   z1.067     
G01   Z-2.100    
G00   z1.067     
G01   Z-2.200    
G00   z1.067     
G01   Z-2.300    
G00   z1.067     
G01   Z-2.400    
G00   z1.067     
G01   Z-2.500    
G00   z1.067     
G01   Z-2.600    
G00   z1.067     
G01   Z-2.700    
G00   z1.067     
G01   Z-2.800    
G00   z1.067     
G01   Z-2.900    
G00   z1.067     
G01   Z-3.000    
G00   z1.067     
G01   Z-3.100    
G00   z1.067     
G01   Z-3.200    
G00   z1.067     
G01   Z-3.300    
G00   z1.067     
G01   Z-3.400    
G00   z1.067     
G01   Z-3.500    
G00   z1.067     
G01   Z-3.600    
G00   z1.067     
G01   Z-3.700    
G00   z1.067     
G01   Z-3.800    
G00   z1.067     
G01   Z-3.900    
G00   z1.067     
G01   Z-4.000    
G00   z1.067     
G01   Z-4.100    
G00   z1.067     
G01   Z-4.200    
G00   z1.067     
G01   Z-4.300    
G00   z1.067     
G01   Z-4.400    
G00   z1.067     
G01   Z-4.500    
G00   z1.067     
G01   Z-4.600    
G00   z1.067     
G01   Z-4.700    
G00   z1.067     
G01   Z-4.800    
G00   z1.067     
G01   Z-4.900    
G00   z1.067     
G01   Z-5.000    
G00   z1.067     
G01   Z-5.100    
G00   z1.067     
G01   Z-5.200    
G00   z1.067     
G01   Z-5.300    
G00   z1.067     
G01   Z-5.400    
G00   z1.067     
G01   Z-5.500    
G00   z1.067     
G01   Z-5.600    
G00   z1.067     
G01   Z-5.700    
G00   z1.067     
G01   Z-5.800    
G00   z1.067     
G01   Z-5.900    
G00   z1.067     
G01   Z-6.000    
G00   z1.067     
G01   Z-6.100    
G00   z1.067     
G01   Z-6.200    
G00   z1.067     
G01   Z-6.300    
G00   z1.067     
G01   Z-6.400    
G00   z1.067     
G01   Z-6.500    
G00   z1.067     
G01   Z-6.600    
G00   z1.067     
G01   Z-6.700    
G00   z1.067     
G01   Z-6.800    
G00   z1.067     
G01   Z-6.900    
G00   z1.067     
G01   Z-7.000    
G00   z1.067     
G01   Z-7.100    
G00   z1.067     
G01   Z-7.200    
G00   z1.067     
G01   Z-7.300    
G00   z1.067     
G01   Z-7.400    
G00   z1.067     
G01   Z-7.500    
G00   z1.067     
G01   Z-7.560    
G00   z1.067     
G00   Y45.994        Z3.200     
(plungebore end)
(BREAK pass 64)
(Pass: 1)
G0   X79.167    
(plungebore    depth=7.560         diam=4.000     )
G00   Z1.067     
G01   Z-0.100     F300 
G00   z1.067     
G01   Z-0.200    
G00   z1.067     
G01   Z-0.300    
G00   z1.067     
G01   Z-0.400    
G00   z1.067     
G01   Z-0.500    
G00   z1.067     
G01   Z-0.600    
G00   z1.067     
G01   Z-0.700    
G00   z1.067     
G01   Z-0.800    
G00   z1.067     
G01   Z-0.900    
G00   z1.067     
G01   Z-1.000    
G00   z1.067     
G01   Z-1.100    
G00   z1.067     
G01   Z-1.200    
G00   z1.067     
G01   Z-1.300    
G00   z1.067     
G01   Z-1.400    
G00   z1.067     
G01   Z-1.500    
G00   z1.067     
G01   Z-1.600    
G00   z1.067     
G01   Z-1.700    
G00   z1.067     
G01   Z-1.800    
G00   z1.067     
G01   Z-1.900    
G00   z1.067     
G01   Z-2.000    
G00   z1.067     
G01   Z-2.100    
G00   z1.067     
G01   Z-2.200    
G00   z1.067     
G01   Z-2.300    
G00   z1.067     
G01   Z-2.400    
G00   z1.067     
G01   Z-2.500    
G00   z1.067     
G01   Z-2.600    
G00   z1.067     
G01   Z-2.700    
G00   z1.067     
G01   Z-2.800    
G00   z1.067     
G01   Z-2.900    
G00   z1.067     
G01   Z-3.000    
G00   z1.067     
G01   Z-3.100    
G00   z1.067     
G01   Z-3.200    
G00   z1.067     
G01   Z-3.300    
G00   z1.067     
G01   Z-3.400    
G00   z1.067     
G01   Z-3.500    
G00   z1.067     
G01   Z-3.600    
G00   z1.067     
G01   Z-3.700    
G00   z1.067     
G01   Z-3.800    
G00   z1.067     
G01   Z-3.900    
G00   z1.067     
G01   Z-4.000    
G00   z1.067     
G01   Z-4.100    
G00   z1.067     
G01   Z-4.200    
G00   z1.067     
G01   Z-4.300    
G00   z1.067     
G01   Z-4.400    
G00   z1.067     
G01   Z-4.500    
G00   z1.067     
G01   Z-4.600    
G00   z1.067     
G01   Z-4.700    
G00   z1.067     
G01   Z-4.800    
G00   z1.067     
G01   Z-4.900    
G00   z1.067     
G01   Z-5.000    
G00   z1.067     
G01   Z-5.100    
G00   z1.067     
G01   Z-5.200    
G00   z1.067     
G01   Z-5.300    
G00   z1.067     
G01   Z-5.400    
G00   z1.067     
G01   Z-5.500    
G00   z1.067     
G01   Z-5.600    
G00   z1.067     
G01   Z-5.700    
G00   z1.067     
G01   Z-5.800    
G00   z1.067     
G01   Z-5.900    
G00   z1.067     
G01   Z-6.000    
G00   z1.067     
G01   Z-6.100    
G00   z1.067     
G01   Z-6.200    
G00   z1.067     
G01   Z-6.300    
G00   z1.067     
G01   Z-6.400    
G00   z1.067     
G01   Z-6.500    
G00   z1.067     
G01   Z-6.600    
G00   z1.067     
G01   Z-6.700    
G00   z1.067     
G01   Z-6.800    
G00   z1.067     
G01   Z-6.900    
G00   z1.067     
G01   Z-7.000    
G00   z1.067     
G01   Z-7.100    
G00   z1.067     
G01   Z-7.200    
G00   z1.067     
G01   Z-7.300    
G00   z1.067     
G01   Z-7.400    
G00   z1.067     
G01   Z-7.500    
G00   z1.067     
G01   Z-7.560    
G00   z1.067     
G00   Y46.007        Z3.200     
(plungebore end)
(BREAK pass 64)
(Pass: 1)
G0   X68.803       Y63.994    
(plungebore    depth=7.560         diam=4.000     )
G00   Z1.067     
G01   Z-0.100     F300 
G00   z1.067     
G01   Z-0.200    
G00   z1.067     
G01   Z-0.300    
G00   z1.067     
G01   Z-0.400    
G00   z1.067     
G01   Z-0.500    
G00   z1.067     
G01   Z-0.600    
G00   z1.067     
G01   Z-0.700    
G00   z1.067     
G01   Z-0.800    
G00   z1.067     
G01   Z-0.900    
G00   z1.067     
G01   Z-1.000    
G00   z1.067     
G01   Z-1.100    
G00   z1.067     
G01   Z-1.200    
G00   z1.067     
G01   Z-1.300    
G00   z1.067     
G01   Z-1.400    
G00   z1.067     
G01   Z-1.500    
G00   z1.067     
G01   Z-1.600    
G00   z1.067     
G01   Z-1.700    
G00   z1.067     
G01   Z-1.800    
G00   z1.067     
G01   Z-1.900    
G00   z1.067     
G01   Z-2.000    
G00   z1.067     
G01   Z-2.100    
G00   z1.067     
G01   Z-2.200    
G00   z1.067     
G01   Z-2.300    
G00   z1.067     
G01   Z-2.400    
G00   z1.067     
G01   Z-2.500    
G00   z1.067     
G01   Z-2.600    
G00   z1.067     
G01   Z-2.700    
G00   z1.067     
G01   Z-2.800    
G00   z1.067     
G01   Z-2.900    
G00   z1.067     
G01   Z-3.000    
G00   z1.067     
G01   Z-3.100    
G00   z1.067     
G01   Z-3.200    
G00   z1.067     
G01   Z-3.300    
G00   z1.067     
G01   Z-3.400    
G00   z1.067     
G01   Z-3.500    
G00   z1.067     
G01   Z-3.600    
G00   z1.067     
G01   Z-3.700    
G00   z1.067     
G01   Z-3.800    
G00   z1.067     
G01   Z-3.900    
G00   z1.067     
G01   Z-4.000    
G00   z1.067     
G01   Z-4.100    
G00   z1.067     
G01   Z-4.200    
G00   z1.067     
G01   Z-4.300    
G00   z1.067     
G01   Z-4.400    
G00   z1.067     
G01   Z-4.500    
G00   z1.067     
G01   Z-4.600    
G00   z1.067     
G01   Z-4.700    
G00   z1.067     
G01   Z-4.800    
G00   z1.067     
G01   Z-4.900    
G00   z1.067     
G01   Z-5.000    
G00   z1.067     
G01   Z-5.100    
G00   z1.067     
G01   Z-5.200    
G00   z1.067     
G01   Z-5.300    
G00   z1.067     
G01   Z-5.400    
G00   z1.067     
G01   Z-5.500    
G00   z1.067     
G01   Z-5.600    
G00   z1.067     
G01   Z-5.700    
G00   z1.067     
G01   Z-5.800    
G00   z1.067     
G01   Z-5.900    
G00   z1.067     
G01   Z-6.000    
G00   z1.067     
G01   Z-6.100    
G00   z1.067     
G01   Z-6.200    
G00   z1.067     
G01   Z-6.300    
G00   z1.067     
G01   Z-6.400    
G00   z1.067     
G01   Z-6.500    
G00   z1.067     
G01   Z-6.600    
G00   z1.067     
G01   Z-6.700    
G00   z1.067     
G01   Z-6.800    
G00   z1.067     
G01   Z-6.900    
G00   z1.067     
G01   Z-7.000    
G00   z1.067     
G01   Z-7.100    
G00   z1.067     
G01   Z-7.200    
G00   z1.067     
G01   Z-7.300    
G00   z1.067     
G01   Z-7.400    
G00   z1.067     
G01   Z-7.500    
G00   z1.067     
G01   Z-7.560    
G00   z1.067     
G00   Y63.994        Z3.200     
(plungebore end)
(BREAK pass 64)
(Pass: 1)
G0   X22.803    
(plungebore    depth=7.560         diam=4.000     )
G00   Z1.067     
G01   Z-0.100     F300 
G00   z1.067     
G01   Z-0.200    
G00   z1.067     
G01   Z-0.300    
G00   z1.067     
G01   Z-0.400    
G00   z1.067     
G01   Z-0.500    
G00   z1.067     
G01   Z-0.600    
G00   z1.067     
G01   Z-0.700    
G00   z1.067     
G01   Z-0.800    
G00   z1.067     
G01   Z-0.900    
G00   z1.067     
G01   Z-1.000    
G00   z1.067     
G01   Z-1.100    
G00   z1.067     
G01   Z-1.200    
G00   z1.067     
G01   Z-1.300    
G00   z1.067     
G01   Z-1.400    
G00   z1.067     
G01   Z-1.500    
G00   z1.067     
G01   Z-1.600    
G00   z1.067     
G01   Z-1.700    
G00   z1.067     
G01   Z-1.800    
G00   z1.067     
G01   Z-1.900    
G00   z1.067     
G01   Z-2.000    
G00   z1.067     
G01   Z-2.100    
G00   z1.067     
G01   Z-2.200    
G00   z1.067     
G01   Z-2.300    
G00   z1.067     
G01   Z-2.400    
G00   z1.067     
G01   Z-2.500    
G00   z1.067     
G01   Z-2.600    
G00   z1.067     
G01   Z-2.700    
G00   z1.067     
G01   Z-2.800    
G00   z1.067     
G01   Z-2.900    
G00   z1.067     
G01   Z-3.000    
G00   z1.067     
G01   Z-3.100    
G00   z1.067     
G01   Z-3.200    
G00   z1.067     
G01   Z-3.300    
G00   z1.067     
G01   Z-3.400    
G00   z1.067     
G01   Z-3.500    
G00   z1.067     
G01   Z-3.600    
G00   z1.067     
G01   Z-3.700    
G00   z1.067     
G01   Z-3.800    
G00   z1.067     
G01   Z-3.900    
G00   z1.067     
G01   Z-4.000    
G00   z1.067     
G01   Z-4.100    
G00   z1.067     
G01   Z-4.200    
G00   z1.067     
G01   Z-4.300    
G00   z1.067     
G01   Z-4.400    
G00   z1.067     
G01   Z-4.500    
G00   z1.067     
G01   Z-4.600    
G00   z1.067     
G01   Z-4.700    
G00   z1.067     
G01   Z-4.800    
G00   z1.067     
G01   Z-4.900    
G00   z1.067     
G01   Z-5.000    
G00   z1.067     
G01   Z-5.100    
G00   z1.067     
G01   Z-5.200    
G00   z1.067     
G01   Z-5.300    
G00   z1.067     
G01   Z-5.400    
G00   z1.067     
G01   Z-5.500    
G00   z1.067     
G01   Z-5.600    
G00   z1.067     
G01   Z-5.700    
G00   z1.067     
G01   Z-5.800    
G00   z1.067     
G01   Z-5.900    
G00   z1.067     
G01   Z-6.000    
G00   z1.067     
G01   Z-6.100    
G00   z1.067     
G01   Z-6.200    
G00   z1.067     
G01   Z-6.300    
G00   z1.067     
G01   Z-6.400    
G00   z1.067     
G01   Z-6.500    
G00   z1.067     
G01   Z-6.600    
G00   z1.067     
G01   Z-6.700    
G00   z1.067     
G01   Z-6.800    
G00   z1.067     
G01   Z-6.900    
G00   z1.067     
G01   Z-7.000    
G00   z1.067     
G01   Z-7.100    
G00   z1.067     
G01   Z-7.200    
G00   z1.067     
G01   Z-7.300    
G00   z1.067     
G01   Z-7.400    
G00   z1.067     
G01   Z-7.500    
G00   z1.067     
G01   Z-7.560    
G00   z1.067     
G00   Y63.994        Z3.200     
(plungebore end)
(BREAK pass 64)
(Pass: 1)
G0   X45.803       Y79.194    
(plungebore    depth=7.560         diam=4.000     )
G00   Z1.067     
G01   Z-0.100     F300 
G00   z1.067     
G01   Z-0.200    
G00   z1.067     
G01   Z-0.300    
G00   z1.067     
G01   Z-0.400    
G00   z1.067     
G01   Z-0.500    
G00   z1.067     
G01   Z-0.600    
G00   z1.067     
G01   Z-0.700    
G00   z1.067     
G01   Z-0.800    
G00   z1.067     
G01   Z-0.900    
G00   z1.067     
G01   Z-1.000    
G00   z1.067     
G01   Z-1.100    
G00   z1.067     
G01   Z-1.200    
G00   z1.067     
G01   Z-1.300    
G00   z1.067     
G01   Z-1.400    
G00   z1.067     
G01   Z-1.500    
G00   z1.067     
G01   Z-1.600    
G00   z1.067     
G01   Z-1.700    
G00   z1.067     
G01   Z-1.800    
G00   z1.067     
G01   Z-1.900    
G00   z1.067     
G01   Z-2.000    
G00   z1.067     
G01   Z-2.100    
G00   z1.067     
G01   Z-2.200    
G00   z1.067     
G01   Z-2.300    
G00   z1.067     
G01   Z-2.400    
G00   z1.067     
G01   Z-2.500    
G00   z1.067     
G01   Z-2.600    
G00   z1.067     
G01   Z-2.700    
G00   z1.067     
G01   Z-2.800    
G00   z1.067     
G01   Z-2.900    
G00   z1.067     
G01   Z-3.000    
G00   z1.067     
G01   Z-3.100    
G00   z1.067     
G01   Z-3.200    
G00   z1.067     
G01   Z-3.300    
G00   z1.067     
G01   Z-3.400    
G00   z1.067     
G01   Z-3.500    
G00   z1.067     
G01   Z-3.600    
G00   z1.067     
G01   Z-3.700    
G00   z1.067     
G01   Z-3.800    
G00   z1.067     
G01   Z-3.900    
G00   z1.067     
G01   Z-4.000    
G00   z1.067     
G01   Z-4.100    
G00   z1.067     
G01   Z-4.200    
G00   z1.067     
G01   Z-4.300    
G00   z1.067     
G01   Z-4.400    
G00   z1.067     
G01   Z-4.500    
G00   z1.067     
G01   Z-4.600    
G00   z1.067     
G01   Z-4.700    
G00   z1.067     
G01   Z-4.800    
G00   z1.067     
G01   Z-4.900    
G00   z1.067     
G01   Z-5.000    
G00   z1.067     
G01   Z-5.100    
G00   z1.067     
G01   Z-5.200    
G00   z1.067     
G01   Z-5.300    
G00   z1.067     
G01   Z-5.400    
G00   z1.067     
G01   Z-5.500    
G00   z1.067     
G01   Z-5.600    
G00   z1.067     
G01   Z-5.700    
G00   z1.067     
G01   Z-5.800    
G00   z1.067     
G01   Z-5.900    
G00   z1.067     
G01   Z-6.000    
G00   z1.067     
G01   Z-6.100    
G00   z1.067     
G01   Z-6.200    
G00   z1.067     
G01   Z-6.300    
G00   z1.067     
G01   Z-6.400    
G00   z1.067     
G01   Z-6.500    
G00   z1.067     
G01   Z-6.600    
G00   z1.067     
G01   Z-6.700    
G00   z1.067     
G01   Z-6.800    
G00   z1.067     
G01   Z-6.900    
G00   z1.067     
G01   Z-7.000    
G00   z1.067     
G01   Z-7.100    
G00   z1.067     
G01   Z-7.200    
G00   z1.067     
G01   Z-7.300    
G00   z1.067     
G01   Z-7.400    
G00   z1.067     
G01   Z-7.500    
G00   z1.067     
G01   Z-7.560    
G00   z1.067     
G00   Y79.194        Z3.200     
(plungebore end)
(BREAK pass 64)
(Pass: 1)
G0   X62.672       Y62.994    
G1   Z-0.100     F300 
   X28.934    
   X28.818    
   Y62.863    
   Y29.125    
   Y29.009    
   X28.934    
   X62.672    
   X62.787    
   Y29.125    
   Y62.863    
   Y62.985    
   X62.672    
(Pass: 2)
   Z-0.200    
   X28.934    
   X28.818    
   Y62.863    
   Y29.125    
   Y29.009    
   X28.934    
   X62.672    
   X62.787    
   Y29.125    
   Y62.863    
   Y62.985    
   X62.672    
(Pass: 3)
   Z-0.300    
   X28.934    
   X28.818    
   Y62.863    
   Y29.125    
   Y29.009    
   X28.934    
   X62.672    
   X62.787    
   Y29.125    
   Y62.863    
   Y62.985    
   X62.672    
(Pass: 4)
   Z-0.400    
   X28.934    
   X28.818    
   Y62.863    
   Y29.125    
   Y29.009    
   X28.934    
   X62.672    
   X62.787    
   Y29.125    
   Y62.863    
   Y62.985    
   X62.672    
(Pass: 5)
   Z-0.500    
   X28.934    
   X28.818    
   Y62.863    
   Y29.125    
   Y29.009    
   X28.934    
   X62.672    
   X62.787    
   Y29.125    
   Y62.863    
   Y62.985    
   X62.672    
(Pass: 6)
   Z-0.600    
   X28.934    
   X28.818    
   Y62.863    
   Y29.125    
   Y29.009    
   X28.934    
   X62.672    
   X62.787    
   Y29.125    
   Y62.863    
   Y62.985    
   X62.672    
(Pass: 7)
   Z-0.700    
   X28.934    
   X28.818    
   Y62.863    
   Y29.125    
   Y29.009    
   X28.934    
   X62.672    
   X62.787    
   Y29.125    
   Y62.863    
   Y62.985    
   X62.672    
(Pass: 8)
   Z-0.800    
   X28.934    
   X28.818    
   Y62.863    
   Y29.125    
   Y29.009    
   X28.934    
   X62.672    
   X62.787    
   Y29.125    
   Y62.863    
   Y62.985    
   X62.672    
(Pass: 9)
   Z-0.900    
   X28.934    
   X28.818    
   Y62.863    
   Y29.125    
   Y29.009    
   X28.934    
   X62.672    
   X62.787    
   Y29.125    
   Y62.863    
   Y62.985    
   X62.672    
(Pass: 10)
   Z-1.000    
   X28.934    
   X28.818    
   Y62.863    
   Y29.125    
   Y29.009    
   X28.934    
   X62.672    
   X62.787    
   Y29.125    
   Y62.863    
   Y62.985    
   X62.672    
(Pass: 11)
   Z-1.100    
   X28.934    
   X28.818    
   Y62.863    
   Y29.125    
   Y29.009    
   X28.934    
   X62.672    
   X62.787    
   Y29.125    
   Y62.863    
   Y62.985    
   X62.672    
(Pass: 12)
   Z-1.200    
   X28.934    
   X28.818    
   Y62.863    
   Y29.125    
   Y29.009    
   X28.934    
   X62.672    
   X62.787    
   Y29.125    
   Y62.863    
   Y62.985    
   X62.672    
(Pass: 13)
   Z-1.300    
   X28.934    
   X28.818    
   Y62.863    
   Y29.125    
   Y29.009    
   X28.934    
   X62.672    
   X62.787    
   Y29.125    
   Y62.863    
   Y62.985    
   X62.672    
(Pass: 14)
   Z-1.400    
   X28.934    
   X28.818    
   Y62.863    
   Y29.125    
   Y29.009    
   X28.934    
   X62.672    
   X62.787    
   Y29.125    
   Y62.863    
   Y62.985    
   X62.672    
(Pass: 15)
   Z-1.500    
   X28.934    
   X28.818    
   Y62.863    
   Y29.125    
   Y29.009    
   X28.934    
   X62.672    
   X62.787    
   Y29.125    
   Y62.863    
   Y62.985    
   X62.672    
(Pass: 16)
   Z-1.600    
   X28.934    
   X28.818    
   Y62.863    
   Y29.125    
   Y29.009    
   X28.934    
   X62.672    
   X62.787    
   Y29.125    
   Y62.863    
   Y62.985    
   X62.672    
(Pass: 17)
   Z-1.700    
   X28.934    
   X28.818    
   Y62.863    
   Y29.125    
   Y29.009    
   X28.934    
   X62.672    
   X62.787    
   Y29.125    
   Y62.863    
   Y62.985    
   X62.672    
(Pass: 18)
   Z-1.800    
   X28.934    
   X28.818    
   Y62.863    
   Y29.125    
   Y29.009    
   X28.934    
   X62.672    
   X62.787    
   Y29.125    
   Y62.863    
   Y62.985    
   X62.672    
(Pass: 19)
   Z-1.900    
   X28.934    
   X28.818    
   Y62.863    
   Y29.125    
   Y29.009    
   X28.934    
   X62.672    
   X62.787    
   Y29.125    
   Y62.863    
   Y62.985    
   X62.672    
(Pass: 20)
   Z-2.000    
   X28.934    
   X28.818    
   Y62.863    
   Y29.125    
   Y29.009    
   X28.934    
   X62.672    
   X62.787    
   Y29.125    
   Y62.863    
   Y62.985    
   X62.672    
(Pass: 21)
   Z-2.100    
   X28.934    
   X28.818    
   Y62.863    
   Y29.125    
   Y29.009    
   X28.934    
   X62.672    
   X62.787    
   Y29.125    
   Y62.863    
   Y62.985    
   X62.672    
(Pass: 22)
   Z-2.200    
   X28.934    
   X28.818    
   Y62.863    
   Y29.125    
   Y29.009    
   X28.934    
   X62.672    
   X62.787    
   Y29.125    
   Y62.863    
   Y62.985    
   X62.672    
(Pass: 23)
   Z-2.300    
   X28.934    
   X28.818    
   Y62.863    
   Y29.125    
   Y29.009    
   X28.934    
   X62.672    
   X62.787    
   Y29.125    
   Y62.863    
   Y62.985    
   X62.672    
(Pass: 24)
   Z-2.400    
   X28.934    
   X28.818    
   Y62.863    
   Y29.125    
   Y29.009    
   X28.934    
   X62.672    
   X62.787    
   Y29.125    
   Y62.863    
   Y62.985    
   X62.672    
(Pass: 25)
   Z-2.500    
   X28.934    
   X28.818    
   Y62.863    
   Y29.125    
   Y29.009    
   X28.934    
   X62.672    
   X62.787    
   Y29.125    
   Y62.863    
   Y62.985    
   X62.672    
(Pass: 26)
   Z-2.600    
   X28.934    
   X28.818    
   Y62.863    
   Y29.125    
   Y29.009    
   X28.934    
   X62.672    
   X62.787    
   Y29.125    
   Y62.863    
   Y62.985    
   X62.672    
(Pass: 27)
   Z-2.700    
   X28.934    
   X28.818    
   Y62.863    
   Y29.125    
   Y29.009    
   X28.934    
   X62.672    
   X62.787    
   Y29.125    
   Y62.863    
   Y62.985    
   X62.672    
(Pass: 28)
   Z-2.800    
   X28.934    
   X28.818    
   Y62.863    
   Y29.125    
   Y29.009    
   X28.934    
   X62.672    
   X62.787    
   Y29.125    
   Y62.863    
   Y62.985    
   X62.672    
(Pass: 29)
   Z-2.900    
   X28.934    
   X28.818    
   Y62.863    
   Y29.125    
   Y29.009    
   X28.934    
   X62.672    
   X62.787    
   Y29.125    
   Y62.863    
   Y62.985    
   X62.672    
(Pass: 30)
   Z-3.000    
   X28.934    
   X28.818    
   Y62.863    
   Y29.125    
   Y29.009    
   X28.934    
   X62.672    
   X62.787    
   Y29.125    
   Y62.863    
   Y62.985    
   X62.672    
(Pass: 31)
   Z-3.100    
   X28.934    
   X28.818    
   Y62.863    
   Y29.125    
   Y29.009    
   X28.934    
   X62.672    
   X62.787    
   Y29.125    
   Y62.863    
   Y62.985    
   X62.672    
(Pass: 32)
   Z-3.200    
   X28.934    
   X28.818    
   Y62.863    
   Y29.125    
   Y29.009    
   X28.934    
   X62.672    
   X62.787    
   Y29.125    
   Y62.863    
   Y62.985    
   X62.672    
(Pass: 33)
   Z-3.300    
   X28.934    
   X28.818    
   Y62.863    
   Y29.125    
   Y29.009    
   X28.934    
   X62.672    
   X62.787    
   Y29.125    
   Y62.863    
   Y62.985    
   X62.672    
(Pass: 34)
   Z-3.400    
   X28.934    
   X28.818    
   Y62.863    
   Y29.125    
   Y29.009    
   X28.934    
   X62.672    
   X62.787    
   Y29.125    
   Y62.863    
   Y62.985    
   X62.672    
(Pass: 35)
   Z-3.500    
   X28.934    
   X28.818    
   Y62.863    
   Y29.125    
   Y29.009    
   X28.934    
   X62.672    
   X62.787    
   Y29.125    
   Y62.863    
   Y62.985    
   X62.672    
(Pass: 36)
   Z-3.600    
   X28.934    
   X28.818    
   Y62.863    
   Y29.125    
   Y29.009    
   X28.934    
   X62.672    
   X62.787    
   Y29.125    
   Y62.863    
   Y62.985    
   X62.672    
(Pass: 37)
   Z-3.700    
   X28.934    
   X28.818    
   Y62.863    
   Y29.125    
   Y29.009    
   X28.934    
   X62.672    
   X62.787    
   Y29.125    
   Y62.863    
   Y62.985    
   X62.672    
(Pass: 38)
   Z-3.800    
   X28.934    
   X28.818    
   Y62.863    
   Y29.125    
   Y29.009    
   X28.934    
   X62.672    
   X62.787    
   Y29.125    
   Y62.863    
   Y62.985    
   X62.672    
(Pass: 39)
   Z-3.900    
   X28.934    
   X28.818    
   Y62.863    
   Y29.125    
   Y29.009    
   X28.934    
   X62.672    
   X62.787    
   Y29.125    
   Y62.863    
   Y62.985    
   X62.672    
(Pass: 40)
   Z-4.000    
   X28.934    
   X28.818    
   Y62.863    
   Y29.125    
   Y29.009    
   X28.934    
   X62.672    
   X62.787    
   Y29.125    
   Y62.863    
   Y62.985    
   X62.672    
(Pass: 41)
   Z-4.100    
   X28.934    
   X28.818    
   Y62.863    
   Y29.125    
   Y29.009    
   X28.934    
   X62.672    
   X62.787    
   Y29.125    
   Y62.863    
   Y62.985    
   X62.672    
(Pass: 42)
   Z-4.200    
   X28.934    
   X28.818    
   Y62.863    
   Y29.125    
   Y29.009    
   X28.934    
   X62.672    
   X62.787    
   Y29.125    
   Y62.863    
   Y62.985    
   X62.672    
(Pass: 43)
   Z-4.300    
   X28.934    
   X28.818    
   Y62.863    
   Y29.125    
   Y29.009    
   X28.934    
   X62.672    
   X62.787    
   Y29.125    
   Y62.863    
   Y62.985    
   X62.672    
(Pass: 44)
   Z-4.400    
   X28.934    
   X28.818    
   Y62.863    
   Y29.125    
   Y29.009    
   X28.934    
   X62.672    
   X62.787    
   Y29.125    
   Y62.863    
   Y62.985    
   X62.672    
(Pass: 45)
   Z-4.500    
   X28.934    
   X28.818    
   Y62.863    
   Y29.125    
   Y29.009    
   X28.934    
   X62.672    
   X62.787    
   Y29.125    
   Y62.863    
   Y62.985    
   X62.672    
(Pass: 46)
   Z-4.600    
   X28.934    
   X28.818    
   Y62.863    
   Y29.125    
   Y29.009    
   X28.934    
   X62.672    
   X62.787    
   Y29.125    
   Y62.863    
   Y62.985    
   X62.672    
(Pass: 47)
   Z-4.700    
   X28.934    
   X28.818    
   Y62.863    
   Y29.125    
   Y29.009    
   X28.934    
   X62.672    
   X62.787    
   Y29.125    
   Y62.863    
   Y62.985    
   X62.672    
(Pass: 48)
   Z-4.800    
   X28.934    
   X28.818    
   Y62.863    
   Y29.125    
   Y29.009    
   X28.934    
   X62.672    
   X62.787    
   Y29.125    
   Y62.863    
   Y62.985    
   X62.672    
(Pass: 49)
   Z-4.900    
   X28.934    
   X28.818    
   Y62.863    
   Y29.125    
   Y29.009    
   X28.934    
   X62.672    
   X62.787    
   Y29.125    
   Y62.863    
   Y62.985    
   X62.672    
(Pass: 50)
   Z-5.000    
   X28.934    
   X28.818    
   Y62.863    
   Y29.125    
   Y29.009    
   X28.934    
   X62.672    
   X62.787    
   Y29.125    
   Y62.863    
   Y62.985    
   X62.672    
(Pass: 51)
   Z-5.100    
   X28.934    
   X28.818    
   Y62.863    
   Y29.125    
   Y29.009    
   X28.934    
   X62.672    
   X62.787    
   Y29.125    
   Y62.863    
   Y62.985    
   X62.672    
(Pass: 52)
   Z-5.200    
   X28.934    
   X28.818    
   Y62.863    
   Y29.125    
   Y29.009    
   X28.934    
   X62.672    
   X62.787    
   Y29.125    
   Y62.863    
   Y62.985    
   X62.672    
(Pass: 53)
   Z-5.300    
   X28.934    
   X28.818    
   Y62.863    
   Y29.125    
   Y29.009    
   X28.934    
   X62.672    
   X62.787    
   Y29.125    
   Y62.863    
   Y62.985    
   X62.672    
(Pass: 54)
   Z-5.400    
   X28.934    
   X28.818    
   Y62.863    
   Y29.125    
   Y29.009    
   X28.934    
   X62.672    
   X62.787    
   Y29.125    
   Y62.863    
   Y62.985    
   X62.672    
(Pass: 55)
   Z-5.500    
   X28.934    
   X28.818    
   Y62.863    
   Y29.125    
   Y29.009    
   X28.934    
   X62.672    
   X62.787    
   Y29.125    
   Y62.863    
   Y62.985    
   X62.672    
(Pass: 56)
   Z-5.600    
   X28.934    
   X28.818    
   Y62.863    
   Y29.125    
   Y29.009    
   X28.934    
   X62.672    
   X62.787    
   Y29.125    
   Y62.863    
   Y62.985    
   X62.672    
(Pass: 57)
   Z-5.700    
   X28.934    
   X28.818    
   Y62.863    
   Y29.125    
   Y29.009    
   X28.934    
   X62.672    
   X62.787    
   Y29.125    
   Y62.863    
   Y62.985    
   X62.672    
(Pass: 58)
   Z-5.800    
   X28.934    
   X28.818    
   Y62.863    
   Y29.125    
   Y29.009    
   X28.934    
   X62.672    
   X62.787    
   Y29.125    
   Y62.863    
   Y62.985    
   X62.672    
(Pass: 59)
   Z-5.900    
   X28.934    
   X28.818    
   Y62.863    
   Y29.125    
   Y29.009    
   X28.934    
   X62.672    
   X62.787    
   Y29.125    
   Y62.863    
   Y62.985    
   X62.672    
(Pass: 60)
   Z-6.000    
   X28.934    
   X28.818    
   Y62.863    
   Y29.125    
   Y29.009    
   X28.934    
   X62.672    
   X62.787    
   Y29.125    
   Y62.863    
   Y62.985    
   X62.672    
(Pass: 61)
   Z-6.100    
   X28.934    
   X28.818    
   Y62.863    
   Y29.125    
   Y29.009    
   X28.934    
   X62.672    
   X62.787    
   Y29.125    
   Y62.863    
   Y62.985    
   X62.672    
(Pass: 62)
   Z-6.200    
   X28.934    
   X28.818    
   Y62.863    
   Y29.125    
   Y29.009    
   X28.934    
   X62.672    
   X62.787    
   Y29.125    
   Y62.863    
   Y62.985    
   X62.672    
(Pass: 63)
   Z-6.300    
   X28.934    
   X28.818    
   Y62.863    
   Y29.125    
   Y29.009    
   X28.934    
   X62.672    
   X62.787    
   Y29.125    
   Y62.863    
   Y62.985    
   X62.672    
(Pass: 64)
   Z-6.400    
   X28.934    
   X28.818    
   Y62.863    
   Y29.125    
   Y29.009    
   X28.934    
   X62.672    
   X62.787    
   Y29.125    
   Y62.863    
   Y62.985    
   X62.672    
(BREAK pass 64)
G0   Z3.200     
(Pass: 1)
   X32.885       Y180.520   
G1   Z-0.100     F300 
G17 G2   X33.2428      Y180.6681     R5.5000    
   X33.5499      Y180.9037     R5.5000    
   X33.7855      Y181.2108     R5.5000    
   X33.9336      Y181.5684     R5.5000    
   X33.9842      Y181.9522     R5.5000    
   X33.9336      Y182.3359     R5.5000    
   X33.7855      Y182.6935     R5.5000    
   X33.5499      Y183.0006     R5.5000    
   X33.2428      Y183.2363     R5.5000    
   X32.8852      Y183.3844     R5.5000    
   X32.5014      Y183.4349     R5.5000    
   X32.1177      Y183.3844     R5.5000    
   X31.7601      Y183.2363     R5.5000    
   X31.4530      Y183.0006     R5.5000    
   X31.2173      Y182.6935     R5.5000    
   X31.0692      Y182.3359     R5.5000    
   X31.0187      Y181.9522     R5.5000    
   X31.0692      Y181.5684     R5.5000    
   X31.2173      Y181.2108     R5.5000    
   X31.4530      Y180.9037     R5.5000    
   X31.7601      Y180.6681     R5.5000    
   X32.1177      Y180.5200     R5.5000    
   X32.5014      Y180.4694     R5.5000    
   X32.8852      Y180.5200     R5.5000    
(Pass: 2)
G1   Z-0.200    
G17 G2   X33.2428      Y180.6681     R5.5000    
   X33.5499      Y180.9037     R5.5000    
   X33.7855      Y181.2108     R5.5000    
   X33.9336      Y181.5684     R5.5000    
   X33.9842      Y181.9522     R5.5000    
   X33.9336      Y182.3359     R5.5000    
   X33.7855      Y182.6935     R5.5000    
   X33.5499      Y183.0006     R5.5000    
   X33.2428      Y183.2363     R5.5000    
   X32.8852      Y183.3844     R5.5000    
   X32.5014      Y183.4349     R5.5000    
   X32.1177      Y183.3844     R5.5000    
   X31.7601      Y183.2363     R5.5000    
   X31.4530      Y183.0006     R5.5000    
   X31.2173      Y182.6935     R5.5000    
   X31.0692      Y182.3359     R5.5000    
   X31.0187      Y181.9522     R5.5000    
   X31.0692      Y181.5684     R5.5000    
   X31.2173      Y181.2108     R5.5000    
   X31.4530      Y180.9037     R5.5000    
   X31.7601      Y180.6681     R5.5000    
   X32.1177      Y180.5200     R5.5000    
   X32.5014      Y180.4694     R5.5000    
   X32.8852      Y180.5200     R5.5000    
(Pass: 3)
G1   Z-0.300    
G17 G2   X33.2428      Y180.6681     R5.5000    
   X33.5499      Y180.9037     R5.5000    
   X33.7855      Y181.2108     R5.5000    
   X33.9336      Y181.5684     R5.5000    
   X33.9842      Y181.9522     R5.5000    
   X33.9336      Y182.3359     R5.5000    
   X33.7855      Y182.6935     R5.5000    
   X33.5499      Y183.0006     R5.5000    
   X33.2428      Y183.2363     R5.5000    
   X32.8852      Y183.3844     R5.5000    
   X32.5014      Y183.4349     R5.5000    
   X32.1177      Y183.3844     R5.5000    
   X31.7601      Y183.2363     R5.5000    
   X31.4530      Y183.0006     R5.5000    
   X31.2173      Y182.6935     R5.5000    
   X31.0692      Y182.3359     R5.5000    
   X31.0187      Y181.9522     R5.5000    
   X31.0692      Y181.5684     R5.5000    
   X31.2173      Y181.2108     R5.5000    
   X31.4530      Y180.9037     R5.5000    
   X31.7601      Y180.6681     R5.5000    
   X32.1177      Y180.5200     R5.5000    
   X32.5014      Y180.4694     R5.5000    
   X32.8852      Y180.5200     R5.5000    
(Pass: 4)
G1   Z-0.400    
G17 G2   X33.2428      Y180.6681     R5.5000    
   X33.5499      Y180.9037     R5.5000    
   X33.7855      Y181.2108     R5.5000    
   X33.9336      Y181.5684     R5.5000    
   X33.9842      Y181.9522     R5.5000    
   X33.9336      Y182.3359     R5.5000    
   X33.7855      Y182.6935     R5.5000    
   X33.5499      Y183.0006     R5.5000    
   X33.2428      Y183.2363     R5.5000    
   X32.8852      Y183.3844     R5.5000    
   X32.5014      Y183.4349     R5.5000    
   X32.1177      Y183.3844     R5.5000    
   X31.7601      Y183.2363     R5.5000    
   X31.4530      Y183.0006     R5.5000    
   X31.2173      Y182.6935     R5.5000    
   X31.0692      Y182.3359     R5.5000    
   X31.0187      Y181.9522     R5.5000    
   X31.0692      Y181.5684     R5.5000    
   X31.2173      Y181.2108     R5.5000    
   X31.4530      Y180.9037     R5.5000    
   X31.7601      Y180.6681     R5.5000    
   X32.1177      Y180.5200     R5.5000    
   X32.5014      Y180.4694     R5.5000    
   X32.8852      Y180.5200     R5.5000    
(Pass: 5)
G1   Z-0.500    
G17 G2   X33.2428      Y180.6681     R5.5000    
   X33.5499      Y180.9037     R5.5000    
   X33.7855      Y181.2108     R5.5000    
   X33.9336      Y181.5684     R5.5000    
   X33.9842      Y181.9522     R5.5000    
   X33.9336      Y182.3359     R5.5000    
   X33.7855      Y182.6935     R5.5000    
   X33.5499      Y183.0006     R5.5000    
   X33.2428      Y183.2363     R5.5000    
   X32.8852      Y183.3844     R5.5000    
   X32.5014      Y183.4349     R5.5000    
   X32.1177      Y183.3844     R5.5000    
   X31.7601      Y183.2363     R5.5000    
   X31.4530      Y183.0006     R5.5000    
   X31.2173      Y182.6935     R5.5000    
   X31.0692      Y182.3359     R5.5000    
   X31.0187      Y181.9522     R5.5000    
   X31.0692      Y181.5684     R5.5000    
   X31.2173      Y181.2108     R5.5000    
   X31.4530      Y180.9037     R5.5000    
   X31.7601      Y180.6681     R5.5000    
   X32.1177      Y180.5200     R5.5000    
   X32.5014      Y180.4694     R5.5000    
   X32.8852      Y180.5200     R5.5000    
(Pass: 6)
G1   Z-0.600    
G17 G2   X33.2428      Y180.6681     R5.5000    
   X33.5499      Y180.9037     R5.5000    
   X33.7855      Y181.2108     R5.5000    
   X33.9336      Y181.5684     R5.5000    
   X33.9842      Y181.9522     R5.5000    
   X33.9336      Y182.3359     R5.5000    
   X33.7855      Y182.6935     R5.5000    
   X33.5499      Y183.0006     R5.5000    
   X33.2428      Y183.2363     R5.5000    
   X32.8852      Y183.3844     R5.5000    
   X32.5014      Y183.4349     R5.5000    
   X32.1177      Y183.3844     R5.5000    
   X31.7601      Y183.2363     R5.5000    
   X31.4530      Y183.0006     R5.5000    
   X31.2173      Y182.6935     R5.5000    
   X31.0692      Y182.3359     R5.5000    
   X31.0187      Y181.9522     R5.5000    
   X31.0692      Y181.5684     R5.5000    
   X31.2173      Y181.2108     R5.5000    
   X31.4530      Y180.9037     R5.5000    
   X31.7601      Y180.6681     R5.5000    
   X32.1177      Y180.5200     R5.5000    
   X32.5014      Y180.4694     R5.5000    
   X32.8852      Y180.5200     R5.5000    
(Pass: 7)
G1   Z-0.700    
G17 G2   X33.2428      Y180.6681     R5.5000    
   X33.5499      Y180.9037     R5.5000    
   X33.7855      Y181.2108     R5.5000    
   X33.9336      Y181.5684     R5.5000    
   X33.9842      Y181.9522     R5.5000    
   X33.9336      Y182.3359     R5.5000    
   X33.7855      Y182.6935     R5.5000    
   X33.5499      Y183.0006     R5.5000    
   X33.2428      Y183.2363     R5.5000    
   X32.8852      Y183.3844     R5.5000    
   X32.5014      Y183.4349     R5.5000    
   X32.1177      Y183.3844     R5.5000    
   X31.7601      Y183.2363     R5.5000    
   X31.4530      Y183.0006     R5.5000    
   X31.2173      Y182.6935     R5.5000    
   X31.0692      Y182.3359     R5.5000    
   X31.0187      Y181.9522     R5.5000    
   X31.0692      Y181.5684     R5.5000    
   X31.2173      Y181.2108     R5.5000    
   X31.4530      Y180.9037     R5.5000    
   X31.7601      Y180.6681     R5.5000    
   X32.1177      Y180.5200     R5.5000    
   X32.5014      Y180.4694     R5.5000    
   X32.8852      Y180.5200     R5.5000    
(Pass: 8)
G1   Z-0.800    
G17 G2   X33.2428      Y180.6681     R5.5000    
   X33.5499      Y180.9037     R5.5000    
   X33.7855      Y181.2108     R5.5000    
   X33.9336      Y181.5684     R5.5000    
   X33.9842      Y181.9522     R5.5000    
   X33.9336      Y182.3359     R5.5000    
   X33.7855      Y182.6935     R5.5000    
   X33.5499      Y183.0006     R5.5000    
   X33.2428      Y183.2363     R5.5000    
   X32.8852      Y183.3844     R5.5000    
   X32.5014      Y183.4349     R5.5000    
   X32.1177      Y183.3844     R5.5000    
   X31.7601      Y183.2363     R5.5000    
   X31.4530      Y183.0006     R5.5000    
   X31.2173      Y182.6935     R5.5000    
   X31.0692      Y182.3359     R5.5000    
   X31.0187      Y181.9522     R5.5000    
   X31.0692      Y181.5684     R5.5000    
   X31.2173      Y181.2108     R5.5000    
   X31.4530      Y180.9037     R5.5000    
   X31.7601      Y180.6681     R5.5000    
   X32.1177      Y180.5200     R5.5000    
   X32.5014      Y180.4694     R5.5000    
   X32.8852      Y180.5200     R5.5000    
(Pass: 9)
G1   Z-0.900    
G17 G2   X33.2428      Y180.6681     R5.5000    
   X33.5499      Y180.9037     R5.5000    
   X33.7855      Y181.2108     R5.5000    
   X33.9336      Y181.5684     R5.5000    
   X33.9842      Y181.9522     R5.5000    
   X33.9336      Y182.3359     R5.5000    
   X33.7855      Y182.6935     R5.5000    
   X33.5499      Y183.0006     R5.5000    
   X33.2428      Y183.2363     R5.5000    
   X32.8852      Y183.3844     R5.5000    
   X32.5014      Y183.4349     R5.5000    
   X32.1177      Y183.3844     R5.5000    
   X31.7601      Y183.2363     R5.5000    
   X31.4530      Y183.0006     R5.5000    
   X31.2173      Y182.6935     R5.5000    
   X31.0692      Y182.3359     R5.5000    
   X31.0187      Y181.9522     R5.5000    
   X31.0692      Y181.5684     R5.5000    
   X31.2173      Y181.2108     R5.5000    
   X31.4530      Y180.9037     R5.5000    
   X31.7601      Y180.6681     R5.5000    
   X32.1177      Y180.5200     R5.5000    
   X32.5014      Y180.4694     R5.5000    
   X32.8852      Y180.5200     R5.5000    
(Pass: 10)
G1   Z-1.000    
G17 G2   X33.2428      Y180.6681     R5.5000    
   X33.5499      Y180.9037     R5.5000    
   X33.7855      Y181.2108     R5.5000    
   X33.9336      Y181.5684     R5.5000    
   X33.9842      Y181.9522     R5.5000    
   X33.9336      Y182.3359     R5.5000    
   X33.7855      Y182.6935     R5.5000    
   X33.5499      Y183.0006     R5.5000    
   X33.2428      Y183.2363     R5.5000    
   X32.8852      Y183.3844     R5.5000    
   X32.5014      Y183.4349     R5.5000    
   X32.1177      Y183.3844     R5.5000    
   X31.7601      Y183.2363     R5.5000    
   X31.4530      Y183.0006     R5.5000    
   X31.2173      Y182.6935     R5.5000    
   X31.0692      Y182.3359     R5.5000    
   X31.0187      Y181.9522     R5.5000    
   X31.0692      Y181.5684     R5.5000    
   X31.2173      Y181.2108     R5.5000    
   X31.4530      Y180.9037     R5.5000    
   X31.7601      Y180.6681     R5.5000    
   X32.1177      Y180.5200     R5.5000    
   X32.5014      Y180.4694     R5.5000    
   X32.8852      Y180.5200     R5.5000    
(Pass: 11)
G1   Z-1.100    
G17 G2   X33.2428      Y180.6681     R5.5000    
   X33.5499      Y180.9037     R5.5000    
   X33.7855      Y181.2108     R5.5000    
   X33.9336      Y181.5684     R5.5000    
   X33.9842      Y181.9522     R5.5000    
   X33.9336      Y182.3359     R5.5000    
   X33.7855      Y182.6935     R5.5000    
   X33.5499      Y183.0006     R5.5000    
   X33.2428      Y183.2363     R5.5000    
   X32.8852      Y183.3844     R5.5000    
   X32.5014      Y183.4349     R5.5000    
   X32.1177      Y183.3844     R5.5000    
   X31.7601      Y183.2363     R5.5000    
   X31.4530      Y183.0006     R5.5000    
   X31.2173      Y182.6935     R5.5000    
   X31.0692      Y182.3359     R5.5000    
   X31.0187      Y181.9522     R5.5000    
   X31.0692      Y181.5684     R5.5000    
   X31.2173      Y181.2108     R5.5000    
   X31.4530      Y180.9037     R5.5000    
   X31.7601      Y180.6681     R5.5000    
   X32.1177      Y180.5200     R5.5000    
   X32.5014      Y180.4694     R5.5000    
   X32.8852      Y180.5200     R5.5000    
(Pass: 12)
G1   Z-1.200    
G17 G2   X33.2428      Y180.6681     R5.5000    
   X33.5499      Y180.9037     R5.5000    
   X33.7855      Y181.2108     R5.5000    
   X33.9336      Y181.5684     R5.5000    
   X33.9842      Y181.9522     R5.5000    
   X33.9336      Y182.3359     R5.5000    
   X33.7855      Y182.6935     R5.5000    
   X33.5499      Y183.0006     R5.5000    
   X33.2428      Y183.2363     R5.5000    
   X32.8852      Y183.3844     R5.5000    
   X32.5014      Y183.4349     R5.5000    
   X32.1177      Y183.3844     R5.5000    
   X31.7601      Y183.2363     R5.5000    
   X31.4530      Y183.0006     R5.5000    
   X31.2173      Y182.6935     R5.5000    
   X31.0692      Y182.3359     R5.5000    
   X31.0187      Y181.9522     R5.5000    
   X31.0692      Y181.5684     R5.5000    
   X31.2173      Y181.2108     R5.5000    
   X31.4530      Y180.9037     R5.5000    
   X31.7601      Y180.6681     R5.5000    
   X32.1177      Y180.5200     R5.5000    
   X32.5014      Y180.4694     R5.5000    
   X32.8852      Y180.5200     R5.5000    
(Pass: 13)
G1   Z-1.300    
G17 G2   X33.2428      Y180.6681     R5.5000    
   X33.5499      Y180.9037     R5.5000    
   X33.7855      Y181.2108     R5.5000    
   X33.9336      Y181.5684     R5.5000    
   X33.9842      Y181.9522     R5.5000    
   X33.9336      Y182.3359     R5.5000    
   X33.7855      Y182.6935     R5.5000    
   X33.5499      Y183.0006     R5.5000    
   X33.2428      Y183.2363     R5.5000    
   X32.8852      Y183.3844     R5.5000    
   X32.5014      Y183.4349     R5.5000    
   X32.1177      Y183.3844     R5.5000    
   X31.7601      Y183.2363     R5.5000    
   X31.4530      Y183.0006     R5.5000    
   X31.2173      Y182.6935     R5.5000    
   X31.0692      Y182.3359     R5.5000    
   X31.0187      Y181.9522     R5.5000    
   X31.0692      Y181.5684     R5.5000    
   X31.2173      Y181.2108     R5.5000    
   X31.4530      Y180.9037     R5.5000    
   X31.7601      Y180.6681     R5.5000    
   X32.1177      Y180.5200     R5.5000    
   X32.5014      Y180.4694     R5.5000    
   X32.8852      Y180.5200     R5.5000    
(Pass: 14)
G1   Z-1.400    
G17 G2   X33.2428      Y180.6681     R5.5000    
   X33.5499      Y180.9037     R5.5000    
   X33.7855      Y181.2108     R5.5000    
   X33.9336      Y181.5684     R5.5000    
   X33.9842      Y181.9522     R5.5000    
   X33.9336      Y182.3359     R5.5000    
   X33.7855      Y182.6935     R5.5000    
   X33.5499      Y183.0006     R5.5000    
   X33.2428      Y183.2363     R5.5000    
   X32.8852      Y183.3844     R5.5000    
   X32.5014      Y183.4349     R5.5000    
   X32.1177      Y183.3844     R5.5000    
   X31.7601      Y183.2363     R5.5000    
   X31.4530      Y183.0006     R5.5000    
   X31.2173      Y182.6935     R5.5000    
   X31.0692      Y182.3359     R5.5000    
   X31.0187      Y181.9522     R5.5000    
   X31.0692      Y181.5684     R5.5000    
   X31.2173      Y181.2108     R5.5000    
   X31.4530      Y180.9037     R5.5000    
   X31.7601      Y180.6681     R5.5000    
   X32.1177      Y180.5200     R5.5000    
   X32.5014      Y180.4694     R5.5000    
   X32.8852      Y180.5200     R5.5000    
(Pass: 15)
G1   Z-1.500    
G17 G2   X33.2428      Y180.6681     R5.5000    
   X33.5499      Y180.9037     R5.5000    
   X33.7855      Y181.2108     R5.5000    
   X33.9336      Y181.5684     R5.5000    
   X33.9842      Y181.9522     R5.5000    
   X33.9336      Y182.3359     R5.5000    
   X33.7855      Y182.6935     R5.5000    
   X33.5499      Y183.0006     R5.5000    
   X33.2428      Y183.2363     R5.5000    
   X32.8852      Y183.3844     R5.5000    
   X32.5014      Y183.4349     R5.5000    
   X32.1177      Y183.3844     R5.5000    
   X31.7601      Y183.2363     R5.5000    
   X31.4530      Y183.0006     R5.5000    
   X31.2173      Y182.6935     R5.5000    
   X31.0692      Y182.3359     R5.5000    
   X31.0187      Y181.9522     R5.5000    
   X31.0692      Y181.5684     R5.5000    
   X31.2173      Y181.2108     R5.5000    
   X31.4530      Y180.9037     R5.5000    
   X31.7601      Y180.6681     R5.5000    
   X32.1177      Y180.5200     R5.5000    
   X32.5014      Y180.4694     R5.5000    
   X32.8852      Y180.5200     R5.5000    
(Pass: 16)
G1   Z-1.600    
G17 G2   X33.2428      Y180.6681     R5.5000    
   X33.5499      Y180.9037     R5.5000    
   X33.7855      Y181.2108     R5.5000    
   X33.9336      Y181.5684     R5.5000    
   X33.9842      Y181.9522     R5.5000    
   X33.9336      Y182.3359     R5.5000    
   X33.7855      Y182.6935     R5.5000    
   X33.5499      Y183.0006     R5.5000    
   X33.2428      Y183.2363     R5.5000    
   X32.8852      Y183.3844     R5.5000    
   X32.5014      Y183.4349     R5.5000    
   X32.1177      Y183.3844     R5.5000    
   X31.7601      Y183.2363     R5.5000    
   X31.4530      Y183.0006     R5.5000    
   X31.2173      Y182.6935     R5.5000    
   X31.0692      Y182.3359     R5.5000    
   X31.0187      Y181.9522     R5.5000    
   X31.0692      Y181.5684     R5.5000    
   X31.2173      Y181.2108     R5.5000    
   X31.4530      Y180.9037     R5.5000    
   X31.7601      Y180.6681     R5.5000    
   X32.1177      Y180.5200     R5.5000    
   X32.5014      Y180.4694     R5.5000    
   X32.8852      Y180.5200     R5.5000    
(Pass: 17)
G1   Z-1.700    
G17 G2   X33.2428      Y180.6681     R5.5000    
   X33.5499      Y180.9037     R5.5000    
   X33.7855      Y181.2108     R5.5000    
   X33.9336      Y181.5684     R5.5000    
   X33.9842      Y181.9522     R5.5000    
   X33.9336      Y182.3359     R5.5000    
   X33.7855      Y182.6935     R5.5000    
   X33.5499      Y183.0006     R5.5000    
   X33.2428      Y183.2363     R5.5000    
   X32.8852      Y183.3844     R5.5000    
   X32.5014      Y183.4349     R5.5000    
   X32.1177      Y183.3844     R5.5000    
   X31.7601      Y183.2363     R5.5000    
   X31.4530      Y183.0006     R5.5000    
   X31.2173      Y182.6935     R5.5000    
   X31.0692      Y182.3359     R5.5000    
   X31.0187      Y181.9522     R5.5000    
   X31.0692      Y181.5684     R5.5000    
   X31.2173      Y181.2108     R5.5000    
   X31.4530      Y180.9037     R5.5000    
   X31.7601      Y180.6681     R5.5000    
   X32.1177      Y180.5200     R5.5000    
   X32.5014      Y180.4694     R5.5000    
   X32.8852      Y180.5200     R5.5000    
(Pass: 18)
G1   Z-1.800    
G17 G2   X33.2428      Y180.6681     R5.5000    
   X33.5499      Y180.9037     R5.5000    
   X33.7855      Y181.2108     R5.5000    
   X33.9336      Y181.5684     R5.5000    
   X33.9842      Y181.9522     R5.5000    
   X33.9336      Y182.3359     R5.5000    
   X33.7855      Y182.6935     R5.5000    
   X33.5499      Y183.0006     R5.5000    
   X33.2428      Y183.2363     R5.5000    
   X32.8852      Y183.3844     R5.5000    
   X32.5014      Y183.4349     R5.5000    
   X32.1177      Y183.3844     R5.5000    
   X31.7601      Y183.2363     R5.5000    
   X31.4530      Y183.0006     R5.5000    
   X31.2173      Y182.6935     R5.5000    
   X31.0692      Y182.3359     R5.5000    
   X31.0187      Y181.9522     R5.5000    
   X31.0692      Y181.5684     R5.5000    
   X31.2173      Y181.2108     R5.5000    
   X31.4530      Y180.9037     R5.5000    
   X31.7601      Y180.6681     R5.5000    
   X32.1177      Y180.5200     R5.5000    
   X32.5014      Y180.4694     R5.5000    
   X32.8852      Y180.5200     R5.5000    
(Pass: 19)
G1   Z-1.900    
G17 G2   X33.2428      Y180.6681     R5.5000    
   X33.5499      Y180.9037     R5.5000    
   X33.7855      Y181.2108     R5.5000    
   X33.9336      Y181.5684     R5.5000    
   X33.9842      Y181.9522     R5.5000    
   X33.9336      Y182.3359     R5.5000    
   X33.7855      Y182.6935     R5.5000    
   X33.5499      Y183.0006     R5.5000    
   X33.2428      Y183.2363     R5.5000    
   X32.8852      Y183.3844     R5.5000    
   X32.5014      Y183.4349     R5.5000    
   X32.1177      Y183.3844     R5.5000    
   X31.7601      Y183.2363     R5.5000    
   X31.4530      Y183.0006     R5.5000    
   X31.2173      Y182.6935     R5.5000    
   X31.0692      Y182.3359     R5.5000    
   X31.0187      Y181.9522     R5.5000    
   X31.0692      Y181.5684     R5.5000    
   X31.2173      Y181.2108     R5.5000    
   X31.4530      Y180.9037     R5.5000    
   X31.7601      Y180.6681     R5.5000    
   X32.1177      Y180.5200     R5.5000    
   X32.5014      Y180.4694     R5.5000    
   X32.8852      Y180.5200     R5.5000    
(Pass: 20)
G1   Z-2.000    
G17 G2   X33.2428      Y180.6681     R5.5000    
   X33.5499      Y180.9037     R5.5000    
   X33.7855      Y181.2108     R5.5000    
   X33.9336      Y181.5684     R5.5000    
   X33.9842      Y181.9522     R5.5000    
   X33.9336      Y182.3359     R5.5000    
   X33.7855      Y182.6935     R5.5000    
   X33.5499      Y183.0006     R5.5000    
   X33.2428      Y183.2363     R5.5000    
   X32.8852      Y183.3844     R5.5000    
   X32.5014      Y183.4349     R5.5000    
   X32.1177      Y183.3844     R5.5000    
   X31.7601      Y183.2363     R5.5000    
   X31.4530      Y183.0006     R5.5000    
   X31.2173      Y182.6935     R5.5000    
   X31.0692      Y182.3359     R5.5000    
   X31.0187      Y181.9522     R5.5000    
   X31.0692      Y181.5684     R5.5000    
   X31.2173      Y181.2108     R5.5000    
   X31.4530      Y180.9037     R5.5000    
   X31.7601      Y180.6681     R5.5000    
   X32.1177      Y180.5200     R5.5000    
   X32.5014      Y180.4694     R5.5000    
   X32.8852      Y180.5200     R5.5000    
(Pass: 21)
G1   Z-2.100    
G17 G2   X33.2428      Y180.6681     R5.5000    
   X33.5499      Y180.9037     R5.5000    
   X33.7855      Y181.2108     R5.5000    
   X33.9336      Y181.5684     R5.5000    
   X33.9842      Y181.9522     R5.5000    
   X33.9336      Y182.3359     R5.5000    
   X33.7855      Y182.6935     R5.5000    
   X33.5499      Y183.0006     R5.5000    
   X33.2428      Y183.2363     R5.5000    
   X32.8852      Y183.3844     R5.5000    
   X32.5014      Y183.4349     R5.5000    
   X32.1177      Y183.3844     R5.5000    
   X31.7601      Y183.2363     R5.5000    
   X31.4530      Y183.0006     R5.5000    
   X31.2173      Y182.6935     R5.5000    
   X31.0692      Y182.3359     R5.5000    
   X31.0187      Y181.9522     R5.5000    
   X31.0692      Y181.5684     R5.5000    
   X31.2173      Y181.2108     R5.5000    
   X31.4530      Y180.9037     R5.5000    
   X31.7601      Y180.6681     R5.5000    
   X32.1177      Y180.5200     R5.5000    
   X32.5014      Y180.4694     R5.5000    
   X32.8852      Y180.5200     R5.5000    
(Pass: 22)
G1   Z-2.200    
G17 G2   X33.2428      Y180.6681     R5.5000    
   X33.5499      Y180.9037     R5.5000    
   X33.7855      Y181.2108     R5.5000    
   X33.9336      Y181.5684     R5.5000    
   X33.9842      Y181.9522     R5.5000    
   X33.9336      Y182.3359     R5.5000    
   X33.7855      Y182.6935     R5.5000    
   X33.5499      Y183.0006     R5.5000    
   X33.2428      Y183.2363     R5.5000    
   X32.8852      Y183.3844     R5.5000    
   X32.5014      Y183.4349     R5.5000    
   X32.1177      Y183.3844     R5.5000    
   X31.7601      Y183.2363     R5.5000    
   X31.4530      Y183.0006     R5.5000    
   X31.2173      Y182.6935     R5.5000    
   X31.0692      Y182.3359     R5.5000    
   X31.0187      Y181.9522     R5.5000    
   X31.0692      Y181.5684     R5.5000    
   X31.2173      Y181.2108     R5.5000    
   X31.4530      Y180.9037     R5.5000    
   X31.7601      Y180.6681     R5.5000    
   X32.1177      Y180.5200     R5.5000    
   X32.5014      Y180.4694     R5.5000    
   X32.8852      Y180.5200     R5.5000    
(Pass: 23)
G1   Z-2.300    
G17 G2   X33.2428      Y180.6681     R5.5000    
   X33.5499      Y180.9037     R5.5000    
   X33.7855      Y181.2108     R5.5000    
   X33.9336      Y181.5684     R5.5000    
   X33.9842      Y181.9522     R5.5000    
   X33.9336      Y182.3359     R5.5000    
   X33.7855      Y182.6935     R5.5000    
   X33.5499      Y183.0006     R5.5000    
   X33.2428      Y183.2363     R5.5000    
   X32.8852      Y183.3844     R5.5000    
   X32.5014      Y183.4349     R5.5000    
   X32.1177      Y183.3844     R5.5000    
   X31.7601      Y183.2363     R5.5000    
   X31.4530      Y183.0006     R5.5000    
   X31.2173      Y182.6935     R5.5000    
   X31.0692      Y182.3359     R5.5000    
   X31.0187      Y181.9522     R5.5000    
   X31.0692      Y181.5684     R5.5000    
   X31.2173      Y181.2108     R5.5000    
   X31.4530      Y180.9037     R5.5000    
   X31.7601      Y180.6681     R5.5000    
   X32.1177      Y180.5200     R5.5000    
   X32.5014      Y180.4694     R5.5000    
   X32.8852      Y180.5200     R5.5000    
(Pass: 24)
G1   Z-2.400    
G17 G2   X33.2428      Y180.6681     R5.5000    
   X33.5499      Y180.9037     R5.5000    
   X33.7855      Y181.2108     R5.5000    
   X33.9336      Y181.5684     R5.5000    
   X33.9842      Y181.9522     R5.5000    
   X33.9336      Y182.3359     R5.5000    
   X33.7855      Y182.6935     R5.5000    
   X33.5499      Y183.0006     R5.5000    
   X33.2428      Y183.2363     R5.5000    
   X32.8852      Y183.3844     R5.5000    
   X32.5014      Y183.4349     R5.5000    
   X32.1177      Y183.3844     R5.5000    
   X31.7601      Y183.2363     R5.5000    
   X31.4530      Y183.0006     R5.5000    
   X31.2173      Y182.6935     R5.5000    
   X31.0692      Y182.3359     R5.5000    
   X31.0187      Y181.9522     R5.5000    
   X31.0692      Y181.5684     R5.5000    
   X31.2173      Y181.2108     R5.5000    
   X31.4530      Y180.9037     R5.5000    
   X31.7601      Y180.6681     R5.5000    
   X32.1177      Y180.5200     R5.5000    
   X32.5014      Y180.4694     R5.5000    
   X32.8852      Y180.5200     R5.5000    
(Pass: 25)
G1   Z-2.500    
G17 G2   X33.2428      Y180.6681     R5.5000    
   X33.5499      Y180.9037     R5.5000    
   X33.7855      Y181.2108     R5.5000    
   X33.9336      Y181.5684     R5.5000    
   X33.9842      Y181.9522     R5.5000    
   X33.9336      Y182.3359     R5.5000    
   X33.7855      Y182.6935     R5.5000    
   X33.5499      Y183.0006     R5.5000    
   X33.2428      Y183.2363     R5.5000    
   X32.8852      Y183.3844     R5.5000    
   X32.5014      Y183.4349     R5.5000    
   X32.1177      Y183.3844     R5.5000    
   X31.7601      Y183.2363     R5.5000    
   X31.4530      Y183.0006     R5.5000    
   X31.2173      Y182.6935     R5.5000    
   X31.0692      Y182.3359     R5.5000    
   X31.0187      Y181.9522     R5.5000    
   X31.0692      Y181.5684     R5.5000    
   X31.2173      Y181.2108     R5.5000    
   X31.4530      Y180.9037     R5.5000    
   X31.7601      Y180.6681     R5.5000    
   X32.1177      Y180.5200     R5.5000    
   X32.5014      Y180.4694     R5.5000    
   X32.8852      Y180.5200     R5.5000    
(Pass: 26)
G1   Z-2.600    
G17 G2   X33.2428      Y180.6681     R5.5000    
   X33.5499      Y180.9037     R5.5000    
   X33.7855      Y181.2108     R5.5000    
   X33.9336      Y181.5684     R5.5000    
   X33.9842      Y181.9522     R5.5000    
   X33.9336      Y182.3359     R5.5000    
   X33.7855      Y182.6935     R5.5000    
   X33.5499      Y183.0006     R5.5000    
   X33.2428      Y183.2363     R5.5000    
   X32.8852      Y183.3844     R5.5000    
   X32.5014      Y183.4349     R5.5000    
   X32.1177      Y183.3844     R5.5000    
   X31.7601      Y183.2363     R5.5000    
   X31.4530      Y183.0006     R5.5000    
   X31.2173      Y182.6935     R5.5000    
   X31.0692      Y182.3359     R5.5000    
   X31.0187      Y181.9522     R5.5000    
   X31.0692      Y181.5684     R5.5000    
   X31.2173      Y181.2108     R5.5000    
   X31.4530      Y180.9037     R5.5000    
   X31.7601      Y180.6681     R5.5000    
   X32.1177      Y180.5200     R5.5000    
   X32.5014      Y180.4694     R5.5000    
   X32.8852      Y180.5200     R5.5000    
(Pass: 27)
G1   Z-2.700    
G17 G2   X33.2428      Y180.6681     R5.5000    
   X33.5499      Y180.9037     R5.5000    
   X33.7855      Y181.2108     R5.5000    
   X33.9336      Y181.5684     R5.5000    
   X33.9842      Y181.9522     R5.5000    
   X33.9336      Y182.3359     R5.5000    
   X33.7855      Y182.6935     R5.5000    
   X33.5499      Y183.0006     R5.5000    
   X33.2428      Y183.2363     R5.5000    
   X32.8852      Y183.3844     R5.5000    
   X32.5014      Y183.4349     R5.5000    
   X32.1177      Y183.3844     R5.5000    
   X31.7601      Y183.2363     R5.5000    
   X31.4530      Y183.0006     R5.5000    
   X31.2173      Y182.6935     R5.5000    
   X31.0692      Y182.3359     R5.5000    
   X31.0187      Y181.9522     R5.5000    
   X31.0692      Y181.5684     R5.5000    
   X31.2173      Y181.2108     R5.5000    
   X31.4530      Y180.9037     R5.5000    
   X31.7601      Y180.6681     R5.5000    
   X32.1177      Y180.5200     R5.5000    
   X32.5014      Y180.4694     R5.5000    
   X32.8852      Y180.5200     R5.5000    
(Pass: 28)
G1   Z-2.800    
G17 G2   X33.2428      Y180.6681     R5.5000    
   X33.5499      Y180.9037     R5.5000    
   X33.7855      Y181.2108     R5.5000    
   X33.9336      Y181.5684     R5.5000    
   X33.9842      Y181.9522     R5.5000    
   X33.9336      Y182.3359     R5.5000    
   X33.7855      Y182.6935     R5.5000    
   X33.5499      Y183.0006     R5.5000    
   X33.2428      Y183.2363     R5.5000    
   X32.8852      Y183.3844     R5.5000    
   X32.5014      Y183.4349     R5.5000    
   X32.1177      Y183.3844     R5.5000    
   X31.7601      Y183.2363     R5.5000    
   X31.4530      Y183.0006     R5.5000    
   X31.2173      Y182.6935     R5.5000    
   X31.0692      Y182.3359     R5.5000    
   X31.0187      Y181.9522     R5.5000    
   X31.0692      Y181.5684     R5.5000    
   X31.2173      Y181.2108     R5.5000    
   X31.4530      Y180.9037     R5.5000    
   X31.7601      Y180.6681     R5.5000    
   X32.1177      Y180.5200     R5.5000    
   X32.5014      Y180.4694     R5.5000    
   X32.8852      Y180.5200     R5.5000    
(Pass: 29)
G1   Z-2.900    
G17 G2   X33.2428      Y180.6681     R5.5000    
   X33.5499      Y180.9037     R5.5000    
   X33.7855      Y181.2108     R5.5000    
   X33.9336      Y181.5684     R5.5000    
   X33.9842      Y181.9522     R5.5000    
   X33.9336      Y182.3359     R5.5000    
   X33.7855      Y182.6935     R5.5000    
   X33.5499      Y183.0006     R5.5000    
   X33.2428      Y183.2363     R5.5000    
   X32.8852      Y183.3844     R5.5000    
   X32.5014      Y183.4349     R5.5000    
   X32.1177      Y183.3844     R5.5000    
   X31.7601      Y183.2363     R5.5000    
   X31.4530      Y183.0006     R5.5000    
   X31.2173      Y182.6935     R5.5000    
   X31.0692      Y182.3359     R5.5000    
   X31.0187      Y181.9522     R5.5000    
   X31.0692      Y181.5684     R5.5000    
   X31.2173      Y181.2108     R5.5000    
   X31.4530      Y180.9037     R5.5000    
   X31.7601      Y180.6681     R5.5000    
   X32.1177      Y180.5200     R5.5000    
   X32.5014      Y180.4694     R5.5000    
   X32.8852      Y180.5200     R5.5000    
(Pass: 30)
G1   Z-3.000    
G17 G2   X33.2428      Y180.6681     R5.5000    
   X33.5499      Y180.9037     R5.5000    
   X33.7855      Y181.2108     R5.5000    
   X33.9336      Y181.5684     R5.5000    
   X33.9842      Y181.9522     R5.5000    
   X33.9336      Y182.3359     R5.5000    
   X33.7855      Y182.6935     R5.5000    
   X33.5499      Y183.0006     R5.5000    
   X33.2428      Y183.2363     R5.5000    
   X32.8852      Y183.3844     R5.5000    
   X32.5014      Y183.4349     R5.5000    
   X32.1177      Y183.3844     R5.5000    
   X31.7601      Y183.2363     R5.5000    
   X31.4530      Y183.0006     R5.5000    
   X31.2173      Y182.6935     R5.5000    
   X31.0692      Y182.3359     R5.5000    
   X31.0187      Y181.9522     R5.5000    
   X31.0692      Y181.5684     R5.5000    
   X31.2173      Y181.2108     R5.5000    
   X31.4530      Y180.9037     R5.5000    
   X31.7601      Y180.6681     R5.5000    
   X32.1177      Y180.5200     R5.5000    
   X32.5014      Y180.4694     R5.5000    
   X32.8852      Y180.5200     R5.5000    
(Pass: 31)
G1   Z-3.100    
G17 G2   X33.2428      Y180.6681     R5.5000    
   X33.5499      Y180.9037     R5.5000    
   X33.7855      Y181.2108     R5.5000    
   X33.9336      Y181.5684     R5.5000    
   X33.9842      Y181.9522     R5.5000    
   X33.9336      Y182.3359     R5.5000    
   X33.7855      Y182.6935     R5.5000    
   X33.5499      Y183.0006     R5.5000    
   X33.2428      Y183.2363     R5.5000    
   X32.8852      Y183.3844     R5.5000    
   X32.5014      Y183.4349     R5.5000    
   X32.1177      Y183.3844     R5.5000    
   X31.7601      Y183.2363     R5.5000    
   X31.4530      Y183.0006     R5.5000    
   X31.2173      Y182.6935     R5.5000    
   X31.0692      Y182.3359     R5.5000    
   X31.0187      Y181.9522     R5.5000    
   X31.0692      Y181.5684     R5.5000    
   X31.2173      Y181.2108     R5.5000    
   X31.4530      Y180.9037     R5.5000    
   X31.7601      Y180.6681     R5.5000    
   X32.1177      Y180.5200     R5.5000    
   X32.5014      Y180.4694     R5.5000    
   X32.8852      Y180.5200     R5.5000    
(Pass: 32)
G1   Z-3.200    
G17 G2   X33.2428      Y180.6681     R5.5000    
   X33.5499      Y180.9037     R5.5000    
   X33.7855      Y181.2108     R5.5000    
   X33.9336      Y181.5684     R5.5000    
   X33.9842      Y181.9522     R5.5000    
   X33.9336      Y182.3359     R5.5000    
   X33.7855      Y182.6935     R5.5000    
   X33.5499      Y183.0006     R5.5000    
   X33.2428      Y183.2363     R5.5000    
   X32.8852      Y183.3844     R5.5000    
   X32.5014      Y183.4349     R5.5000    
   X32.1177      Y183.3844     R5.5000    
   X31.7601      Y183.2363     R5.5000    
   X31.4530      Y183.0006     R5.5000    
   X31.2173      Y182.6935     R5.5000    
   X31.0692      Y182.3359     R5.5000    
   X31.0187      Y181.9522     R5.5000    
   X31.0692      Y181.5684     R5.5000    
   X31.2173      Y181.2108     R5.5000    
   X31.4530      Y180.9037     R5.5000    
   X31.7601      Y180.6681     R5.5000    
   X32.1177      Y180.5200     R5.5000    
   X32.5014      Y180.4694     R5.5000    
   X32.8852      Y180.5200     R5.5000    
(Pass: 33)
G1   Z-3.300    
G17 G2   X33.2428      Y180.6681     R5.5000    
   X33.5499      Y180.9037     R5.5000    
   X33.7855      Y181.2108     R5.5000    
   X33.9336      Y181.5684     R5.5000    
   X33.9842      Y181.9522     R5.5000    
   X33.9336      Y182.3359     R5.5000    
   X33.7855      Y182.6935     R5.5000    
   X33.5499      Y183.0006     R5.5000    
   X33.2428      Y183.2363     R5.5000    
   X32.8852      Y183.3844     R5.5000    
   X32.5014      Y183.4349     R5.5000    
   X32.1177      Y183.3844     R5.5000    
   X31.7601      Y183.2363     R5.5000    
   X31.4530      Y183.0006     R5.5000    
   X31.2173      Y182.6935     R5.5000    
   X31.0692      Y182.3359     R5.5000    
   X31.0187      Y181.9522     R5.5000    
   X31.0692      Y181.5684     R5.5000    
   X31.2173      Y181.2108     R5.5000    
   X31.4530      Y180.9037     R5.5000    
   X31.7601      Y180.6681     R5.5000    
   X32.1177      Y180.5200     R5.5000    
   X32.5014      Y180.4694     R5.5000    
   X32.8852      Y180.5200     R5.5000    
(Pass: 34)
G1   Z-3.400    
G17 G2   X33.2428      Y180.6681     R5.5000    
   X33.5499      Y180.9037     R5.5000    
   X33.7855      Y181.2108     R5.5000    
   X33.9336      Y181.5684     R5.5000    
   X33.9842      Y181.9522     R5.5000    
   X33.9336      Y182.3359     R5.5000    
   X33.7855      Y182.6935     R5.5000    
   X33.5499      Y183.0006     R5.5000    
   X33.2428      Y183.2363     R5.5000    
   X32.8852      Y183.3844     R5.5000    
   X32.5014      Y183.4349     R5.5000    
   X32.1177      Y183.3844     R5.5000    
   X31.7601      Y183.2363     R5.5000    
   X31.4530      Y183.0006     R5.5000    
   X31.2173      Y182.6935     R5.5000    
   X31.0692      Y182.3359     R5.5000    
   X31.0187      Y181.9522     R5.5000    
   X31.0692      Y181.5684     R5.5000    
   X31.2173      Y181.2108     R5.5000    
   X31.4530      Y180.9037     R5.5000    
   X31.7601      Y180.6681     R5.5000    
   X32.1177      Y180.5200     R5.5000    
   X32.5014      Y180.4694     R5.5000    
   X32.8852      Y180.5200     R5.5000    
(Pass: 35)
G1   Z-3.500    
G17 G2   X33.2428      Y180.6681     R5.5000    
   X33.5499      Y180.9037     R5.5000    
   X33.7855      Y181.2108     R5.5000    
   X33.9336      Y181.5684     R5.5000    
   X33.9842      Y181.9522     R5.5000    
   X33.9336      Y182.3359     R5.5000    
   X33.7855      Y182.6935     R5.5000    
   X33.5499      Y183.0006     R5.5000    
   X33.2428      Y183.2363     R5.5000    
   X32.8852      Y183.3844     R5.5000    
   X32.5014      Y183.4349     R5.5000    
   X32.1177      Y183.3844     R5.5000    
   X31.7601      Y183.2363     R5.5000    
   X31.4530      Y183.0006     R5.5000    
   X31.2173      Y182.6935     R5.5000    
   X31.0692      Y182.3359     R5.5000    
   X31.0187      Y181.9522     R5.5000    
   X31.0692      Y181.5684     R5.5000    
   X31.2173      Y181.2108     R5.5000    
   X31.4530      Y180.9037     R5.5000    
   X31.7601      Y180.6681     R5.5000    
   X32.1177      Y180.5200     R5.5000    
   X32.5014      Y180.4694     R5.5000    
   X32.8852      Y180.5200     R5.5000    
(Pass: 36)
G1   Z-3.600    
G17 G2   X33.2428      Y180.6681     R5.5000    
   X33.5499      Y180.9037     R5.5000    
   X33.7855      Y181.2108     R5.5000    
   X33.9336      Y181.5684     R5.5000    
   X33.9842      Y181.9522     R5.5000    
   X33.9336      Y182.3359     R5.5000    
   X33.7855      Y182.6935     R5.5000    
   X33.5499      Y183.0006     R5.5000    
   X33.2428      Y183.2363     R5.5000    
   X32.8852      Y183.3844     R5.5000    
   X32.5014      Y183.4349     R5.5000    
   X32.1177      Y183.3844     R5.5000    
   X31.7601      Y183.2363     R5.5000    
   X31.4530      Y183.0006     R5.5000    
   X31.2173      Y182.6935     R5.5000    
   X31.0692      Y182.3359     R5.5000    
   X31.0187      Y181.9522     R5.5000    
   X31.0692      Y181.5684     R5.5000    
   X31.2173      Y181.2108     R5.5000    
   X31.4530      Y180.9037     R5.5000    
   X31.7601      Y180.6681     R5.5000    
   X32.1177      Y180.5200     R5.5000    
   X32.5014      Y180.4694     R5.5000    
   X32.8852      Y180.5200     R5.5000    
(Pass: 37)
G1   Z-3.700    
G17 G2   X33.2428      Y180.6681     R5.5000    
   X33.5499      Y180.9037     R5.5000    
   X33.7855      Y181.2108     R5.5000    
   X33.9336      Y181.5684     R5.5000    
   X33.9842      Y181.9522     R5.5000    
   X33.9336      Y182.3359     R5.5000    
   X33.7855      Y182.6935     R5.5000    
   X33.5499      Y183.0006     R5.5000    
   X33.2428      Y183.2363     R5.5000    
   X32.8852      Y183.3844     R5.5000    
   X32.5014      Y183.4349     R5.5000    
   X32.1177      Y183.3844     R5.5000    
   X31.7601      Y183.2363     R5.5000    
   X31.4530      Y183.0006     R5.5000    
   X31.2173      Y182.6935     R5.5000    
   X31.0692      Y182.3359     R5.5000    
   X31.0187      Y181.9522     R5.5000    
   X31.0692      Y181.5684     R5.5000    
   X31.2173      Y181.2108     R5.5000    
   X31.4530      Y180.9037     R5.5000    
   X31.7601      Y180.6681     R5.5000    
   X32.1177      Y180.5200     R5.5000    
   X32.5014      Y180.4694     R5.5000    
   X32.8852      Y180.5200     R5.5000    
(Pass: 38)
G1   Z-3.800    
G17 G2   X33.2428      Y180.6681     R5.5000    
   X33.5499      Y180.9037     R5.5000    
   X33.7855      Y181.2108     R5.5000    
   X33.9336      Y181.5684     R5.5000    
   X33.9842      Y181.9522     R5.5000    
   X33.9336      Y182.3359     R5.5000    
   X33.7855      Y182.6935     R5.5000    
   X33.5499      Y183.0006     R5.5000    
   X33.2428      Y183.2363     R5.5000    
   X32.8852      Y183.3844     R5.5000    
   X32.5014      Y183.4349     R5.5000    
   X32.1177      Y183.3844     R5.5000    
   X31.7601      Y183.2363     R5.5000    
   X31.4530      Y183.0006     R5.5000    
   X31.2173      Y182.6935     R5.5000    
   X31.0692      Y182.3359     R5.5000    
   X31.0187      Y181.9522     R5.5000    
   X31.0692      Y181.5684     R5.5000    
   X31.2173      Y181.2108     R5.5000    
   X31.4530      Y180.9037     R5.5000    
   X31.7601      Y180.6681     R5.5000    
   X32.1177      Y180.5200     R5.5000    
   X32.5014      Y180.4694     R5.5000    
   X32.8852      Y180.5200     R5.5000    
(Pass: 39)
G1   Z-3.900    
G17 G2   X33.2428      Y180.6681     R5.5000    
   X33.5499      Y180.9037     R5.5000    
   X33.7855      Y181.2108     R5.5000    
   X33.9336      Y181.5684     R5.5000    
   X33.9842      Y181.9522     R5.5000    
   X33.9336      Y182.3359     R5.5000    
   X33.7855      Y182.6935     R5.5000    
   X33.5499      Y183.0006     R5.5000    
   X33.2428      Y183.2363     R5.5000    
   X32.8852      Y183.3844     R5.5000    
   X32.5014      Y183.4349     R5.5000    
   X32.1177      Y183.3844     R5.5000    
   X31.7601      Y183.2363     R5.5000    
   X31.4530      Y183.0006     R5.5000    
   X31.2173      Y182.6935     R5.5000    
   X31.0692      Y182.3359     R5.5000    
   X31.0187      Y181.9522     R5.5000    
   X31.0692      Y181.5684     R5.5000    
   X31.2173      Y181.2108     R5.5000    
   X31.4530      Y180.9037     R5.5000    
   X31.7601      Y180.6681     R5.5000    
   X32.1177      Y180.5200     R5.5000    
   X32.5014      Y180.4694     R5.5000    
   X32.8852      Y180.5200     R5.5000    
(Pass: 40)
G1   Z-4.000    
G17 G2   X33.2428      Y180.6681     R5.5000    
   X33.5499      Y180.9037     R5.5000    
   X33.7855      Y181.2108     R5.5000    
   X33.9336      Y181.5684     R5.5000    
   X33.9842      Y181.9522     R5.5000    
   X33.9336      Y182.3359     R5.5000    
   X33.7855      Y182.6935     R5.5000    
   X33.5499      Y183.0006     R5.5000    
   X33.2428      Y183.2363     R5.5000    
   X32.8852      Y183.3844     R5.5000    
   X32.5014      Y183.4349     R5.5000    
   X32.1177      Y183.3844     R5.5000    
   X31.7601      Y183.2363     R5.5000    
   X31.4530      Y183.0006     R5.5000    
   X31.2173      Y182.6935     R5.5000    
   X31.0692      Y182.3359     R5.5000    
   X31.0187      Y181.9522     R5.5000    
   X31.0692      Y181.5684     R5.5000    
   X31.2173      Y181.2108     R5.5000    
   X31.4530      Y180.9037     R5.5000    
   X31.7601      Y180.6681     R5.5000    
   X32.1177      Y180.5200     R5.5000    
   X32.5014      Y180.4694     R5.5000    
   X32.8852      Y180.5200     R5.5000    
(Pass: 41)
G1   Z-4.100    
G17 G2   X33.2428      Y180.6681     R5.5000    
   X33.5499      Y180.9037     R5.5000    
   X33.7855      Y181.2108     R5.5000    
   X33.9336      Y181.5684     R5.5000    
   X33.9842      Y181.9522     R5.5000    
   X33.9336      Y182.3359     R5.5000    
   X33.7855      Y182.6935     R5.5000    
   X33.5499      Y183.0006     R5.5000    
   X33.2428      Y183.2363     R5.5000    
   X32.8852      Y183.3844     R5.5000    
   X32.5014      Y183.4349     R5.5000    
   X32.1177      Y183.3844     R5.5000    
   X31.7601      Y183.2363     R5.5000    
   X31.4530      Y183.0006     R5.5000    
   X31.2173      Y182.6935     R5.5000    
   X31.0692      Y182.3359     R5.5000    
   X31.0187      Y181.9522     R5.5000    
   X31.0692      Y181.5684     R5.5000    
   X31.2173      Y181.2108     R5.5000    
   X31.4530      Y180.9037     R5.5000    
   X31.7601      Y180.6681     R5.5000    
   X32.1177      Y180.5200     R5.5000    
   X32.5014      Y180.4694     R5.5000    
   X32.8852      Y180.5200     R5.5000    
(Pass: 42)
G1   Z-4.200    
G17 G2   X33.2428      Y180.6681     R5.5000    
   X33.5499      Y180.9037     R5.5000    
   X33.7855      Y181.2108     R5.5000    
   X33.9336      Y181.5684     R5.5000    
   X33.9842      Y181.9522     R5.5000    
   X33.9336      Y182.3359     R5.5000    
   X33.7855      Y182.6935     R5.5000    
   X33.5499      Y183.0006     R5.5000    
   X33.2428      Y183.2363     R5.5000    
   X32.8852      Y183.3844     R5.5000    
   X32.5014      Y183.4349     R5.5000    
   X32.1177      Y183.3844     R5.5000    
   X31.7601      Y183.2363     R5.5000    
   X31.4530      Y183.0006     R5.5000    
   X31.2173      Y182.6935     R5.5000    
   X31.0692      Y182.3359     R5.5000    
   X31.0187      Y181.9522     R5.5000    
   X31.0692      Y181.5684     R5.5000    
   X31.2173      Y181.2108     R5.5000    
   X31.4530      Y180.9037     R5.5000    
   X31.7601      Y180.6681     R5.5000    
   X32.1177      Y180.5200     R5.5000    
   X32.5014      Y180.4694     R5.5000    
   X32.8852      Y180.5200     R5.5000    
(Pass: 43)
G1   Z-4.300    
G17 G2   X33.2428      Y180.6681     R5.5000    
   X33.5499      Y180.9037     R5.5000    
   X33.7855      Y181.2108     R5.5000    
   X33.9336      Y181.5684     R5.5000    
   X33.9842      Y181.9522     R5.5000    
   X33.9336      Y182.3359     R5.5000    
   X33.7855      Y182.6935     R5.5000    
   X33.5499      Y183.0006     R5.5000    
   X33.2428      Y183.2363     R5.5000    
   X32.8852      Y183.3844     R5.5000    
   X32.5014      Y183.4349     R5.5000    
   X32.1177      Y183.3844     R5.5000    
   X31.7601      Y183.2363     R5.5000    
   X31.4530      Y183.0006     R5.5000    
   X31.2173      Y182.6935     R5.5000    
   X31.0692      Y182.3359     R5.5000    
   X31.0187      Y181.9522     R5.5000    
   X31.0692      Y181.5684     R5.5000    
   X31.2173      Y181.2108     R5.5000    
   X31.4530      Y180.9037     R5.5000    
   X31.7601      Y180.6681     R5.5000    
   X32.1177      Y180.5200     R5.5000    
   X32.5014      Y180.4694     R5.5000    
   X32.8852      Y180.5200     R5.5000    
(Pass: 44)
G1   Z-4.400    
G17 G2   X33.2428      Y180.6681     R5.5000    
   X33.5499      Y180.9037     R5.5000    
   X33.7855      Y181.2108     R5.5000    
   X33.9336      Y181.5684     R5.5000    
   X33.9842      Y181.9522     R5.5000    
   X33.9336      Y182.3359     R5.5000    
   X33.7855      Y182.6935     R5.5000    
   X33.5499      Y183.0006     R5.5000    
   X33.2428      Y183.2363     R5.5000    
   X32.8852      Y183.3844     R5.5000    
   X32.5014      Y183.4349     R5.5000    
   X32.1177      Y183.3844     R5.5000    
   X31.7601      Y183.2363     R5.5000    
   X31.4530      Y183.0006     R5.5000    
   X31.2173      Y182.6935     R5.5000    
   X31.0692      Y182.3359     R5.5000    
   X31.0187      Y181.9522     R5.5000    
   X31.0692      Y181.5684     R5.5000    
   X31.2173      Y181.2108     R5.5000    
   X31.4530      Y180.9037     R5.5000    
   X31.7601      Y180.6681     R5.5000    
   X32.1177      Y180.5200     R5.5000    
   X32.5014      Y180.4694     R5.5000    
   X32.8852      Y180.5200     R5.5000    
(Pass: 45)
G1   Z-4.500    
G17 G2   X33.2428      Y180.6681     R5.5000    
   X33.5499      Y180.9037     R5.5000    
   X33.7855      Y181.2108     R5.5000    
   X33.9336      Y181.5684     R5.5000    
   X33.9842      Y181.9522     R5.5000    
   X33.9336      Y182.3359     R5.5000    
   X33.7855      Y182.6935     R5.5000    
   X33.5499      Y183.0006     R5.5000    
   X33.2428      Y183.2363     R5.5000    
   X32.8852      Y183.3844     R5.5000    
   X32.5014      Y183.4349     R5.5000    
   X32.1177      Y183.3844     R5.5000    
   X31.7601      Y183.2363     R5.5000    
   X31.4530      Y183.0006     R5.5000    
   X31.2173      Y182.6935     R5.5000    
   X31.0692      Y182.3359     R5.5000    
   X31.0187      Y181.9522     R5.5000    
   X31.0692      Y181.5684     R5.5000    
   X31.2173      Y181.2108     R5.5000    
   X31.4530      Y180.9037     R5.5000    
   X31.7601      Y180.6681     R5.5000    
   X32.1177      Y180.5200     R5.5000    
   X32.5014      Y180.4694     R5.5000    
   X32.8852      Y180.5200     R5.5000    
(Pass: 46)
G1   Z-4.600    
G17 G2   X33.2428      Y180.6681     R5.5000    
   X33.5499      Y180.9037     R5.5000    
   X33.7855      Y181.2108     R5.5000    
   X33.9336      Y181.5684     R5.5000    
   X33.9842      Y181.9522     R5.5000    
   X33.9336      Y182.3359     R5.5000    
   X33.7855      Y182.6935     R5.5000    
   X33.5499      Y183.0006     R5.5000    
   X33.2428      Y183.2363     R5.5000    
   X32.8852      Y183.3844     R5.5000    
   X32.5014      Y183.4349     R5.5000    
   X32.1177      Y183.3844     R5.5000    
   X31.7601      Y183.2363     R5.5000    
   X31.4530      Y183.0006     R5.5000    
   X31.2173      Y182.6935     R5.5000    
   X31.0692      Y182.3359     R5.5000    
   X31.0187      Y181.9522     R5.5000    
   X31.0692      Y181.5684     R5.5000    
   X31.2173      Y181.2108     R5.5000    
   X31.4530      Y180.9037     R5.5000    
   X31.7601      Y180.6681     R5.5000    
   X32.1177      Y180.5200     R5.5000    
   X32.5014      Y180.4694     R5.5000    
   X32.8852      Y180.5200     R5.5000    
(Pass: 47)
G1   Z-4.700    
G17 G2   X33.2428      Y180.6681     R5.5000    
   X33.5499      Y180.9037     R5.5000    
   X33.7855      Y181.2108     R5.5000    
   X33.9336      Y181.5684     R5.5000    
   X33.9842      Y181.9522     R5.5000    
   X33.9336      Y182.3359     R5.5000    
   X33.7855      Y182.6935     R5.5000    
   X33.5499      Y183.0006     R5.5000    
   X33.2428      Y183.2363     R5.5000    
   X32.8852      Y183.3844     R5.5000    
   X32.5014      Y183.4349     R5.5000    
   X32.1177      Y183.3844     R5.5000    
   X31.7601      Y183.2363     R5.5000    
   X31.4530      Y183.0006     R5.5000    
   X31.2173      Y182.6935     R5.5000    
   X31.0692      Y182.3359     R5.5000    
   X31.0187      Y181.9522     R5.5000    
   X31.0692      Y181.5684     R5.5000    
   X31.2173      Y181.2108     R5.5000    
   X31.4530      Y180.9037     R5.5000    
   X31.7601      Y180.6681     R5.5000    
   X32.1177      Y180.5200     R5.5000    
   X32.5014      Y180.4694     R5.5000    
   X32.8852      Y180.5200     R5.5000    
(Pass: 48)
G1   Z-4.800    
G17 G2   X33.2428      Y180.6681     R5.5000    
   X33.5499      Y180.9037     R5.5000    
   X33.7855      Y181.2108     R5.5000    
   X33.9336      Y181.5684     R5.5000    
   X33.9842      Y181.9522     R5.5000    
   X33.9336      Y182.3359     R5.5000    
   X33.7855      Y182.6935     R5.5000    
   X33.5499      Y183.0006     R5.5000    
   X33.2428      Y183.2363     R5.5000    
   X32.8852      Y183.3844     R5.5000    
   X32.5014      Y183.4349     R5.5000    
   X32.1177      Y183.3844     R5.5000    
   X31.7601      Y183.2363     R5.5000    
   X31.4530      Y183.0006     R5.5000    
   X31.2173      Y182.6935     R5.5000    
   X31.0692      Y182.3359     R5.5000    
   X31.0187      Y181.9522     R5.5000    
   X31.0692      Y181.5684     R5.5000    
   X31.2173      Y181.2108     R5.5000    
   X31.4530      Y180.9037     R5.5000    
   X31.7601      Y180.6681     R5.5000    
   X32.1177      Y180.5200     R5.5000    
   X32.5014      Y180.4694     R5.5000    
   X32.8852      Y180.5200     R5.5000    
(Pass: 49)
G1   Z-4.900    
G17 G2   X33.2428      Y180.6681     R5.5000    
   X33.5499      Y180.9037     R5.5000    
   X33.7855      Y181.2108     R5.5000    
   X33.9336      Y181.5684     R5.5000    
   X33.9842      Y181.9522     R5.5000    
   X33.9336      Y182.3359     R5.5000    
   X33.7855      Y182.6935     R5.5000    
   X33.5499      Y183.0006     R5.5000    
   X33.2428      Y183.2363     R5.5000    
   X32.8852      Y183.3844     R5.5000    
   X32.5014      Y183.4349     R5.5000    
   X32.1177      Y183.3844     R5.5000    
   X31.7601      Y183.2363     R5.5000    
   X31.4530      Y183.0006     R5.5000    
   X31.2173      Y182.6935     R5.5000    
   X31.0692      Y182.3359     R5.5000    
   X31.0187      Y181.9522     R5.5000    
   X31.0692      Y181.5684     R5.5000    
   X31.2173      Y181.2108     R5.5000    
   X31.4530      Y180.9037     R5.5000    
   X31.7601      Y180.6681     R5.5000    
   X32.1177      Y180.5200     R5.5000    
   X32.5014      Y180.4694     R5.5000    
   X32.8852      Y180.5200     R5.5000    
(Pass: 50)
G1   Z-5.000    
G17 G2   X33.2428      Y180.6681     R5.5000    
   X33.5499      Y180.9037     R5.5000    
   X33.7855      Y181.2108     R5.5000    
   X33.9336      Y181.5684     R5.5000    
   X33.9842      Y181.9522     R5.5000    
   X33.9336      Y182.3359     R5.5000    
   X33.7855      Y182.6935     R5.5000    
   X33.5499      Y183.0006     R5.5000    
   X33.2428      Y183.2363     R5.5000    
   X32.8852      Y183.3844     R5.5000    
   X32.5014      Y183.4349     R5.5000    
   X32.1177      Y183.3844     R5.5000    
   X31.7601      Y183.2363     R5.5000    
   X31.4530      Y183.0006     R5.5000    
   X31.2173      Y182.6935     R5.5000    
   X31.0692      Y182.3359     R5.5000    
   X31.0187      Y181.9522     R5.5000    
   X31.0692      Y181.5684     R5.5000    
   X31.2173      Y181.2108     R5.5000    
   X31.4530      Y180.9037     R5.5000    
   X31.7601      Y180.6681     R5.5000    
   X32.1177      Y180.5200     R5.5000    
   X32.5014      Y180.4694     R5.5000    
   X32.8852      Y180.5200     R5.5000    
(Pass: 51)
G1   Z-5.100    
G17 G2   X33.2428      Y180.6681     R5.5000    
   X33.5499      Y180.9037     R5.5000    
   X33.7855      Y181.2108     R5.5000    
   X33.9336      Y181.5684     R5.5000    
   X33.9842      Y181.9522     R5.5000    
   X33.9336      Y182.3359     R5.5000    
   X33.7855      Y182.6935     R5.5000    
   X33.5499      Y183.0006     R5.5000    
   X33.2428      Y183.2363     R5.5000    
   X32.8852      Y183.3844     R5.5000    
   X32.5014      Y183.4349     R5.5000    
   X32.1177      Y183.3844     R5.5000    
   X31.7601      Y183.2363     R5.5000    
   X31.4530      Y183.0006     R5.5000    
   X31.2173      Y182.6935     R5.5000    
   X31.0692      Y182.3359     R5.5000    
   X31.0187      Y181.9522     R5.5000    
   X31.0692      Y181.5684     R5.5000    
   X31.2173      Y181.2108     R5.5000    
   X31.4530      Y180.9037     R5.5000    
   X31.7601      Y180.6681     R5.5000    
   X32.1177      Y180.5200     R5.5000    
   X32.5014      Y180.4694     R5.5000    
   X32.8852      Y180.5200     R5.5000    
(Pass: 52)
G1   Z-5.200    
G17 G2   X33.2428      Y180.6681     R5.5000    
   X33.5499      Y180.9037     R5.5000    
   X33.7855      Y181.2108     R5.5000    
   X33.9336      Y181.5684     R5.5000    
   X33.9842      Y181.9522     R5.5000    
   X33.9336      Y182.3359     R5.5000    
   X33.7855      Y182.6935     R5.5000    
   X33.5499      Y183.0006     R5.5000    
   X33.2428      Y183.2363     R5.5000    
   X32.8852      Y183.3844     R5.5000    
   X32.5014      Y183.4349     R5.5000    
   X32.1177      Y183.3844     R5.5000    
   X31.7601      Y183.2363     R5.5000    
   X31.4530      Y183.0006     R5.5000    
   X31.2173      Y182.6935     R5.5000    
   X31.0692      Y182.3359     R5.5000    
   X31.0187      Y181.9522     R5.5000    
   X31.0692      Y181.5684     R5.5000    
   X31.2173      Y181.2108     R5.5000    
   X31.4530      Y180.9037     R5.5000    
   X31.7601      Y180.6681     R5.5000    
   X32.1177      Y180.5200     R5.5000    
   X32.5014      Y180.4694     R5.5000    
   X32.8852      Y180.5200     R5.5000    
(Pass: 53)
G1   Z-5.300    
G17 G2   X33.2428      Y180.6681     R5.5000    
   X33.5499      Y180.9037     R5.5000    
   X33.7855      Y181.2108     R5.5000    
   X33.9336      Y181.5684     R5.5000    
   X33.9842      Y181.9522     R5.5000    
   X33.9336      Y182.3359     R5.5000    
   X33.7855      Y182.6935     R5.5000    
   X33.5499      Y183.0006     R5.5000    
   X33.2428      Y183.2363     R5.5000    
   X32.8852      Y183.3844     R5.5000    
   X32.5014      Y183.4349     R5.5000    
   X32.1177      Y183.3844     R5.5000    
   X31.7601      Y183.2363     R5.5000    
   X31.4530      Y183.0006     R5.5000    
   X31.2173      Y182.6935     R5.5000    
   X31.0692      Y182.3359     R5.5000    
   X31.0187      Y181.9522     R5.5000    
   X31.0692      Y181.5684     R5.5000    
   X31.2173      Y181.2108     R5.5000    
   X31.4530      Y180.9037     R5.5000    
   X31.7601      Y180.6681     R5.5000    
   X32.1177      Y180.5200     R5.5000    
   X32.5014      Y180.4694     R5.5000    
   X32.8852      Y180.5200     R5.5000    
(Pass: 54)
G1   Z-5.400    
G17 G2   X33.2428      Y180.6681     R5.5000    
   X33.5499      Y180.9037     R5.5000    
   X33.7855      Y181.2108     R5.5000    
   X33.9336      Y181.5684     R5.5000    
   X33.9842      Y181.9522     R5.5000    
   X33.9336      Y182.3359     R5.5000    
   X33.7855      Y182.6935     R5.5000    
   X33.5499      Y183.0006     R5.5000    
   X33.2428      Y183.2363     R5.5000    
   X32.8852      Y183.3844     R5.5000    
   X32.5014      Y183.4349     R5.5000    
   X32.1177      Y183.3844     R5.5000    
   X31.7601      Y183.2363     R5.5000    
   X31.4530      Y183.0006     R5.5000    
   X31.2173      Y182.6935     R5.5000    
   X31.0692      Y182.3359     R5.5000    
   X31.0187      Y181.9522     R5.5000    
   X31.0692      Y181.5684     R5.5000    
   X31.2173      Y181.2108     R5.5000    
   X31.4530      Y180.9037     R5.5000    
   X31.7601      Y180.6681     R5.5000    
   X32.1177      Y180.5200     R5.5000    
   X32.5014      Y180.4694     R5.5000    
   X32.8852      Y180.5200     R5.5000    
(Pass: 55)
G1   Z-5.500    
G17 G2   X33.2428      Y180.6681     R5.5000    
   X33.5499      Y180.9037     R5.5000    
   X33.7855      Y181.2108     R5.5000    
   X33.9336      Y181.5684     R5.5000    
   X33.9842      Y181.9522     R5.5000    
   X33.9336      Y182.3359     R5.5000    
   X33.7855      Y182.6935     R5.5000    
   X33.5499      Y183.0006     R5.5000    
   X33.2428      Y183.2363     R5.5000    
   X32.8852      Y183.3844     R5.5000    
   X32.5014      Y183.4349     R5.5000    
   X32.1177      Y183.3844     R5.5000    
   X31.7601      Y183.2363     R5.5000    
   X31.4530      Y183.0006     R5.5000    
   X31.2173      Y182.6935     R5.5000    
   X31.0692      Y182.3359     R5.5000    
   X31.0187      Y181.9522     R5.5000    
   X31.0692      Y181.5684     R5.5000    
   X31.2173      Y181.2108     R5.5000    
   X31.4530      Y180.9037     R5.5000    
   X31.7601      Y180.6681     R5.5000    
   X32.1177      Y180.5200     R5.5000    
   X32.5014      Y180.4694     R5.5000    
   X32.8852      Y180.5200     R5.5000    
(Pass: 56)
G1   Z-5.600    
G17 G2   X33.2428      Y180.6681     R5.5000    
   X33.5499      Y180.9037     R5.5000    
   X33.7855      Y181.2108     R5.5000    
   X33.9336      Y181.5684     R5.5000    
   X33.9842      Y181.9522     R5.5000    
   X33.9336      Y182.3359     R5.5000    
   X33.7855      Y182.6935     R5.5000    
   X33.5499      Y183.0006     R5.5000    
   X33.2428      Y183.2363     R5.5000    
   X32.8852      Y183.3844     R5.5000    
   X32.5014      Y183.4349     R5.5000    
   X32.1177      Y183.3844     R5.5000    
   X31.7601      Y183.2363     R5.5000    
   X31.4530      Y183.0006     R5.5000    
   X31.2173      Y182.6935     R5.5000    
   X31.0692      Y182.3359     R5.5000    
   X31.0187      Y181.9522     R5.5000    
   X31.0692      Y181.5684     R5.5000    
   X31.2173      Y181.2108     R5.5000    
   X31.4530      Y180.9037     R5.5000    
   X31.7601      Y180.6681     R5.5000    
   X32.1177      Y180.5200     R5.5000    
   X32.5014      Y180.4694     R5.5000    
   X32.8852      Y180.5200     R5.5000    
(Pass: 57)
G1   Z-5.700    
G17 G2   X33.2428      Y180.6681     R5.5000    
   X33.5499      Y180.9037     R5.5000    
   X33.7855      Y181.2108     R5.5000    
   X33.9336      Y181.5684     R5.5000    
   X33.9842      Y181.9522     R5.5000    
   X33.9336      Y182.3359     R5.5000    
   X33.7855      Y182.6935     R5.5000    
   X33.5499      Y183.0006     R5.5000    
   X33.2428      Y183.2363     R5.5000    
   X32.8852      Y183.3844     R5.5000    
   X32.5014      Y183.4349     R5.5000    
   X32.1177      Y183.3844     R5.5000    
   X31.7601      Y183.2363     R5.5000    
   X31.4530      Y183.0006     R5.5000    
   X31.2173      Y182.6935     R5.5000    
   X31.0692      Y182.3359     R5.5000    
   X31.0187      Y181.9522     R5.5000    
   X31.0692      Y181.5684     R5.5000    
   X31.2173      Y181.2108     R5.5000    
   X31.4530      Y180.9037     R5.5000    
   X31.7601      Y180.6681     R5.5000    
   X32.1177      Y180.5200     R5.5000    
   X32.5014      Y180.4694     R5.5000    
   X32.8852      Y180.5200     R5.5000    
(Pass: 58)
G1   Z-5.800    
G17 G2   X33.2428      Y180.6681     R5.5000    
   X33.5499      Y180.9037     R5.5000    
   X33.7855      Y181.2108     R5.5000    
   X33.9336      Y181.5684     R5.5000    
   X33.9842      Y181.9522     R5.5000    
   X33.9336      Y182.3359     R5.5000    
   X33.7855      Y182.6935     R5.5000    
   X33.5499      Y183.0006     R5.5000    
   X33.2428      Y183.2363     R5.5000    
   X32.8852      Y183.3844     R5.5000    
   X32.5014      Y183.4349     R5.5000    
   X32.1177      Y183.3844     R5.5000    
   X31.7601      Y183.2363     R5.5000    
   X31.4530      Y183.0006     R5.5000    
   X31.2173      Y182.6935     R5.5000    
   X31.0692      Y182.3359     R5.5000    
   X31.0187      Y181.9522     R5.5000    
   X31.0692      Y181.5684     R5.5000    
   X31.2173      Y181.2108     R5.5000    
   X31.4530      Y180.9037     R5.5000    
   X31.7601      Y180.6681     R5.5000    
   X32.1177      Y180.5200     R5.5000    
   X32.5014      Y180.4694     R5.5000    
   X32.8852      Y180.5200     R5.5000    
(Pass: 59)
G1   Z-5.900    
G17 G2   X33.2428      Y180.6681     R5.5000    
   X33.5499      Y180.9037     R5.5000    
   X33.7855      Y181.2108     R5.5000    
   X33.9336      Y181.5684     R5.5000    
   X33.9842      Y181.9522     R5.5000    
   X33.9336      Y182.3359     R5.5000    
   X33.7855      Y182.6935     R5.5000    
   X33.5499      Y183.0006     R5.5000    
   X33.2428      Y183.2363     R5.5000    
   X32.8852      Y183.3844     R5.5000    
   X32.5014      Y183.4349     R5.5000    
   X32.1177      Y183.3844     R5.5000    
   X31.7601      Y183.2363     R5.5000    
   X31.4530      Y183.0006     R5.5000    
   X31.2173      Y182.6935     R5.5000    
   X31.0692      Y182.3359     R5.5000    
   X31.0187      Y181.9522     R5.5000    
   X31.0692      Y181.5684     R5.5000    
   X31.2173      Y181.2108     R5.5000    
   X31.4530      Y180.9037     R5.5000    
   X31.7601      Y180.6681     R5.5000    
   X32.1177      Y180.5200     R5.5000    
   X32.5014      Y180.4694     R5.5000    
   X32.8852      Y180.5200     R5.5000    
(Pass: 60)
G1   Z-6.000    
G17 G2   X33.2428      Y180.6681     R5.5000    
   X33.5499      Y180.9037     R5.5000    
