%
(Generated by SketchUcam {1.2})
(File: MotorMount4mm.skp)
(Bit diameter: 4.0mm)
(Feed rate: 150.0mm/min)
(Plunge Feed rate: 100.0mm/min)
(Material Thickness: 3.1mm)
(Material length: 558.8mm X width: 1066.8mm)
(Overhead Gantry: true)
(Retract feed rate NOT limited to plunge feed rate)
(Multipass enabled, Depth = 0.4mm)
(Optimization is ON)
(www.PhlatBoyz.com)
G90 G21 G49 
M3 S11000
G0   Z5.000     
(Pass: 1)
   X12.300       Y12.500    
(plungebore    depth=4.340         diam=4.000     )
G00   Z1.667     
G01   Z-0.400     F100 
G00   z1.667     
G01   Z-0.800    
G00   z1.667     
G01   Z-1.200    
G00   z1.667     
G01   Z-1.600    
G00   z1.667     
G01   Z-2.000    
G00   z1.667     
G01   Z-2.400    
G00   z1.667     
G01   Z-2.800    
G00   z1.667     
G01   Z-3.200    
G00   z1.667     
G01   Z-3.600    
G00   z1.667     
G01   Z-4.000    
G00   z1.667     
G01   Z-4.340    
G00   z1.667     
G00   Y12.500        Z5.000     
(plungebore end)
(BREAK pass 9)
(Pass: 1)
G0   X59.426       Y12.414    
(plungebore    depth=4.340         diam=4.000     )
G00   Z1.667     
G01   Z-0.400     F100 
G00   z1.667     
G01   Z-0.800    
G00   z1.667     
G01   Z-1.200    
G00   z1.667     
G01   Z-1.600    
G00   z1.667     
G01   Z-2.000    
G00   z1.667     
G01   Z-2.400    
G00   z1.667     
G01   Z-2.800    
G00   z1.667     
G01   Z-3.200    
G00   z1.667     
G01   Z-3.600    
G00   z1.667     
G01   Z-4.000    
G00   z1.667     
G01   Z-4.340    
G00   z1.667     
G00   Y12.414        Z5.000     
(plungebore end)
(BREAK pass 9)
(Pass: 1)
G0   X59.299       Y59.473    
(plungebore    depth=4.340         diam=4.000     )
G00   Z1.667     
G01   Z-0.400     F100 
G00   z1.667     
G01   Z-0.800    
G00   z1.667     
G01   Z-1.200    
G00   z1.667     
G01   Z-1.600    
G00   z1.667     
G01   Z-2.000    
G00   z1.667     
G01   Z-2.400    
G00   z1.667     
G01   Z-2.800    
G00   z1.667     
G01   Z-3.200    
G00   z1.667     
G01   Z-3.600    
G00   z1.667     
G01   Z-4.000    
G00   z1.667     
G01   Z-4.340    
G00   z1.667     
G00   Y59.473        Z5.000     
(plungebore end)
(BREAK pass 9)
(Pass: 1)
G0   X12.394       Y59.443    
(plungebore    depth=4.340         diam=4.000     )
G00   Z1.667     
G01   Z-0.400     F100 
G00   z1.667     
G01   Z-0.800    
G00   z1.667     
G01   Z-1.200    
G00   z1.667     
G01   Z-1.600    
G00   z1.667     
G01   Z-2.000    
G00   z1.667     
G01   Z-2.400    
G00   z1.667     
G01   Z-2.800    
G00   z1.667     
G01   Z-3.200    
G00   z1.667     
G01   Z-3.600    
G00   z1.667     
G01   Z-4.000    
G00   z1.667     
G01   Z-4.340    
G00   z1.667     
G00   Y59.443        Z5.000     
(plungebore end)
(BREAK pass 9)
(Pass: 1)
G0   X18.839       Y52.981    
G1   Z-0.400     F100 
   X18.954     F150 
   X52.692    
   X52.808    
   Y52.865    
   Y19.128    
   Y19.012    
   X52.693    
   X18.955    
   X18.839    
   Y19.127    
   Y52.865    
   Y52.981    
(Pass: 2)
   Z-0.800     F100 
   X18.954     F150 
   X52.692    
   X52.808    
   Y52.865    
   Y19.128    
   Y19.012    
   X52.693    
   X18.955    
   X18.839    
   Y19.127    
   Y52.865    
   Y52.981    
(Pass: 3)
   Z-1.200     F100 
   X18.954     F150 
   X52.692    
   X52.808    
   Y52.865    
   Y19.128    
   Y19.012    
   X52.693    
   X18.955    
   X18.839    
   Y19.127    
   Y52.865    
   Y52.981    
(Pass: 4)
   Z-1.600     F100 
   X18.954     F150 
   X52.692    
   X52.808    
   Y52.865    
   Y19.128    
   Y19.012    
   X52.693    
   X18.955    
   X18.839    
   Y19.127    
   Y52.865    
   Y52.981    
(Pass: 5)
   Z-2.000     F100 
   X18.954     F150 
   X52.692    
   X52.808    
   Y52.865    
   Y19.128    
   Y19.012    
   X52.693    
   X18.955    
   X18.839    
   Y19.127    
   Y52.865    
   Y52.981    
(Pass: 6)
   Z-2.400     F100 
   X18.954     F150 
   X52.692    
   X52.808    
   Y52.865    
   Y19.128    
   Y19.012    
   X52.693    
   X18.955    
   X18.839    
   Y19.127    
   Y52.865    
   Y52.981    
(Pass: 7)
   Z-2.800     F100 
   X18.954     F150 
   X52.692    
   X52.808    
   Y52.865    
   Y19.128    
   Y19.012    
   X52.693    
   X18.955    
   X18.839    
   Y19.127    
   Y52.865    
   Y52.981    
(Pass: 8)
   Z-3.200     F100 
   X18.954     F150 
   X52.692    
   X52.808    
   Y52.865    
   Y19.128    
   Y19.012    
   X52.693    
   X18.955    
   X18.839    
   Y19.127    
   Y52.865    
   Y52.981    
(Pass: 9)
   Z-3.600     F100 
   X18.954     F150 
   X52.692    
   X52.808    
   Y52.865    
   Y19.128    
   Y19.012    
   X52.693    
   X18.955    
   X18.839    
   Y19.127    
   Y52.865    
   Y52.981    
(BREAK pass 9)
G0   Z5.000     
(Pass: 1)
   X12.521       Y83.871    
G1   Z-0.400     F100 
G17 G2   X12.1377      Y83.9217      R1.5000     F150 
   X11.7801      Y84.0698      R1.5000    
   X11.4730      Y84.3054      R1.5000    
   X11.2374      Y84.6125      R1.5000    
   X11.0892      Y84.9701      R1.5000    
   X11.0387      Y85.3539      R1.5000    
   X11.0892      Y85.7377      R1.5000    
   X11.2373      Y86.0953      R1.5000    
   X11.4730      Y86.4024      R1.5000    
   X11.7801      Y86.6380      R1.5000    
   X12.1377      Y86.7861      R1.5000    
   X12.5214      Y86.8367      R1.5000    
   X12.9052      Y86.7861      R1.5000    
   X13.2628      Y86.6380      R1.5000    
   X13.5699      Y86.4024      R1.5000    
   X13.8055      Y86.0953      R1.5000    
   X13.9537      Y85.7377      R1.5000    
   X14.0042      Y85.3540      R1.5000    
   X13.9537      Y84.9702      R1.5000    
   X13.8056      Y84.6126      R1.5000    
   X13.5699      Y84.3055      R1.5000    
   X13.2629      Y84.0698      R1.5000    
   X12.9052      Y83.9217      R1.5000    
   X12.5215      Y83.8712      R1.5000    
(Pass: 2)
G1   Z-0.800     F100 
G17 G2   X12.1377      Y83.9217      R1.5000     F150 
   X11.7801      Y84.0698      R1.5000    
   X11.4730      Y84.3054      R1.5000    
   X11.2374      Y84.6125      R1.5000    
   X11.0892      Y84.9701      R1.5000    
   X11.0387      Y85.3539      R1.5000    
   X11.0892      Y85.7377      R1.5000    
   X11.2373      Y86.0953      R1.5000    
   X11.4730      Y86.4024      R1.5000    
   X11.7801      Y86.6380      R1.5000    
   X12.1377      Y86.7861      R1.5000    
   X12.5214      Y86.8367      R1.5000    
   X12.9052      Y86.7861      R1.5000    
   X13.2628      Y86.6380      R1.5000    
   X13.5699      Y86.4024      R1.5000    
   X13.8055      Y86.0953      R1.5000    
   X13.9537      Y85.7377      R1.5000    
   X14.0042      Y85.3540      R1.5000    
   X13.9537      Y84.9702      R1.5000    
   X13.8056      Y84.6126      R1.5000    
   X13.5699      Y84.3055      R1.5000    
   X13.2629      Y84.0698      R1.5000    
   X12.9052      Y83.9217      R1.5000    
   X12.5215      Y83.8712      R1.5000    
(Pass: 3)
G1   Z-1.200     F100 
G17 G2   X12.1377      Y83.9217      R1.5000     F150 
   X11.7801      Y84.0698      R1.5000    
   X11.4730      Y84.3054      R1.5000    
   X11.2374      Y84.6125      R1.5000    
   X11.0892      Y84.9701      R1.5000    
   X11.0387      Y85.3539      R1.5000    
   X11.0892      Y85.7377      R1.5000    
   X11.2373      Y86.0953      R1.5000    
   X11.4730      Y86.4024      R1.5000    
   X11.7801      Y86.6380      R1.5000    
   X12.1377      Y86.7861      R1.5000    
   X12.5214      Y86.8367      R1.5000    
   X12.9052      Y86.7861      R1.5000    
   X13.2628      Y86.6380      R1.5000    
   X13.5699      Y86.4024      R1.5000    
   X13.8055      Y86.0953      R1.5000    
   X13.9537      Y85.7377      R1.5000    
   X14.0042      Y85.3540      R1.5000    
   X13.9537      Y84.9702      R1.5000    
   X13.8056      Y84.6126      R1.5000    
   X13.5699      Y84.3055      R1.5000    
   X13.2629      Y84.0698      R1.5000    
   X12.9052      Y83.9217      R1.5000    
   X12.5215      Y83.8712      R1.5000    
(Pass: 4)
G1   Z-1.600     F100 
G17 G2   X12.1377      Y83.9217      R1.5000     F150 
   X11.7801      Y84.0698      R1.5000    
   X11.4730      Y84.3054      R1.5000    
   X11.2374      Y84.6125      R1.5000    
   X11.0892      Y84.9701      R1.5000    
   X11.0387      Y85.3539      R1.5000    
   X11.0892      Y85.7377      R1.5000    
   X11.2373      Y86.0953      R1.5000    
   X11.4730      Y86.4024      R1.5000    
   X11.7801      Y86.6380      R1.5000    
   X12.1377      Y86.7861      R1.5000    
   X12.5214      Y86.8367      R1.5000    
   X12.9052      Y86.7861      R1.5000    
   X13.2628      Y86.6380      R1.5000    
   X13.5699      Y86.4024      R1.5000    
   X13.8055      Y86.0953      R1.5000    
   X13.9537      Y85.7377      R1.5000    
   X14.0042      Y85.3540      R1.5000    
   X13.9537      Y84.9702      R1.5000    
   X13.8056      Y84.6126      R1.5000    
   X13.5699      Y84.3055      R1.5000    
   X13.2629      Y84.0698      R1.5000    
   X12.9052      Y83.9217      R1.5000    
   X12.5215      Y83.8712      R1.5000    
(Pass: 5)
G1   Z-2.000     F100 
G17 G2   X12.1377      Y83.9217      R1.5000     F150 
   X11.7801      Y84.0698      R1.5000    
   X11.4730      Y84.3054      R1.5000    
   X11.2374      Y84.6125      R1.5000    
   X11.0892      Y84.9701      R1.5000    
   X11.0387      Y85.3539      R1.5000    
   X11.0892      Y85.7377      R1.5000    
   X11.2373      Y86.0953      R1.5000    
   X11.4730      Y86.4024      R1.5000    
   X11.7801      Y86.6380      R1.5000    
   X12.1377      Y86.7861      R1.5000    
   X12.5214      Y86.8367      R1.5000    
   X12.9052      Y86.7861      R1.5000    
   X13.2628      Y86.6380      R1.5000    
   X13.5699      Y86.4024      R1.5000    
   X13.8055      Y86.0953      R1.5000    
   X13.9537      Y85.7377      R1.5000    
   X14.0042      Y85.3540      R1.5000    
   X13.9537      Y84.9702      R1.5000    
   X13.8056      Y84.6126      R1.5000    
   X13.5699      Y84.3055      R1.5000    
   X13.2629      Y84.0698      R1.5000    
   X12.9052      Y83.9217      R1.5000    
   X12.5215      Y83.8712      R1.5000    
(Pass: 6)
G1   Z-2.400     F100 
G17 G2   X12.1377      Y83.9217      R1.5000     F150 
   X11.7801      Y84.0698      R1.5000    
   X11.4730      Y84.3054      R1.5000    
   X11.2374      Y84.6125      R1.5000    
   X11.0892      Y84.9701      R1.5000    
   X11.0387      Y85.3539      R1.5000    
   X11.0892      Y85.7377      R1.5000    
   X11.2373      Y86.0953      R1.5000    
   X11.4730      Y86.4024      R1.5000    
   X11.7801      Y86.6380      R1.5000    
   X12.1377      Y86.7861      R1.5000    
   X12.5214      Y86.8367      R1.5000    
   X12.9052      Y86.7861      R1.5000    
   X13.2628      Y86.6380      R1.5000    
   X13.5699      Y86.4024      R1.5000    
   X13.8055      Y86.0953      R1.5000    
   X13.9537      Y85.7377      R1.5000    
   X14.0042      Y85.3540      R1.5000    
   X13.9537      Y84.9702      R1.5000    
   X13.8056      Y84.6126      R1.5000    
   X13.5699      Y84.3055      R1.5000    
   X13.2629      Y84.0698      R1.5000    
   X12.9052      Y83.9217      R1.5000    
   X12.5215      Y83.8712      R1.5000    
(Pass: 7)
G1   Z-2.800     F100 
G17 G2   X12.1377      Y83.9217      R1.5000     F150 
   X11.7801      Y84.0698      R1.5000    
   X11.4730      Y84.3054      R1.5000    
   X11.2374      Y84.6125      R1.5000    
   X11.0892      Y84.9701      R1.5000    
   X11.0387      Y85.3539      R1.5000    
   X11.0892      Y85.7377      R1.5000    
   X11.2373      Y86.0953      R1.5000    
   X11.4730      Y86.4024      R1.5000    
   X11.7801      Y86.6380      R1.5000    
   X12.1377      Y86.7861      R1.5000    
   X12.5214      Y86.8367      R1.5000    
   X12.9052      Y86.7861      R1.5000    
   X13.2628      Y86.6380      R1.5000    
   X13.5699      Y86.4024      R1.5000    
   X13.8055      Y86.0953      R1.5000    
   X13.9537      Y85.7377      R1.5000    
   X14.0042      Y85.3540      R1.5000    
   X13.9537      Y84.9702      R1.5000    
   X13.8056      Y84.6126      R1.5000    
   X13.5699      Y84.3055      R1.5000    
   X13.2629      Y84.0698      R1.5000    
   X12.9052      Y83.9217      R1.5000    
   X12.5215      Y83.8712      R1.5000    
(Pass: 8)
G1   Z-3.200     F100 
G17 G2   X12.1377      Y83.9217      R1.5000     F150 
   X11.7801      Y84.0698      R1.5000    
   X11.4730      Y84.3054      R1.5000    
   X11.2374      Y84.6125      R1.5000    
   X11.0892      Y84.9701      R1.5000    
   X11.0387      Y85.3539      R1.5000    
   X11.0892      Y85.7377      R1.5000    
   X11.2373      Y86.0953      R1.5000    
   X11.4730      Y86.4024      R1.5000    
   X11.7801      Y86.6380      R1.5000    
   X12.1377      Y86.7861      R1.5000    
   X12.5214      Y86.8367      R1.5000    
   X12.9052      Y86.7861      R1.5000    
   X13.2628      Y86.6380      R1.5000    
   X13.5699      Y86.4024      R1.5000    
   X13.8055      Y86.0953      R1.5000    
   X13.9537      Y85.7377      R1.5000    
   X14.0042      Y85.3540      R1.5000    
   X13.9537      Y84.9702      R1.5000    
   X13.8056      Y84.6126      R1.5000    
   X13.5699      Y84.3055      R1.5000    
   X13.2629      Y84.0698      R1.5000    
   X12.9052      Y83.9217      R1.5000    
   X12.5215      Y83.8712      R1.5000    
(Pass: 9)
G1   Z-3.600     F100 
G17 G2   X12.1377      Y83.9217      R1.5000     F150 
   X11.7801      Y84.0698      R1.5000    
   X11.4730      Y84.3054      R1.5000    
   X11.2374      Y84.6125      R1.5000    
   X11.0892      Y84.9701      R1.5000    
   X11.0387      Y85.3539      R1.5000    
   X11.0892      Y85.7377      R1.5000    
   X11.2373      Y86.0953      R1.5000    
   X11.4730      Y86.4024      R1.5000    
   X11.7801      Y86.6380      R1.5000    
   X12.1377      Y86.7861      R1.5000    
   X12.5214      Y86.8367      R1.5000    
   X12.9052      Y86.7861      R1.5000    
   X13.2628      Y86.6380      R1.5000    
   X13.5699      Y86.4024      R1.5000    
   X13.8055      Y86.0953      R1.5000    
   X13.9537      Y85.7377      R1.5000    
   X14.0042      Y85.3540      R1.5000    
   X13.9537      Y84.9702      R1.5000    
   X13.8056      Y84.6126      R1.5000    
   X13.5699      Y84.3055      R1.5000    
   X13.2629      Y84.0698      R1.5000    
   X12.9052      Y83.9217      R1.5000    
   X12.5215      Y83.8712      R1.5000    
(BREAK pass 9)
G0   Z5.000     
(Pass: 1)
   Y121.871   
G1   Z-0.400     F100 
G17 G2   X12.1377      Y121.9217     R1.5000     F150 
   X11.7801      Y122.0698     R1.5000    
   X11.4730      Y122.3054     R1.5000    
   X11.2374      Y122.6125     R1.5000    
   X11.0892      Y122.9701     R1.5000    
   X11.0387      Y123.3539     R1.5000    
   X11.0892      Y123.7377     R1.5000    
   X11.2373      Y124.0953     R1.5000    
   X11.4730      Y124.4024     R1.5000    
   X11.7801      Y124.6380     R1.5000    
   X12.1377      Y124.7861     R1.5000    
   X12.5214      Y124.8367     R1.5000    
   X12.9052      Y124.7862     R1.5000    
   X13.2628      Y124.6380     R1.5000    
   X13.5699      Y124.4024     R1.5000    
   X13.8055      Y124.0953     R1.5000    
   X13.9537      Y123.7377     R1.5000    
   X14.0042      Y123.3540     R1.5000    
   X13.9537      Y122.9702     R1.5000    
   X13.8056      Y122.6126     R1.5000    
   X13.5699      Y122.3055     R1.5000    
   X13.2629      Y122.0698     R1.5000    
   X12.9052      Y121.9217     R1.5000    
   X12.5215      Y121.8712     R1.5000    
(Pass: 2)
G1   Z-0.800     F100 
G17 G2   X12.1377      Y121.9217     R1.5000     F150 
   X11.7801      Y122.0698     R1.5000    
   X11.4730      Y122.3054     R1.5000    
   X11.2374      Y122.6125     R1.5000    
   X11.0892      Y122.9701     R1.5000    
   X11.0387      Y123.3539     R1.5000    
   X11.0892      Y123.7377     R1.5000    
   X11.2373      Y124.0953     R1.5000    
   X11.4730      Y124.4024     R1.5000    
   X11.7801      Y124.6380     R1.5000    
   X12.1377      Y124.7861     R1.5000    
   X12.5214      Y124.8367     R1.5000    
   X12.9052      Y124.7862     R1.5000    
   X13.2628      Y124.6380     R1.5000    
   X13.5699      Y124.4024     R1.5000    
   X13.8055      Y124.0953     R1.5000    
   X13.9537      Y123.7377     R1.5000    
   X14.0042      Y123.3540     R1.5000    
   X13.9537      Y122.9702     R1.5000    
   X13.8056      Y122.6126     R1.5000    
   X13.5699      Y122.3055     R1.5000    
   X13.2629      Y122.0698     R1.5000    
   X12.9052      Y121.9217     R1.5000    
   X12.5215      Y121.8712     R1.5000    
(Pass: 3)
G1   Z-1.200     F100 
G17 G2   X12.1377      Y121.9217     R1.5000     F150 
   X11.7801      Y122.0698     R1.5000    
   X11.4730      Y122.3054     R1.5000    
   X11.2374      Y122.6125     R1.5000    
   X11.0892      Y122.9701     R1.5000    
   X11.0387      Y123.3539     R1.5000    
   X11.0892      Y123.7377     R1.5000    
   X11.2373      Y124.0953     R1.5000    
   X11.4730      Y124.4024     R1.5000    
   X11.7801      Y124.6380     R1.5000    
   X12.1377      Y124.7861     R1.5000    
   X12.5214      Y124.8367     R1.5000    
   X12.9052      Y124.7862     R1.5000    
   X13.2628      Y124.6380     R1.5000    
   X13.5699      Y124.4024     R1.5000    
   X13.8055      Y124.0953     R1.5000    
   X13.9537      Y123.7377     R1.5000    
   X14.0042      Y123.3540     R1.5000    
   X13.9537      Y122.9702     R1.5000    
   X13.8056      Y122.6126     R1.5000    
   X13.5699      Y122.3055     R1.5000    
   X13.2629      Y122.0698     R1.5000    
   X12.9052      Y121.9217     R1.5000    
   X12.5215      Y121.8712     R1.5000    
(Pass: 4)
G1   Z-1.600     F100 
G17 G2   X12.1377      Y121.9217     R1.5000     F150 
   X11.7801      Y122.0698     R1.5000    
   X11.4730      Y122.3054     R1.5000    
   X11.2374      Y122.6125     R1.5000    
   X11.0892      Y122.9701     R1.5000    
   X11.0387      Y123.3539     R1.5000    
   X11.0892      Y123.7377     R1.5000    
   X11.2373      Y124.0953     R1.5000    
   X11.4730      Y124.4024     R1.5000    
   X11.7801      Y124.6380     R1.5000    
   X12.1377      Y124.7861     R1.5000    
   X12.5214      Y124.8367     R1.5000    
   X12.9052      Y124.7862     R1.5000    
   X13.2628      Y124.6380     R1.5000    
   X13.5699      Y124.4024     R1.5000    
   X13.8055      Y124.0953     R1.5000    
   X13.9537      Y123.7377     R1.5000    
   X14.0042      Y123.3540     R1.5000    
   X13.9537      Y122.9702     R1.5000    
   X13.8056      Y122.6126     R1.5000    
   X13.5699      Y122.3055     R1.5000    
   X13.2629      Y122.0698     R1.5000    
   X12.9052      Y121.9217     R1.5000    
   X12.5215      Y121.8712     R1.5000    
(Pass: 5)
G1   Z-2.000     F100 
G17 G2   X12.1377      Y121.9217     R1.5000     F150 
   X11.7801      Y122.0698     R1.5000    
   X11.4730      Y122.3054     R1.5000    
   X11.2374      Y122.6125     R1.5000    
   X11.0892      Y122.9701     R1.5000    
   X11.0387      Y123.3539     R1.5000    
   X11.0892      Y123.7377     R1.5000    
   X11.2373      Y124.0953     R1.5000    
   X11.4730      Y124.4024     R1.5000    
   X11.7801      Y124.6380     R1.5000    
   X12.1377      Y124.7861     R1.5000    
   X12.5214      Y124.8367     R1.5000    
   X12.9052      Y124.7862     R1.5000    
   X13.2628      Y124.6380     R1.5000    
   X13.5699      Y124.4024     R1.5000    
   X13.8055      Y124.0953     R1.5000    
   X13.9537      Y123.7377     R1.5000    
   X14.0042      Y123.3540     R1.5000    
   X13.9537      Y122.9702     R1.5000    
   X13.8056      Y122.6126     R1.5000    
   X13.5699      Y122.3055     R1.5000    
   X13.2629      Y122.0698     R1.5000    
   X12.9052      Y121.9217     R1.5000    
   X12.5215      Y121.8712     R1.5000    
(Pass: 6)
G1   Z-2.400     F100 
G17 G2   X12.1377      Y121.9217     R1.5000     F150 
   X11.7801      Y122.0698     R1.5000    
   X11.4730      Y122.3054     R1.5000    
   X11.2374      Y122.6125     R1.5000    
   X11.0892      Y122.9701     R1.5000    
   X11.0387      Y123.3539     R1.5000    
   X11.0892      Y123.7377     R1.5000    
   X11.2373      Y124.0953     R1.5000    
   X11.4730      Y124.4024     R1.5000    
   X11.7801      Y124.6380     R1.5000    
   X12.1377      Y124.7861     R1.5000    
   X12.5214      Y124.8367     R1.5000    
   X12.9052      Y124.7862     R1.5000    
   X13.2628      Y124.6380     R1.5000    
   X13.5699      Y124.4024     R1.5000    
   X13.8055      Y124.0953     R1.5000    
   X13.9537      Y123.7377     R1.5000    
   X14.0042      Y123.3540     R1.5000    
   X13.9537      Y122.9702     R1.5000    
   X13.8056      Y122.6126     R1.5000    
   X13.5699      Y122.3055     R1.5000    
   X13.2629      Y122.0698     R1.5000    
   X12.9052      Y121.9217     R1.5000    
   X12.5215      Y121.8712     R1.5000    
(Pass: 7)
G1   Z-2.800     F100 
G17 G2   X12.1377      Y121.9217     R1.5000     F150 
   X11.7801      Y122.0698     R1.5000    
   X11.4730      Y122.3054     R1.5000    
   X11.2374      Y122.6125     R1.5000    
   X11.0892      Y122.9701     R1.5000    
   X11.0387      Y123.3539     R1.5000    
   X11.0892      Y123.7377     R1.5000    
   X11.2373      Y124.0953     R1.5000    
   X11.4730      Y124.4024     R1.5000    
   X11.7801      Y124.6380     R1.5000    
   X12.1377      Y124.7861     R1.5000    
   X12.5214      Y124.8367     R1.5000    
   X12.9052      Y124.7862     R1.5000    
   X13.2628      Y124.6380     R1.5000    
   X13.5699      Y124.4024     R1.5000    
   X13.8055      Y124.0953     R1.5000    
   X13.9537      Y123.7377     R1.5000    
   X14.0042      Y123.3540     R1.5000    
   X13.9537      Y122.9702     R1.5000    
   X13.8056      Y122.6126     R1.5000    
   X13.5699      Y122.3055     R1.5000    
   X13.2629      Y122.0698     R1.5000    
   X12.9052      Y121.9217     R1.5000    
   X12.5215      Y121.8712     R1.5000    
(Pass: 8)
G1   Z-3.200     F100 
G17 G2   X12.1377      Y121.9217     R1.5000     F150 
   X11.7801      Y122.0698     R1.5000    
   X11.4730      Y122.3054     R1.5000    
   X11.2374      Y122.6125     R1.5000    
   X11.0892      Y122.9701     R1.5000    
   X11.0387      Y123.3539     R1.5000    
   X11.0892      Y123.7377     R1.5000    
   X11.2373      Y124.0953     R1.5000    
   X11.4730      Y124.4024     R1.5000    
   X11.7801      Y124.6380     R1.5000    
   X12.1377      Y124.7861     R1.5000    
   X12.5214      Y124.8367     R1.5000    
   X12.9052      Y124.7862     R1.5000    
   X13.2628      Y124.6380     R1.5000    
   X13.5699      Y124.4024     R1.5000    
   X13.8055      Y124.0953     R1.5000    
   X13.9537      Y123.7377     R1.5000    
   X14.0042      Y123.3540     R1.5000    
   X13.9537      Y122.9702     R1.5000    
   X13.8056      Y122.6126     R1.5000    
   X13.5699      Y122.3055     R1.5000    
   X13.2629      Y122.0698     R1.5000    
   X12.9052      Y121.9217     R1.5000    
   X12.5215      Y121.8712     R1.5000    
(Pass: 9)
G1   Z-3.600     F100 
G17 G2   X12.1377      Y121.9217     R1.5000     F150 
   X11.7801      Y122.0698     R1.5000    
   X11.4730      Y122.3054     R1.5000    
   X11.2374      Y122.6125     R1.5000    
   X11.0892      Y122.9701     R1.5000    
   X11.0387      Y123.3539     R1.5000    
   X11.0892      Y123.7377     R1.5000    
   X11.2373      Y124.0953     R1.5000    
   X11.4730      Y124.4024     R1.5000    
   X11.7801      Y124.6380     R1.5000    
   X12.1377      Y124.7861     R1.5000    
   X12.5214      Y124.8367     R1.5000    
   X12.9052      Y124.7862     R1.5000    
   X13.2628      Y124.6380     R1.5000    
   X13.5699      Y124.4024     R1.5000    
   X13.8055      Y124.0953     R1.5000    
   X13.9537      Y123.7377     R1.5000    
   X14.0042      Y123.3540     R1.5000    
   X13.9537      Y122.9702     R1.5000    
   X13.8056      Y122.6126     R1.5000    
   X13.5699      Y122.3055     R1.5000    
   X13.2629      Y122.0698     R1.5000    
   X12.9052      Y121.9217     R1.5000    
   X12.5215      Y121.8712     R1.5000    
(BREAK pass 9)
G0   Z5.000     
(Pass: 1)
   X57.639       Y123.334   
G1   Z-0.400     F100 
G17 G2   X57.6892      Y123.7175     R1.5000     F150 
   X57.8374      Y124.0751     R1.5000    
   X58.0730      Y124.3822     R1.5000    
   X58.3801      Y124.6179     R1.5000    
   X58.7377      Y124.7660     R1.5000    
   X59.1214      Y124.8165     R1.5000    
   X59.5052      Y124.7660     R1.5000    
   X59.8628      Y124.6179     R1.5000    
   X60.1699      Y124.3823     R1.5000    
   X60.4055      Y124.0752     R1.5000    
   X60.5537      Y123.7176     R1.5000    
   X60.6042      Y123.3338     R1.5000    
   X60.5537      Y122.9500     R1.5000    
   X60.4056      Y122.5924     R1.5000    
   X60.1700      Y122.2853     R1.5000    
   X59.8629      Y122.0497     R1.5000    
   X59.5053      Y121.9016     R1.5000    
   X59.1215      Y121.8510     R1.5000    
   X58.7377      Y121.9016     R1.5000    
   X58.3801      Y122.0497     R1.5000    
   X58.0730      Y122.2853     R1.5000    
   X57.8374      Y122.5924     R1.5000    
   X57.6893      Y122.9500     R1.5000    
   X57.6387      Y123.3338     R1.5000    
(Pass: 2)
G1   Z-0.800     F100 
G17 G2   X57.6892      Y123.7175     R1.5000     F150 
   X57.8374      Y124.0751     R1.5000    
   X58.0730      Y124.3822     R1.5000    
   X58.3801      Y124.6179     R1.5000    
   X58.7377      Y124.7660     R1.5000    
   X59.1214      Y124.8165     R1.5000    
   X59.5052      Y124.7660     R1.5000    
   X59.8628      Y124.6179     R1.5000    
   X60.1699      Y124.3823     R1.5000    
   X60.4055      Y124.0752     R1.5000    
   X60.5537      Y123.7176     R1.5000    
   X60.6042      Y123.3338     R1.5000    
   X60.5537      Y122.9500     R1.5000    
   X60.4056      Y122.5924     R1.5000    
   X60.1700      Y122.2853     R1.5000    
   X59.8629      Y122.0497     R1.5000    
   X59.5053      Y121.9016     R1.5000    
   X59.1215      Y121.8510     R1.5000    
   X58.7377      Y121.9016     R1.5000    
   X58.3801      Y122.0497     R1.5000    
   X58.0730      Y122.2853     R1.5000    
   X57.8374      Y122.5924     R1.5000    
   X57.6893      Y122.9500     R1.5000    
   X57.6387      Y123.3338     R1.5000    
(Pass: 3)
G1   Z-1.200     F100 
G17 G2   X57.6892      Y123.7175     R1.5000     F150 
   X57.8374      Y124.0751     R1.5000    
   X58.0730      Y124.3822     R1.5000    
   X58.3801      Y124.6179     R1.5000    
   X58.7377      Y124.7660     R1.5000    
   X59.1214      Y124.8165     R1.5000    
   X59.5052      Y124.7660     R1.5000    
   X59.8628      Y124.6179     R1.5000    
   X60.1699      Y124.3823     R1.5000    
   X60.4055      Y124.0752     R1.5000    
   X60.5537      Y123.7176     R1.5000    
   X60.6042      Y123.3338     R1.5000    
   X60.5537      Y122.9500     R1.5000    
   X60.4056      Y122.5924     R1.5000    
   X60.1700      Y122.2853     R1.5000    
   X59.8629      Y122.0497     R1.5000    
   X59.5053      Y121.9016     R1.5000    
   X59.1215      Y121.8510     R1.5000    
   X58.7377      Y121.9016     R1.5000    
   X58.3801      Y122.0497     R1.5000    
   X58.0730      Y122.2853     R1.5000    
   X57.8374      Y122.5924     R1.5000    
   X57.6893      Y122.9500     R1.5000    
   X57.6387      Y123.3338     R1.5000    
(Pass: 4)
G1   Z-1.600     F100 
G17 G2   X57.6892      Y123.7175     R1.5000     F150 
   X57.8374      Y124.0751     R1.5000    
   X58.0730      Y124.3822     R1.5000    
   X58.3801      Y124.6179     R1.5000    
   X58.7377      Y124.7660     R1.5000    
   X59.1214      Y124.8165     R1.5000    
   X59.5052      Y124.7660     R1.5000    
   X59.8628      Y124.6179     R1.5000    
   X60.1699      Y124.3823     R1.5000    
   X60.4055      Y124.0752     R1.5000    
   X60.5537      Y123.7176     R1.5000    
   X60.6042      Y123.3338     R1.5000    
   X60.5537      Y122.9500     R1.5000    
   X60.4056      Y122.5924     R1.5000    
   X60.1700      Y122.2853     R1.5000    
   X59.8629      Y122.0497     R1.5000    
   X59.5053      Y121.9016     R1.5000    
   X59.1215      Y121.8510     R1.5000    
   X58.7377      Y121.9016     R1.5000    
   X58.3801      Y122.0497     R1.5000    
   X58.0730      Y122.2853     R1.5000    
   X57.8374      Y122.5924     R1.5000    
   X57.6893      Y122.9500     R1.5000    
   X57.6387      Y123.3338     R1.5000    
(Pass: 5)
G1   Z-2.000     F100 
G17 G2   X57.6892      Y123.7175     R1.5000     F150 
   X57.8374      Y124.0751     R1.5000    
   X58.0730      Y124.3822     R1.5000    
   X58.3801      Y124.6179     R1.5000    
   X58.7377      Y124.7660     R1.5000    
   X59.1214      Y124.8165     R1.5000    
   X59.5052      Y124.7660     R1.5000    
   X59.8628      Y124.6179     R1.5000    
   X60.1699      Y124.3823     R1.5000    
   X60.4055      Y124.0752     R1.5000    
   X60.5537      Y123.7176     R1.5000    
   X60.6042      Y123.3338     R1.5000    
   X60.5537      Y122.9500     R1.5000    
   X60.4056      Y122.5924     R1.5000    
   X60.1700      Y122.2853     R1.5000    
   X59.8629      Y122.0497     R1.5000    
   X59.5053      Y121.9016     R1.5000    
   X59.1215      Y121.8510     R1.5000    
   X58.7377      Y121.9016     R1.5000    
   X58.3801      Y122.0497     R1.5000    
   X58.0730      Y122.2853     R1.5000    
   X57.8374      Y122.5924     R1.5000    
   X57.6893      Y122.9500     R1.5000    
   X57.6387      Y123.3338     R1.5000    
(Pass: 6)
G1   Z-2.400     F100 
G17 G2   X57.6892      Y123.7175     R1.5000     F150 
   X57.8374      Y124.0751     R1.5000    
   X58.0730      Y124.3822     R1.5000    
   X58.3801      Y124.6179     R1.5000    
   X58.7377      Y124.7660     R1.5000    
   X59.1214      Y124.8165     R1.5000    
   X59.5052      Y124.7660     R1.5000    
   X59.8628      Y124.6179     R1.5000    
   X60.1699      Y124.3823     R1.5000    
   X60.4055      Y124.0752     R1.5000    
   X60.5537      Y123.7176     R1.5000    
   X60.6042      Y123.3338     R1.5000    
   X60.5537      Y122.9500     R1.5000    
   X60.4056      Y122.5924     R1.5000    
   X60.1700      Y122.2853     R1.5000    
   X59.8629      Y122.0497     R1.5000    
   X59.5053      Y121.9016     R1.5000    
   X59.1215      Y121.8510     R1.5000    
   X58.7377      Y121.9016     R1.5000    
   X58.3801      Y122.0497     R1.5000    
   X58.0730      Y122.2853     R1.5000    
   X57.8374      Y122.5924     R1.5000    
   X57.6893      Y122.9500     R1.5000    
   X57.6387      Y123.3338     R1.5000    
(Pass: 7)
G1   Z-2.800     F100 
G17 G2   X57.6892      Y123.7175     R1.5000     F150 
   X57.8374      Y124.0751     R1.5000    
   X58.0730      Y124.3822     R1.5000    
   X58.3801      Y124.6179     R1.5000    
   X58.7377      Y124.7660     R1.5000    
   X59.1214      Y124.8165     R1.5000    
   X59.5052      Y124.7660     R1.5000    
   X59.8628      Y124.6179     R1.5000    
   X60.1699      Y124.3823     R1.5000    
   X60.4055      Y124.0752     R1.5000    
   X60.5537      Y123.7176     R1.5000    
   X60.6042      Y123.3338     R1.5000    
   X60.5537      Y122.9500     R1.5000    
   X60.4056      Y122.5924     R1.5000    
   X60.1700      Y122.2853     R1.5000    
   X59.8629      Y122.0497     R1.5000    
   X59.5053      Y121.9016     R1.5000    
   X59.1215      Y121.8510     R1.5000    
   X58.7377      Y121.9016     R1.5000    
   X58.3801      Y122.0497     R1.5000    
   X58.0730      Y122.2853     R1.5000    
   X57.8374      Y122.5924     R1.5000    
   X57.6893      Y122.9500     R1.5000    
   X57.6387      Y123.3338     R1.5000    
(Pass: 8)
G1   Z-3.200     F100 
G17 G2   X57.6892      Y123.7175     R1.5000     F150 
   X57.8374      Y124.0751     R1.5000    
   X58.0730      Y124.3822     R1.5000    
   X58.3801      Y124.6179     R1.5000    
   X58.7377      Y124.7660     R1.5000    
   X59.1214      Y124.8165     R1.5000    
   X59.5052      Y124.7660     R1.5000    
   X59.8628      Y124.6179     R1.5000    
   X60.1699      Y124.3823     R1.5000    
   X60.4055      Y124.0752     R1.5000    
   X60.5537      Y123.7176     R1.5000    
   X60.6042      Y123.3338     R1.5000    
   X60.5537      Y122.9500     R1.5000    
   X60.4056      Y122.5924     R1.5000    
   X60.1700      Y122.2853     R1.5000    
   X59.8629      Y122.0497     R1.5000    
   X59.5053      Y121.9016     R1.5000    
   X59.1215      Y121.8510     R1.5000    
   X58.7377      Y121.9016     R1.5000    
   X58.3801      Y122.0497     R1.5000    
   X58.0730      Y122.2853     R1.5000    
   X57.8374      Y122.5924     R1.5000    
   X57.6893      Y122.9500     R1.5000    
   X57.6387      Y123.3338     R1.5000    
(Pass: 9)
G1   Z-3.600     F100 
G17 G2   X57.6892      Y123.7175     R1.5000     F150 
   X57.8374      Y124.0751     R1.5000    
   X58.0730      Y124.3822     R1.5000    
   X58.3801      Y124.6179     R1.5000    
   X58.7377      Y124.7660     R1.5000    
   X59.1214      Y124.8165     R1.5000    
   X59.5052      Y124.7660     R1.5000    
   X59.8628      Y124.6179     R1.5000    
   X60.1699      Y124.3823     R1.5000    
   X60.4055      Y124.0752     R1.5000    
   X60.5537      Y123.7176     R1.5000    
   X60.6042      Y123.3338     R1.5000    
   X60.5537      Y122.9500     R1.5000    
   X60.4056      Y122.5924     R1.5000    
   X60.1700      Y122.2853     R1.5000    
   X59.8629      Y122.0497     R1.5000    
   X59.5053      Y121.9016     R1.5000    
   X59.1215      Y121.8510     R1.5000    
   X58.7377      Y121.9016     R1.5000    
   X58.3801      Y122.0497     R1.5000    
   X58.0730      Y122.2853     R1.5000    
   X57.8374      Y122.5924     R1.5000    
   X57.6893      Y122.9500     R1.5000    
   X57.6387      Y123.3338     R1.5000    
(BREAK pass 9)
G0   Z5.000     
(Pass: 1)
   X59.121       Y86.817    
G1   Z-0.400     F100 
G17 G2   X59.5052      Y86.7660      R1.5000     F150 
   X59.8628      Y86.6179      R1.5000    
   X60.1699      Y86.3823      R1.5000    
   X60.4055      Y86.0752      R1.5000    
   X60.5537      Y85.7176      R1.5000    
   X60.6042      Y85.3338      R1.5000    
   X60.5537      Y84.9500      R1.5000    
   X60.4056      Y84.5924      R1.5000    
   X60.1700      Y84.2853      R1.5000    
   X59.8629      Y84.0497      R1.5000    
   X59.5053      Y83.9016      R1.5000    
   X59.1215      Y83.8510      R1.5000    
   X58.7377      Y83.9016      R1.5000    
   X58.3801      Y84.0497      R1.5000    
   X58.0730      Y84.2853      R1.5000    
   X57.8374      Y84.5924      R1.5000    
   X57.6893      Y84.9500      R1.5000    
   X57.6387      Y85.3337      R1.5000    
   X57.6892      Y85.7175      R1.5000    
   X57.8374      Y86.0751      R1.5000    
   X58.0730      Y86.3822      R1.5000    
   X58.3801      Y86.6179      R1.5000    
   X58.7377      Y86.7660      R1.5000    
   X59.1214      Y86.8165      R1.5000    
(Pass: 2)
G1   Z-0.800     F100 
G17 G2   X59.5052      Y86.7660      R1.5000     F150 
   X59.8628      Y86.6179      R1.5000    
   X60.1699      Y86.3823      R1.5000    
   X60.4055      Y86.0752      R1.5000    
   X60.5537      Y85.7176      R1.5000    
   X60.6042      Y85.3338      R1.5000    
   X60.5537      Y84.9500      R1.5000    
   X60.4056      Y84.5924      R1.5000    
   X60.1700      Y84.2853      R1.5000    
   X59.8629      Y84.0497      R1.5000    
   X59.5053      Y83.9016      R1.5000    
   X59.1215      Y83.8510      R1.5000    
   X58.7377      Y83.9016      R1.5000    
   X58.3801      Y84.0497      R1.5000    
   X58.0730      Y84.2853      R1.5000    
   X57.8374      Y84.5924      R1.5000    
   X57.6893      Y84.9500      R1.5000    
   X57.6387      Y85.3337      R1.5000    
   X57.6892      Y85.7175      R1.5000    
   X57.8374      Y86.0751      R1.5000    
   X58.0730      Y86.3822      R1.5000    
   X58.3801      Y86.6179      R1.5000    
   X58.7377      Y86.7660      R1.5000    
   X59.1214      Y86.8165      R1.5000    
(Pass: 3)
G1   Z-1.200     F100 
G17 G2   X59.5052      Y86.7660      R1.5000     F150 
   X59.8628      Y86.6179      R1.5000    
   X60.1699      Y86.3823      R1.5000    
   X60.4055      Y86.0752      R1.5000    
   X60.5537      Y85.7176      R1.5000    
   X60.6042      Y85.3338      R1.5000    
   X60.5537      Y84.9500      R1.5000    
   X60.4056      Y84.5924      R1.5000    
   X60.1700      Y84.2853      R1.5000    
   X59.8629      Y84.0497      R1.5000    
   X59.5053      Y83.9016      R1.5000    
   X59.1215      Y83.8510      R1.5000    
   X58.7377      Y83.9016      R1.5000    
   X58.3801      Y84.0497      R1.5000    
   X58.0730      Y84.2853      R1.5000    
   X57.8374      Y84.5924      R1.5000    
   X57.6893      Y84.9500      R1.5000    
   X57.6387      Y85.3337      R1.5000    
   X57.6892      Y85.7175      R1.5000    
   X57.8374      Y86.0751      R1.5000    
   X58.0730      Y86.3822      R1.5000    
   X58.3801      Y86.6179      R1.5000    
   X58.7377      Y86.7660      R1.5000    
   X59.1214      Y86.8165      R1.5000    
(Pass: 4)
G1   Z-1.600     F100 
G17 G2   X59.5052      Y86.7660      R1.5000     F150 
   X59.8628      Y86.6179      R1.5000    
   X60.1699      Y86.3823      R1.5000    
   X60.4055      Y86.0752      R1.5000    
   X60.5537      Y85.7176      R1.5000    
   X60.6042      Y85.3338      R1.5000    
   X60.5537      Y84.9500      R1.5000    
   X60.4056      Y84.5924      R1.5000    
   X60.1700      Y84.2853      R1.5000    
   X59.8629      Y84.0497      R1.5000    
   X59.5053      Y83.9016      R1.5000    
   X59.1215      Y83.8510      R1.5000    
   X58.7377      Y83.9016      R1.5000    
   X58.3801      Y84.0497      R1.5000    
   X58.0730      Y84.2853      R1.5000    
   X57.8374      Y84.5924      R1.5000    
   X57.6893      Y84.9500      R1.5000    
   X57.6387      Y85.3337      R1.5000    
   X57.6892      Y85.7175      R1.5000    
   X57.8374      Y86.0751      R1.5000    
   X58.0730      Y86.3822      R1.5000    
   X58.3801      Y86.6179      R1.5000    
   X58.7377      Y86.7660      R1.5000    
   X59.1214      Y86.8165      R1.5000    
(Pass: 5)
G1   Z-2.000     F100 
G17 G2   X59.5052      Y86.7660      R1.5000     F150 
   X59.8628      Y86.6179      R1.5000    
   X60.1699      Y86.3823      R1.5000    
   X60.4055      Y86.0752      R1.5000    
   X60.5537      Y85.7176      R1.5000    
   X60.6042      Y85.3338      R1.5000    
   X60.5537      Y84.9500      R1.5000    
   X60.4056      Y84.5924      R1.5000    
   X60.1700      Y84.2853      R1.5000    
   X59.8629      Y84.0497      R1.5000    
   X59.5053      Y83.9016      R1.5000    
   X59.1215      Y83.8510      R1.5000    
   X58.7377      Y83.9016      R1.5000    
   X58.3801      Y84.0497      R1.5000    
   X58.0730      Y84.2853      R1.5000    
   X57.8374      Y84.5924      R1.5000    
   X57.6893      Y84.9500      R1.5000    
   X57.6387      Y85.3337      R1.5000    
   X57.6892      Y85.7175      R1.5000    
   X57.8374      Y86.0751      R1.5000    
   X58.0730      Y86.3822      R1.5000    
   X58.3801      Y86.6179      R1.5000    
   X58.7377      Y86.7660      R1.5000    
   X59.1214      Y86.8165      R1.5000    
(Pass: 6)
G1   Z-2.400     F100 
G17 G2   X59.5052      Y86.7660      R1.5000     F150 
   X59.8628      Y86.6179      R1.5000    
   X60.1699      Y86.3823      R1.5000    
   X60.4055      Y86.0752      R1.5000    
   X60.5537      Y85.7176      R1.5000    
   X60.6042      Y85.3338      R1.5000    
   X60.5537      Y84.9500      R1.5000    
   X60.4056      Y84.5924      R1.5000    
   X60.1700      Y84.2853      R1.5000    
   X59.8629      Y84.0497      R1.5000    
   X59.5053      Y83.9016      R1.5000    
   X59.1215      Y83.8510      R1.5000    
   X58.7377      Y83.9016      R1.5000    
   X58.3801      Y84.0497      R1.5000    
   X58.0730      Y84.2853      R1.5000    
   X57.8374      Y84.5924      R1.5000    
   X57.6893      Y84.9500      R1.5000    
   X57.6387      Y85.3337      R1.5000    
   X57.6892      Y85.7175      R1.5000    
   X57.8374      Y86.0751      R1.5000    
   X58.0730      Y86.3822      R1.5000    
   X58.3801      Y86.6179      R1.5000    
   X58.7377      Y86.7660      R1.5000    
   X59.1214      Y86.8165      R1.5000    
(Pass: 7)
G1   Z-2.800     F100 
G17 G2   X59.5052      Y86.7660      R1.5000     F150 
   X59.8628      Y86.6179      R1.5000    
   X60.1699      Y86.3823      R1.5000    
   X60.4055      Y86.0752      R1.5000    
   X60.5537      Y85.7176      R1.5000    
   X60.6042      Y85.3338      R1.5000    
   X60.5537      Y84.9500      R1.5000    
   X60.4056      Y84.5924      R1.5000    
   X60.1700      Y84.2853      R1.5000    
   X59.8629      Y84.0497      R1.5000    
   X59.5053      Y83.9016      R1.5000    
   X59.1215      Y83.8510      R1.5000    
   X58.7377      Y83.9016      R1.5000    
   X58.3801      Y84.0497      R1.5000    
   X58.0730      Y84.2853      R1.5000    
   X57.8374      Y84.5924      R1.5000    
   X57.6893      Y84.9500      R1.5000    
   X57.6387      Y85.3337      R1.5000    
   X57.6892      Y85.7175      R1.5000    
   X57.8374      Y86.0751      R1.5000    
   X58.0730      Y86.3822      R1.5000    
   X58.3801      Y86.6179      R1.5000    
   X58.7377      Y86.7660      R1.5000    
   X59.1214      Y86.8165      R1.5000    
(Pass: 8)
G1   Z-3.200     F100 
G17 G2   X59.5052      Y86.7660      R1.5000     F150 
   X59.8628      Y86.6179      R1.5000    
   X60.1699      Y86.3823      R1.5000    
   X60.4055      Y86.0752      R1.5000    
   X60.5537      Y85.7176      R1.5000    
   X60.6042      Y85.3338      R1.5000    
   X60.5537      Y84.9500      R1.5000    
   X60.4056      Y84.5924      R1.5000    
   X60.1700      Y84.2853      R1.5000    
   X59.8629      Y84.0497      R1.5000    
   X59.5053      Y83.9016      R1.5000    
   X59.1215      Y83.8510      R1.5000    
   X58.7377      Y83.9016      R1.5000    
   X58.3801      Y84.0497      R1.5000    
   X58.0730      Y84.2853      R1.5000    
   X57.8374      Y84.5924      R1.5000    
   X57.6893      Y84.9500      R1.5000    
   X57.6387      Y85.3337      R1.5000    
   X57.6892      Y85.7175      R1.5000    
   X57.8374      Y86.0751      R1.5000    
   X58.0730      Y86.3822      R1.5000    
   X58.3801      Y86.6179      R1.5000    
   X58.7377      Y86.7660      R1.5000    
   X59.1214      Y86.8165      R1.5000    
(Pass: 9)
G1   Z-3.600     F100 
G17 G2   X59.5052      Y86.7660      R1.5000     F150 
   X59.8628      Y86.6179      R1.5000    
   X60.1699      Y86.3823      R1.5000    
   X60.4055      Y86.0752      R1.5000    
   X60.5537      Y85.7176      R1.5000    
   X60.6042      Y85.3338      R1.5000    
   X60.5537      Y84.9500      R1.5000    
   X60.4056      Y84.5924      R1.5000    
   X60.1700      Y84.2853      R1.5000    
   X59.8629      Y84.0497      R1.5000    
   X59.5053      Y83.9016      R1.5000    
   X59.1215      Y83.8510      R1.5000    
   X58.7377      Y83.9016      R1.5000    
   X58.3801      Y84.0497      R1.5000    
   X58.0730      Y84.2853      R1.5000    
   X57.8374      Y84.5924      R1.5000    
   X57.6893      Y84.9500      R1.5000    
   X57.6387      Y85.3337      R1.5000    
   X57.6892      Y85.7175      R1.5000    
   X57.8374      Y86.0751      R1.5000    
   X58.0730      Y86.3822      R1.5000    
   X58.3801      Y86.6179      R1.5000    
   X58.7377      Y86.7660      R1.5000    
   X59.1214      Y86.8165      R1.5000    
(BREAK pass 9)
G0   Z5.000     
(Pass: 1)
   X68.621       Y87.990    
G1   Z-0.400     F100 
   Y141.462    F150 
   X68.511       Y142.304   
   X68.300       Y142.925   
   X67.842       Y143.719   
   X67.410       Y144.212   
   X66.631       Y144.810   
   X65.662       Y145.211   
   X64.753       Y145.331   
   X6.891     
   X5.982        Y145.237   
   X5.013        Y144.836   
   X4.234        Y144.238   
   X3.801        Y143.745   
   X3.343        Y142.952   
   X3.132        Y142.331   
   X3.021        Y141.488   
   Y89.077    
   Y82.777    
   Y6.876     
   X3.141        Y5.967     
   X3.542        Y4.999     
   X4.180        Y4.167     
   X5.012        Y3.528     
   X5.981        Y3.126     
   X6.890        Y3.006     
   X64.752    
   X65.660       Y3.101     
   X66.630       Y3.502     
   X67.409       Y4.100     
   X67.842       Y4.592     
   X68.300       Y5.386     
   X68.510       Y6.007     
   X68.621       Y6.849     
   Y81.690    
   Y87.990    
(Pass: 2)
   Z-0.800     F100 
   Y141.462    F150 
   X68.511       Y142.304   
   X68.300       Y142.925   
   X67.842       Y143.719   
   X67.410       Y144.212   
   X66.631       Y144.810   
   X65.662       Y145.211   
   X64.753       Y145.331   
   X6.891     
   X5.982        Y145.237   
   X5.013        Y144.836   
   X4.234        Y144.238   
   X3.801        Y143.745   
   X3.343        Y142.952   
   X3.132        Y142.331   
   X3.021        Y141.488   
   Y89.077    
   Y82.777    
   Y6.876     
   X3.141        Y5.967     
   X3.542        Y4.999     
   X4.180        Y4.167     
   X5.012        Y3.528     
   X5.981        Y3.126     
   X6.890        Y3.006     
   X64.752    
   X65.660       Y3.101     
   X66.630       Y3.502     
   X67.409       Y4.100     
   X67.842       Y4.592     
   X68.300       Y5.386     
   X68.510       Y6.007     
   X68.621       Y6.849     
   Y81.690    
   Y87.990    
(Pass: 3)
   Z-1.200     F100 
   Y141.462    F150 
   X68.511       Y142.304   
   X68.300       Y142.925   
   X67.842       Y143.719   
   X67.410       Y144.212   
   X66.631       Y144.810   
   X65.662       Y145.211   
   X64.753       Y145.331   
   X6.891     
   X5.982        Y145.237   
   X5.013        Y144.836   
   X4.234        Y144.238   
   X3.801        Y143.745   
   X3.343        Y142.952   
   X3.132        Y142.331   
   X3.021        Y141.488   
   Y89.077    
   Y82.777    
   Y6.876     
   X3.141        Y5.967     
   X3.542        Y4.999     
   X4.180        Y4.167     
   X5.012        Y3.528     
   X5.981        Y3.126     
   X6.890        Y3.006     
   X64.752    
   X65.660       Y3.101     
   X66.630       Y3.502     
   X67.409       Y4.100     
   X67.842       Y4.592     
   X68.300       Y5.386     
   X68.510       Y6.007     
   X68.621       Y6.849     
   Y81.690    
   Y87.990    
(Pass: 4)
   Z-1.600     F100 
   Y141.462    F150 
   X68.511       Y142.304   
   X68.300       Y142.925   
   X67.842       Y143.719   
   X67.410       Y144.212   
   X66.631       Y144.810   
   X65.662       Y145.211   
   X64.753       Y145.331   
   X6.891     
   X5.982        Y145.237   
   X5.013        Y144.836   
   X4.234        Y144.238   
   X3.801        Y143.745   
   X3.343        Y142.952   
   X3.132        Y142.331   
   X3.021        Y141.488   
   Y89.077    
   Z-1.550    
   Y82.777    
   Z-1.600     F100 
   Y6.876      F150 
   X3.141        Y5.967     
   X3.542        Y4.999     
   X4.180        Y4.167     
   X5.012        Y3.528     
   X5.981        Y3.126     
   X6.890        Y3.006     
   X64.752    
   X65.660       Y3.101     
   X66.630       Y3.502     
   X67.409       Y4.100     
   X67.842       Y4.592     
   X68.300       Y5.386     
   X68.510       Y6.007     
   X68.621       Y6.849     
   Y81.690    
   Z-1.550    
   Y87.990    
   Z-1.600     F100 
(Pass: 5)
   Z-2.000    
   Y141.462    F150 
   X68.511       Y142.304   
   X68.300       Y142.925   
   X67.842       Y143.719   
   X67.410       Y144.212   
   X66.631       Y144.810   
   X65.662       Y145.211   
   X64.753       Y145.331   
   X6.891     
   X5.982        Y145.237   
   X5.013        Y144.836   
   X4.234        Y144.238   
   X3.801        Y143.745   
   X3.343        Y142.952   
   X3.132        Y142.331   
   X3.021        Y141.488   
   Y89.077    
   Z-1.550    
   Y82.777    
   Z-2.000     F100 
   Y6.876      F150 
   X3.141        Y5.967     
   X3.542        Y4.999     
   X4.180        Y4.167     
   X5.012        Y3.528     
   X5.981        Y3.126     
   X6.890        Y3.006     
   X64.752    
   X65.660       Y3.101     
   X66.630       Y3.502     
   X67.409       Y4.100     
   X67.842       Y4.592     
   X68.300       Y5.386     
   X68.510       Y6.007     
   X68.621       Y6.849     
   Y81.690    
   Z-1.550    
   Y87.990    
   Z-2.000     F100 
(Pass: 6)
   Z-2.400    
   Y141.462    F150 
   X68.511       Y142.304   
   X68.300       Y142.925   
   X67.842       Y143.719   
   X67.410       Y144.212   
   X66.631       Y144.810   
   X65.662       Y145.211   
   X64.753       Y145.331   
   X6.891     
   X5.982        Y145.237   
   X5.013        Y144.836   
   X4.234        Y144.238   
   X3.801        Y143.745   
   X3.343        Y142.952   
   X3.132        Y142.331   
   X3.021        Y141.488   
   Y89.077    
   Z-1.550    
   Y82.777    
   Z-2.400     F100 
   Y6.876      F150 
   X3.141        Y5.967     
   X3.542        Y4.999     
   X4.180        Y4.167     
   X5.012        Y3.528     
   X5.981        Y3.126     
   X6.890        Y3.006     
   X64.752    
   X65.660       Y3.101     
   X66.630       Y3.502     
   X67.409       Y4.100     
   X67.842       Y4.592     
   X68.300       Y5.386     
   X68.510       Y6.007     
   X68.621       Y6.849     
   Y81.690    
   Z-1.550    
   Y87.990    
   Z-2.400     F100 
(Pass: 7)
   Z-2.800    
   Y141.462    F150 
   X68.511       Y142.304   
   X68.300       Y142.925   
   X67.842       Y143.719   
   X67.410       Y144.212   
   X66.631       Y144.810   
   X65.662       Y145.211   
   X64.753       Y145.331   
   X6.891     
   X5.982        Y145.237   
   X5.013        Y144.836   
   X4.234        Y144.238   
   X3.801        Y143.745   
   X3.343        Y142.952   
   X3.132        Y142.331   
   X3.021        Y141.488   
   Y89.077    
   Z-1.550    
   Y82.777    
   Z-2.800     F100 
   Y6.876      F150 
   X3.141        Y5.967     
   X3.542        Y4.999     
   X4.180        Y4.167     
   X5.012        Y3.528     
   X5.981        Y3.126     
   X6.890        Y3.006     
   X64.752    
   X65.660       Y3.101     
   X66.630       Y3.502     
   X67.409       Y4.100     
   X67.842       Y4.592     
   X68.300       Y5.386     
   X68.510       Y6.007     
   X68.621       Y6.849     
   Y81.690    
   Z-1.550    
   Y87.990    
   Z-2.800     F100 
(Pass: 8)
   Z-3.200    
   Y141.462    F150 
   X68.511       Y142.304   
   X68.300       Y142.925   
   X67.842       Y143.719   
   X67.410       Y144.212   
   X66.631       Y144.810   
   X65.662       Y145.211   
   X64.753       Y145.331   
   X6.891     
   X5.982        Y145.237   
   X5.013        Y144.836   
   X4.234        Y144.238   
   X3.801        Y143.745   
   X3.343        Y142.952   
   X3.132        Y142.331   
   X3.021        Y141.488   
   Y89.077    
   Z-1.550    
   Y82.777    
   Z-3.200     F100 
   Y6.876      F150 
   X3.141        Y5.967     
   X3.542        Y4.999     
   X4.180        Y4.167     
   X5.012        Y3.528     
   X5.981        Y3.126     
   X6.890        Y3.006     
   X64.752    
   X65.660       Y3.101     
   X66.630       Y3.502     
   X67.409       Y4.100     
   X67.842       Y4.592     
   X68.300       Y5.386     
   X68.510       Y6.007     
   X68.621       Y6.849     
   Y81.690    
   Z-1.550    
   Y87.990    
   Z-3.200     F100 
(Pass: 9)
   Z-3.600    
   Y141.462    F150 
   X68.511       Y142.304   
   X68.300       Y142.925   
   X67.842       Y143.719   
   X67.410       Y144.212   
   X66.631       Y144.810   
   X65.662       Y145.211   
   X64.753       Y145.331   
   X6.891     
   X5.982        Y145.237   
   X5.013        Y144.836   
   X4.234        Y144.238   
   X3.801        Y143.745   
   X3.343        Y142.952   
   X3.132        Y142.331   
   X3.021        Y141.488   
   Y89.077    
   Z-1.550    
   Y82.777    
   Z-3.600     F100 
   Y6.876      F150 
   X3.141        Y5.967     
   X3.542        Y4.999     
   X4.180        Y4.167     
   X5.012        Y3.528     
   X5.981        Y3.126     
   X6.890        Y3.006     
   X64.752    
   X65.660       Y3.101     
   X66.630       Y3.502     
   X67.409       Y4.100     
   X67.842       Y4.592     
   X68.300       Y5.386     
   X68.510       Y6.007     
   X68.621       Y6.849     
   Y81.690    
   Z-1.550    
   Y87.990    
   Z-3.600     F100 
(BREAK pass 9)
G0   Z5.000     
G0 X0 Y0 (home)
M05
M30
%
