%
(Generated by SketchUcam {1.2a})
(File: NutHole.skp)
(Bit diameter: 3.0mm)
(Feed rate: 150.0mm/min)
(Material Thickness: 5.0mm)
(Material length: 558.8mm X width: 1066.8mm)
(Overhead Gantry: true)
(Retract feed rate NOT limited to plunge feed rate)
(Optimization is ON)
(www.PhlatBoyz.com)
G90 G21 G49
M3 S20000

G10 P2 L20 X0 Y0
G55
G0   Z4.0
   X4.400        Y3.037
G1   Z-9.000    F150
   Y8.963
   X6.500
   Y3.037
   X8.600        Y4.577
   Y7.423
G0   Z4.0
   X9.768        Y6.000
G1   Z-9.000    F150
   X7.884        Y9.263
   X4.116
   X2.232        Y6.000
   X4.116        Y2.737
   X7.884
   X9.768        Y6.000
G0   Z4.0

G10 P2 L20 X100 Y0
G55
G0   Z4.0
   X4.400        Y3.037
G1   Z-9.000    F150
   Y8.963
   X6.500
   Y3.037
   X8.600        Y4.577
   Y7.423
G0   Z4.0
   X9.768        Y6.000
G1   Z-9.000    F150
   X7.884        Y9.263
   X4.116
   X2.232        Y6.000
   X4.116        Y2.737
   X7.884
   X9.768        Y6.000
G0   Z4.0

G10 P2 L20 X200 Y0
G55
G0   Z4.0
   X4.400        Y3.037
G1   Z-9.000    F150
   Y8.963
   X6.500
   Y3.037
   X8.600        Y4.577
   Y7.423
G0   Z4.0
   X9.768        Y6.000
G1   Z-9.000    F150
   X7.884        Y9.263
   X4.116
   X2.232        Y6.000
   X4.116        Y2.737
   X7.884
   X9.768        Y6.000
G0   Z4.0

G10 P2 L20 X300 Y0
G55
G0   Z4.0
   X4.400        Y3.037
G1   Z-9.000    F150
   Y8.963
   X6.500
   Y3.037
   X8.600        Y4.577
   Y7.423
G0   Z4.0
   X9.768        Y6.000
G1   Z-9.000    F150
   X7.884        Y9.263
   X4.116
   X2.232        Y6.000
   X4.116        Y2.737
   X7.884
   X9.768        Y6.000
G0   Z4.0

G10 P2 L20 X400 Y0
G55
G0   Z4.0
   X4.400        Y3.037
G1   Z-9.000    F150
   Y8.963
   X6.500
   Y3.037
   X8.600        Y4.577
   Y7.423
G0   Z4.0
   X9.768        Y6.000
G1   Z-9.000    F150
   X7.884        Y9.263
   X4.116
   X2.232        Y6.000
   X4.116        Y2.737
   X7.884
   X9.768        Y6.000
G0   Z4.0

G10 P2 L20 X500 Y0
G55
G0   Z4.0
   X4.400        Y3.037
G1   Z-9.000    F150
   Y8.963
   X6.500
   Y3.037
   X8.600        Y4.577
   Y7.423
G0   Z4.0
   X9.768        Y6.000
G1   Z-9.000    F150
   X7.884        Y9.263
   X4.116
   X2.232        Y6.000
   X4.116        Y2.737
   X7.884
   X9.768        Y6.000
G0   Z4.0

G10 P2 L20 X600 Y0
G55
G0   Z4.0
   X4.400        Y3.037
G1   Z-9.000    F150
   Y8.963
   X6.500
   Y3.037
   X8.600        Y4.577
   Y7.423
G0   Z4.0
   X9.768        Y6.000
G1   Z-9.000    F150
   X7.884        Y9.263
   X4.116
   X2.232        Y6.000
   X4.116        Y2.737
   X7.884
   X9.768        Y6.000
G0   Z4.0

G10 P2 L20 X700 Y0
G55
G0   Z4.0
   X4.400        Y3.037
G1   Z-9.000    F150
   Y8.963
   X6.500
   Y3.037
   X8.600        Y4.577
   Y7.423
G0   Z4.0
   X9.768        Y6.000
G1   Z-9.000    F150
   X7.884        Y9.263
   X4.116
   X2.232        Y6.000
   X4.116        Y2.737
   X7.884
   X9.768        Y6.000
G0   Z4.0

G10 P2 L20 X800 Y0
G55
G0   Z4.0
   X4.400        Y3.037
G1   Z-9.000    F150
   Y8.963
   X6.500
   Y3.037
   X8.600        Y4.577
   Y7.423
G0   Z4.0
   X9.768        Y6.000
G1   Z-9.000    F150
   X7.884        Y9.263
   X4.116
   X2.232        Y6.000
   X4.116        Y2.737
   X7.884
   X9.768        Y6.000
G0   Z4.0

G10 P2 L20 X900 Y0
G55
G0   Z4.0
   X4.400        Y3.037
G1   Z-9.000    F150
   Y8.963
   X6.500
   Y3.037
   X8.600        Y4.577
   Y7.423
G0   Z4.0
   X9.768        Y6.000
G1   Z-9.000    F150
   X7.884        Y9.263
   X4.116
   X2.232        Y6.000
   X4.116        Y2.737
   X7.884
   X9.768        Y6.000
G0   Z4.0

G10 P2 L20 X1000 Y0
G55
G0   Z4.0
   X4.400        Y3.037
G1   Z-9.000    F150
   Y8.963
   X6.500
   Y3.037
   X8.600        Y4.577
   Y7.423
G0   Z4.0
   X9.768        Y6.000
G1   Z-9.000    F150
   X7.884        Y9.263
   X4.116
   X2.232        Y6.000
   X4.116        Y2.737
   X7.884
   X9.768        Y6.000
G0   Z4.0

G10 P2 L20 X1100 Y0
G55
G0   Z4.0
   X4.400        Y3.037
G1   Z-9.000    F150
   Y8.963
   X6.500
   Y3.037
   X8.600        Y4.577
   Y7.423
G0   Z4.0
   X9.768        Y6.000
G1   Z-9.000    F150
   X7.884        Y9.263
   X4.116
   X2.232        Y6.000
   X4.116        Y2.737
   X7.884
   X9.768        Y6.000
G0   Z4.0

G10 P2 L20 X1200 Y0
G55
G0   Z4.0
   X4.400        Y3.037
G1   Z-9.000    F150
   Y8.963
   X6.500
   Y3.037
   X8.600        Y4.577
   Y7.423
G0   Z4.0
   X9.768        Y6.000
G1   Z-9.000    F150
   X7.884        Y9.263
   X4.116
   X2.232        Y6.000
   X4.116        Y2.737
   X7.884
   X9.768        Y6.000
G0   Z4.0

G10 P2 L20 X0 Y100
G55
G0   Z4.0
   X4.400        Y3.037
G1   Z-9.000    F150
   Y8.963
   X6.500
   Y3.037
   X8.600        Y4.577
   Y7.423
G0   Z4.0
   X9.768        Y6.000
G1   Z-9.000    F150
   X7.884        Y9.263
   X4.116
   X2.232        Y6.000
   X4.116        Y2.737
   X7.884
   X9.768        Y6.000
G0   Z4.0

G10 P2 L20 X100 Y100
G55
G0   Z4.0
   X4.400        Y3.037
G1   Z-9.000    F150
   Y8.963
   X6.500
   Y3.037
   X8.600        Y4.577
   Y7.423
G0   Z4.0
   X9.768        Y6.000
G1   Z-9.000    F150
   X7.884        Y9.263
   X4.116
   X2.232        Y6.000
   X4.116        Y2.737
   X7.884
   X9.768        Y6.000
G0   Z4.0

G10 P2 L20 X200 Y100
G55
G0   Z4.0
   X4.400        Y3.037
G1   Z-9.000    F150
   Y8.963
   X6.500
   Y3.037
   X8.600        Y4.577
   Y7.423
G0   Z4.0
   X9.768        Y6.000
G1   Z-9.000    F150
   X7.884        Y9.263
   X4.116
   X2.232        Y6.000
   X4.116        Y2.737
   X7.884
   X9.768        Y6.000
G0   Z4.0

G10 P2 L20 X300 Y100
G55
G0   Z4.0
   X4.400        Y3.037
G1   Z-9.000    F150
   Y8.963
   X6.500
   Y3.037
   X8.600        Y4.577
   Y7.423
G0   Z4.0
   X9.768        Y6.000
G1   Z-9.000    F150
   X7.884        Y9.263
   X4.116
   X2.232        Y6.000
   X4.116        Y2.737
   X7.884
   X9.768        Y6.000
G0   Z4.0

G10 P2 L20 X400 Y100
G55
G0   Z4.0
   X4.400        Y3.037
G1   Z-9.000    F150
   Y8.963
   X6.500
   Y3.037
   X8.600        Y4.577
   Y7.423
G0   Z4.0
   X9.768        Y6.000
G1   Z-9.000    F150
   X7.884        Y9.263
   X4.116
   X2.232        Y6.000
   X4.116        Y2.737
   X7.884
   X9.768        Y6.000
G0   Z4.0

G10 P2 L20 X500 Y100
G55
G0   Z4.0
   X4.400        Y3.037
G1   Z-9.000    F150
   Y8.963
   X6.500
   Y3.037
   X8.600        Y4.577
   Y7.423
G0   Z4.0
   X9.768        Y6.000
G1   Z-9.000    F150
   X7.884        Y9.263
   X4.116
   X2.232        Y6.000
   X4.116        Y2.737
   X7.884
   X9.768        Y6.000
G0   Z4.0

G10 P2 L20 X600 Y100
G55
G0   Z4.0
   X4.400        Y3.037
G1   Z-9.000    F150
   Y8.963
   X6.500
   Y3.037
   X8.600        Y4.577
   Y7.423
G0   Z4.0
   X9.768        Y6.000
G1   Z-9.000    F150
   X7.884        Y9.263
   X4.116
   X2.232        Y6.000
   X4.116        Y2.737
   X7.884
   X9.768        Y6.000
G0   Z4.0

G10 P2 L20 X700 Y100
G55
G0   Z4.0
   X4.400        Y3.037
G1   Z-9.000    F150
   Y8.963
   X6.500
   Y3.037
   X8.600        Y4.577
   Y7.423
G0   Z4.0
   X9.768        Y6.000
G1   Z-9.000    F150
   X7.884        Y9.263
   X4.116
   X2.232        Y6.000
   X4.116        Y2.737
   X7.884
   X9.768        Y6.000
G0   Z4.0

G10 P2 L20 X800 Y100
G55
G0   Z4.0
   X4.400        Y3.037
G1   Z-9.000    F150
   Y8.963
   X6.500
   Y3.037
   X8.600        Y4.577
   Y7.423
G0   Z4.0
   X9.768        Y6.000
G1   Z-9.000    F150
   X7.884        Y9.263
   X4.116
   X2.232        Y6.000
   X4.116        Y2.737
   X7.884
   X9.768        Y6.000
G0   Z4.0

G10 P2 L20 X900 Y100
G55
G0   Z4.0
   X4.400        Y3.037
G1   Z-9.000    F150
   Y8.963
   X6.500
   Y3.037
   X8.600        Y4.577
   Y7.423
G0   Z4.0
   X9.768        Y6.000
G1   Z-9.000    F150
   X7.884        Y9.263
   X4.116
   X2.232        Y6.000
   X4.116        Y2.737
   X7.884
   X9.768        Y6.000
G0   Z4.0

G10 P2 L20 X1000 Y100
G55
G0   Z4.0
   X4.400        Y3.037
G1   Z-9.000    F150
   Y8.963
   X6.500
   Y3.037
   X8.600        Y4.577
   Y7.423
G0   Z4.0
   X9.768        Y6.000
G1   Z-9.000    F150
   X7.884        Y9.263
   X4.116
   X2.232        Y6.000
   X4.116        Y2.737
   X7.884
   X9.768        Y6.000
G0   Z4.0

G10 P2 L20 X1100 Y100
G55
G0   Z4.0
   X4.400        Y3.037
G1   Z-9.000    F150
   Y8.963
   X6.500
   Y3.037
   X8.600        Y4.577
   Y7.423
G0   Z4.0
   X9.768        Y6.000
G1   Z-9.000    F150
   X7.884        Y9.263
   X4.116
   X2.232        Y6.000
   X4.116        Y2.737
   X7.884
   X9.768        Y6.000
G0   Z4.0

G10 P2 L20 X1200 Y100
G55
G0   Z4.0
   X4.400        Y3.037
G1   Z-9.000    F150
   Y8.963
   X6.500
   Y3.037
   X8.600        Y4.577
   Y7.423
G0   Z4.0
   X9.768        Y6.000
G1   Z-9.000    F150
   X7.884        Y9.263
   X4.116
   X2.232        Y6.000
   X4.116        Y2.737
   X7.884
   X9.768        Y6.000
G0   Z4.0

G10 P2 L20 X0 Y200
G55
G0   Z4.0
   X4.400        Y3.037
G1   Z-9.000    F150
   Y8.963
   X6.500
   Y3.037
   X8.600        Y4.577
   Y7.423
G0   Z4.0
   X9.768        Y6.000
G1   Z-9.000    F150
   X7.884        Y9.263
   X4.116
   X2.232        Y6.000
   X4.116        Y2.737
   X7.884
   X9.768        Y6.000
G0   Z4.0

G10 P2 L20 X100 Y200
G55
G0   Z4.0
   X4.400        Y3.037
G1   Z-9.000    F150
   Y8.963
   X6.500
   Y3.037
   X8.600        Y4.577
   Y7.423
G0   Z4.0
   X9.768        Y6.000
G1   Z-9.000    F150
   X7.884        Y9.263
   X4.116
   X2.232        Y6.000
   X4.116        Y2.737
   X7.884
   X9.768        Y6.000
G0   Z4.0

G10 P2 L20 X200 Y200
G55
G0   Z4.0
   X4.400        Y3.037
G1   Z-9.000    F150
   Y8.963
   X6.500
   Y3.037
   X8.600        Y4.577
   Y7.423
G0   Z4.0
   X9.768        Y6.000
G1   Z-9.000    F150
   X7.884        Y9.263
   X4.116
   X2.232        Y6.000
   X4.116        Y2.737
   X7.884
   X9.768        Y6.000
G0   Z4.0

G10 P2 L20 X300 Y200
G55
G0   Z4.0
   X4.400        Y3.037
G1   Z-9.000    F150
   Y8.963
   X6.500
   Y3.037
   X8.600        Y4.577
   Y7.423
G0   Z4.0
   X9.768        Y6.000
G1   Z-9.000    F150
   X7.884        Y9.263
   X4.116
   X2.232        Y6.000
   X4.116        Y2.737
   X7.884
   X9.768        Y6.000
G0   Z4.0

G10 P2 L20 X400 Y200
G55
G0   Z4.0
   X4.400        Y3.037
G1   Z-9.000    F150
   Y8.963
   X6.500
   Y3.037
   X8.600        Y4.577
   Y7.423
G0   Z4.0
   X9.768        Y6.000
G1   Z-9.000    F150
   X7.884        Y9.263
   X4.116
   X2.232        Y6.000
   X4.116        Y2.737
   X7.884
   X9.768        Y6.000
G0   Z4.0

G10 P2 L20 X500 Y200
G55
G0   Z4.0
   X4.400        Y3.037
G1   Z-9.000    F150
   Y8.963
   X6.500
   Y3.037
   X8.600        Y4.577
   Y7.423
G0   Z4.0
   X9.768        Y6.000
G1   Z-9.000    F150
   X7.884        Y9.263
   X4.116
   X2.232        Y6.000
   X4.116        Y2.737
   X7.884
   X9.768        Y6.000
G0   Z4.0

G10 P2 L20 X600 Y200
G55
G0   Z4.0
   X4.400        Y3.037
G1   Z-9.000    F150
   Y8.963
   X6.500
   Y3.037
   X8.600        Y4.577
   Y7.423
G0   Z4.0
   X9.768        Y6.000
G1   Z-9.000    F150
   X7.884        Y9.263
   X4.116
   X2.232        Y6.000
   X4.116        Y2.737
   X7.884
   X9.768        Y6.000
G0   Z4.0

G10 P2 L20 X700 Y200
G55
G0   Z4.0
   X4.400        Y3.037
G1   Z-9.000    F150
   Y8.963
   X6.500
   Y3.037
   X8.600        Y4.577
   Y7.423
G0   Z4.0
   X9.768        Y6.000
G1   Z-9.000    F150
   X7.884        Y9.263
   X4.116
   X2.232        Y6.000
   X4.116        Y2.737
   X7.884
   X9.768        Y6.000
G0   Z4.0

G10 P2 L20 X800 Y200
G55
G0   Z4.0
   X4.400        Y3.037
G1   Z-9.000    F150
   Y8.963
   X6.500
   Y3.037
   X8.600        Y4.577
   Y7.423
G0   Z4.0
   X9.768        Y6.000
G1   Z-9.000    F150
   X7.884        Y9.263
   X4.116
   X2.232        Y6.000
   X4.116        Y2.737
   X7.884
   X9.768        Y6.000
G0   Z4.0

G10 P2 L20 X900 Y200
G55
G0   Z4.0
   X4.400        Y3.037
G1   Z-9.000    F150
   Y8.963
   X6.500
   Y3.037
   X8.600        Y4.577
   Y7.423
G0   Z4.0
   X9.768        Y6.000
G1   Z-9.000    F150
   X7.884        Y9.263
   X4.116
   X2.232        Y6.000
   X4.116        Y2.737
   X7.884
   X9.768        Y6.000
G0   Z4.0

G10 P2 L20 X1000 Y200
G55
G0   Z4.0
   X4.400        Y3.037
G1   Z-9.000    F150
   Y8.963
   X6.500
   Y3.037
   X8.600        Y4.577
   Y7.423
G0   Z4.0
   X9.768        Y6.000
G1   Z-9.000    F150
   X7.884        Y9.263
   X4.116
   X2.232        Y6.000
   X4.116        Y2.737
   X7.884
   X9.768        Y6.000
G0   Z4.0

G10 P2 L20 X1100 Y200
G55
G0   Z4.0
   X4.400        Y3.037
G1   Z-9.000    F150
   Y8.963
   X6.500
   Y3.037
   X8.600        Y4.577
   Y7.423
G0   Z4.0
   X9.768        Y6.000
G1   Z-9.000    F150
   X7.884        Y9.263
   X4.116
   X2.232        Y6.000
   X4.116        Y2.737
   X7.884
   X9.768        Y6.000
G0   Z4.0

G10 P2 L20 X1200 Y200
G55
G0   Z4.0
   X4.400        Y3.037
G1   Z-9.000    F150
   Y8.963
   X6.500
   Y3.037
   X8.600        Y4.577
   Y7.423
G0   Z4.0
   X9.768        Y6.000
G1   Z-9.000    F150
   X7.884        Y9.263
   X4.116
   X2.232        Y6.000
   X4.116        Y2.737
   X7.884
   X9.768        Y6.000
G0   Z4.0

G10 P2 L20 X0 Y300
G55
G0   Z4.0
   X4.400        Y3.037
G1   Z-9.000    F150
   Y8.963
   X6.500
   Y3.037
   X8.600        Y4.577
   Y7.423
G0   Z4.0
   X9.768        Y6.000
G1   Z-9.000    F150
   X7.884        Y9.263
   X4.116
   X2.232        Y6.000
   X4.116        Y2.737
   X7.884
   X9.768        Y6.000
G0   Z4.0

G10 P2 L20 X100 Y300
G55
G0   Z4.0
   X4.400        Y3.037
G1   Z-9.000    F150
   Y8.963
   X6.500
   Y3.037
   X8.600        Y4.577
   Y7.423
G0   Z4.0
   X9.768        Y6.000
G1   Z-9.000    F150
   X7.884        Y9.263
   X4.116
   X2.232        Y6.000
   X4.116        Y2.737
   X7.884
   X9.768        Y6.000
G0   Z4.0

G10 P2 L20 X200 Y300
G55
G0   Z4.0
   X4.400        Y3.037
G1   Z-9.000    F150
   Y8.963
   X6.500
   Y3.037
   X8.600        Y4.577
   Y7.423
G0   Z4.0
   X9.768        Y6.000
G1   Z-9.000    F150
   X7.884        Y9.263
   X4.116
   X2.232        Y6.000
   X4.116        Y2.737
   X7.884
   X9.768        Y6.000
G0   Z4.0

G10 P2 L20 X300 Y300
G55
G0   Z4.0
   X4.400        Y3.037
G1   Z-9.000    F150
   Y8.963
   X6.500
   Y3.037
   X8.600        Y4.577
   Y7.423
G0   Z4.0
   X9.768        Y6.000
G1   Z-9.000    F150
   X7.884        Y9.263
   X4.116
   X2.232        Y6.000
   X4.116        Y2.737
   X7.884
   X9.768        Y6.000
G0   Z4.0

G10 P2 L20 X400 Y300
G55
G0   Z4.0
   X4.400        Y3.037
G1   Z-9.000    F150
   Y8.963
   X6.500
   Y3.037
   X8.600        Y4.577
   Y7.423
G0   Z4.0
   X9.768        Y6.000
G1   Z-9.000    F150
   X7.884        Y9.263
   X4.116
   X2.232        Y6.000
   X4.116        Y2.737
   X7.884
   X9.768        Y6.000
G0   Z4.0

G10 P2 L20 X500 Y300
G55
G0   Z4.0
   X4.400        Y3.037
G1   Z-9.000    F150
   Y8.963
   X6.500
   Y3.037
   X8.600        Y4.577
   Y7.423
G0   Z4.0
   X9.768        Y6.000
G1   Z-9.000    F150
   X7.884        Y9.263
   X4.116
   X2.232        Y6.000
   X4.116        Y2.737
   X7.884
   X9.768        Y6.000
G0   Z4.0

G10 P2 L20 X600 Y300
G55
G0   Z4.0
   X4.400        Y3.037
G1   Z-9.000    F150
   Y8.963
   X6.500
   Y3.037
   X8.600        Y4.577
   Y7.423
G0   Z4.0
   X9.768        Y6.000
G1   Z-9.000    F150
   X7.884        Y9.263
   X4.116
   X2.232        Y6.000
   X4.116        Y2.737
   X7.884
   X9.768        Y6.000
G0   Z4.0

G10 P2 L20 X700 Y300
G55
G0   Z4.0
   X4.400        Y3.037
G1   Z-9.000    F150
   Y8.963
   X6.500
   Y3.037
   X8.600        Y4.577
   Y7.423
G0   Z4.0
   X9.768        Y6.000
G1   Z-9.000    F150
   X7.884        Y9.263
   X4.116
   X2.232        Y6.000
   X4.116        Y2.737
   X7.884
   X9.768        Y6.000
G0   Z4.0

G10 P2 L20 X800 Y300
G55
G0   Z4.0
   X4.400        Y3.037
G1   Z-9.000    F150
   Y8.963
   X6.500
   Y3.037
   X8.600        Y4.577
   Y7.423
G0   Z4.0
   X9.768        Y6.000
G1   Z-9.000    F150
   X7.884        Y9.263
   X4.116
   X2.232        Y6.000
   X4.116        Y2.737
   X7.884
   X9.768        Y6.000
G0   Z4.0

G10 P2 L20 X900 Y300
G55
G0   Z4.0
   X4.400        Y3.037
G1   Z-9.000    F150
   Y8.963
   X6.500
   Y3.037
   X8.600        Y4.577
   Y7.423
G0   Z4.0
   X9.768        Y6.000
G1   Z-9.000    F150
   X7.884        Y9.263
   X4.116
   X2.232        Y6.000
   X4.116        Y2.737
   X7.884
   X9.768        Y6.000
G0   Z4.0

G10 P2 L20 X1000 Y300
G55
G0   Z4.0
   X4.400        Y3.037
G1   Z-9.000    F150
   Y8.963
   X6.500
   Y3.037
   X8.600        Y4.577
   Y7.423
G0   Z4.0
   X9.768        Y6.000
G1   Z-9.000    F150
   X7.884        Y9.263
   X4.116
   X2.232        Y6.000
   X4.116        Y2.737
   X7.884
   X9.768        Y6.000
G0   Z4.0

G10 P2 L20 X1100 Y300
G55
G0   Z4.0
   X4.400        Y3.037
G1   Z-9.000    F150
   Y8.963
   X6.500
   Y3.037
   X8.600        Y4.577
   Y7.423
G0   Z4.0
   X9.768        Y6.000
G1   Z-9.000    F150
   X7.884        Y9.263
   X4.116
   X2.232        Y6.000
   X4.116        Y2.737
   X7.884
   X9.768        Y6.000
G0   Z4.0

G10 P2 L20 X1200 Y300
G55
G0   Z4.0
   X4.400        Y3.037
G1   Z-9.000    F150
   Y8.963
   X6.500
   Y3.037
   X8.600        Y4.577
   Y7.423
G0   Z4.0
   X9.768        Y6.000
G1   Z-9.000    F150
   X7.884        Y9.263
   X4.116
   X2.232        Y6.000
   X4.116        Y2.737
   X7.884
   X9.768        Y6.000
G0   Z4.0

G10 P2 L20 X0 Y400
G55
G0   Z4.0
   X4.400        Y3.037
G1   Z-9.000    F150
   Y8.963
   X6.500
   Y3.037
   X8.600        Y4.577
   Y7.423
G0   Z4.0
   X9.768        Y6.000
G1   Z-9.000    F150
   X7.884        Y9.263
   X4.116
   X2.232        Y6.000
   X4.116        Y2.737
   X7.884
   X9.768        Y6.000
G0   Z4.0

G10 P2 L20 X100 Y400
G55
G0   Z4.0
   X4.400        Y3.037
G1   Z-9.000    F150
   Y8.963
   X6.500
   Y3.037
   X8.600        Y4.577
   Y7.423
G0   Z4.0
   X9.768        Y6.000
G1   Z-9.000    F150
   X7.884        Y9.263
   X4.116
   X2.232        Y6.000
   X4.116        Y2.737
   X7.884
   X9.768        Y6.000
G0   Z4.0

G10 P2 L20 X200 Y400
G55
G0   Z4.0
   X4.400        Y3.037
G1   Z-9.000    F150
   Y8.963
   X6.500
   Y3.037
   X8.600        Y4.577
   Y7.423
G0   Z4.0
   X9.768        Y6.000
G1   Z-9.000    F150
   X7.884        Y9.263
   X4.116
   X2.232        Y6.000
   X4.116        Y2.737
   X7.884
   X9.768        Y6.000
G0   Z4.0

G10 P2 L20 X300 Y400
G55
G0   Z4.0
   X4.400        Y3.037
G1   Z-9.000    F150
   Y8.963
   X6.500
   Y3.037
   X8.600        Y4.577
   Y7.423
G0   Z4.0
   X9.768        Y6.000
G1   Z-9.000    F150
   X7.884        Y9.263
   X4.116
   X2.232        Y6.000
   X4.116        Y2.737
   X7.884
   X9.768        Y6.000
G0   Z4.0

G10 P2 L20 X400 Y400
G55
G0   Z4.0
   X4.400        Y3.037
G1   Z-9.000    F150
   Y8.963
   X6.500
   Y3.037
   X8.600        Y4.577
   Y7.423
G0   Z4.0
   X9.768        Y6.000
G1   Z-9.000    F150
   X7.884        Y9.263
   X4.116
   X2.232        Y6.000
   X4.116        Y2.737
   X7.884
   X9.768        Y6.000
G0   Z4.0

G10 P2 L20 X500 Y400
G55
G0   Z4.0
   X4.400        Y3.037
G1   Z-9.000    F150
   Y8.963
   X6.500
   Y3.037
   X8.600        Y4.577
   Y7.423
G0   Z4.0
   X9.768        Y6.000
G1   Z-9.000    F150
   X7.884        Y9.263
   X4.116
   X2.232        Y6.000
   X4.116        Y2.737
   X7.884
   X9.768        Y6.000
G0   Z4.0

G10 P2 L20 X600 Y400
G55
G0   Z4.0
   X4.400        Y3.037
G1   Z-9.000    F150
   Y8.963
   X6.500
   Y3.037
   X8.600        Y4.577
   Y7.423
G0   Z4.0
   X9.768        Y6.000
G1   Z-9.000    F150
   X7.884        Y9.263
   X4.116
   X2.232        Y6.000
   X4.116        Y2.737
   X7.884
   X9.768        Y6.000
G0   Z4.0

G10 P2 L20 X700 Y400
G55
G0   Z4.0
   X4.400        Y3.037
G1   Z-9.000    F150
   Y8.963
   X6.500
   Y3.037
   X8.600        Y4.577
   Y7.423
G0   Z4.0
   X9.768        Y6.000
G1   Z-9.000    F150
   X7.884        Y9.263
   X4.116
   X2.232        Y6.000
   X4.116        Y2.737
   X7.884
   X9.768        Y6.000
G0   Z4.0

G10 P2 L20 X800 Y400
G55
G0   Z4.0
   X4.400        Y3.037
G1   Z-9.000    F150
   Y8.963
   X6.500
   Y3.037
   X8.600        Y4.577
   Y7.423
G0   Z4.0
   X9.768        Y6.000
G1   Z-9.000    F150
   X7.884        Y9.263
   X4.116
   X2.232        Y6.000
   X4.116        Y2.737
   X7.884
   X9.768        Y6.000
G0   Z4.0

G10 P2 L20 X900 Y400
G55
G0   Z4.0
   X4.400        Y3.037
G1   Z-9.000    F150
   Y8.963
   X6.500
   Y3.037
   X8.600        Y4.577
   Y7.423
G0   Z4.0
   X9.768        Y6.000
G1   Z-9.000    F150
   X7.884        Y9.263
   X4.116
   X2.232        Y6.000
   X4.116        Y2.737
   X7.884
   X9.768        Y6.000
G0   Z4.0

G10 P2 L20 X1000 Y400
G55
G0   Z4.0
   X4.400        Y3.037
G1   Z-9.000    F150
   Y8.963
   X6.500
   Y3.037
   X8.600        Y4.577
   Y7.423
G0   Z4.0
   X9.768        Y6.000
G1   Z-9.000    F150
   X7.884        Y9.263
   X4.116
   X2.232        Y6.000
   X4.116        Y2.737
   X7.884
   X9.768        Y6.000
G0   Z4.0

G10 P2 L20 X1100 Y400
G55
G0   Z4.0
   X4.400        Y3.037
G1   Z-9.000    F150
   Y8.963
   X6.500
   Y3.037
   X8.600        Y4.577
   Y7.423
G0   Z4.0
   X9.768        Y6.000
G1   Z-9.000    F150
   X7.884        Y9.263
   X4.116
   X2.232        Y6.000
   X4.116        Y2.737
   X7.884
   X9.768        Y6.000
G0   Z4.0

G10 P2 L20 X1200 Y400
G55
G0   Z4.0
   X4.400        Y3.037
G1   Z-9.000    F150
   Y8.963
   X6.500
   Y3.037
   X8.600        Y4.577
   Y7.423
G0   Z4.0
   X9.768        Y6.000
G1   Z-9.000    F150
   X7.884        Y9.263
   X4.116
   X2.232        Y6.000
   X4.116        Y2.737
   X7.884
   X9.768        Y6.000
G0   Z4.0

G10 P2 L20 X0 Y500
G55
G0   Z4.0
   X4.400        Y3.037
G1   Z-9.000    F150
   Y8.963
   X6.500
   Y3.037
   X8.600        Y4.577
   Y7.423
G0   Z4.0
   X9.768        Y6.000
G1   Z-9.000    F150
   X7.884        Y9.263
   X4.116
   X2.232        Y6.000
   X4.116        Y2.737
   X7.884
   X9.768        Y6.000
G0   Z4.0

G10 P2 L20 X100 Y500
G55
G0   Z4.0
   X4.400        Y3.037
G1   Z-9.000    F150
   Y8.963
   X6.500
   Y3.037
   X8.600        Y4.577
   Y7.423
G0   Z4.0
   X9.768        Y6.000
G1   Z-9.000    F150
   X7.884        Y9.263
   X4.116
   X2.232        Y6.000
   X4.116        Y2.737
   X7.884
   X9.768        Y6.000
G0   Z4.0

G10 P2 L20 X200 Y500
G55
G0   Z4.0
   X4.400        Y3.037
G1   Z-9.000    F150
   Y8.963
   X6.500
   Y3.037
   X8.600        Y4.577
   Y7.423
G0   Z4.0
   X9.768        Y6.000
G1   Z-9.000    F150
   X7.884        Y9.263
   X4.116
   X2.232        Y6.000
   X4.116        Y2.737
   X7.884
   X9.768        Y6.000
G0   Z4.0

G10 P2 L20 X300 Y500
G55
G0   Z4.0
   X4.400        Y3.037
G1   Z-9.000    F150
   Y8.963
   X6.500
   Y3.037
   X8.600        Y4.577
   Y7.423
G0   Z4.0
   X9.768        Y6.000
G1   Z-9.000    F150
   X7.884        Y9.263
   X4.116
   X2.232        Y6.000
   X4.116        Y2.737
   X7.884
   X9.768        Y6.000
G0   Z4.0

G10 P2 L20 X400 Y500
G55
G0   Z4.0
   X4.400        Y3.037
G1   Z-9.000    F150
   Y8.963
   X6.500
   Y3.037
   X8.600        Y4.577
   Y7.423
G0   Z4.0
   X9.768        Y6.000
G1   Z-9.000    F150
   X7.884        Y9.263
   X4.116
   X2.232        Y6.000
   X4.116        Y2.737
   X7.884
   X9.768        Y6.000
G0   Z4.0

G10 P2 L20 X500 Y500
G55
G0   Z4.0
   X4.400        Y3.037
G1   Z-9.000    F150
   Y8.963
   X6.500
   Y3.037
   X8.600        Y4.577
   Y7.423
G0   Z4.0
   X9.768        Y6.000
G1   Z-9.000    F150
   X7.884        Y9.263
   X4.116
   X2.232        Y6.000
   X4.116        Y2.737
   X7.884
   X9.768        Y6.000
G0   Z4.0

G10 P2 L20 X600 Y500
G55
G0   Z4.0
   X4.400        Y3.037
G1   Z-9.000    F150
   Y8.963
   X6.500
   Y3.037
   X8.600        Y4.577
   Y7.423
G0   Z4.0
   X9.768        Y6.000
G1   Z-9.000    F150
   X7.884        Y9.263
   X4.116
   X2.232        Y6.000
   X4.116        Y2.737
   X7.884
   X9.768        Y6.000
G0   Z4.0

G10 P2 L20 X700 Y500
G55
G0   Z4.0
   X4.400        Y3.037
G1   Z-9.000    F150
   Y8.963
   X6.500
   Y3.037
   X8.600        Y4.577
   Y7.423
G0   Z4.0
   X9.768        Y6.000
G1   Z-9.000    F150
   X7.884        Y9.263
   X4.116
   X2.232        Y6.000
   X4.116        Y2.737
   X7.884
   X9.768        Y6.000
G0   Z4.0

G10 P2 L20 X800 Y500
G55
G0   Z4.0
   X4.400        Y3.037
G1   Z-9.000    F150
   Y8.963
   X6.500
   Y3.037
   X8.600        Y4.577
   Y7.423
G0   Z4.0
   X9.768        Y6.000
G1   Z-9.000    F150
   X7.884        Y9.263
   X4.116
   X2.232        Y6.000
   X4.116        Y2.737
   X7.884
   X9.768        Y6.000
G0   Z4.0

G10 P2 L20 X900 Y500
G55
G0   Z4.0
   X4.400        Y3.037
G1   Z-9.000    F150
   Y8.963
   X6.500
   Y3.037
   X8.600        Y4.577
   Y7.423
G0   Z4.0
   X9.768        Y6.000
G1   Z-9.000    F150
   X7.884        Y9.263
   X4.116
   X2.232        Y6.000
   X4.116        Y2.737
   X7.884
   X9.768        Y6.000
G0   Z4.0

G10 P2 L20 X1000 Y500
G55
G0   Z4.0
   X4.400        Y3.037
G1   Z-9.000    F150
   Y8.963
   X6.500
   Y3.037
   X8.600        Y4.577
   Y7.423
G0   Z4.0
   X9.768        Y6.000
G1   Z-9.000    F150
   X7.884        Y9.263
   X4.116
   X2.232        Y6.000
   X4.116        Y2.737
   X7.884
   X9.768        Y6.000
G0   Z4.0

G10 P2 L20 X1100 Y500
G55
G0   Z4.0
   X4.400        Y3.037
G1   Z-9.000    F150
   Y8.963
   X6.500
   Y3.037
   X8.600        Y4.577
   Y7.423
G0   Z4.0
   X9.768        Y6.000
G1   Z-9.000    F150
   X7.884        Y9.263
   X4.116
   X2.232        Y6.000
   X4.116        Y2.737
   X7.884
   X9.768        Y6.000
G0   Z4.0

G10 P2 L20 X1200 Y500
G55
G0   Z4.0
   X4.400        Y3.037
G1   Z-9.000    F150
   Y8.963
   X6.500
   Y3.037
   X8.600        Y4.577
   Y7.423
G0   Z4.0
   X9.768        Y6.000
G1   Z-9.000    F150
   X7.884        Y9.263
   X4.116
   X2.232        Y6.000
   X4.116        Y2.737
   X7.884
   X9.768        Y6.000
G0   Z4.0

G10 P2 L20 X0 Y600
G55
G0   Z4.0
   X4.400        Y3.037
G1   Z-9.000    F150
   Y8.963
   X6.500
   Y3.037
   X8.600        Y4.577
   Y7.423
G0   Z4.0
   X9.768        Y6.000
G1   Z-9.000    F150
   X7.884        Y9.263
   X4.116
   X2.232        Y6.000
   X4.116        Y2.737
   X7.884
   X9.768        Y6.000
G0   Z4.0

G10 P2 L20 X100 Y600
G55
G0   Z4.0
   X4.400        Y3.037
G1   Z-9.000    F150
   Y8.963
   X6.500
   Y3.037
   X8.600        Y4.577
   Y7.423
G0   Z4.0
   X9.768        Y6.000
G1   Z-9.000    F150
   X7.884        Y9.263
   X4.116
   X2.232        Y6.000
   X4.116        Y2.737
   X7.884
   X9.768        Y6.000
G0   Z4.0

G10 P2 L20 X200 Y600
G55
G0   Z4.0
   X4.400        Y3.037
G1   Z-9.000    F150
   Y8.963
   X6.500
   Y3.037
   X8.600        Y4.577
   Y7.423
G0   Z4.0
   X9.768        Y6.000
G1   Z-9.000    F150
   X7.884        Y9.263
   X4.116
   X2.232        Y6.000
   X4.116        Y2.737
   X7.884
   X9.768        Y6.000
G0   Z4.0

G10 P2 L20 X300 Y600
G55
G0   Z4.0
   X4.400        Y3.037
G1   Z-9.000    F150
   Y8.963
   X6.500
   Y3.037
   X8.600        Y4.577
   Y7.423
G0   Z4.0
   X9.768        Y6.000
G1   Z-9.000    F150
   X7.884        Y9.263
   X4.116
   X2.232        Y6.000
   X4.116        Y2.737
   X7.884
   X9.768        Y6.000
G0   Z4.0

G10 P2 L20 X400 Y600
G55
G0   Z4.0
   X4.400        Y3.037
G1   Z-9.000    F150
   Y8.963
   X6.500
   Y3.037
   X8.600        Y4.577
   Y7.423
G0   Z4.0
   X9.768        Y6.000
G1   Z-9.000    F150
   X7.884        Y9.263
   X4.116
   X2.232        Y6.000
   X4.116        Y2.737
   X7.884
   X9.768        Y6.000
G0   Z4.0

G10 P2 L20 X500 Y600
G55
G0   Z4.0
   X4.400        Y3.037
G1   Z-9.000    F150
   Y8.963
   X6.500
   Y3.037
   X8.600        Y4.577
   Y7.423
G0   Z4.0
   X9.768        Y6.000
G1   Z-9.000    F150
   X7.884        Y9.263
   X4.116
   X2.232        Y6.000
   X4.116        Y2.737
   X7.884
   X9.768        Y6.000
G0   Z4.0

G10 P2 L20 X600 Y600
G55
G0   Z4.0
   X4.400        Y3.037
G1   Z-9.000    F150
   Y8.963
   X6.500
   Y3.037
   X8.600        Y4.577
   Y7.423
G0   Z4.0
   X9.768        Y6.000
G1   Z-9.000    F150
   X7.884        Y9.263
   X4.116
   X2.232        Y6.000
   X4.116        Y2.737
   X7.884
   X9.768        Y6.000
G0   Z4.0

G10 P2 L20 X700 Y600
G55
G0   Z4.0
   X4.400        Y3.037
G1   Z-9.000    F150
   Y8.963
   X6.500
   Y3.037
   X8.600        Y4.577
   Y7.423
G0   Z4.0
   X9.768        Y6.000
G1   Z-9.000    F150
   X7.884        Y9.263
   X4.116
   X2.232        Y6.000
   X4.116        Y2.737
   X7.884
   X9.768        Y6.000
G0   Z4.0

G10 P2 L20 X800 Y600
G55
G0   Z4.0
   X4.400        Y3.037
G1   Z-9.000    F150
   Y8.963
   X6.500
   Y3.037
   X8.600        Y4.577
   Y7.423
G0   Z4.0
   X9.768        Y6.000
G1   Z-9.000    F150
   X7.884        Y9.263
   X4.116
   X2.232        Y6.000
   X4.116        Y2.737
   X7.884
   X9.768        Y6.000
G0   Z4.0

G10 P2 L20 X900 Y600
G55
G0   Z4.0
   X4.400        Y3.037
G1   Z-9.000    F150
   Y8.963
   X6.500
   Y3.037
   X8.600        Y4.577
   Y7.423
G0   Z4.0
   X9.768        Y6.000
G1   Z-9.000    F150
   X7.884        Y9.263
   X4.116
   X2.232        Y6.000
   X4.116        Y2.737
   X7.884
   X9.768        Y6.000
G0   Z4.0

G10 P2 L20 X1000 Y600
G55
G0   Z4.0
   X4.400        Y3.037
G1   Z-9.000    F150
   Y8.963
   X6.500
   Y3.037
   X8.600        Y4.577
   Y7.423
G0   Z4.0
   X9.768        Y6.000
G1   Z-9.000    F150
   X7.884        Y9.263
   X4.116
   X2.232        Y6.000
   X4.116        Y2.737
   X7.884
   X9.768        Y6.000
G0   Z4.0

G10 P2 L20 X1100 Y600
G55
G0   Z4.0
   X4.400        Y3.037
G1   Z-9.000    F150
   Y8.963
   X6.500
   Y3.037
   X8.600        Y4.577
   Y7.423
G0   Z4.0
   X9.768        Y6.000
G1   Z-9.000    F150
   X7.884        Y9.263
   X4.116
   X2.232        Y6.000
   X4.116        Y2.737
   X7.884
   X9.768        Y6.000
G0   Z4.0

G10 P2 L20 X1200 Y600
G55
G0   Z4.0
   X4.400        Y3.037
G1   Z-9.000    F150
   Y8.963
   X6.500
   Y3.037
   X8.600        Y4.577
   Y7.423
G0   Z4.0
   X9.768        Y6.000
G1   Z-9.000    F150
   X7.884        Y9.263
   X4.116
   X2.232        Y6.000
   X4.116        Y2.737
   X7.884
   X9.768        Y6.000
G0   Z4.0

G10 P2 L20 X0 Y700
G55
G0   Z4.0
   X4.400        Y3.037
G1   Z-9.000    F150
   Y8.963
   X6.500
   Y3.037
   X8.600        Y4.577
   Y7.423
G0   Z4.0
   X9.768        Y6.000
G1   Z-9.000    F150
   X7.884        Y9.263
   X4.116
   X2.232        Y6.000
   X4.116        Y2.737
   X7.884
   X9.768        Y6.000
G0   Z4.0

G10 P2 L20 X100 Y700
G55
G0   Z4.0
   X4.400        Y3.037
G1   Z-9.000    F150
   Y8.963
   X6.500
   Y3.037
   X8.600        Y4.577
   Y7.423
G0   Z4.0
   X9.768        Y6.000
G1   Z-9.000    F150
   X7.884        Y9.263
   X4.116
   X2.232        Y6.000
   X4.116        Y2.737
   X7.884
   X9.768        Y6.000
G0   Z4.0

G10 P2 L20 X200 Y700
G55
G0   Z4.0
   X4.400        Y3.037
G1   Z-9.000    F150
   Y8.963
   X6.500
   Y3.037
   X8.600        Y4.577
   Y7.423
G0   Z4.0
   X9.768        Y6.000
G1   Z-9.000    F150
   X7.884        Y9.263
   X4.116
   X2.232        Y6.000
   X4.116        Y2.737
   X7.884
   X9.768        Y6.000
G0   Z4.0

G10 P2 L20 X300 Y700
G55
G0   Z4.0
   X4.400        Y3.037
G1   Z-9.000    F150
   Y8.963
   X6.500
   Y3.037
   X8.600        Y4.577
   Y7.423
G0   Z4.0
   X9.768        Y6.000
G1   Z-9.000    F150
   X7.884        Y9.263
   X4.116
   X2.232        Y6.000
   X4.116        Y2.737
   X7.884
   X9.768        Y6.000
G0   Z4.0

G10 P2 L20 X400 Y700
G55
G0   Z4.0
   X4.400        Y3.037
G1   Z-9.000    F150
   Y8.963
   X6.500
   Y3.037
   X8.600        Y4.577
   Y7.423
G0   Z4.0
   X9.768        Y6.000
G1   Z-9.000    F150
   X7.884        Y9.263
   X4.116
   X2.232        Y6.000
   X4.116        Y2.737
   X7.884
   X9.768        Y6.000
G0   Z4.0

G10 P2 L20 X500 Y700
G55
G0   Z4.0
   X4.400        Y3.037
G1   Z-9.000    F150
   Y8.963
   X6.500
   Y3.037
   X8.600        Y4.577
   Y7.423
G0   Z4.0
   X9.768        Y6.000
G1   Z-9.000    F150
   X7.884        Y9.263
   X4.116
   X2.232        Y6.000
   X4.116        Y2.737
   X7.884
   X9.768        Y6.000
G0   Z4.0

G10 P2 L20 X600 Y700
G55
G0   Z4.0
   X4.400        Y3.037
G1   Z-9.000    F150
   Y8.963
   X6.500
   Y3.037
   X8.600        Y4.577
   Y7.423
G0   Z4.0
   X9.768        Y6.000
G1   Z-9.000    F150
   X7.884        Y9.263
   X4.116
   X2.232        Y6.000
   X4.116        Y2.737
   X7.884
   X9.768        Y6.000
G0   Z4.0

G10 P2 L20 X700 Y700
G55
G0   Z4.0
   X4.400        Y3.037
G1   Z-9.000    F150
   Y8.963
   X6.500
   Y3.037
   X8.600        Y4.577
   Y7.423
G0   Z4.0
   X9.768        Y6.000
G1   Z-9.000    F150
   X7.884        Y9.263
   X4.116
   X2.232        Y6.000
   X4.116        Y2.737
   X7.884
   X9.768        Y6.000
G0   Z4.0

G10 P2 L20 X800 Y700
G55
G0   Z4.0
   X4.400        Y3.037
G1   Z-9.000    F150
   Y8.963
   X6.500
   Y3.037
   X8.600        Y4.577
   Y7.423
G0   Z4.0
   X9.768        Y6.000
G1   Z-9.000    F150
   X7.884        Y9.263
   X4.116
   X2.232        Y6.000
   X4.116        Y2.737
   X7.884
   X9.768        Y6.000
G0   Z4.0

G10 P2 L20 X900 Y700
G55
G0   Z4.0
   X4.400        Y3.037
G1   Z-9.000    F150
   Y8.963
   X6.500
   Y3.037
   X8.600        Y4.577
   Y7.423
G0   Z4.0
   X9.768        Y6.000
G1   Z-9.000    F150
   X7.884        Y9.263
   X4.116
   X2.232        Y6.000
   X4.116        Y2.737
   X7.884
   X9.768        Y6.000
G0   Z4.0

G10 P2 L20 X1000 Y700
G55
G0   Z4.0
   X4.400        Y3.037
G1   Z-9.000    F150
   Y8.963
   X6.500
   Y3.037
   X8.600        Y4.577
   Y7.423
G0   Z4.0
   X9.768        Y6.000
G1   Z-9.000    F150
   X7.884        Y9.263
   X4.116
   X2.232        Y6.000
   X4.116        Y2.737
   X7.884
   X9.768        Y6.000
G0   Z4.0

G10 P2 L20 X1100 Y700
G55
G0   Z4.0
   X4.400        Y3.037
G1   Z-9.000    F150
   Y8.963
   X6.500
   Y3.037
   X8.600        Y4.577
   Y7.423
G0   Z4.0
   X9.768        Y6.000
G1   Z-9.000    F150
   X7.884        Y9.263
   X4.116
   X2.232        Y6.000
   X4.116        Y2.737
   X7.884
   X9.768        Y6.000
G0   Z4.0

G10 P2 L20 X1200 Y700
G55
G0   Z4.0
   X4.400        Y3.037
G1   Z-9.000    F150
   Y8.963
   X6.500
   Y3.037
   X8.600        Y4.577
   Y7.423
G0   Z4.0
   X9.768        Y6.000
G1   Z-9.000    F150
   X7.884        Y9.263
   X4.116
   X2.232        Y6.000
   X4.116        Y2.737
   X7.884
   X9.768        Y6.000
G0   Z4.0

G10 P2 L20 X0 Y800
G55
G0   Z4.0
   X4.400        Y3.037
G1   Z-9.000    F150
   Y8.963
   X6.500
   Y3.037
   X8.600        Y4.577
   Y7.423
G0   Z4.0
   X9.768        Y6.000
G1   Z-9.000    F150
   X7.884        Y9.263
   X4.116
   X2.232        Y6.000
   X4.116        Y2.737
   X7.884
   X9.768        Y6.000
G0   Z4.0

G10 P2 L20 X100 Y800
G55
G0   Z4.0
   X4.400        Y3.037
G1   Z-9.000    F150
   Y8.963
   X6.500
   Y3.037
   X8.600        Y4.577
   Y7.423
G0   Z4.0
   X9.768        Y6.000
G1   Z-9.000    F150
   X7.884        Y9.263
   X4.116
   X2.232        Y6.000
   X4.116        Y2.737
   X7.884
   X9.768        Y6.000
G0   Z4.0

G10 P2 L20 X200 Y800
G55
G0   Z4.0
   X4.400        Y3.037
G1   Z-9.000    F150
   Y8.963
   X6.500
   Y3.037
   X8.600        Y4.577
   Y7.423
G0   Z4.0
   X9.768        Y6.000
G1   Z-9.000    F150
   X7.884        Y9.263
   X4.116
   X2.232        Y6.000
   X4.116        Y2.737
   X7.884
   X9.768        Y6.000
G0   Z4.0

G10 P2 L20 X300 Y800
G55
G0   Z4.0
   X4.400        Y3.037
G1   Z-9.000    F150
   Y8.963
   X6.500
   Y3.037
   X8.600        Y4.577
   Y7.423
G0   Z4.0
   X9.768        Y6.000
G1   Z-9.000    F150
   X7.884        Y9.263
   X4.116
   X2.232        Y6.000
   X4.116        Y2.737
   X7.884
   X9.768        Y6.000
G0   Z4.0

G10 P2 L20 X400 Y800
G55
G0   Z4.0
   X4.400        Y3.037
G1   Z-9.000    F150
   Y8.963
   X6.500
   Y3.037
   X8.600        Y4.577
   Y7.423
G0   Z4.0
   X9.768        Y6.000
G1   Z-9.000    F150
   X7.884        Y9.263
   X4.116
   X2.232        Y6.000
   X4.116        Y2.737
   X7.884
   X9.768        Y6.000
G0   Z4.0

G10 P2 L20 X500 Y800
G55
G0   Z4.0
   X4.400        Y3.037
G1   Z-9.000    F150
   Y8.963
   X6.500
   Y3.037
   X8.600        Y4.577
   Y7.423
G0   Z4.0
   X9.768        Y6.000
G1   Z-9.000    F150
   X7.884        Y9.263
   X4.116
   X2.232        Y6.000
   X4.116        Y2.737
   X7.884
   X9.768        Y6.000
G0   Z4.0

G10 P2 L20 X600 Y800
G55
G0   Z4.0
   X4.400        Y3.037
G1   Z-9.000    F150
   Y8.963
   X6.500
   Y3.037
   X8.600        Y4.577
   Y7.423
G0   Z4.0
   X9.768        Y6.000
G1   Z-9.000    F150
   X7.884        Y9.263
   X4.116
   X2.232        Y6.000
   X4.116        Y2.737
   X7.884
   X9.768        Y6.000
G0   Z4.0

G10 P2 L20 X700 Y800
G55
G0   Z4.0
   X4.400        Y3.037
G1   Z-9.000    F150
   Y8.963
   X6.500
   Y3.037
   X8.600        Y4.577
   Y7.423
G0   Z4.0
   X9.768        Y6.000
G1   Z-9.000    F150
   X7.884        Y9.263
   X4.116
   X2.232        Y6.000
   X4.116        Y2.737
   X7.884
   X9.768        Y6.000
G0   Z4.0

G10 P2 L20 X800 Y800
G55
G0   Z4.0
   X4.400        Y3.037
G1   Z-9.000    F150
   Y8.963
   X6.500
   Y3.037
   X8.600        Y4.577
   Y7.423
G0   Z4.0
   X9.768        Y6.000
G1   Z-9.000    F150
   X7.884        Y9.263
   X4.116
   X2.232        Y6.000
   X4.116        Y2.737
   X7.884
   X9.768        Y6.000
G0   Z4.0

G10 P2 L20 X900 Y800
G55
G0   Z4.0
   X4.400        Y3.037
G1   Z-9.000    F150
   Y8.963
   X6.500
   Y3.037
   X8.600        Y4.577
   Y7.423
G0   Z4.0
   X9.768        Y6.000
G1   Z-9.000    F150
   X7.884        Y9.263
   X4.116
   X2.232        Y6.000
   X4.116        Y2.737
   X7.884
   X9.768        Y6.000
G0   Z4.0

G10 P2 L20 X1000 Y800
G55
G0   Z4.0
   X4.400        Y3.037
G1   Z-9.000    F150
   Y8.963
   X6.500
   Y3.037
   X8.600        Y4.577
   Y7.423
G0   Z4.0
   X9.768        Y6.000
G1   Z-9.000    F150
   X7.884        Y9.263
   X4.116
   X2.232        Y6.000
   X4.116        Y2.737
   X7.884
   X9.768        Y6.000
G0   Z4.0

G10 P2 L20 X1100 Y800
G55
G0   Z4.0
   X4.400        Y3.037
G1   Z-9.000    F150
   Y8.963
   X6.500
   Y3.037
   X8.600        Y4.577
   Y7.423
G0   Z4.0
   X9.768        Y6.000
G1   Z-9.000    F150
   X7.884        Y9.263
   X4.116
   X2.232        Y6.000
   X4.116        Y2.737
   X7.884
   X9.768        Y6.000
G0   Z4.0

G10 P2 L20 X1200 Y800
G55
G0   Z4.0
   X4.400        Y3.037
G1   Z-9.000    F150
   Y8.963
   X6.500
   Y3.037
   X8.600        Y4.577
   Y7.423
G0   Z4.0
   X9.768        Y6.000
G1   Z-9.000    F150
   X7.884        Y9.263
   X4.116
   X2.232        Y6.000
   X4.116        Y2.737
   X7.884
   X9.768        Y6.000
G0   Z4.0

G10 P2 L20 X0 Y900
G55
G0   Z4.0
   X4.400        Y3.037
G1   Z-9.000    F150
   Y8.963
   X6.500
   Y3.037
   X8.600        Y4.577
   Y7.423
G0   Z4.0
   X9.768        Y6.000
G1   Z-9.000    F150
   X7.884        Y9.263
   X4.116
   X2.232        Y6.000
   X4.116        Y2.737
   X7.884
   X9.768        Y6.000
G0   Z4.0

G10 P2 L20 X100 Y900
G55
G0   Z4.0
   X4.400        Y3.037
G1   Z-9.000    F150
   Y8.963
   X6.500
   Y3.037
   X8.600        Y4.577
   Y7.423
G0   Z4.0
   X9.768        Y6.000
G1   Z-9.000    F150
   X7.884        Y9.263
   X4.116
   X2.232        Y6.000
   X4.116        Y2.737
   X7.884
   X9.768        Y6.000
G0   Z4.0

G10 P2 L20 X200 Y900
G55
G0   Z4.0
   X4.400        Y3.037
G1   Z-9.000    F150
   Y8.963
   X6.500
   Y3.037
   X8.600        Y4.577
   Y7.423
G0   Z4.0
   X9.768        Y6.000
G1   Z-9.000    F150
   X7.884        Y9.263
   X4.116
   X2.232        Y6.000
   X4.116        Y2.737
   X7.884
   X9.768        Y6.000
G0   Z4.0

G10 P2 L20 X300 Y900
G55
G0   Z4.0
   X4.400        Y3.037
G1   Z-9.000    F150
   Y8.963
   X6.500
   Y3.037
   X8.600        Y4.577
   Y7.423
G0   Z4.0
   X9.768        Y6.000
G1   Z-9.000    F150
   X7.884        Y9.263
   X4.116
   X2.232        Y6.000
   X4.116        Y2.737
   X7.884
   X9.768        Y6.000
G0   Z4.0

G10 P2 L20 X400 Y900
G55
G0   Z4.0
   X4.400        Y3.037
G1   Z-9.000    F150
   Y8.963
   X6.500
   Y3.037
   X8.600        Y4.577
   Y7.423
G0   Z4.0
   X9.768        Y6.000
G1   Z-9.000    F150
   X7.884        Y9.263
   X4.116
   X2.232        Y6.000
   X4.116        Y2.737
   X7.884
   X9.768        Y6.000
G0   Z4.0

G10 P2 L20 X500 Y900
G55
G0   Z4.0
   X4.400        Y3.037
G1   Z-9.000    F150
   Y8.963
   X6.500
   Y3.037
   X8.600        Y4.577
   Y7.423
G0   Z4.0
   X9.768        Y6.000
G1   Z-9.000    F150
   X7.884        Y9.263
   X4.116
   X2.232        Y6.000
   X4.116        Y2.737
   X7.884
   X9.768        Y6.000
G0   Z4.0

G10 P2 L20 X600 Y900
G55
G0   Z4.0
   X4.400        Y3.037
G1   Z-9.000    F150
   Y8.963
   X6.500
   Y3.037
   X8.600        Y4.577
   Y7.423
G0   Z4.0
   X9.768        Y6.000
G1   Z-9.000    F150
   X7.884        Y9.263
   X4.116
   X2.232        Y6.000
   X4.116        Y2.737
   X7.884
   X9.768        Y6.000
G0   Z4.0

G10 P2 L20 X700 Y900
G55
G0   Z4.0
   X4.400        Y3.037
G1   Z-9.000    F150
   Y8.963
   X6.500
   Y3.037
   X8.600        Y4.577
   Y7.423
G0   Z4.0
   X9.768        Y6.000
G1   Z-9.000    F150
   X7.884        Y9.263
   X4.116
   X2.232        Y6.000
   X4.116        Y2.737
   X7.884
   X9.768        Y6.000
G0   Z4.0

G10 P2 L20 X800 Y900
G55
G0   Z4.0
   X4.400        Y3.037
G1   Z-9.000    F150
   Y8.963
   X6.500
   Y3.037
   X8.600        Y4.577
   Y7.423
G0   Z4.0
   X9.768        Y6.000
G1   Z-9.000    F150
   X7.884        Y9.263
   X4.116
   X2.232        Y6.000
   X4.116        Y2.737
   X7.884
   X9.768        Y6.000
G0   Z4.0

G10 P2 L20 X900 Y900
G55
G0   Z4.0
   X4.400        Y3.037
G1   Z-9.000    F150
   Y8.963
   X6.500
   Y3.037
   X8.600        Y4.577
   Y7.423
G0   Z4.0
   X9.768        Y6.000
G1   Z-9.000    F150
   X7.884        Y9.263
   X4.116
   X2.232        Y6.000
   X4.116        Y2.737
   X7.884
   X9.768        Y6.000
G0   Z4.0

G10 P2 L20 X1000 Y900
G55
G0   Z4.0
   X4.400        Y3.037
G1   Z-9.000    F150
   Y8.963
   X6.500
   Y3.037
   X8.600        Y4.577
   Y7.423
G0   Z4.0
   X9.768        Y6.000
G1   Z-9.000    F150
   X7.884        Y9.263
   X4.116
   X2.232        Y6.000
   X4.116        Y2.737
   X7.884
   X9.768        Y6.000
G0   Z4.0

G10 P2 L20 X1100 Y900
G55
G0   Z4.0
   X4.400        Y3.037
G1   Z-9.000    F150
   Y8.963
   X6.500
   Y3.037
   X8.600        Y4.577
   Y7.423
G0   Z4.0
   X9.768        Y6.000
G1   Z-9.000    F150
   X7.884        Y9.263
   X4.116
   X2.232        Y6.000
   X4.116        Y2.737
   X7.884
   X9.768        Y6.000
G0   Z4.0

G10 P2 L20 X1200 Y900
G55
G0   Z4.0
   X4.400        Y3.037
G1   Z-9.000    F150
   Y8.963
   X6.500
   Y3.037
   X8.600        Y4.577
   Y7.423
G0   Z4.0
   X9.768        Y6.000
G1   Z-9.000    F150
   X7.884        Y9.263
   X4.116
   X2.232        Y6.000
   X4.116        Y2.737
   X7.884
   X9.768        Y6.000
G0   Z4.0

G10 P2 L20 X0 Y1000
G55
G0   Z4.0
   X4.400        Y3.037
G1   Z-9.000    F150
   Y8.963
   X6.500
   Y3.037
   X8.600        Y4.577
   Y7.423
G0   Z4.0
   X9.768        Y6.000
G1   Z-9.000    F150
   X7.884        Y9.263
   X4.116
   X2.232        Y6.000
   X4.116        Y2.737
   X7.884
   X9.768        Y6.000
G0   Z4.0

G10 P2 L20 X100 Y1000
G55
G0   Z4.0
   X4.400        Y3.037
G1   Z-9.000    F150
   Y8.963
   X6.500
   Y3.037
   X8.600        Y4.577
   Y7.423
G0   Z4.0
   X9.768        Y6.000
G1   Z-9.000    F150
   X7.884        Y9.263
   X4.116
   X2.232        Y6.000
   X4.116        Y2.737
   X7.884
   X9.768        Y6.000
G0   Z4.0

G10 P2 L20 X200 Y1000
G55
G0   Z4.0
   X4.400        Y3.037
G1   Z-9.000    F150
   Y8.963
   X6.500
   Y3.037
   X8.600        Y4.577
   Y7.423
G0   Z4.0
   X9.768        Y6.000
G1   Z-9.000    F150
   X7.884        Y9.263
   X4.116
   X2.232        Y6.000
   X4.116        Y2.737
   X7.884
   X9.768        Y6.000
G0   Z4.0

G10 P2 L20 X300 Y1000
G55
G0   Z4.0
   X4.400        Y3.037
G1   Z-9.000    F150
   Y8.963
   X6.500
   Y3.037
   X8.600        Y4.577
   Y7.423
G0   Z4.0
   X9.768        Y6.000
G1   Z-9.000    F150
   X7.884        Y9.263
   X4.116
   X2.232        Y6.000
   X4.116        Y2.737
   X7.884
   X9.768        Y6.000
G0   Z4.0

G10 P2 L20 X400 Y1000
G55
G0   Z4.0
   X4.400        Y3.037
G1   Z-9.000    F150
   Y8.963
   X6.500
   Y3.037
   X8.600        Y4.577
   Y7.423
G0   Z4.0
   X9.768        Y6.000
G1   Z-9.000    F150
   X7.884        Y9.263
   X4.116
   X2.232        Y6.000
   X4.116        Y2.737
   X7.884
   X9.768        Y6.000
G0   Z4.0

G10 P2 L20 X500 Y1000
G55
G0   Z4.0
   X4.400        Y3.037
G1   Z-9.000    F150
   Y8.963
   X6.500
   Y3.037
   X8.600        Y4.577
   Y7.423
G0   Z4.0
   X9.768        Y6.000
G1   Z-9.000    F150
   X7.884        Y9.263
   X4.116
   X2.232        Y6.000
   X4.116        Y2.737
   X7.884
   X9.768        Y6.000
G0   Z4.0

G10 P2 L20 X600 Y1000
G55
G0   Z4.0
   X4.400        Y3.037
G1   Z-9.000    F150
   Y8.963
   X6.500
   Y3.037
   X8.600        Y4.577
   Y7.423
G0   Z4.0
   X9.768        Y6.000
G1   Z-9.000    F150
   X7.884        Y9.263
   X4.116
   X2.232        Y6.000
   X4.116        Y2.737
   X7.884
   X9.768        Y6.000
G0   Z4.0

G10 P2 L20 X700 Y1000
G55
G0   Z4.0
   X4.400        Y3.037
G1   Z-9.000    F150
   Y8.963
   X6.500
   Y3.037
   X8.600        Y4.577
   Y7.423
G0   Z4.0
   X9.768        Y6.000
G1   Z-9.000    F150
   X7.884        Y9.263
   X4.116
   X2.232        Y6.000
   X4.116        Y2.737
   X7.884
   X9.768        Y6.000
G0   Z4.0

G10 P2 L20 X800 Y1000
G55
G0   Z4.0
   X4.400        Y3.037
G1   Z-9.000    F150
   Y8.963
   X6.500
   Y3.037
   X8.600        Y4.577
   Y7.423
G0   Z4.0
   X9.768        Y6.000
G1   Z-9.000    F150
   X7.884        Y9.263
   X4.116
   X2.232        Y6.000
   X4.116        Y2.737
   X7.884
   X9.768        Y6.000
G0   Z4.0

G10 P2 L20 X900 Y1000
G55
G0   Z4.0
   X4.400        Y3.037
G1   Z-9.000    F150
   Y8.963
   X6.500
   Y3.037
   X8.600        Y4.577
   Y7.423
G0   Z4.0
   X9.768        Y6.000
G1   Z-9.000    F150
   X7.884        Y9.263
   X4.116
   X2.232        Y6.000
   X4.116        Y2.737
   X7.884
   X9.768        Y6.000
G0   Z4.0

G10 P2 L20 X1000 Y1000
G55
G0   Z4.0
   X4.400        Y3.037
G1   Z-9.000    F150
   Y8.963
   X6.500
   Y3.037
   X8.600        Y4.577
   Y7.423
G0   Z4.0
   X9.768        Y6.000
G1   Z-9.000    F150
   X7.884        Y9.263
   X4.116
   X2.232        Y6.000
   X4.116        Y2.737
   X7.884
   X9.768        Y6.000
G0   Z4.0

G10 P2 L20 X1100 Y1000
G55
G0   Z4.0
   X4.400        Y3.037
G1   Z-9.000    F150
   Y8.963
   X6.500
   Y3.037
   X8.600        Y4.577
   Y7.423
G0   Z4.0
   X9.768        Y6.000
G1   Z-9.000    F150
   X7.884        Y9.263
   X4.116
   X2.232        Y6.000
   X4.116        Y2.737
   X7.884
   X9.768        Y6.000
G0   Z4.0

G10 P2 L20 X1200 Y1000
G55
G0   Z4.0
   X4.400        Y3.037
G1   Z-9.000    F150
   Y8.963
   X6.500
   Y3.037
   X8.600        Y4.577
   Y7.423
G0   Z4.0
   X9.768        Y6.000
G1   Z-9.000    F150
   X7.884        Y9.263
   X4.116
   X2.232        Y6.000
   X4.116        Y2.737
   X7.884
   X9.768        Y6.000
G0   Z4.0

G10 P2 L20 X0 Y1100
G55
G0   Z4.0
   X4.400        Y3.037
G1   Z-9.000    F150
   Y8.963
   X6.500
   Y3.037
   X8.600        Y4.577
   Y7.423
G0   Z4.0
   X9.768        Y6.000
G1   Z-9.000    F150
   X7.884        Y9.263
   X4.116
   X2.232        Y6.000
   X4.116        Y2.737
   X7.884
   X9.768        Y6.000
G0   Z4.0

G10 P2 L20 X100 Y1100
G55
G0   Z4.0
   X4.400        Y3.037
G1   Z-9.000    F150
   Y8.963
   X6.500
   Y3.037
   X8.600        Y4.577
   Y7.423
G0   Z4.0
   X9.768        Y6.000
G1   Z-9.000    F150
   X7.884        Y9.263
   X4.116
   X2.232        Y6.000
   X4.116        Y2.737
   X7.884
   X9.768        Y6.000
G0   Z4.0

G10 P2 L20 X200 Y1100
G55
G0   Z4.0
   X4.400        Y3.037
G1   Z-9.000    F150
   Y8.963
   X6.500
   Y3.037
   X8.600        Y4.577
   Y7.423
G0   Z4.0
   X9.768        Y6.000
G1   Z-9.000    F150
   X7.884        Y9.263
   X4.116
   X2.232        Y6.000
   X4.116        Y2.737
   X7.884
   X9.768        Y6.000
G0   Z4.0

G10 P2 L20 X300 Y1100
G55
G0   Z4.0
   X4.400        Y3.037
G1   Z-9.000    F150
   Y8.963
   X6.500
   Y3.037
   X8.600        Y4.577
   Y7.423
G0   Z4.0
   X9.768        Y6.000
G1   Z-9.000    F150
   X7.884        Y9.263
   X4.116
   X2.232        Y6.000
   X4.116        Y2.737
   X7.884
   X9.768        Y6.000
G0   Z4.0

G10 P2 L20 X400 Y1100
G55
G0   Z4.0
   X4.400        Y3.037
G1   Z-9.000    F150
   Y8.963
   X6.500
   Y3.037
   X8.600        Y4.577
   Y7.423
G0   Z4.0
   X9.768        Y6.000
G1   Z-9.000    F150
   X7.884        Y9.263
   X4.116
   X2.232        Y6.000
   X4.116        Y2.737
   X7.884
   X9.768        Y6.000
G0   Z4.0

G10 P2 L20 X500 Y1100
G55
G0   Z4.0
   X4.400        Y3.037
G1   Z-9.000    F150
   Y8.963
   X6.500
   Y3.037
   X8.600        Y4.577
   Y7.423
G0   Z4.0
   X9.768        Y6.000
G1   Z-9.000    F150
   X7.884        Y9.263
   X4.116
   X2.232        Y6.000
   X4.116        Y2.737
   X7.884
   X9.768        Y6.000
G0   Z4.0

G10 P2 L20 X600 Y1100
G55
G0   Z4.0
   X4.400        Y3.037
G1   Z-9.000    F150
   Y8.963
   X6.500
   Y3.037
   X8.600        Y4.577
   Y7.423
G0   Z4.0
   X9.768        Y6.000
G1   Z-9.000    F150
   X7.884        Y9.263
   X4.116
   X2.232        Y6.000
   X4.116        Y2.737
   X7.884
   X9.768        Y6.000
G0   Z4.0

G10 P2 L20 X700 Y1100
G55
G0   Z4.0
   X4.400        Y3.037
G1   Z-9.000    F150
   Y8.963
   X6.500
   Y3.037
   X8.600        Y4.577
   Y7.423
G0   Z4.0
   X9.768        Y6.000
G1   Z-9.000    F150
   X7.884        Y9.263
   X4.116
   X2.232        Y6.000
   X4.116        Y2.737
   X7.884
   X9.768        Y6.000
G0   Z4.0

G10 P2 L20 X800 Y1100
G55
G0   Z4.0
   X4.400        Y3.037
G1   Z-9.000    F150
   Y8.963
   X6.500
   Y3.037
   X8.600        Y4.577
   Y7.423
G0   Z4.0
   X9.768        Y6.000
G1   Z-9.000    F150
   X7.884        Y9.263
   X4.116
   X2.232        Y6.000
   X4.116        Y2.737
   X7.884
   X9.768        Y6.000
G0   Z4.0

G10 P2 L20 X900 Y1100
G55
G0   Z4.0
   X4.400        Y3.037
G1   Z-9.000    F150
   Y8.963
   X6.500
   Y3.037
   X8.600        Y4.577
   Y7.423
G0   Z4.0
   X9.768        Y6.000
G1   Z-9.000    F150
   X7.884        Y9.263
   X4.116
   X2.232        Y6.000
   X4.116        Y2.737
   X7.884
   X9.768        Y6.000
G0   Z4.0

G10 P2 L20 X1000 Y1100
G55
G0   Z4.0
   X4.400        Y3.037
G1   Z-9.000    F150
   Y8.963
   X6.500
   Y3.037
   X8.600        Y4.577
   Y7.423
G0   Z4.0
   X9.768        Y6.000
G1   Z-9.000    F150
   X7.884        Y9.263
   X4.116
   X2.232        Y6.000
   X4.116        Y2.737
   X7.884
   X9.768        Y6.000
G0   Z4.0

G10 P2 L20 X1100 Y1100
G55
G0   Z4.0
   X4.400        Y3.037
G1   Z-9.000    F150
   Y8.963
   X6.500
   Y3.037
   X8.600        Y4.577
   Y7.423
G0   Z4.0
   X9.768        Y6.000
G1   Z-9.000    F150
   X7.884        Y9.263
   X4.116
   X2.232        Y6.000
   X4.116        Y2.737
   X7.884
   X9.768        Y6.000
G0   Z4.0

G10 P2 L20 X1200 Y1100
G55
G0   Z4.0
   X4.400        Y3.037
G1   Z-9.000    F150
   Y8.963
   X6.500
   Y3.037
   X8.600        Y4.577
   Y7.423
G0   Z4.0
   X9.768        Y6.000
G1   Z-9.000    F150
   X7.884        Y9.263
   X4.116
   X2.232        Y6.000
   X4.116        Y2.737
   X7.884
   X9.768        Y6.000
G0   Z4.0

G10 P2 L20 X0 Y1200
G55
G0   Z4.0
   X4.400        Y3.037
G1   Z-9.000    F150
   Y8.963
   X6.500
   Y3.037
   X8.600        Y4.577
   Y7.423
G0   Z4.0
   X9.768        Y6.000
G1   Z-9.000    F150
   X7.884        Y9.263
   X4.116
   X2.232        Y6.000
   X4.116        Y2.737
   X7.884
   X9.768        Y6.000
G0   Z4.0

G10 P2 L20 X100 Y1200
G55
G0   Z4.0
   X4.400        Y3.037
G1   Z-9.000    F150
   Y8.963
   X6.500
   Y3.037
   X8.600        Y4.577
   Y7.423
G0   Z4.0
   X9.768        Y6.000
G1   Z-9.000    F150
   X7.884        Y9.263
   X4.116
   X2.232        Y6.000
   X4.116        Y2.737
   X7.884
   X9.768        Y6.000
G0   Z4.0

G10 P2 L20 X200 Y1200
G55
G0   Z4.0
   X4.400        Y3.037
G1   Z-9.000    F150
   Y8.963
   X6.500
   Y3.037
   X8.600        Y4.577
   Y7.423
G0   Z4.0
   X9.768        Y6.000
G1   Z-9.000    F150
   X7.884        Y9.263
   X4.116
   X2.232        Y6.000
   X4.116        Y2.737
   X7.884
   X9.768        Y6.000
G0   Z4.0

G10 P2 L20 X300 Y1200
G55
G0   Z4.0
   X4.400        Y3.037
G1   Z-9.000    F150
   Y8.963
   X6.500
   Y3.037
   X8.600        Y4.577
   Y7.423
G0   Z4.0
   X9.768        Y6.000
G1   Z-9.000    F150
   X7.884        Y9.263
   X4.116
   X2.232        Y6.000
   X4.116        Y2.737
   X7.884
   X9.768        Y6.000
G0   Z4.0

G10 P2 L20 X400 Y1200
G55
G0   Z4.0
   X4.400        Y3.037
G1   Z-9.000    F150
   Y8.963
   X6.500
   Y3.037
   X8.600        Y4.577
   Y7.423
G0   Z4.0
   X9.768        Y6.000
G1   Z-9.000    F150
   X7.884        Y9.263
   X4.116
   X2.232        Y6.000
   X4.116        Y2.737
   X7.884
   X9.768        Y6.000
G0   Z4.0

G10 P2 L20 X500 Y1200
G55
G0   Z4.0
   X4.400        Y3.037
G1   Z-9.000    F150
   Y8.963
   X6.500
   Y3.037
   X8.600        Y4.577
   Y7.423
G0   Z4.0
   X9.768        Y6.000
G1   Z-9.000    F150
   X7.884        Y9.263
   X4.116
   X2.232        Y6.000
   X4.116        Y2.737
   X7.884
   X9.768        Y6.000
G0   Z4.0

G10 P2 L20 X600 Y1200
G55
G0   Z4.0
   X4.400        Y3.037
G1   Z-9.000    F150
   Y8.963
   X6.500
   Y3.037
   X8.600        Y4.577
   Y7.423
G0   Z4.0
   X9.768        Y6.000
G1   Z-9.000    F150
   X7.884        Y9.263
   X4.116
   X2.232        Y6.000
   X4.116        Y2.737
   X7.884
   X9.768        Y6.000
G0   Z4.0

G10 P2 L20 X700 Y1200
G55
G0   Z4.0
   X4.400        Y3.037
G1   Z-9.000    F150
   Y8.963
   X6.500
   Y3.037
   X8.600        Y4.577
   Y7.423
G0   Z4.0
   X9.768        Y6.000
G1   Z-9.000    F150
   X7.884        Y9.263
   X4.116
   X2.232        Y6.000
   X4.116        Y2.737
   X7.884
   X9.768        Y6.000
G0   Z4.0

G10 P2 L20 X800 Y1200
G55
G0   Z4.0
   X4.400        Y3.037
G1   Z-9.000    F150
   Y8.963
   X6.500
   Y3.037
   X8.600        Y4.577
   Y7.423
G0   Z4.0
   X9.768        Y6.000
G1   Z-9.000    F150
   X7.884        Y9.263
   X4.116
   X2.232        Y6.000
   X4.116        Y2.737
   X7.884
   X9.768        Y6.000
G0   Z4.0

G10 P2 L20 X900 Y1200
G55
G0   Z4.0
   X4.400        Y3.037
G1   Z-9.000    F150
   Y8.963
   X6.500
   Y3.037
   X8.600        Y4.577
   Y7.423
G0   Z4.0
   X9.768        Y6.000
G1   Z-9.000    F150
   X7.884        Y9.263
   X4.116
   X2.232        Y6.000
   X4.116        Y2.737
   X7.884
   X9.768        Y6.000
G0   Z4.0

G10 P2 L20 X1000 Y1200
G55
G0   Z4.0
   X4.400        Y3.037
G1   Z-9.000    F150
   Y8.963
   X6.500
   Y3.037
   X8.600        Y4.577
   Y7.423
G0   Z4.0
   X9.768        Y6.000
G1   Z-9.000    F150
   X7.884        Y9.263
   X4.116
   X2.232        Y6.000
   X4.116        Y2.737
   X7.884
   X9.768        Y6.000
G0   Z4.0

G10 P2 L20 X1100 Y1200
G55
G0   Z4.0
   X4.400        Y3.037
G1   Z-9.000    F150
   Y8.963
   X6.500
   Y3.037
   X8.600        Y4.577
   Y7.423
G0   Z4.0
   X9.768        Y6.000
G1   Z-9.000    F150
   X7.884        Y9.263
   X4.116
   X2.232        Y6.000
   X4.116        Y2.737
   X7.884
   X9.768        Y6.000
G0   Z4.0

G10 P2 L20 X1200 Y1200
G55
G0   Z4.0
   X4.400        Y3.037
G1   Z-9.000    F150
   Y8.963
   X6.500
   Y3.037
   X8.600        Y4.577
   Y7.423
G0   Z4.0
   X9.768        Y6.000
G1   Z-9.000    F150
   X7.884        Y9.263
   X4.116
   X2.232        Y6.000
   X4.116        Y2.737
   X7.884
   X9.768        Y6.000
G0   Z4.0

G10 P2 L20 X0 Y1300
G55
G0   Z4.0
   X4.400        Y3.037
G1   Z-9.000    F150
   Y8.963
   X6.500
   Y3.037
   X8.600        Y4.577
   Y7.423
G0   Z4.0
   X9.768        Y6.000
G1   Z-9.000    F150
   X7.884        Y9.263
   X4.116
   X2.232        Y6.000
   X4.116        Y2.737
   X7.884
   X9.768        Y6.000
G0   Z4.0

G10 P2 L20 X100 Y1300
G55
G0   Z4.0
   X4.400        Y3.037
G1   Z-9.000    F150
   Y8.963
   X6.500
   Y3.037
   X8.600        Y4.577
   Y7.423
G0   Z4.0
   X9.768        Y6.000
G1   Z-9.000    F150
   X7.884        Y9.263
   X4.116
   X2.232        Y6.000
   X4.116        Y2.737
   X7.884
   X9.768        Y6.000
G0   Z4.0

G10 P2 L20 X200 Y1300
G55
G0   Z4.0
   X4.400        Y3.037
G1   Z-9.000    F150
   Y8.963
   X6.500
   Y3.037
   X8.600        Y4.577
   Y7.423
G0   Z4.0
   X9.768        Y6.000
G1   Z-9.000    F150
   X7.884        Y9.263
   X4.116
   X2.232        Y6.000
   X4.116        Y2.737
   X7.884
   X9.768        Y6.000
G0   Z4.0

G10 P2 L20 X300 Y1300
G55
G0   Z4.0
   X4.400        Y3.037
G1   Z-9.000    F150
   Y8.963
   X6.500
   Y3.037
   X8.600        Y4.577
   Y7.423
G0   Z4.0
   X9.768        Y6.000
G1   Z-9.000    F150
   X7.884        Y9.263
   X4.116
   X2.232        Y6.000
   X4.116        Y2.737
   X7.884
   X9.768        Y6.000
G0   Z4.0

G10 P2 L20 X400 Y1300
G55
G0   Z4.0
   X4.400        Y3.037
G1   Z-9.000    F150
   Y8.963
   X6.500
   Y3.037
   X8.600        Y4.577
   Y7.423
G0   Z4.0
   X9.768        Y6.000
G1   Z-9.000    F150
   X7.884        Y9.263
   X4.116
   X2.232        Y6.000
   X4.116        Y2.737
   X7.884
   X9.768        Y6.000
G0   Z4.0

G10 P2 L20 X500 Y1300
G55
G0   Z4.0
   X4.400        Y3.037
G1   Z-9.000    F150
   Y8.963
   X6.500
   Y3.037
   X8.600        Y4.577
   Y7.423
G0   Z4.0
   X9.768        Y6.000
G1   Z-9.000    F150
   X7.884        Y9.263
   X4.116
   X2.232        Y6.000
   X4.116        Y2.737
   X7.884
   X9.768        Y6.000
G0   Z4.0

G10 P2 L20 X600 Y1300
G55
G0   Z4.0
   X4.400        Y3.037
G1   Z-9.000    F150
   Y8.963
   X6.500
   Y3.037
   X8.600        Y4.577
   Y7.423
G0   Z4.0
   X9.768        Y6.000
G1   Z-9.000    F150
   X7.884        Y9.263
   X4.116
   X2.232        Y6.000
   X4.116        Y2.737
   X7.884
   X9.768        Y6.000
G0   Z4.0

G10 P2 L20 X700 Y1300
G55
G0   Z4.0
   X4.400        Y3.037
G1   Z-9.000    F150
   Y8.963
   X6.500
   Y3.037
   X8.600        Y4.577
   Y7.423
G0   Z4.0
   X9.768        Y6.000
G1   Z-9.000    F150
   X7.884        Y9.263
   X4.116
   X2.232        Y6.000
   X4.116        Y2.737
   X7.884
   X9.768        Y6.000
G0   Z4.0

G10 P2 L20 X800 Y1300
G55
G0   Z4.0
   X4.400        Y3.037
G1   Z-9.000    F150
   Y8.963
   X6.500
   Y3.037
   X8.600        Y4.577
   Y7.423
G0   Z4.0
   X9.768        Y6.000
G1   Z-9.000    F150
   X7.884        Y9.263
   X4.116
   X2.232        Y6.000
   X4.116        Y2.737
   X7.884
   X9.768        Y6.000
G0   Z4.0

G10 P2 L20 X900 Y1300
G55
G0   Z4.0
   X4.400        Y3.037
G1   Z-9.000    F150
   Y8.963
   X6.500
   Y3.037
   X8.600        Y4.577
   Y7.423
G0   Z4.0
   X9.768        Y6.000
G1   Z-9.000    F150
   X7.884        Y9.263
   X4.116
   X2.232        Y6.000
   X4.116        Y2.737
   X7.884
   X9.768        Y6.000
G0   Z4.0

G10 P2 L20 X1000 Y1300
G55
G0   Z4.0
   X4.400        Y3.037
G1   Z-9.000    F150
   Y8.963
   X6.500
   Y3.037
   X8.600        Y4.577
   Y7.423
G0   Z4.0
   X9.768        Y6.000
G1   Z-9.000    F150
   X7.884        Y9.263
   X4.116
   X2.232        Y6.000
   X4.116        Y2.737
   X7.884
   X9.768        Y6.000
G0   Z4.0

G10 P2 L20 X1100 Y1300
G55
G0   Z4.0
   X4.400        Y3.037
G1   Z-9.000    F150
   Y8.963
   X6.500
   Y3.037
   X8.600        Y4.577
   Y7.423
G0   Z4.0
   X9.768        Y6.000
G1   Z-9.000    F150
   X7.884        Y9.263
   X4.116
   X2.232        Y6.000
   X4.116        Y2.737
   X7.884
   X9.768        Y6.000
G0   Z4.0

G10 P2 L20 X1200 Y1300
G55
G0   Z4.0
   X4.400        Y3.037
G1   Z-9.000    F150
   Y8.963
   X6.500
   Y3.037
   X8.600        Y4.577
   Y7.423
G0   Z4.0
   X9.768        Y6.000
G1   Z-9.000    F150
   X7.884        Y9.263
   X4.116
   X2.232        Y6.000
   X4.116        Y2.737
   X7.884
   X9.768        Y6.000
G0   Z4.0

G10 P2 L20 X0 Y1400
G55
G0   Z4.0
   X4.400        Y3.037
G1   Z-9.000    F150
   Y8.963
   X6.500
   Y3.037
   X8.600        Y4.577
   Y7.423
G0   Z4.0
   X9.768        Y6.000
G1   Z-9.000    F150
   X7.884        Y9.263
   X4.116
   X2.232        Y6.000
   X4.116        Y2.737
   X7.884
   X9.768        Y6.000
G0   Z4.0

G10 P2 L20 X100 Y1400
G55
G0   Z4.0
   X4.400        Y3.037
G1   Z-9.000    F150
   Y8.963
   X6.500
   Y3.037
   X8.600        Y4.577
   Y7.423
G0   Z4.0
   X9.768        Y6.000
G1   Z-9.000    F150
   X7.884        Y9.263
   X4.116
   X2.232        Y6.000
   X4.116        Y2.737
   X7.884
   X9.768        Y6.000
G0   Z4.0

G10 P2 L20 X200 Y1400
G55
G0   Z4.0
   X4.400        Y3.037
G1   Z-9.000    F150
   Y8.963
   X6.500
   Y3.037
   X8.600        Y4.577
   Y7.423
G0   Z4.0
   X9.768        Y6.000
G1   Z-9.000    F150
   X7.884        Y9.263
   X4.116
   X2.232        Y6.000
   X4.116        Y2.737
   X7.884
   X9.768        Y6.000
G0   Z4.0

G10 P2 L20 X300 Y1400
G55
G0   Z4.0
   X4.400        Y3.037
G1   Z-9.000    F150
   Y8.963
   X6.500
   Y3.037
   X8.600        Y4.577
   Y7.423
G0   Z4.0
   X9.768        Y6.000
G1   Z-9.000    F150
   X7.884        Y9.263
   X4.116
   X2.232        Y6.000
   X4.116        Y2.737
   X7.884
   X9.768        Y6.000
G0   Z4.0

G10 P2 L20 X400 Y1400
G55
G0   Z4.0
   X4.400        Y3.037
G1   Z-9.000    F150
   Y8.963
   X6.500
   Y3.037
   X8.600        Y4.577
   Y7.423
G0   Z4.0
   X9.768        Y6.000
G1   Z-9.000    F150
   X7.884        Y9.263
   X4.116
   X2.232        Y6.000
   X4.116        Y2.737
   X7.884
   X9.768        Y6.000
G0   Z4.0

G10 P2 L20 X500 Y1400
G55
G0   Z4.0
   X4.400        Y3.037
G1   Z-9.000    F150
   Y8.963
   X6.500
   Y3.037
   X8.600        Y4.577
   Y7.423
G0   Z4.0
   X9.768        Y6.000
G1   Z-9.000    F150
   X7.884        Y9.263
   X4.116
   X2.232        Y6.000
   X4.116        Y2.737
   X7.884
   X9.768        Y6.000
G0   Z4.0

G10 P2 L20 X600 Y1400
G55
G0   Z4.0
   X4.400        Y3.037
G1   Z-9.000    F150
   Y8.963
   X6.500
   Y3.037
   X8.600        Y4.577
   Y7.423
G0   Z4.0
   X9.768        Y6.000
G1   Z-9.000    F150
   X7.884        Y9.263
   X4.116
   X2.232        Y6.000
   X4.116        Y2.737
   X7.884
   X9.768        Y6.000
G0   Z4.0

G10 P2 L20 X700 Y1400
G55
G0   Z4.0
   X4.400        Y3.037
G1   Z-9.000    F150
   Y8.963
   X6.500
   Y3.037
   X8.600        Y4.577
   Y7.423
G0   Z4.0
   X9.768        Y6.000
G1   Z-9.000    F150
   X7.884        Y9.263
   X4.116
   X2.232        Y6.000
   X4.116        Y2.737
   X7.884
   X9.768        Y6.000
G0   Z4.0

G10 P2 L20 X800 Y1400
G55
G0   Z4.0
   X4.400        Y3.037
G1   Z-9.000    F150
   Y8.963
   X6.500
   Y3.037
   X8.600        Y4.577
   Y7.423
G0   Z4.0
   X9.768        Y6.000
G1   Z-9.000    F150
   X7.884        Y9.263
   X4.116
   X2.232        Y6.000
   X4.116        Y2.737
   X7.884
   X9.768        Y6.000
G0   Z4.0

G10 P2 L20 X900 Y1400
G55
G0   Z4.0
   X4.400        Y3.037
G1   Z-9.000    F150
   Y8.963
   X6.500
   Y3.037
   X8.600        Y4.577
   Y7.423
G0   Z4.0
   X9.768        Y6.000
G1   Z-9.000    F150
   X7.884        Y9.263
   X4.116
   X2.232        Y6.000
   X4.116        Y2.737
   X7.884
   X9.768        Y6.000
G0   Z4.0

G10 P2 L20 X1000 Y1400
G55
G0   Z4.0
   X4.400        Y3.037
G1   Z-9.000    F150
   Y8.963
   X6.500
   Y3.037
   X8.600        Y4.577
   Y7.423
G0   Z4.0
   X9.768        Y6.000
G1   Z-9.000    F150
   X7.884        Y9.263
   X4.116
   X2.232        Y6.000
   X4.116        Y2.737
   X7.884
   X9.768        Y6.000
G0   Z4.0

G10 P2 L20 X1100 Y1400
G55
G0   Z4.0
   X4.400        Y3.037
G1   Z-9.000    F150
   Y8.963
   X6.500
   Y3.037
   X8.600        Y4.577
   Y7.423
G0   Z4.0
   X9.768        Y6.000
G1   Z-9.000    F150
   X7.884        Y9.263
   X4.116
   X2.232        Y6.000
   X4.116        Y2.737
   X7.884
   X9.768        Y6.000
G0   Z4.0

G10 P2 L20 X1200 Y1400
G55
G0   Z4.0
   X4.400        Y3.037
G1   Z-9.000    F150
   Y8.963
   X6.500
   Y3.037
   X8.600        Y4.577
   Y7.423
G0   Z4.0
   X9.768        Y6.000
G1   Z-9.000    F150
   X7.884        Y9.263
   X4.116
   X2.232        Y6.000
   X4.116        Y2.737
   X7.884
   X9.768        Y6.000
G0   Z4.0

G10 P2 L20 X0 Y1500
G55
G0   Z4.0
   X4.400        Y3.037
G1   Z-9.000    F150
   Y8.963
   X6.500
   Y3.037
   X8.600        Y4.577
   Y7.423
G0   Z4.0
   X9.768        Y6.000
G1   Z-9.000    F150
   X7.884        Y9.263
   X4.116
   X2.232        Y6.000
   X4.116        Y2.737
   X7.884
   X9.768        Y6.000
G0   Z4.0

G10 P2 L20 X100 Y1500
G55
G0   Z4.0
   X4.400        Y3.037
G1   Z-9.000    F150
   Y8.963
   X6.500
   Y3.037
   X8.600        Y4.577
   Y7.423
G0   Z4.0
   X9.768        Y6.000
G1   Z-9.000    F150
   X7.884        Y9.263
   X4.116
   X2.232        Y6.000
   X4.116        Y2.737
   X7.884
   X9.768        Y6.000
G0   Z4.0

G10 P2 L20 X200 Y1500
G55
G0   Z4.0
   X4.400        Y3.037
G1   Z-9.000    F150
   Y8.963
   X6.500
   Y3.037
   X8.600        Y4.577
   Y7.423
G0   Z4.0
   X9.768        Y6.000
G1   Z-9.000    F150
   X7.884        Y9.263
   X4.116
   X2.232        Y6.000
   X4.116        Y2.737
   X7.884
   X9.768        Y6.000
G0   Z4.0

G10 P2 L20 X300 Y1500
G55
G0   Z4.0
   X4.400        Y3.037
G1   Z-9.000    F150
   Y8.963
   X6.500
   Y3.037
   X8.600        Y4.577
   Y7.423
G0   Z4.0
   X9.768        Y6.000
G1   Z-9.000    F150
   X7.884        Y9.263
   X4.116
   X2.232        Y6.000
   X4.116        Y2.737
   X7.884
   X9.768        Y6.000
G0   Z4.0

G10 P2 L20 X400 Y1500
G55
G0   Z4.0
   X4.400        Y3.037
G1   Z-9.000    F150
   Y8.963
   X6.500
   Y3.037
   X8.600        Y4.577
   Y7.423
G0   Z4.0
   X9.768        Y6.000
G1   Z-9.000    F150
   X7.884        Y9.263
   X4.116
   X2.232        Y6.000
   X4.116        Y2.737
   X7.884
   X9.768        Y6.000
G0   Z4.0

G10 P2 L20 X500 Y1500
G55
G0   Z4.0
   X4.400        Y3.037
G1   Z-9.000    F150
   Y8.963
   X6.500
   Y3.037
   X8.600        Y4.577
   Y7.423
G0   Z4.0
   X9.768        Y6.000
G1   Z-9.000    F150
   X7.884        Y9.263
   X4.116
   X2.232        Y6.000
   X4.116        Y2.737
   X7.884
   X9.768        Y6.000
G0   Z4.0

G10 P2 L20 X600 Y1500
G55
G0   Z4.0
   X4.400        Y3.037
G1   Z-9.000    F150
   Y8.963
   X6.500
   Y3.037
   X8.600        Y4.577
   Y7.423
G0   Z4.0
   X9.768        Y6.000
G1   Z-9.000    F150
   X7.884        Y9.263
   X4.116
   X2.232        Y6.000
   X4.116        Y2.737
   X7.884
   X9.768        Y6.000
G0   Z4.0

G10 P2 L20 X700 Y1500
G55
G0   Z4.0
   X4.400        Y3.037
G1   Z-9.000    F150
   Y8.963
   X6.500
   Y3.037
   X8.600        Y4.577
   Y7.423
G0   Z4.0
   X9.768        Y6.000
G1   Z-9.000    F150
   X7.884        Y9.263
   X4.116
   X2.232        Y6.000
   X4.116        Y2.737
   X7.884
   X9.768        Y6.000
G0   Z4.0

G10 P2 L20 X800 Y1500
G55
G0   Z4.0
   X4.400        Y3.037
G1   Z-9.000    F150
   Y8.963
   X6.500
   Y3.037
   X8.600        Y4.577
   Y7.423
G0   Z4.0
   X9.768        Y6.000
G1   Z-9.000    F150
   X7.884        Y9.263
   X4.116
   X2.232        Y6.000
   X4.116        Y2.737
   X7.884
   X9.768        Y6.000
G0   Z4.0

G10 P2 L20 X900 Y1500
G55
G0   Z4.0
   X4.400        Y3.037
G1   Z-9.000    F150
   Y8.963
   X6.500
   Y3.037
   X8.600        Y4.577
   Y7.423
G0   Z4.0
   X9.768        Y6.000
G1   Z-9.000    F150
   X7.884        Y9.263
   X4.116
   X2.232        Y6.000
   X4.116        Y2.737
   X7.884
   X9.768        Y6.000
G0   Z4.0

G10 P2 L20 X1000 Y1500
G55
G0   Z4.0
   X4.400        Y3.037
G1   Z-9.000    F150
   Y8.963
   X6.500
   Y3.037
   X8.600        Y4.577
   Y7.423
G0   Z4.0
   X9.768        Y6.000
G1   Z-9.000    F150
   X7.884        Y9.263
   X4.116
   X2.232        Y6.000
   X4.116        Y2.737
   X7.884
   X9.768        Y6.000
G0   Z4.0

G10 P2 L20 X1100 Y1500
G55
G0   Z4.0
   X4.400        Y3.037
G1   Z-9.000    F150
   Y8.963
   X6.500
   Y3.037
   X8.600        Y4.577
   Y7.423
G0   Z4.0
   X9.768        Y6.000
G1   Z-9.000    F150
   X7.884        Y9.263
   X4.116
   X2.232        Y6.000
   X4.116        Y2.737
   X7.884
   X9.768        Y6.000
G0   Z4.0

G10 P2 L20 X1200 Y1500
G55
G0   Z4.0
   X4.400        Y3.037
G1   Z-9.000    F150
   Y8.963
   X6.500
   Y3.037
   X8.600        Y4.577
   Y7.423
G0   Z4.0
   X9.768        Y6.000
G1   Z-9.000    F150
   X7.884        Y9.263
   X4.116
   X2.232        Y6.000
   X4.116        Y2.737
   X7.884
   X9.768        Y6.000
G0   Z4.0

G10 P2 L20 X0 Y1600
G55
G0   Z4.0
   X4.400        Y3.037
G1   Z-9.000    F150
   Y8.963
   X6.500
   Y3.037
   X8.600        Y4.577
   Y7.423
G0   Z4.0
   X9.768        Y6.000
G1   Z-9.000    F150
   X7.884        Y9.263
   X4.116
   X2.232        Y6.000
   X4.116        Y2.737
   X7.884
   X9.768        Y6.000
G0   Z4.0

G10 P2 L20 X100 Y1600
G55
G0   Z4.0
   X4.400        Y3.037
G1   Z-9.000    F150
   Y8.963
   X6.500
   Y3.037
   X8.600        Y4.577
   Y7.423
G0   Z4.0
   X9.768        Y6.000
G1   Z-9.000    F150
   X7.884        Y9.263
   X4.116
   X2.232        Y6.000
   X4.116        Y2.737
   X7.884
   X9.768        Y6.000
G0   Z4.0

G10 P2 L20 X200 Y1600
G55
G0   Z4.0
   X4.400        Y3.037
G1   Z-9.000    F150
   Y8.963
   X6.500
   Y3.037
   X8.600        Y4.577
   Y7.423
G0   Z4.0
   X9.768        Y6.000
G1   Z-9.000    F150
   X7.884        Y9.263
   X4.116
   X2.232        Y6.000
   X4.116        Y2.737
   X7.884
   X9.768        Y6.000
G0   Z4.0

G10 P2 L20 X300 Y1600
G55
G0   Z4.0
   X4.400        Y3.037
G1   Z-9.000    F150
   Y8.963
   X6.500
   Y3.037
   X8.600        Y4.577
   Y7.423
G0   Z4.0
   X9.768        Y6.000
G1   Z-9.000    F150
   X7.884        Y9.263
   X4.116
   X2.232        Y6.000
   X4.116        Y2.737
   X7.884
   X9.768        Y6.000
G0   Z4.0

G10 P2 L20 X400 Y1600
G55
G0   Z4.0
   X4.400        Y3.037
G1   Z-9.000    F150
   Y8.963
   X6.500
   Y3.037
   X8.600        Y4.577
   Y7.423
G0   Z4.0
   X9.768        Y6.000
G1   Z-9.000    F150
   X7.884        Y9.263
   X4.116
   X2.232        Y6.000
   X4.116        Y2.737
   X7.884
   X9.768        Y6.000
G0   Z4.0

G10 P2 L20 X500 Y1600
G55
G0   Z4.0
   X4.400        Y3.037
G1   Z-9.000    F150
   Y8.963
   X6.500
   Y3.037
   X8.600        Y4.577
   Y7.423
G0   Z4.0
   X9.768        Y6.000
G1   Z-9.000    F150
   X7.884        Y9.263
   X4.116
   X2.232        Y6.000
   X4.116        Y2.737
   X7.884
   X9.768        Y6.000
G0   Z4.0

G10 P2 L20 X600 Y1600
G55
G0   Z4.0
   X4.400        Y3.037
G1   Z-9.000    F150
   Y8.963
   X6.500
   Y3.037
   X8.600        Y4.577
   Y7.423
G0   Z4.0
   X9.768        Y6.000
G1   Z-9.000    F150
   X7.884        Y9.263
   X4.116
   X2.232        Y6.000
   X4.116        Y2.737
   X7.884
   X9.768        Y6.000
G0   Z4.0

G10 P2 L20 X700 Y1600
G55
G0   Z4.0
   X4.400        Y3.037
G1   Z-9.000    F150
   Y8.963
   X6.500
   Y3.037
   X8.600        Y4.577
   Y7.423
G0   Z4.0
   X9.768        Y6.000
G1   Z-9.000    F150
   X7.884        Y9.263
   X4.116
   X2.232        Y6.000
   X4.116        Y2.737
   X7.884
   X9.768        Y6.000
G0   Z4.0

G10 P2 L20 X800 Y1600
G55
G0   Z4.0
   X4.400        Y3.037
G1   Z-9.000    F150
   Y8.963
   X6.500
   Y3.037
   X8.600        Y4.577
   Y7.423
G0   Z4.0
   X9.768        Y6.000
G1   Z-9.000    F150
   X7.884        Y9.263
   X4.116
   X2.232        Y6.000
   X4.116        Y2.737
   X7.884
   X9.768        Y6.000
G0   Z4.0

G10 P2 L20 X900 Y1600
G55
G0   Z4.0
   X4.400        Y3.037
G1   Z-9.000    F150
   Y8.963
   X6.500
   Y3.037
   X8.600        Y4.577
   Y7.423
G0   Z4.0
   X9.768        Y6.000
G1   Z-9.000    F150
   X7.884        Y9.263
   X4.116
   X2.232        Y6.000
   X4.116        Y2.737
   X7.884
   X9.768        Y6.000
G0   Z4.0

G10 P2 L20 X1000 Y1600
G55
G0   Z4.0
   X4.400        Y3.037
G1   Z-9.000    F150
   Y8.963
   X6.500
   Y3.037
   X8.600        Y4.577
   Y7.423
G0   Z4.0
   X9.768        Y6.000
G1   Z-9.000    F150
   X7.884        Y9.263
   X4.116
   X2.232        Y6.000
   X4.116        Y2.737
   X7.884
   X9.768        Y6.000
G0   Z4.0

G10 P2 L20 X1100 Y1600
G55
G0   Z4.0
   X4.400        Y3.037
G1   Z-9.000    F150
   Y8.963
   X6.500
   Y3.037
   X8.600        Y4.577
   Y7.423
G0   Z4.0
   X9.768        Y6.000
G1   Z-9.000    F150
   X7.884        Y9.263
   X4.116
   X2.232        Y6.000
   X4.116        Y2.737
   X7.884
   X9.768        Y6.000
G0   Z4.0

G10 P2 L20 X1200 Y1600
G55
G0   Z4.0
   X4.400        Y3.037
G1   Z-9.000    F150
   Y8.963
   X6.500
   Y3.037
   X8.600        Y4.577
   Y7.423
G0   Z4.0
   X9.768        Y6.000
G1   Z-9.000    F150
   X7.884        Y9.263
   X4.116
   X2.232        Y6.000
   X4.116        Y2.737
   X7.884
   X9.768        Y6.000
G0   Z4.0

G10 P2 L20 X0 Y1700
G55
G0   Z4.0
   X4.400        Y3.037
G1   Z-9.000    F150
   Y8.963
   X6.500
   Y3.037
   X8.600        Y4.577
   Y7.423
G0   Z4.0
   X9.768        Y6.000
G1   Z-9.000    F150
   X7.884        Y9.263
   X4.116
   X2.232        Y6.000
   X4.116        Y2.737
   X7.884
   X9.768        Y6.000
G0   Z4.0

G10 P2 L20 X100 Y1700
G55
G0   Z4.0
   X4.400        Y3.037
G1   Z-9.000    F150
   Y8.963
   X6.500
   Y3.037
   X8.600        Y4.577
   Y7.423
G0   Z4.0
   X9.768        Y6.000
G1   Z-9.000    F150
   X7.884        Y9.263
   X4.116
   X2.232        Y6.000
   X4.116        Y2.737
   X7.884
   X9.768        Y6.000
G0   Z4.0

G10 P2 L20 X200 Y1700
G55
G0   Z4.0
   X4.400        Y3.037
G1   Z-9.000    F150
   Y8.963
   X6.500
   Y3.037
   X8.600        Y4.577
   Y7.423
G0   Z4.0
   X9.768        Y6.000
G1   Z-9.000    F150
   X7.884        Y9.263
   X4.116
   X2.232        Y6.000
   X4.116        Y2.737
   X7.884
   X9.768        Y6.000
G0   Z4.0

G10 P2 L20 X300 Y1700
G55
G0   Z4.0
   X4.400        Y3.037
G1   Z-9.000    F150
   Y8.963
   X6.500
   Y3.037
   X8.600        Y4.577
   Y7.423
G0   Z4.0
   X9.768        Y6.000
G1   Z-9.000    F150
   X7.884        Y9.263
   X4.116
   X2.232        Y6.000
   X4.116        Y2.737
   X7.884
   X9.768        Y6.000
G0   Z4.0

G10 P2 L20 X400 Y1700
G55
G0   Z4.0
   X4.400        Y3.037
G1   Z-9.000    F150
   Y8.963
   X6.500
   Y3.037
   X8.600        Y4.577
   Y7.423
G0   Z4.0
   X9.768        Y6.000
G1   Z-9.000    F150
   X7.884        Y9.263
   X4.116
   X2.232        Y6.000
   X4.116        Y2.737
   X7.884
   X9.768        Y6.000
G0   Z4.0

G10 P2 L20 X500 Y1700
G55
G0   Z4.0
   X4.400        Y3.037
G1   Z-9.000    F150
   Y8.963
   X6.500
   Y3.037
   X8.600        Y4.577
   Y7.423
G0   Z4.0
   X9.768        Y6.000
G1   Z-9.000    F150
   X7.884        Y9.263
   X4.116
   X2.232        Y6.000
   X4.116        Y2.737
   X7.884
   X9.768        Y6.000
G0   Z4.0

G10 P2 L20 X600 Y1700
G55
G0   Z4.0
   X4.400        Y3.037
G1   Z-9.000    F150
   Y8.963
   X6.500
   Y3.037
   X8.600        Y4.577
   Y7.423
G0   Z4.0
   X9.768        Y6.000
G1   Z-9.000    F150
   X7.884        Y9.263
   X4.116
   X2.232        Y6.000
   X4.116        Y2.737
   X7.884
   X9.768        Y6.000
G0   Z4.0

G10 P2 L20 X700 Y1700
G55
G0   Z4.0
   X4.400        Y3.037
G1   Z-9.000    F150
   Y8.963
   X6.500
   Y3.037
   X8.600        Y4.577
   Y7.423
G0   Z4.0
   X9.768        Y6.000
G1   Z-9.000    F150
   X7.884        Y9.263
   X4.116
   X2.232        Y6.000
   X4.116        Y2.737
   X7.884
   X9.768        Y6.000
G0   Z4.0

G10 P2 L20 X800 Y1700
G55
G0   Z4.0
   X4.400        Y3.037
G1   Z-9.000    F150
   Y8.963
   X6.500
   Y3.037
   X8.600        Y4.577
   Y7.423
G0   Z4.0
   X9.768        Y6.000
G1   Z-9.000    F150
   X7.884        Y9.263
   X4.116
   X2.232        Y6.000
   X4.116        Y2.737
   X7.884
   X9.768        Y6.000
G0   Z4.0

G10 P2 L20 X900 Y1700
G55
G0   Z4.0
   X4.400        Y3.037
G1   Z-9.000    F150
   Y8.963
   X6.500
   Y3.037
   X8.600        Y4.577
   Y7.423
G0   Z4.0
   X9.768        Y6.000
G1   Z-9.000    F150
   X7.884        Y9.263
   X4.116
   X2.232        Y6.000
   X4.116        Y2.737
   X7.884
   X9.768        Y6.000
G0   Z4.0

G10 P2 L20 X1000 Y1700
G55
G0   Z4.0
   X4.400        Y3.037
G1   Z-9.000    F150
   Y8.963
   X6.500
   Y3.037
   X8.600        Y4.577
   Y7.423
G0   Z4.0
   X9.768        Y6.000
G1   Z-9.000    F150
   X7.884        Y9.263
   X4.116
   X2.232        Y6.000
   X4.116        Y2.737
   X7.884
   X9.768        Y6.000
G0   Z4.0

G10 P2 L20 X1100 Y1700
G55
G0   Z4.0
   X4.400        Y3.037
G1   Z-9.000    F150
   Y8.963
   X6.500
   Y3.037
   X8.600        Y4.577
   Y7.423
G0   Z4.0
   X9.768        Y6.000
G1   Z-9.000    F150
   X7.884        Y9.263
   X4.116
   X2.232        Y6.000
   X4.116        Y2.737
   X7.884
   X9.768        Y6.000
G0   Z4.0

G10 P2 L20 X1200 Y1700
G55
G0   Z4.0
   X4.400        Y3.037
G1   Z-9.000    F150
   Y8.963
   X6.500
   Y3.037
   X8.600        Y4.577
   Y7.423
G0   Z4.0
   X9.768        Y6.000
G1   Z-9.000    F150
   X7.884        Y9.263
   X4.116
   X2.232        Y6.000
   X4.116        Y2.737
   X7.884
   X9.768        Y6.000
G0   Z4.0

G10 P2 L20 X0 Y1800
G55
G0   Z4.0
   X4.400        Y3.037
G1   Z-9.000    F150
   Y8.963
   X6.500
   Y3.037
   X8.600        Y4.577
   Y7.423
G0   Z4.0
   X9.768        Y6.000
G1   Z-9.000    F150
   X7.884        Y9.263
   X4.116
   X2.232        Y6.000
   X4.116        Y2.737
   X7.884
   X9.768        Y6.000
G0   Z4.0

G10 P2 L20 X100 Y1800
G55
G0   Z4.0
   X4.400        Y3.037
G1   Z-9.000    F150
   Y8.963
   X6.500
   Y3.037
   X8.600        Y4.577
   Y7.423
G0   Z4.0
   X9.768        Y6.000
G1   Z-9.000    F150
   X7.884        Y9.263
   X4.116
   X2.232        Y6.000
   X4.116        Y2.737
   X7.884
   X9.768        Y6.000
G0   Z4.0

G10 P2 L20 X200 Y1800
G55
G0   Z4.0
   X4.400        Y3.037
G1   Z-9.000    F150
   Y8.963
   X6.500
   Y3.037
   X8.600        Y4.577
   Y7.423
G0   Z4.0
   X9.768        Y6.000
G1   Z-9.000    F150
   X7.884        Y9.263
   X4.116
   X2.232        Y6.000
   X4.116        Y2.737
   X7.884
   X9.768        Y6.000
G0   Z4.0

G10 P2 L20 X300 Y1800
G55
G0   Z4.0
   X4.400        Y3.037
G1   Z-9.000    F150
   Y8.963
   X6.500
   Y3.037
   X8.600        Y4.577
   Y7.423
G0   Z4.0
   X9.768        Y6.000
G1   Z-9.000    F150
   X7.884        Y9.263
   X4.116
   X2.232        Y6.000
   X4.116        Y2.737
   X7.884
   X9.768        Y6.000
G0   Z4.0

G10 P2 L20 X400 Y1800
G55
G0   Z4.0
   X4.400        Y3.037
G1   Z-9.000    F150
   Y8.963
   X6.500
   Y3.037
   X8.600        Y4.577
   Y7.423
G0   Z4.0
   X9.768        Y6.000
G1   Z-9.000    F150
   X7.884        Y9.263
   X4.116
   X2.232        Y6.000
   X4.116        Y2.737
   X7.884
   X9.768        Y6.000
G0   Z4.0

G10 P2 L20 X500 Y1800
G55
G0   Z4.0
   X4.400        Y3.037
G1   Z-9.000    F150
   Y8.963
   X6.500
   Y3.037
   X8.600        Y4.577
   Y7.423
G0   Z4.0
   X9.768        Y6.000
G1   Z-9.000    F150
   X7.884        Y9.263
   X4.116
   X2.232        Y6.000
   X4.116        Y2.737
   X7.884
   X9.768        Y6.000
G0   Z4.0

G10 P2 L20 X600 Y1800
G55
G0   Z4.0
   X4.400        Y3.037
G1   Z-9.000    F150
   Y8.963
   X6.500
   Y3.037
   X8.600        Y4.577
   Y7.423
G0   Z4.0
   X9.768        Y6.000
G1   Z-9.000    F150
   X7.884        Y9.263
   X4.116
   X2.232        Y6.000
   X4.116        Y2.737
   X7.884
   X9.768        Y6.000
G0   Z4.0

G10 P2 L20 X700 Y1800
G55
G0   Z4.0
   X4.400        Y3.037
G1   Z-9.000    F150
   Y8.963
   X6.500
   Y3.037
   X8.600        Y4.577
   Y7.423
G0   Z4.0
   X9.768        Y6.000
G1   Z-9.000    F150
   X7.884        Y9.263
   X4.116
   X2.232        Y6.000
   X4.116        Y2.737
   X7.884
   X9.768        Y6.000
G0   Z4.0

G10 P2 L20 X800 Y1800
G55
G0   Z4.0
   X4.400        Y3.037
G1   Z-9.000    F150
   Y8.963
   X6.500
   Y3.037
   X8.600        Y4.577
   Y7.423
G0   Z4.0
   X9.768        Y6.000
G1   Z-9.000    F150
   X7.884        Y9.263
   X4.116
   X2.232        Y6.000
   X4.116        Y2.737
   X7.884
   X9.768        Y6.000
G0   Z4.0

G10 P2 L20 X900 Y1800
G55
G0   Z4.0
   X4.400        Y3.037
G1   Z-9.000    F150
   Y8.963
   X6.500
   Y3.037
   X8.600        Y4.577
   Y7.423
G0   Z4.0
   X9.768        Y6.000
G1   Z-9.000    F150
   X7.884        Y9.263
   X4.116
   X2.232        Y6.000
   X4.116        Y2.737
   X7.884
   X9.768        Y6.000
G0   Z4.0

G10 P2 L20 X1000 Y1800
G55
G0   Z4.0
   X4.400        Y3.037
G1   Z-9.000    F150
   Y8.963
   X6.500
   Y3.037
   X8.600        Y4.577
   Y7.423
G0   Z4.0
   X9.768        Y6.000
G1   Z-9.000    F150
   X7.884        Y9.263
   X4.116
   X2.232        Y6.000
   X4.116        Y2.737
   X7.884
   X9.768        Y6.000
G0   Z4.0

G10 P2 L20 X1100 Y1800
G55
G0   Z4.0
   X4.400        Y3.037
G1   Z-9.000    F150
   Y8.963
   X6.500
   Y3.037
   X8.600        Y4.577
   Y7.423
G0   Z4.0
   X9.768        Y6.000
G1   Z-9.000    F150
   X7.884        Y9.263
   X4.116
   X2.232        Y6.000
   X4.116        Y2.737
   X7.884
   X9.768        Y6.000
G0   Z4.0

G10 P2 L20 X1200 Y1800
G55
G0   Z4.0
   X4.400        Y3.037
G1   Z-9.000    F150
   Y8.963
   X6.500
   Y3.037
   X8.600        Y4.577
   Y7.423
G0   Z4.0
   X9.768        Y6.000
G1   Z-9.000    F150
   X7.884        Y9.263
   X4.116
   X2.232        Y6.000
   X4.116        Y2.737
   X7.884
   X9.768        Y6.000
G0   Z4.0

G10 P2 L20 X0 Y1900
G55
G0   Z4.0
   X4.400        Y3.037
G1   Z-9.000    F150
   Y8.963
   X6.500
   Y3.037
   X8.600        Y4.577
   Y7.423
G0   Z4.0
   X9.768        Y6.000
G1   Z-9.000    F150
   X7.884        Y9.263
   X4.116
   X2.232        Y6.000
   X4.116        Y2.737
   X7.884
   X9.768        Y6.000
G0   Z4.0

G10 P2 L20 X100 Y1900
G55
G0   Z4.0
   X4.400        Y3.037
G1   Z-9.000    F150
   Y8.963
   X6.500
   Y3.037
   X8.600        Y4.577
   Y7.423
G0   Z4.0
   X9.768        Y6.000
G1   Z-9.000    F150
   X7.884        Y9.263
   X4.116
   X2.232        Y6.000
   X4.116        Y2.737
   X7.884
   X9.768        Y6.000
G0   Z4.0

G10 P2 L20 X200 Y1900
G55
G0   Z4.0
   X4.400        Y3.037
G1   Z-9.000    F150
   Y8.963
   X6.500
   Y3.037
   X8.600        Y4.577
   Y7.423
G0   Z4.0
   X9.768        Y6.000
G1   Z-9.000    F150
   X7.884        Y9.263
   X4.116
   X2.232        Y6.000
   X4.116        Y2.737
   X7.884
   X9.768        Y6.000
G0   Z4.0

G10 P2 L20 X300 Y1900
G55
G0   Z4.0
   X4.400        Y3.037
G1   Z-9.000    F150
   Y8.963
   X6.500
   Y3.037
   X8.600        Y4.577
   Y7.423
G0   Z4.0
   X9.768        Y6.000
G1   Z-9.000    F150
   X7.884        Y9.263
   X4.116
   X2.232        Y6.000
   X4.116        Y2.737
   X7.884
   X9.768        Y6.000
G0   Z4.0

G10 P2 L20 X400 Y1900
G55
G0   Z4.0
   X4.400        Y3.037
G1   Z-9.000    F150
   Y8.963
   X6.500
   Y3.037
   X8.600        Y4.577
   Y7.423
G0   Z4.0
   X9.768        Y6.000
G1   Z-9.000    F150
   X7.884        Y9.263
   X4.116
   X2.232        Y6.000
   X4.116        Y2.737
   X7.884
   X9.768        Y6.000
G0   Z4.0

G10 P2 L20 X500 Y1900
G55
G0   Z4.0
   X4.400        Y3.037
G1   Z-9.000    F150
   Y8.963
   X6.500
   Y3.037
   X8.600        Y4.577
   Y7.423
G0   Z4.0
   X9.768        Y6.000
G1   Z-9.000    F150
   X7.884        Y9.263
   X4.116
   X2.232        Y6.000
   X4.116        Y2.737
   X7.884
   X9.768        Y6.000
G0   Z4.0

G10 P2 L20 X600 Y1900
G55
G0   Z4.0
   X4.400        Y3.037
G1   Z-9.000    F150
   Y8.963
   X6.500
   Y3.037
   X8.600        Y4.577
   Y7.423
G0   Z4.0
   X9.768        Y6.000
G1   Z-9.000    F150
   X7.884        Y9.263
   X4.116
   X2.232        Y6.000
   X4.116        Y2.737
   X7.884
   X9.768        Y6.000
G0   Z4.0

G10 P2 L20 X700 Y1900
G55
G0   Z4.0
   X4.400        Y3.037
G1   Z-9.000    F150
   Y8.963
   X6.500
   Y3.037
   X8.600        Y4.577
   Y7.423
G0   Z4.0
   X9.768        Y6.000
G1   Z-9.000    F150
   X7.884        Y9.263
   X4.116
   X2.232        Y6.000
   X4.116        Y2.737
   X7.884
   X9.768        Y6.000
G0   Z4.0

G10 P2 L20 X800 Y1900
G55
G0   Z4.0
   X4.400        Y3.037
G1   Z-9.000    F150
   Y8.963
   X6.500
   Y3.037
   X8.600        Y4.577
   Y7.423
G0   Z4.0
   X9.768        Y6.000
G1   Z-9.000    F150
   X7.884        Y9.263
   X4.116
   X2.232        Y6.000
   X4.116        Y2.737
   X7.884
   X9.768        Y6.000
G0   Z4.0

G10 P2 L20 X900 Y1900
G55
G0   Z4.0
   X4.400        Y3.037
G1   Z-9.000    F150
   Y8.963
   X6.500
   Y3.037
   X8.600        Y4.577
   Y7.423
G0   Z4.0
   X9.768        Y6.000
G1   Z-9.000    F150
   X7.884        Y9.263
   X4.116
   X2.232        Y6.000
   X4.116        Y2.737
   X7.884
   X9.768        Y6.000
G0   Z4.0

G10 P2 L20 X1000 Y1900
G55
G0   Z4.0
   X4.400        Y3.037
G1   Z-9.000    F150
   Y8.963
   X6.500
   Y3.037
   X8.600        Y4.577
   Y7.423
G0   Z4.0
   X9.768        Y6.000
G1   Z-9.000    F150
   X7.884        Y9.263
   X4.116
   X2.232        Y6.000
   X4.116        Y2.737
   X7.884
   X9.768        Y6.000
G0   Z4.0

G10 P2 L20 X1100 Y1900
G55
G0   Z4.0
   X4.400        Y3.037
G1   Z-9.000    F150
   Y8.963
   X6.500
   Y3.037
   X8.600        Y4.577
   Y7.423
G0   Z4.0
   X9.768        Y6.000
G1   Z-9.000    F150
   X7.884        Y9.263
   X4.116
   X2.232        Y6.000
   X4.116        Y2.737
   X7.884
   X9.768        Y6.000
G0   Z4.0

G10 P2 L20 X1200 Y1900
G55
G0   Z4.0
   X4.400        Y3.037
G1   Z-9.000    F150
   Y8.963
   X6.500
   Y3.037
   X8.600        Y4.577
   Y7.423
G0   Z4.0
   X9.768        Y6.000
G1   Z-9.000    F150
   X7.884        Y9.263
   X4.116
   X2.232        Y6.000
   X4.116        Y2.737
   X7.884
   X9.768        Y6.000
G0   Z4.0

G10 P2 L20 X0 Y2000
G55
G0   Z4.0
   X4.400        Y3.037
G1   Z-9.000    F150
   Y8.963
   X6.500
   Y3.037
   X8.600        Y4.577
   Y7.423
G0   Z4.0
   X9.768        Y6.000
G1   Z-9.000    F150
   X7.884        Y9.263
   X4.116
   X2.232        Y6.000
   X4.116        Y2.737
   X7.884
   X9.768        Y6.000
G0   Z4.0

G10 P2 L20 X100 Y2000
G55
G0   Z4.0
   X4.400        Y3.037
G1   Z-9.000    F150
   Y8.963
   X6.500
   Y3.037
   X8.600        Y4.577
   Y7.423
G0   Z4.0
   X9.768        Y6.000
G1   Z-9.000    F150
   X7.884        Y9.263
   X4.116
   X2.232        Y6.000
   X4.116        Y2.737
   X7.884
   X9.768        Y6.000
G0   Z4.0

G10 P2 L20 X200 Y2000
G55
G0   Z4.0
   X4.400        Y3.037
G1   Z-9.000    F150
   Y8.963
   X6.500
   Y3.037
   X8.600        Y4.577
   Y7.423
G0   Z4.0
   X9.768        Y6.000
G1   Z-9.000    F150
   X7.884        Y9.263
   X4.116
   X2.232        Y6.000
   X4.116        Y2.737
   X7.884
   X9.768        Y6.000
G0   Z4.0

G10 P2 L20 X300 Y2000
G55
G0   Z4.0
   X4.400        Y3.037
G1   Z-9.000    F150
   Y8.963
   X6.500
   Y3.037
   X8.600        Y4.577
   Y7.423
G0   Z4.0
   X9.768        Y6.000
G1   Z-9.000    F150
   X7.884        Y9.263
   X4.116
   X2.232        Y6.000
   X4.116        Y2.737
   X7.884
   X9.768        Y6.000
G0   Z4.0

G10 P2 L20 X400 Y2000
G55
G0   Z4.0
   X4.400        Y3.037
G1   Z-9.000    F150
   Y8.963
   X6.500
   Y3.037
   X8.600        Y4.577
   Y7.423
G0   Z4.0
   X9.768        Y6.000
G1   Z-9.000    F150
   X7.884        Y9.263
   X4.116
   X2.232        Y6.000
   X4.116        Y2.737
   X7.884
   X9.768        Y6.000
G0   Z4.0

G10 P2 L20 X500 Y2000
G55
G0   Z4.0
   X4.400        Y3.037
G1   Z-9.000    F150
   Y8.963
   X6.500
   Y3.037
   X8.600        Y4.577
   Y7.423
G0   Z4.0
   X9.768        Y6.000
G1   Z-9.000    F150
   X7.884        Y9.263
   X4.116
   X2.232        Y6.000
   X4.116        Y2.737
   X7.884
   X9.768        Y6.000
G0   Z4.0

G10 P2 L20 X600 Y2000
G55
G0   Z4.0
   X4.400        Y3.037
G1   Z-9.000    F150
   Y8.963
   X6.500
   Y3.037
   X8.600        Y4.577
   Y7.423
G0   Z4.0
   X9.768        Y6.000
G1   Z-9.000    F150
   X7.884        Y9.263
   X4.116
   X2.232        Y6.000
   X4.116        Y2.737
   X7.884
   X9.768        Y6.000
G0   Z4.0

G10 P2 L20 X700 Y2000
G55
G0   Z4.0
   X4.400        Y3.037
G1   Z-9.000    F150
   Y8.963
   X6.500
   Y3.037
   X8.600        Y4.577
   Y7.423
G0   Z4.0
   X9.768        Y6.000
G1   Z-9.000    F150
   X7.884        Y9.263
   X4.116
   X2.232        Y6.000
   X4.116        Y2.737
   X7.884
   X9.768        Y6.000
G0   Z4.0

G10 P2 L20 X800 Y2000
G55
G0   Z4.0
   X4.400        Y3.037
G1   Z-9.000    F150
   Y8.963
   X6.500
   Y3.037
   X8.600        Y4.577
   Y7.423
G0   Z4.0
   X9.768        Y6.000
G1   Z-9.000    F150
   X7.884        Y9.263
   X4.116
   X2.232        Y6.000
   X4.116        Y2.737
   X7.884
   X9.768        Y6.000
G0   Z4.0

G10 P2 L20 X900 Y2000
G55
G0   Z4.0
   X4.400        Y3.037
G1   Z-9.000    F150
   Y8.963
   X6.500
   Y3.037
   X8.600        Y4.577
   Y7.423
G0   Z4.0
   X9.768        Y6.000
G1   Z-9.000    F150
   X7.884        Y9.263
   X4.116
   X2.232        Y6.000
   X4.116        Y2.737
   X7.884
   X9.768        Y6.000
G0   Z4.0

G10 P2 L20 X1000 Y2000
G55
G0   Z4.0
   X4.400        Y3.037
G1   Z-9.000    F150
   Y8.963
   X6.500
   Y3.037
   X8.600        Y4.577
   Y7.423
G0   Z4.0
   X9.768        Y6.000
G1   Z-9.000    F150
   X7.884        Y9.263
   X4.116
   X2.232        Y6.000
   X4.116        Y2.737
   X7.884
   X9.768        Y6.000
G0   Z4.0

G10 P2 L20 X1100 Y2000
G55
G0   Z4.0
   X4.400        Y3.037
G1   Z-9.000    F150
   Y8.963
   X6.500
   Y3.037
   X8.600        Y4.577
   Y7.423
G0   Z4.0
   X9.768        Y6.000
G1   Z-9.000    F150
   X7.884        Y9.263
   X4.116
   X2.232        Y6.000
   X4.116        Y2.737
   X7.884
   X9.768        Y6.000
G0   Z4.0

G10 P2 L20 X1200 Y2000
G55
G0   Z4.0
   X4.400        Y3.037
G1   Z-9.000    F150
   Y8.963
   X6.500
   Y3.037
   X8.600        Y4.577
   Y7.423
G0   Z4.0
   X9.768        Y6.000
G1   Z-9.000    F150
   X7.884        Y9.263
   X4.116
   X2.232        Y6.000
   X4.116        Y2.737
   X7.884
   X9.768        Y6.000
G0   Z4.0

G10 P2 L20 X0 Y2100
G55
G0   Z4.0
   X4.400        Y3.037
G1   Z-9.000    F150
   Y8.963
   X6.500
   Y3.037
   X8.600        Y4.577
   Y7.423
G0   Z4.0
   X9.768        Y6.000
G1   Z-9.000    F150
   X7.884        Y9.263
   X4.116
   X2.232        Y6.000
   X4.116        Y2.737
   X7.884
   X9.768        Y6.000
G0   Z4.0

G10 P2 L20 X100 Y2100
G55
G0   Z4.0
   X4.400        Y3.037
G1   Z-9.000    F150
   Y8.963
   X6.500
   Y3.037
   X8.600        Y4.577
   Y7.423
G0   Z4.0
   X9.768        Y6.000
G1   Z-9.000    F150
   X7.884        Y9.263
   X4.116
   X2.232        Y6.000
   X4.116        Y2.737
   X7.884
   X9.768        Y6.000
G0   Z4.0

G10 P2 L20 X200 Y2100
G55
G0   Z4.0
   X4.400        Y3.037
G1   Z-9.000    F150
   Y8.963
   X6.500
   Y3.037
   X8.600        Y4.577
   Y7.423
G0   Z4.0
   X9.768        Y6.000
G1   Z-9.000    F150
   X7.884        Y9.263
   X4.116
   X2.232        Y6.000
   X4.116        Y2.737
   X7.884
   X9.768        Y6.000
G0   Z4.0

G10 P2 L20 X300 Y2100
G55
G0   Z4.0
   X4.400        Y3.037
G1   Z-9.000    F150
   Y8.963
   X6.500
   Y3.037
   X8.600        Y4.577
   Y7.423
G0   Z4.0
   X9.768        Y6.000
G1   Z-9.000    F150
   X7.884        Y9.263
   X4.116
   X2.232        Y6.000
   X4.116        Y2.737
   X7.884
   X9.768        Y6.000
G0   Z4.0

G10 P2 L20 X400 Y2100
G55
G0   Z4.0
   X4.400        Y3.037
G1   Z-9.000    F150
   Y8.963
   X6.500
   Y3.037
   X8.600        Y4.577
   Y7.423
G0   Z4.0
   X9.768        Y6.000
G1   Z-9.000    F150
   X7.884        Y9.263
   X4.116
   X2.232        Y6.000
   X4.116        Y2.737
   X7.884
   X9.768        Y6.000
G0   Z4.0

G10 P2 L20 X500 Y2100
G55
G0   Z4.0
   X4.400        Y3.037
G1   Z-9.000    F150
   Y8.963
   X6.500
   Y3.037
   X8.600        Y4.577
   Y7.423
G0   Z4.0
   X9.768        Y6.000
G1   Z-9.000    F150
   X7.884        Y9.263
   X4.116
   X2.232        Y6.000
   X4.116        Y2.737
   X7.884
   X9.768        Y6.000
G0   Z4.0

G10 P2 L20 X600 Y2100
G55
G0   Z4.0
   X4.400        Y3.037
G1   Z-9.000    F150
   Y8.963
   X6.500
   Y3.037
   X8.600        Y4.577
   Y7.423
G0   Z4.0
   X9.768        Y6.000
G1   Z-9.000    F150
   X7.884        Y9.263
   X4.116
   X2.232        Y6.000
   X4.116        Y2.737
   X7.884
   X9.768        Y6.000
G0   Z4.0

G10 P2 L20 X700 Y2100
G55
G0   Z4.0
   X4.400        Y3.037
G1   Z-9.000    F150
   Y8.963
   X6.500
   Y3.037
   X8.600        Y4.577
   Y7.423
G0   Z4.0
   X9.768        Y6.000
G1   Z-9.000    F150
   X7.884        Y9.263
   X4.116
   X2.232        Y6.000
   X4.116        Y2.737
   X7.884
   X9.768        Y6.000
G0   Z4.0

G10 P2 L20 X800 Y2100
G55
G0   Z4.0
   X4.400        Y3.037
G1   Z-9.000    F150
   Y8.963
   X6.500
   Y3.037
   X8.600        Y4.577
   Y7.423
G0   Z4.0
   X9.768        Y6.000
G1   Z-9.000    F150
   X7.884        Y9.263
   X4.116
   X2.232        Y6.000
   X4.116        Y2.737
   X7.884
   X9.768        Y6.000
G0   Z4.0

G10 P2 L20 X900 Y2100
G55
G0   Z4.0
   X4.400        Y3.037
G1   Z-9.000    F150
   Y8.963
   X6.500
   Y3.037
   X8.600        Y4.577
   Y7.423
G0   Z4.0
   X9.768        Y6.000
G1   Z-9.000    F150
   X7.884        Y9.263
   X4.116
   X2.232        Y6.000
   X4.116        Y2.737
   X7.884
   X9.768        Y6.000
G0   Z4.0

G10 P2 L20 X1000 Y2100
G55
G0   Z4.0
   X4.400        Y3.037
G1   Z-9.000    F150
   Y8.963
   X6.500
   Y3.037
   X8.600        Y4.577
   Y7.423
G0   Z4.0
   X9.768        Y6.000
G1   Z-9.000    F150
   X7.884        Y9.263
   X4.116
   X2.232        Y6.000
   X4.116        Y2.737
   X7.884
   X9.768        Y6.000
G0   Z4.0

G10 P2 L20 X1100 Y2100
G55
G0   Z4.0
   X4.400        Y3.037
G1   Z-9.000    F150
   Y8.963
   X6.500
   Y3.037
   X8.600        Y4.577
   Y7.423
G0   Z4.0
   X9.768        Y6.000
G1   Z-9.000    F150
   X7.884        Y9.263
   X4.116
   X2.232        Y6.000
   X4.116        Y2.737
   X7.884
   X9.768        Y6.000
G0   Z4.0

G10 P2 L20 X1200 Y2100
G55
G0   Z4.0
   X4.400        Y3.037
G1   Z-9.000    F150
   Y8.963
   X6.500
   Y3.037
   X8.600        Y4.577
   Y7.423
G0   Z4.0
   X9.768        Y6.000
G1   Z-9.000    F150
   X7.884        Y9.263
   X4.116
   X2.232        Y6.000
   X4.116        Y2.737
   X7.884
   X9.768        Y6.000
G0   Z4.0

G10 P2 L20 X0 Y2200
G55
G0   Z4.0
   X4.400        Y3.037
G1   Z-9.000    F150
   Y8.963
   X6.500
   Y3.037
   X8.600        Y4.577
   Y7.423
G0   Z4.0
   X9.768        Y6.000
G1   Z-9.000    F150
   X7.884        Y9.263
   X4.116
   X2.232        Y6.000
   X4.116        Y2.737
   X7.884
   X9.768        Y6.000
G0   Z4.0

G10 P2 L20 X100 Y2200
G55
G0   Z4.0
   X4.400        Y3.037
G1   Z-9.000    F150
   Y8.963
   X6.500
   Y3.037
   X8.600        Y4.577
   Y7.423
G0   Z4.0
   X9.768        Y6.000
G1   Z-9.000    F150
   X7.884        Y9.263
   X4.116
   X2.232        Y6.000
   X4.116        Y2.737
   X7.884
   X9.768        Y6.000
G0   Z4.0

G10 P2 L20 X200 Y2200
G55
G0   Z4.0
   X4.400        Y3.037
G1   Z-9.000    F150
   Y8.963
   X6.500
   Y3.037
   X8.600        Y4.577
   Y7.423
G0   Z4.0
   X9.768        Y6.000
G1   Z-9.000    F150
   X7.884        Y9.263
   X4.116
   X2.232        Y6.000
   X4.116        Y2.737
   X7.884
   X9.768        Y6.000
G0   Z4.0

G10 P2 L20 X300 Y2200
G55
G0   Z4.0
   X4.400        Y3.037
G1   Z-9.000    F150
   Y8.963
   X6.500
   Y3.037
   X8.600        Y4.577
   Y7.423
G0   Z4.0
   X9.768        Y6.000
G1   Z-9.000    F150
   X7.884        Y9.263
   X4.116
   X2.232        Y6.000
   X4.116        Y2.737
   X7.884
   X9.768        Y6.000
G0   Z4.0

G10 P2 L20 X400 Y2200
G55
G0   Z4.0
   X4.400        Y3.037
G1   Z-9.000    F150
   Y8.963
   X6.500
   Y3.037
   X8.600        Y4.577
   Y7.423
G0   Z4.0
   X9.768        Y6.000
G1   Z-9.000    F150
   X7.884        Y9.263
   X4.116
   X2.232        Y6.000
   X4.116        Y2.737
   X7.884
   X9.768        Y6.000
G0   Z4.0

G10 P2 L20 X500 Y2200
G55
G0   Z4.0
   X4.400        Y3.037
G1   Z-9.000    F150
   Y8.963
   X6.500
   Y3.037
   X8.600        Y4.577
   Y7.423
G0   Z4.0
   X9.768        Y6.000
G1   Z-9.000    F150
   X7.884        Y9.263
   X4.116
   X2.232        Y6.000
   X4.116        Y2.737
   X7.884
   X9.768        Y6.000
G0   Z4.0

G10 P2 L20 X600 Y2200
G55
G0   Z4.0
   X4.400        Y3.037
G1   Z-9.000    F150
   Y8.963
   X6.500
   Y3.037
   X8.600        Y4.577
   Y7.423
G0   Z4.0
   X9.768        Y6.000
G1   Z-9.000    F150
   X7.884        Y9.263
   X4.116
   X2.232        Y6.000
   X4.116        Y2.737
   X7.884
   X9.768        Y6.000
G0   Z4.0

G10 P2 L20 X700 Y2200
G55
G0   Z4.0
   X4.400        Y3.037
G1   Z-9.000    F150
   Y8.963
   X6.500
   Y3.037
   X8.600        Y4.577
   Y7.423
G0   Z4.0
   X9.768        Y6.000
G1   Z-9.000    F150
   X7.884        Y9.263
   X4.116
   X2.232        Y6.000
   X4.116        Y2.737
   X7.884
   X9.768        Y6.000
G0   Z4.0

G10 P2 L20 X800 Y2200
G55
G0   Z4.0
   X4.400        Y3.037
G1   Z-9.000    F150
   Y8.963
   X6.500
   Y3.037
   X8.600        Y4.577
   Y7.423
G0   Z4.0
   X9.768        Y6.000
G1   Z-9.000    F150
   X7.884        Y9.263
   X4.116
   X2.232        Y6.000
   X4.116        Y2.737
   X7.884
   X9.768        Y6.000
G0   Z4.0

G10 P2 L20 X900 Y2200
G55
G0   Z4.0
   X4.400        Y3.037
G1   Z-9.000    F150
   Y8.963
   X6.500
   Y3.037
   X8.600        Y4.577
   Y7.423
G0   Z4.0
   X9.768        Y6.000
G1   Z-9.000    F150
   X7.884        Y9.263
   X4.116
   X2.232        Y6.000
   X4.116        Y2.737
   X7.884
   X9.768        Y6.000
G0   Z4.0

G10 P2 L20 X1000 Y2200
G55
G0   Z4.0
   X4.400        Y3.037
G1   Z-9.000    F150
   Y8.963
   X6.500
   Y3.037
   X8.600        Y4.577
   Y7.423
G0   Z4.0
   X9.768        Y6.000
G1   Z-9.000    F150
   X7.884        Y9.263
   X4.116
   X2.232        Y6.000
   X4.116        Y2.737
   X7.884
   X9.768        Y6.000
G0   Z4.0

G10 P2 L20 X1100 Y2200
G55
G0   Z4.0
   X4.400        Y3.037
G1   Z-9.000    F150
   Y8.963
   X6.500
   Y3.037
   X8.600        Y4.577
   Y7.423
G0   Z4.0
   X9.768        Y6.000
G1   Z-9.000    F150
   X7.884        Y9.263
   X4.116
   X2.232        Y6.000
   X4.116        Y2.737
   X7.884
   X9.768        Y6.000
G0   Z4.0

G10 P2 L20 X1200 Y2200
G55
G0   Z4.0
   X4.400        Y3.037
G1   Z-9.000    F150
   Y8.963
   X6.500
   Y3.037
   X8.600        Y4.577
   Y7.423
G0   Z4.0
   X9.768        Y6.000
G1   Z-9.000    F150
   X7.884        Y9.263
   X4.116
   X2.232        Y6.000
   X4.116        Y2.737
   X7.884
   X9.768        Y6.000
G0   Z4.0

G10 P2 L20 X0 Y2300
G55
G0   Z4.0
   X4.400        Y3.037
G1   Z-9.000    F150
   Y8.963
   X6.500
   Y3.037
   X8.600        Y4.577
   Y7.423
G0   Z4.0
   X9.768        Y6.000
G1   Z-9.000    F150
   X7.884        Y9.263
   X4.116
   X2.232        Y6.000
   X4.116        Y2.737
   X7.884
   X9.768        Y6.000
G0   Z4.0

G10 P2 L20 X100 Y2300
G55
G0   Z4.0
   X4.400        Y3.037
G1   Z-9.000    F150
   Y8.963
   X6.500
   Y3.037
   X8.600        Y4.577
   Y7.423
G0   Z4.0
   X9.768        Y6.000
G1   Z-9.000    F150
   X7.884        Y9.263
   X4.116
   X2.232        Y6.000
   X4.116        Y2.737
   X7.884
   X9.768        Y6.000
G0   Z4.0

G10 P2 L20 X200 Y2300
G55
G0   Z4.0
   X4.400        Y3.037
G1   Z-9.000    F150
   Y8.963
   X6.500
   Y3.037
   X8.600        Y4.577
   Y7.423
G0   Z4.0
   X9.768        Y6.000
G1   Z-9.000    F150
   X7.884        Y9.263
   X4.116
   X2.232        Y6.000
   X4.116        Y2.737
   X7.884
   X9.768        Y6.000
G0   Z4.0

G10 P2 L20 X300 Y2300
G55
G0   Z4.0
   X4.400        Y3.037
G1   Z-9.000    F150
   Y8.963
   X6.500
   Y3.037
   X8.600        Y4.577
   Y7.423
G0   Z4.0
   X9.768        Y6.000
G1   Z-9.000    F150
   X7.884        Y9.263
   X4.116
   X2.232        Y6.000
   X4.116        Y2.737
   X7.884
   X9.768        Y6.000
G0   Z4.0

G10 P2 L20 X400 Y2300
G55
G0   Z4.0
   X4.400        Y3.037
G1   Z-9.000    F150
   Y8.963
   X6.500
   Y3.037
   X8.600        Y4.577
   Y7.423
G0   Z4.0
   X9.768        Y6.000
G1   Z-9.000    F150
   X7.884        Y9.263
   X4.116
   X2.232        Y6.000
   X4.116        Y2.737
   X7.884
   X9.768        Y6.000
G0   Z4.0

G10 P2 L20 X500 Y2300
G55
G0   Z4.0
   X4.400        Y3.037
G1   Z-9.000    F150
   Y8.963
   X6.500
   Y3.037
   X8.600        Y4.577
   Y7.423
G0   Z4.0
   X9.768        Y6.000
G1   Z-9.000    F150
   X7.884        Y9.263
   X4.116
   X2.232        Y6.000
   X4.116        Y2.737
   X7.884
   X9.768        Y6.000
G0   Z4.0

G10 P2 L20 X600 Y2300
G55
G0   Z4.0
   X4.400        Y3.037
G1   Z-9.000    F150
