%
(Generated by SketchUcam {1.2a})
(File: NutHole.skp)
(Bit diameter: 3.0mm)
(Feed rate: 150.0mm/min)
(Material Thickness: 5.0mm)
(Material length: 558.8mm X width: 1066.8mm)
(Overhead Gantry: true)
(Retract feed rate NOT limited to plunge feed rate)
(Optimization is ON)
(www.PhlatBoyz.com)
G90 G21 G49
M3 S20000

G10 P1 L20 X0 Y0
G0   Z3.200
   X3.904        Y5.427
G1   Z-2.500     F150
   Y11.737
   X6.004        Y15.269
   Y1.894
   X8.104
   Y15.269
   X10.204
   Y1.894
   X12.304
   Y15.269
   X14.404       Y13.988
   Y3.175
   X16.504       Y6.812
   Y10.351
G0   Z3.200
   X17.872       Y8.582
G1   Z-2.500     F150
   X13.838       Y15.569
   X5.770
   X1.736        Y8.582
   X5.770        Y1.594
   X13.838
   X17.872       Y8.582
G0   Z3.200

G10 P1 L20 X100 Y0
G0   Z3.200
   X3.904        Y5.427
G1   Z-2.500     F150
   Y11.737
   X6.004        Y15.269
   Y1.894
   X8.104
   Y15.269
   X10.204
   Y1.894
   X12.304
   Y15.269
   X14.404       Y13.988
   Y3.175
   X16.504       Y6.812
   Y10.351
G0   Z3.200
   X17.872       Y8.582
G1   Z-2.500     F150
   X13.838       Y15.569
   X5.770
   X1.736        Y8.582
   X5.770        Y1.594
   X13.838
   X17.872       Y8.582
G0   Z3.200

G10 P1 L20 X200 Y0
G0   Z3.200
   X3.904        Y5.427
G1   Z-2.500     F150
   Y11.737
   X6.004        Y15.269
   Y1.894
   X8.104
   Y15.269
   X10.204
   Y1.894
   X12.304
   Y15.269
   X14.404       Y13.988
   Y3.175
   X16.504       Y6.812
   Y10.351
G0   Z3.200
   X17.872       Y8.582
G1   Z-2.500     F150
   X13.838       Y15.569
   X5.770
   X1.736        Y8.582
   X5.770        Y1.594
   X13.838
   X17.872       Y8.582
G0   Z3.200

G10 P1 L20 X300 Y0
G0   Z3.200
   X3.904        Y5.427
G1   Z-2.500     F150
   Y11.737
   X6.004        Y15.269
   Y1.894
   X8.104
   Y15.269
   X10.204
   Y1.894
   X12.304
   Y15.269
   X14.404       Y13.988
   Y3.175
   X16.504       Y6.812
   Y10.351
G0   Z3.200
   X17.872       Y8.582
G1   Z-2.500     F150
   X13.838       Y15.569
   X5.770
   X1.736        Y8.582
   X5.770        Y1.594
   X13.838
   X17.872       Y8.582
G0   Z3.200

G10 P1 L20 X400 Y0
G0   Z3.200
   X3.904        Y5.427
G1   Z-2.500     F150
   Y11.737
   X6.004        Y15.269
   Y1.894
   X8.104
   Y15.269
   X10.204
   Y1.894
   X12.304
   Y15.269
   X14.404       Y13.988
   Y3.175
   X16.504       Y6.812
   Y10.351
G0   Z3.200
   X17.872       Y8.582
G1   Z-2.500     F150
   X13.838       Y15.569
   X5.770
   X1.736        Y8.582
   X5.770        Y1.594
   X13.838
   X17.872       Y8.582
G0   Z3.200

G10 P1 L20 X500 Y0
G0   Z3.200
   X3.904        Y5.427
G1   Z-2.500     F150
   Y11.737
   X6.004        Y15.269
   Y1.894
   X8.104
   Y15.269
   X10.204
   Y1.894
   X12.304
   Y15.269
   X14.404       Y13.988
   Y3.175
   X16.504       Y6.812
   Y10.351
G0   Z3.200
   X17.872       Y8.582
G1   Z-2.500     F150
   X13.838       Y15.569
   X5.770
   X1.736        Y8.582
   X5.770        Y1.594
   X13.838
   X17.872       Y8.582
G0   Z3.200

G10 P1 L20 X600 Y0
G0   Z3.200
   X3.904        Y5.427
G1   Z-2.500     F150
   Y11.737
   X6.004        Y15.269
   Y1.894
   X8.104
   Y15.269
   X10.204
   Y1.894
   X12.304
   Y15.269
   X14.404       Y13.988
   Y3.175
   X16.504       Y6.812
   Y10.351
G0   Z3.200
   X17.872       Y8.582
G1   Z-2.500     F150
   X13.838       Y15.569
   X5.770
   X1.736        Y8.582
   X5.770        Y1.594
   X13.838
   X17.872       Y8.582
G0   Z3.200

G10 P1 L20 X700 Y0
G0   Z3.200
   X3.904        Y5.427
G1   Z-2.500     F150
   Y11.737
   X6.004        Y15.269
   Y1.894
   X8.104
   Y15.269
   X10.204
   Y1.894
   X12.304
   Y15.269
   X14.404       Y13.988
   Y3.175
   X16.504       Y6.812
   Y10.351
G0   Z3.200
   X17.872       Y8.582
G1   Z-2.500     F150
   X13.838       Y15.569
   X5.770
   X1.736        Y8.582
   X5.770        Y1.594
   X13.838
   X17.872       Y8.582
G0   Z3.200

G10 P1 L20 X800 Y0
G0   Z3.200
   X3.904        Y5.427
G1   Z-2.500     F150
   Y11.737
   X6.004        Y15.269
   Y1.894
   X8.104
   Y15.269
   X10.204
   Y1.894
   X12.304
   Y15.269
   X14.404       Y13.988
   Y3.175
   X16.504       Y6.812
   Y10.351
G0   Z3.200
   X17.872       Y8.582
G1   Z-2.500     F150
   X13.838       Y15.569
   X5.770
   X1.736        Y8.582
   X5.770        Y1.594
   X13.838
   X17.872       Y8.582
G0   Z3.200

G10 P1 L20 X900 Y0
G0   Z3.200
   X3.904        Y5.427
G1   Z-2.500     F150
   Y11.737
   X6.004        Y15.269
   Y1.894
   X8.104
   Y15.269
   X10.204
   Y1.894
   X12.304
   Y15.269
   X14.404       Y13.988
   Y3.175
   X16.504       Y6.812
   Y10.351
G0   Z3.200
   X17.872       Y8.582
G1   Z-2.500     F150
   X13.838       Y15.569
   X5.770
   X1.736        Y8.582
   X5.770        Y1.594
   X13.838
   X17.872       Y8.582
G0   Z3.200

G10 P1 L20 X1000 Y0
G0   Z3.200
   X3.904        Y5.427
G1   Z-2.500     F150
   Y11.737
   X6.004        Y15.269
   Y1.894
   X8.104
   Y15.269
   X10.204
   Y1.894
   X12.304
   Y15.269
   X14.404       Y13.988
   Y3.175
   X16.504       Y6.812
   Y10.351
G0   Z3.200
   X17.872       Y8.582
G1   Z-2.500     F150
   X13.838       Y15.569
   X5.770
   X1.736        Y8.582
   X5.770        Y1.594
   X13.838
   X17.872       Y8.582
G0   Z3.200

G10 P1 L20 X1100 Y0
G0   Z3.200
   X3.904        Y5.427
G1   Z-2.500     F150
   Y11.737
   X6.004        Y15.269
   Y1.894
   X8.104
   Y15.269
   X10.204
   Y1.894
   X12.304
   Y15.269
   X14.404       Y13.988
   Y3.175
   X16.504       Y6.812
   Y10.351
G0   Z3.200
   X17.872       Y8.582
G1   Z-2.500     F150
   X13.838       Y15.569
   X5.770
   X1.736        Y8.582
   X5.770        Y1.594
   X13.838
   X17.872       Y8.582
G0   Z3.200

G10 P1 L20 X1200 Y0
G0   Z3.200
   X3.904        Y5.427
G1   Z-2.500     F150
   Y11.737
   X6.004        Y15.269
   Y1.894
   X8.104
   Y15.269
   X10.204
   Y1.894
   X12.304
   Y15.269
   X14.404       Y13.988
   Y3.175
   X16.504       Y6.812
   Y10.351
G0   Z3.200
   X17.872       Y8.582
G1   Z-2.500     F150
   X13.838       Y15.569
   X5.770
   X1.736        Y8.582
   X5.770        Y1.594
   X13.838
   X17.872       Y8.582
G0   Z3.200

G10 P1 L20 X0 Y100
G0   Z3.200
   X3.904        Y5.427
G1   Z-2.500     F150
   Y11.737
   X6.004        Y15.269
   Y1.894
   X8.104
   Y15.269
   X10.204
   Y1.894
   X12.304
   Y15.269
   X14.404       Y13.988
   Y3.175
   X16.504       Y6.812
   Y10.351
G0   Z3.200
   X17.872       Y8.582
G1   Z-2.500     F150
   X13.838       Y15.569
   X5.770
   X1.736        Y8.582
   X5.770        Y1.594
   X13.838
   X17.872       Y8.582
G0   Z3.200

G10 P1 L20 X100 Y100
G0   Z3.200
   X3.904        Y5.427
G1   Z-2.500     F150
   Y11.737
   X6.004        Y15.269
   Y1.894
   X8.104
   Y15.269
   X10.204
   Y1.894
   X12.304
   Y15.269
   X14.404       Y13.988
   Y3.175
   X16.504       Y6.812
   Y10.351
G0   Z3.200
   X17.872       Y8.582
G1   Z-2.500     F150
   X13.838       Y15.569
   X5.770
   X1.736        Y8.582
   X5.770        Y1.594
   X13.838
   X17.872       Y8.582
G0   Z3.200

G10 P1 L20 X200 Y100
G0   Z3.200
   X3.904        Y5.427
G1   Z-2.500     F150
   Y11.737
   X6.004        Y15.269
   Y1.894
   X8.104
   Y15.269
   X10.204
   Y1.894
   X12.304
   Y15.269
   X14.404       Y13.988
   Y3.175
   X16.504       Y6.812
   Y10.351
G0   Z3.200
   X17.872       Y8.582
G1   Z-2.500     F150
   X13.838       Y15.569
   X5.770
   X1.736        Y8.582
   X5.770        Y1.594
   X13.838
   X17.872       Y8.582
G0   Z3.200

G10 P1 L20 X300 Y100
G0   Z3.200
   X3.904        Y5.427
G1   Z-2.500     F150
   Y11.737
   X6.004        Y15.269
   Y1.894
   X8.104
   Y15.269
   X10.204
   Y1.894
   X12.304
   Y15.269
   X14.404       Y13.988
   Y3.175
   X16.504       Y6.812
   Y10.351
G0   Z3.200
   X17.872       Y8.582
G1   Z-2.500     F150
   X13.838       Y15.569
   X5.770
   X1.736        Y8.582
   X5.770        Y1.594
   X13.838
   X17.872       Y8.582
G0   Z3.200

G10 P1 L20 X400 Y100
G0   Z3.200
   X3.904        Y5.427
G1   Z-2.500     F150
   Y11.737
   X6.004        Y15.269
   Y1.894
   X8.104
   Y15.269
   X10.204
   Y1.894
   X12.304
   Y15.269
   X14.404       Y13.988
   Y3.175
   X16.504       Y6.812
   Y10.351
G0   Z3.200
   X17.872       Y8.582
G1   Z-2.500     F150
   X13.838       Y15.569
   X5.770
   X1.736        Y8.582
   X5.770        Y1.594
   X13.838
   X17.872       Y8.582
G0   Z3.200

G10 P1 L20 X500 Y100
G0   Z3.200
   X3.904        Y5.427
G1   Z-2.500     F150
   Y11.737
   X6.004        Y15.269
   Y1.894
   X8.104
   Y15.269
   X10.204
   Y1.894
   X12.304
   Y15.269
   X14.404       Y13.988
   Y3.175
   X16.504       Y6.812
   Y10.351
G0   Z3.200
   X17.872       Y8.582
G1   Z-2.500     F150
   X13.838       Y15.569
   X5.770
   X1.736        Y8.582
   X5.770        Y1.594
   X13.838
   X17.872       Y8.582
G0   Z3.200

G10 P1 L20 X600 Y100
G0   Z3.200
   X3.904        Y5.427
G1   Z-2.500     F150
   Y11.737
   X6.004        Y15.269
   Y1.894
   X8.104
   Y15.269
   X10.204
   Y1.894
   X12.304
   Y15.269
   X14.404       Y13.988
   Y3.175
   X16.504       Y6.812
   Y10.351
G0   Z3.200
   X17.872       Y8.582
G1   Z-2.500     F150
   X13.838       Y15.569
   X5.770
   X1.736        Y8.582
   X5.770        Y1.594
   X13.838
   X17.872       Y8.582
G0   Z3.200

G10 P1 L20 X700 Y100
G0   Z3.200
   X3.904        Y5.427
G1   Z-2.500     F150
   Y11.737
   X6.004        Y15.269
   Y1.894
   X8.104
   Y15.269
   X10.204
   Y1.894
   X12.304
   Y15.269
   X14.404       Y13.988
   Y3.175
   X16.504       Y6.812
   Y10.351
G0   Z3.200
   X17.872       Y8.582
G1   Z-2.500     F150
   X13.838       Y15.569
   X5.770
   X1.736        Y8.582
   X5.770        Y1.594
   X13.838
   X17.872       Y8.582
G0   Z3.200

G10 P1 L20 X800 Y100
G0   Z3.200
   X3.904        Y5.427
G1   Z-2.500     F150
   Y11.737
   X6.004        Y15.269
   Y1.894
   X8.104
   Y15.269
   X10.204
   Y1.894
   X12.304
   Y15.269
   X14.404       Y13.988
   Y3.175
   X16.504       Y6.812
   Y10.351
G0   Z3.200
   X17.872       Y8.582
G1   Z-2.500     F150
   X13.838       Y15.569
   X5.770
   X1.736        Y8.582
   X5.770        Y1.594
   X13.838
   X17.872       Y8.582
G0   Z3.200

G10 P1 L20 X900 Y100
G0   Z3.200
   X3.904        Y5.427
G1   Z-2.500     F150
   Y11.737
   X6.004        Y15.269
   Y1.894
   X8.104
   Y15.269
   X10.204
   Y1.894
   X12.304
   Y15.269
   X14.404       Y13.988
   Y3.175
   X16.504       Y6.812
   Y10.351
G0   Z3.200
   X17.872       Y8.582
G1   Z-2.500     F150
   X13.838       Y15.569
   X5.770
   X1.736        Y8.582
   X5.770        Y1.594
   X13.838
   X17.872       Y8.582
G0   Z3.200

G10 P1 L20 X1000 Y100
G0   Z3.200
   X3.904        Y5.427
G1   Z-2.500     F150
   Y11.737
   X6.004        Y15.269
   Y1.894
   X8.104
   Y15.269
   X10.204
   Y1.894
   X12.304
   Y15.269
   X14.404       Y13.988
   Y3.175
   X16.504       Y6.812
   Y10.351
G0   Z3.200
   X17.872       Y8.582
G1   Z-2.500     F150
   X13.838       Y15.569
   X5.770
   X1.736        Y8.582
   X5.770        Y1.594
   X13.838
   X17.872       Y8.582
G0   Z3.200

G10 P1 L20 X1100 Y100
G0   Z3.200
   X3.904        Y5.427
G1   Z-2.500     F150
   Y11.737
   X6.004        Y15.269
   Y1.894
   X8.104
   Y15.269
   X10.204
   Y1.894
   X12.304
   Y15.269
   X14.404       Y13.988
   Y3.175
   X16.504       Y6.812
   Y10.351
G0   Z3.200
   X17.872       Y8.582
G1   Z-2.500     F150
   X13.838       Y15.569
   X5.770
   X1.736        Y8.582
   X5.770        Y1.594
   X13.838
   X17.872       Y8.582
G0   Z3.200

G10 P1 L20 X1200 Y100
G0   Z3.200
   X3.904        Y5.427
G1   Z-2.500     F150
   Y11.737
   X6.004        Y15.269
   Y1.894
   X8.104
   Y15.269
   X10.204
   Y1.894
   X12.304
   Y15.269
   X14.404       Y13.988
   Y3.175
   X16.504       Y6.812
   Y10.351
G0   Z3.200
   X17.872       Y8.582
G1   Z-2.500     F150
   X13.838       Y15.569
   X5.770
   X1.736        Y8.582
   X5.770        Y1.594
   X13.838
   X17.872       Y8.582
G0   Z3.200

G10 P1 L20 X0 Y200
G0   Z3.200
   X3.904        Y5.427
G1   Z-2.500     F150
   Y11.737
   X6.004        Y15.269
   Y1.894
   X8.104
   Y15.269
   X10.204
   Y1.894
   X12.304
   Y15.269
   X14.404       Y13.988
   Y3.175
   X16.504       Y6.812
   Y10.351
G0   Z3.200
   X17.872       Y8.582
G1   Z-2.500     F150
   X13.838       Y15.569
   X5.770
   X1.736        Y8.582
   X5.770        Y1.594
   X13.838
   X17.872       Y8.582
G0   Z3.200

G10 P1 L20 X100 Y200
G0   Z3.200
   X3.904        Y5.427
G1   Z-2.500     F150
   Y11.737
   X6.004        Y15.269
   Y1.894
   X8.104
   Y15.269
   X10.204
   Y1.894
   X12.304
   Y15.269
   X14.404       Y13.988
   Y3.175
   X16.504       Y6.812
   Y10.351
G0   Z3.200
   X17.872       Y8.582
G1   Z-2.500     F150
   X13.838       Y15.569
   X5.770
   X1.736        Y8.582
   X5.770        Y1.594
   X13.838
   X17.872       Y8.582
G0   Z3.200

G10 P1 L20 X200 Y200
G0   Z3.200
   X3.904        Y5.427
G1   Z-2.500     F150
   Y11.737
   X6.004        Y15.269
   Y1.894
   X8.104
   Y15.269
   X10.204
   Y1.894
   X12.304
   Y15.269
   X14.404       Y13.988
   Y3.175
   X16.504       Y6.812
   Y10.351
G0   Z3.200
   X17.872       Y8.582
G1   Z-2.500     F150
   X13.838       Y15.569
   X5.770
   X1.736        Y8.582
   X5.770        Y1.594
   X13.838
   X17.872       Y8.582
G0   Z3.200

G10 P1 L20 X300 Y200
G0   Z3.200
   X3.904        Y5.427
G1   Z-2.500     F150
   Y11.737
   X6.004        Y15.269
   Y1.894
   X8.104
   Y15.269
   X10.204
   Y1.894
   X12.304
   Y15.269
   X14.404       Y13.988
   Y3.175
   X16.504       Y6.812
   Y10.351
G0   Z3.200
   X17.872       Y8.582
G1   Z-2.500     F150
   X13.838       Y15.569
   X5.770
   X1.736        Y8.582
   X5.770        Y1.594
   X13.838
   X17.872       Y8.582
G0   Z3.200

G10 P1 L20 X400 Y200
G0   Z3.200
   X3.904        Y5.427
G1   Z-2.500     F150
   Y11.737
   X6.004        Y15.269
   Y1.894
   X8.104
   Y15.269
   X10.204
   Y1.894
   X12.304
   Y15.269
   X14.404       Y13.988
   Y3.175
   X16.504       Y6.812
   Y10.351
G0   Z3.200
   X17.872       Y8.582
G1   Z-2.500     F150
   X13.838       Y15.569
   X5.770
   X1.736        Y8.582
   X5.770        Y1.594
   X13.838
   X17.872       Y8.582
G0   Z3.200

G10 P1 L20 X500 Y200
G0   Z3.200
   X3.904        Y5.427
G1   Z-2.500     F150
   Y11.737
   X6.004        Y15.269
   Y1.894
   X8.104
   Y15.269
   X10.204
   Y1.894
   X12.304
   Y15.269
   X14.404       Y13.988
   Y3.175
   X16.504       Y6.812
   Y10.351
G0   Z3.200
   X17.872       Y8.582
G1   Z-2.500     F150
   X13.838       Y15.569
   X5.770
   X1.736        Y8.582
   X5.770        Y1.594
   X13.838
   X17.872       Y8.582
G0   Z3.200

G10 P1 L20 X600 Y200
G0   Z3.200
   X3.904        Y5.427
G1   Z-2.500     F150
   Y11.737
   X6.004        Y15.269
   Y1.894
   X8.104
   Y15.269
   X10.204
   Y1.894
   X12.304
   Y15.269
   X14.404       Y13.988
   Y3.175
   X16.504       Y6.812
   Y10.351
G0   Z3.200
   X17.872       Y8.582
G1   Z-2.500     F150
   X13.838       Y15.569
   X5.770
   X1.736        Y8.582
   X5.770        Y1.594
   X13.838
   X17.872       Y8.582
G0   Z3.200

G10 P1 L20 X700 Y200
G0   Z3.200
   X3.904        Y5.427
G1   Z-2.500     F150
   Y11.737
   X6.004        Y15.269
   Y1.894
   X8.104
   Y15.269
   X10.204
   Y1.894
   X12.304
   Y15.269
   X14.404       Y13.988
   Y3.175
   X16.504       Y6.812
   Y10.351
G0   Z3.200
   X17.872       Y8.582
G1   Z-2.500     F150
   X13.838       Y15.569
   X5.770
   X1.736        Y8.582
   X5.770        Y1.594
   X13.838
   X17.872       Y8.582
G0   Z3.200

G10 P1 L20 X800 Y200
G0   Z3.200
   X3.904        Y5.427
G1   Z-2.500     F150
   Y11.737
   X6.004        Y15.269
   Y1.894
   X8.104
   Y15.269
   X10.204
   Y1.894
   X12.304
   Y15.269
   X14.404       Y13.988
   Y3.175
   X16.504       Y6.812
   Y10.351
G0   Z3.200
   X17.872       Y8.582
G1   Z-2.500     F150
   X13.838       Y15.569
   X5.770
   X1.736        Y8.582
   X5.770        Y1.594
   X13.838
   X17.872       Y8.582
G0   Z3.200

G10 P1 L20 X900 Y200
G0   Z3.200
   X3.904        Y5.427
G1   Z-2.500     F150
   Y11.737
   X6.004        Y15.269
   Y1.894
   X8.104
   Y15.269
   X10.204
   Y1.894
   X12.304
   Y15.269
   X14.404       Y13.988
   Y3.175
   X16.504       Y6.812
   Y10.351
G0   Z3.200
   X17.872       Y8.582
G1   Z-2.500     F150
   X13.838       Y15.569
   X5.770
   X1.736        Y8.582
   X5.770        Y1.594
   X13.838
   X17.872       Y8.582
G0   Z3.200

G10 P1 L20 X1000 Y200
G0   Z3.200
   X3.904        Y5.427
G1   Z-2.500     F150
   Y11.737
   X6.004        Y15.269
   Y1.894
   X8.104
   Y15.269
   X10.204
   Y1.894
   X12.304
   Y15.269
   X14.404       Y13.988
   Y3.175
   X16.504       Y6.812
   Y10.351
G0   Z3.200
   X17.872       Y8.582
G1   Z-2.500     F150
   X13.838       Y15.569
   X5.770
   X1.736        Y8.582
   X5.770        Y1.594
   X13.838
   X17.872       Y8.582
G0   Z3.200

G10 P1 L20 X1100 Y200
G0   Z3.200
   X3.904        Y5.427
G1   Z-2.500     F150
   Y11.737
   X6.004        Y15.269
   Y1.894
   X8.104
   Y15.269
   X10.204
   Y1.894
   X12.304
   Y15.269
   X14.404       Y13.988
   Y3.175
   X16.504       Y6.812
   Y10.351
G0   Z3.200
   X17.872       Y8.582
G1   Z-2.500     F150
   X13.838       Y15.569
   X5.770
   X1.736        Y8.582
   X5.770        Y1.594
   X13.838
   X17.872       Y8.582
G0   Z3.200

G10 P1 L20 X1200 Y200
G0   Z3.200
   X3.904        Y5.427
G1   Z-2.500     F150
   Y11.737
   X6.004        Y15.269
   Y1.894
   X8.104
   Y15.269
   X10.204
   Y1.894
   X12.304
   Y15.269
   X14.404       Y13.988
   Y3.175
   X16.504       Y6.812
   Y10.351
G0   Z3.200
   X17.872       Y8.582
G1   Z-2.500     F150
   X13.838       Y15.569
   X5.770
   X1.736        Y8.582
   X5.770        Y1.594
   X13.838
   X17.872       Y8.582
G0   Z3.200

G10 P1 L20 X0 Y300
G0   Z3.200
   X3.904        Y5.427
G1   Z-2.500     F150
   Y11.737
   X6.004        Y15.269
   Y1.894
   X8.104
   Y15.269
   X10.204
   Y1.894
   X12.304
   Y15.269
   X14.404       Y13.988
   Y3.175
   X16.504       Y6.812
   Y10.351
G0   Z3.200
   X17.872       Y8.582
G1   Z-2.500     F150
   X13.838       Y15.569
   X5.770
   X1.736        Y8.582
   X5.770        Y1.594
   X13.838
   X17.872       Y8.582
G0   Z3.200

G10 P1 L20 X100 Y300
G0   Z3.200
   X3.904        Y5.427
G1   Z-2.500     F150
   Y11.737
   X6.004        Y15.269
   Y1.894
   X8.104
   Y15.269
   X10.204
   Y1.894
   X12.304
   Y15.269
   X14.404       Y13.988
   Y3.175
   X16.504       Y6.812
   Y10.351
G0   Z3.200
   X17.872       Y8.582
G1   Z-2.500     F150
   X13.838       Y15.569
   X5.770
   X1.736        Y8.582
   X5.770        Y1.594
   X13.838
   X17.872       Y8.582
G0   Z3.200

G10 P1 L20 X200 Y300
G0   Z3.200
   X3.904        Y5.427
G1   Z-2.500     F150
   Y11.737
   X6.004        Y15.269
   Y1.894
   X8.104
   Y15.269
   X10.204
   Y1.894
   X12.304
   Y15.269
   X14.404       Y13.988
   Y3.175
   X16.504       Y6.812
   Y10.351
G0   Z3.200
   X17.872       Y8.582
G1   Z-2.500     F150
   X13.838       Y15.569
   X5.770
   X1.736        Y8.582
   X5.770        Y1.594
   X13.838
   X17.872       Y8.582
G0   Z3.200

G10 P1 L20 X300 Y300
G0   Z3.200
   X3.904        Y5.427
G1   Z-2.500     F150
   Y11.737
   X6.004        Y15.269
   Y1.894
   X8.104
   Y15.269
   X10.204
   Y1.894
   X12.304
   Y15.269
   X14.404       Y13.988
   Y3.175
   X16.504       Y6.812
   Y10.351
G0   Z3.200
   X17.872       Y8.582
G1   Z-2.500     F150
   X13.838       Y15.569
   X5.770
   X1.736        Y8.582
   X5.770        Y1.594
   X13.838
   X17.872       Y8.582
G0   Z3.200

G10 P1 L20 X400 Y300
G0   Z3.200
   X3.904        Y5.427
G1   Z-2.500     F150
   Y11.737
   X6.004        Y15.269
   Y1.894
   X8.104
   Y15.269
   X10.204
   Y1.894
   X12.304
   Y15.269
   X14.404       Y13.988
   Y3.175
   X16.504       Y6.812
   Y10.351
G0   Z3.200
   X17.872       Y8.582
G1   Z-2.500     F150
   X13.838       Y15.569
   X5.770
   X1.736        Y8.582
   X5.770        Y1.594
   X13.838
   X17.872       Y8.582
G0   Z3.200

G10 P1 L20 X500 Y300
G0   Z3.200
   X3.904        Y5.427
G1   Z-2.500     F150
   Y11.737
   X6.004        Y15.269
   Y1.894
   X8.104
   Y15.269
   X10.204
   Y1.894
   X12.304
   Y15.269
   X14.404       Y13.988
   Y3.175
   X16.504       Y6.812
   Y10.351
G0   Z3.200
   X17.872       Y8.582
G1   Z-2.500     F150
   X13.838       Y15.569
   X5.770
   X1.736        Y8.582
   X5.770        Y1.594
   X13.838
   X17.872       Y8.582
G0   Z3.200

G10 P1 L20 X600 Y300
G0   Z3.200
   X3.904        Y5.427
G1   Z-2.500     F150
   Y11.737
   X6.004        Y15.269
   Y1.894
   X8.104
   Y15.269
   X10.204
   Y1.894
   X12.304
   Y15.269
   X14.404       Y13.988
   Y3.175
   X16.504       Y6.812
   Y10.351
G0   Z3.200
   X17.872       Y8.582
G1   Z-2.500     F150
   X13.838       Y15.569
   X5.770
   X1.736        Y8.582
   X5.770        Y1.594
   X13.838
   X17.872       Y8.582
G0   Z3.200

G10 P1 L20 X700 Y300
G0   Z3.200
   X3.904        Y5.427
G1   Z-2.500     F150
   Y11.737
   X6.004        Y15.269
   Y1.894
   X8.104
   Y15.269
   X10.204
   Y1.894
   X12.304
   Y15.269
   X14.404       Y13.988
   Y3.175
   X16.504       Y6.812
   Y10.351
G0   Z3.200
   X17.872       Y8.582
G1   Z-2.500     F150
   X13.838       Y15.569
   X5.770
   X1.736        Y8.582
   X5.770        Y1.594
   X13.838
   X17.872       Y8.582
G0   Z3.200

G10 P1 L20 X800 Y300
G0   Z3.200
   X3.904        Y5.427
G1   Z-2.500     F150
   Y11.737
   X6.004        Y15.269
   Y1.894
   X8.104
   Y15.269
   X10.204
   Y1.894
   X12.304
   Y15.269
   X14.404       Y13.988
   Y3.175
   X16.504       Y6.812
   Y10.351
G0   Z3.200
   X17.872       Y8.582
G1   Z-2.500     F150
   X13.838       Y15.569
   X5.770
   X1.736        Y8.582
   X5.770        Y1.594
   X13.838
   X17.872       Y8.582
G0   Z3.200

G10 P1 L20 X900 Y300
G0   Z3.200
   X3.904        Y5.427
G1   Z-2.500     F150
   Y11.737
   X6.004        Y15.269
   Y1.894
   X8.104
   Y15.269
   X10.204
   Y1.894
   X12.304
   Y15.269
   X14.404       Y13.988
   Y3.175
   X16.504       Y6.812
   Y10.351
G0   Z3.200
   X17.872       Y8.582
G1   Z-2.500     F150
   X13.838       Y15.569
   X5.770
   X1.736        Y8.582
   X5.770        Y1.594
   X13.838
   X17.872       Y8.582
G0   Z3.200

G10 P1 L20 X1000 Y300
G0   Z3.200
   X3.904        Y5.427
G1   Z-2.500     F150
   Y11.737
   X6.004        Y15.269
   Y1.894
   X8.104
   Y15.269
   X10.204
   Y1.894
   X12.304
   Y15.269
   X14.404       Y13.988
   Y3.175
   X16.504       Y6.812
   Y10.351
G0   Z3.200
   X17.872       Y8.582
G1   Z-2.500     F150
   X13.838       Y15.569
   X5.770
   X1.736        Y8.582
   X5.770        Y1.594
   X13.838
   X17.872       Y8.582
G0   Z3.200

G10 P1 L20 X1100 Y300
G0   Z3.200
   X3.904        Y5.427
G1   Z-2.500     F150
   Y11.737
   X6.004        Y15.269
   Y1.894
   X8.104
   Y15.269
   X10.204
   Y1.894
   X12.304
   Y15.269
   X14.404       Y13.988
   Y3.175
   X16.504       Y6.812
   Y10.351
G0   Z3.200
   X17.872       Y8.582
G1   Z-2.500     F150
   X13.838       Y15.569
   X5.770
   X1.736        Y8.582
   X5.770        Y1.594
   X13.838
   X17.872       Y8.582
G0   Z3.200

G10 P1 L20 X1200 Y300
G0   Z3.200
   X3.904        Y5.427
G1   Z-2.500     F150
   Y11.737
   X6.004        Y15.269
   Y1.894
   X8.104
   Y15.269
   X10.204
   Y1.894
   X12.304
   Y15.269
   X14.404       Y13.988
   Y3.175
   X16.504       Y6.812
   Y10.351
G0   Z3.200
   X17.872       Y8.582
G1   Z-2.500     F150
   X13.838       Y15.569
   X5.770
   X1.736        Y8.582
   X5.770        Y1.594
   X13.838
   X17.872       Y8.582
G0   Z3.200

G10 P1 L20 X0 Y400
G0   Z3.200
   X3.904        Y5.427
G1   Z-2.500     F150
   Y11.737
   X6.004        Y15.269
   Y1.894
   X8.104
   Y15.269
   X10.204
   Y1.894
   X12.304
   Y15.269
   X14.404       Y13.988
   Y3.175
   X16.504       Y6.812
   Y10.351
G0   Z3.200
   X17.872       Y8.582
G1   Z-2.500     F150
   X13.838       Y15.569
   X5.770
   X1.736        Y8.582
   X5.770        Y1.594
   X13.838
   X17.872       Y8.582
G0   Z3.200

G10 P1 L20 X100 Y400
G0   Z3.200
   X3.904        Y5.427
G1   Z-2.500     F150
   Y11.737
   X6.004        Y15.269
   Y1.894
   X8.104
   Y15.269
   X10.204
   Y1.894
   X12.304
   Y15.269
   X14.404       Y13.988
   Y3.175
   X16.504       Y6.812
   Y10.351
G0   Z3.200
   X17.872       Y8.582
G1   Z-2.500     F150
   X13.838       Y15.569
   X5.770
   X1.736        Y8.582
   X5.770        Y1.594
   X13.838
   X17.872       Y8.582
G0   Z3.200

G10 P1 L20 X200 Y400
G0   Z3.200
   X3.904        Y5.427
G1   Z-2.500     F150
   Y11.737
   X6.004        Y15.269
   Y1.894
   X8.104
   Y15.269
   X10.204
   Y1.894
   X12.304
   Y15.269
   X14.404       Y13.988
   Y3.175
   X16.504       Y6.812
   Y10.351
G0   Z3.200
   X17.872       Y8.582
G1   Z-2.500     F150
   X13.838       Y15.569
   X5.770
   X1.736        Y8.582
   X5.770        Y1.594
   X13.838
   X17.872       Y8.582
G0   Z3.200

G10 P1 L20 X300 Y400
G0   Z3.200
   X3.904        Y5.427
G1   Z-2.500     F150
   Y11.737
   X6.004        Y15.269
   Y1.894
   X8.104
   Y15.269
   X10.204
   Y1.894
   X12.304
   Y15.269
   X14.404       Y13.988
   Y3.175
   X16.504       Y6.812
   Y10.351
G0   Z3.200
   X17.872       Y8.582
G1   Z-2.500     F150
   X13.838       Y15.569
   X5.770
   X1.736        Y8.582
   X5.770        Y1.594
   X13.838
   X17.872       Y8.582
G0   Z3.200

G10 P1 L20 X400 Y400
G0   Z3.200
   X3.904        Y5.427
G1   Z-2.500     F150
   Y11.737
   X6.004        Y15.269
   Y1.894
   X8.104
   Y15.269
   X10.204
   Y1.894
   X12.304
   Y15.269
   X14.404       Y13.988
   Y3.175
   X16.504       Y6.812
   Y10.351
G0   Z3.200
   X17.872       Y8.582
G1   Z-2.500     F150
   X13.838       Y15.569
   X5.770
   X1.736        Y8.582
   X5.770        Y1.594
   X13.838
   X17.872       Y8.582
G0   Z3.200

G10 P1 L20 X500 Y400
G0   Z3.200
   X3.904        Y5.427
G1   Z-2.500     F150
   Y11.737
   X6.004        Y15.269
   Y1.894
   X8.104
   Y15.269
   X10.204
   Y1.894
   X12.304
   Y15.269
   X14.404       Y13.988
   Y3.175
   X16.504       Y6.812
   Y10.351
G0   Z3.200
   X17.872       Y8.582
G1   Z-2.500     F150
   X13.838       Y15.569
   X5.770
   X1.736        Y8.582
   X5.770        Y1.594
   X13.838
   X17.872       Y8.582
G0   Z3.200

G10 P1 L20 X600 Y400
G0   Z3.200
   X3.904        Y5.427
G1   Z-2.500     F150
   Y11.737
   X6.004        Y15.269
   Y1.894
   X8.104
   Y15.269
   X10.204
   Y1.894
   X12.304
   Y15.269
   X14.404       Y13.988
   Y3.175
   X16.504       Y6.812
   Y10.351
G0   Z3.200
   X17.872       Y8.582
G1   Z-2.500     F150
   X13.838       Y15.569
   X5.770
   X1.736        Y8.582
   X5.770        Y1.594
   X13.838
   X17.872       Y8.582
G0   Z3.200

G10 P1 L20 X700 Y400
G0   Z3.200
   X3.904        Y5.427
G1   Z-2.500     F150
   Y11.737
   X6.004        Y15.269
   Y1.894
   X8.104
   Y15.269
   X10.204
   Y1.894
   X12.304
   Y15.269
   X14.404       Y13.988
   Y3.175
   X16.504       Y6.812
   Y10.351
G0   Z3.200
   X17.872       Y8.582
G1   Z-2.500     F150
   X13.838       Y15.569
   X5.770
   X1.736        Y8.582
   X5.770        Y1.594
   X13.838
   X17.872       Y8.582
G0   Z3.200

G10 P1 L20 X800 Y400
G0   Z3.200
   X3.904        Y5.427
G1   Z-2.500     F150
   Y11.737
   X6.004        Y15.269
   Y1.894
   X8.104
   Y15.269
   X10.204
   Y1.894
   X12.304
   Y15.269
   X14.404       Y13.988
   Y3.175
   X16.504       Y6.812
   Y10.351
G0   Z3.200
   X17.872       Y8.582
G1   Z-2.500     F150
   X13.838       Y15.569
   X5.770
   X1.736        Y8.582
   X5.770        Y1.594
   X13.838
   X17.872       Y8.582
G0   Z3.200

G10 P1 L20 X900 Y400
G0   Z3.200
   X3.904        Y5.427
G1   Z-2.500     F150
   Y11.737
   X6.004        Y15.269
   Y1.894
   X8.104
   Y15.269
   X10.204
   Y1.894
   X12.304
   Y15.269
   X14.404       Y13.988
   Y3.175
   X16.504       Y6.812
   Y10.351
G0   Z3.200
   X17.872       Y8.582
G1   Z-2.500     F150
   X13.838       Y15.569
   X5.770
   X1.736        Y8.582
   X5.770        Y1.594
   X13.838
   X17.872       Y8.582
G0   Z3.200

G10 P1 L20 X1000 Y400
G0   Z3.200
   X3.904        Y5.427
G1   Z-2.500     F150
   Y11.737
   X6.004        Y15.269
   Y1.894
   X8.104
   Y15.269
   X10.204
   Y1.894
   X12.304
   Y15.269
   X14.404       Y13.988
   Y3.175
   X16.504       Y6.812
   Y10.351
G0   Z3.200
   X17.872       Y8.582
G1   Z-2.500     F150
   X13.838       Y15.569
   X5.770
   X1.736        Y8.582
   X5.770        Y1.594
   X13.838
   X17.872       Y8.582
G0   Z3.200

G10 P1 L20 X1100 Y400
G0   Z3.200
   X3.904        Y5.427
G1   Z-2.500     F150
   Y11.737
   X6.004        Y15.269
   Y1.894
   X8.104
   Y15.269
   X10.204
   Y1.894
   X12.304
   Y15.269
   X14.404       Y13.988
   Y3.175
   X16.504       Y6.812
   Y10.351
G0   Z3.200
   X17.872       Y8.582
G1   Z-2.500     F150
   X13.838       Y15.569
   X5.770
   X1.736        Y8.582
   X5.770        Y1.594
   X13.838
   X17.872       Y8.582
G0   Z3.200

G10 P1 L20 X1200 Y400
G0   Z3.200
   X3.904        Y5.427
G1   Z-2.500     F150
   Y11.737
   X6.004        Y15.269
   Y1.894
   X8.104
   Y15.269
   X10.204
   Y1.894
   X12.304
   Y15.269
   X14.404       Y13.988
   Y3.175
   X16.504       Y6.812
   Y10.351
G0   Z3.200
   X17.872       Y8.582
G1   Z-2.500     F150
   X13.838       Y15.569
   X5.770
   X1.736        Y8.582
   X5.770        Y1.594
   X13.838
   X17.872       Y8.582
G0   Z3.200

G10 P1 L20 X0 Y500
G0   Z3.200
   X3.904        Y5.427
G1   Z-2.500     F150
   Y11.737
   X6.004        Y15.269
   Y1.894
   X8.104
   Y15.269
   X10.204
   Y1.894
   X12.304
   Y15.269
   X14.404       Y13.988
   Y3.175
   X16.504       Y6.812
   Y10.351
G0   Z3.200
   X17.872       Y8.582
G1   Z-2.500     F150
   X13.838       Y15.569
   X5.770
   X1.736        Y8.582
   X5.770        Y1.594
   X13.838
   X17.872       Y8.582
G0   Z3.200

G10 P1 L20 X100 Y500
G0   Z3.200
   X3.904        Y5.427
G1   Z-2.500     F150
   Y11.737
   X6.004        Y15.269
   Y1.894
   X8.104
   Y15.269
   X10.204
   Y1.894
   X12.304
   Y15.269
   X14.404       Y13.988
   Y3.175
   X16.504       Y6.812
   Y10.351
G0   Z3.200
   X17.872       Y8.582
G1   Z-2.500     F150
   X13.838       Y15.569
   X5.770
   X1.736        Y8.582
   X5.770        Y1.594
   X13.838
   X17.872       Y8.582
G0   Z3.200

G10 P1 L20 X200 Y500
G0   Z3.200
   X3.904        Y5.427
G1   Z-2.500     F150
   Y11.737
   X6.004        Y15.269
   Y1.894
   X8.104
   Y15.269
   X10.204
   Y1.894
   X12.304
   Y15.269
   X14.404       Y13.988
   Y3.175
   X16.504       Y6.812
   Y10.351
G0   Z3.200
   X17.872       Y8.582
G1   Z-2.500     F150
   X13.838       Y15.569
   X5.770
   X1.736        Y8.582
   X5.770        Y1.594
   X13.838
   X17.872       Y8.582
G0   Z3.200

G10 P1 L20 X300 Y500
G0   Z3.200
   X3.904        Y5.427
G1   Z-2.500     F150
   Y11.737
   X6.004        Y15.269
   Y1.894
   X8.104
   Y15.269
   X10.204
   Y1.894
   X12.304
   Y15.269
   X14.404       Y13.988
   Y3.175
   X16.504       Y6.812
   Y10.351
G0   Z3.200
   X17.872       Y8.582
G1   Z-2.500     F150
   X13.838       Y15.569
   X5.770
   X1.736        Y8.582
   X5.770        Y1.594
   X13.838
   X17.872       Y8.582
G0   Z3.200

G10 P1 L20 X400 Y500
G0   Z3.200
   X3.904        Y5.427
G1   Z-2.500     F150
   Y11.737
   X6.004        Y15.269
   Y1.894
   X8.104
   Y15.269
   X10.204
   Y1.894
   X12.304
   Y15.269
   X14.404       Y13.988
   Y3.175
   X16.504       Y6.812
   Y10.351
G0   Z3.200
   X17.872       Y8.582
G1   Z-2.500     F150
   X13.838       Y15.569
   X5.770
   X1.736        Y8.582
   X5.770        Y1.594
   X13.838
   X17.872       Y8.582
G0   Z3.200

G10 P1 L20 X500 Y500
G0   Z3.200
   X3.904        Y5.427
G1   Z-2.500     F150
   Y11.737
   X6.004        Y15.269
   Y1.894
   X8.104
   Y15.269
   X10.204
   Y1.894
   X12.304
   Y15.269
   X14.404       Y13.988
   Y3.175
   X16.504       Y6.812
   Y10.351
G0   Z3.200
   X17.872       Y8.582
G1   Z-2.500     F150
   X13.838       Y15.569
   X5.770
   X1.736        Y8.582
   X5.770        Y1.594
   X13.838
   X17.872       Y8.582
G0   Z3.200

G10 P1 L20 X600 Y500
G0   Z3.200
   X3.904        Y5.427
G1   Z-2.500     F150
   Y11.737
   X6.004        Y15.269
   Y1.894
   X8.104
   Y15.269
   X10.204
   Y1.894
   X12.304
   Y15.269
   X14.404       Y13.988
   Y3.175
   X16.504       Y6.812
   Y10.351
G0   Z3.200
   X17.872       Y8.582
G1   Z-2.500     F150
   X13.838       Y15.569
   X5.770
   X1.736        Y8.582
   X5.770        Y1.594
   X13.838
   X17.872       Y8.582
G0   Z3.200

G10 P1 L20 X700 Y500
G0   Z3.200
   X3.904        Y5.427
G1   Z-2.500     F150
   Y11.737
   X6.004        Y15.269
   Y1.894
   X8.104
   Y15.269
   X10.204
   Y1.894
   X12.304
   Y15.269
   X14.404       Y13.988
   Y3.175
   X16.504       Y6.812
   Y10.351
G0   Z3.200
   X17.872       Y8.582
G1   Z-2.500     F150
   X13.838       Y15.569
   X5.770
   X1.736        Y8.582
   X5.770        Y1.594
   X13.838
   X17.872       Y8.582
G0   Z3.200

G10 P1 L20 X800 Y500
G0   Z3.200
   X3.904        Y5.427
G1   Z-2.500     F150
   Y11.737
   X6.004        Y15.269
   Y1.894
   X8.104
   Y15.269
   X10.204
   Y1.894
   X12.304
   Y15.269
   X14.404       Y13.988
   Y3.175
   X16.504       Y6.812
   Y10.351
G0   Z3.200
   X17.872       Y8.582
G1   Z-2.500     F150
   X13.838       Y15.569
   X5.770
   X1.736        Y8.582
   X5.770        Y1.594
   X13.838
   X17.872       Y8.582
G0   Z3.200

G10 P1 L20 X900 Y500
G0   Z3.200
   X3.904        Y5.427
G1   Z-2.500     F150
   Y11.737
   X6.004        Y15.269
   Y1.894
   X8.104
   Y15.269
   X10.204
   Y1.894
   X12.304
   Y15.269
   X14.404       Y13.988
   Y3.175
   X16.504       Y6.812
   Y10.351
G0   Z3.200
   X17.872       Y8.582
G1   Z-2.500     F150
   X13.838       Y15.569
   X5.770
   X1.736        Y8.582
   X5.770        Y1.594
   X13.838
   X17.872       Y8.582
G0   Z3.200

G10 P1 L20 X1000 Y500
G0   Z3.200
   X3.904        Y5.427
G1   Z-2.500     F150
   Y11.737
   X6.004        Y15.269
   Y1.894
   X8.104
   Y15.269
   X10.204
   Y1.894
   X12.304
   Y15.269
   X14.404       Y13.988
   Y3.175
   X16.504       Y6.812
   Y10.351
G0   Z3.200
   X17.872       Y8.582
G1   Z-2.500     F150
   X13.838       Y15.569
   X5.770
   X1.736        Y8.582
   X5.770        Y1.594
   X13.838
   X17.872       Y8.582
G0   Z3.200

G10 P1 L20 X1100 Y500
G0   Z3.200
   X3.904        Y5.427
G1   Z-2.500     F150
   Y11.737
   X6.004        Y15.269
   Y1.894
   X8.104
   Y15.269
   X10.204
   Y1.894
   X12.304
   Y15.269
   X14.404       Y13.988
   Y3.175
   X16.504       Y6.812
   Y10.351
G0   Z3.200
   X17.872       Y8.582
G1   Z-2.500     F150
   X13.838       Y15.569
   X5.770
   X1.736        Y8.582
   X5.770        Y1.594
   X13.838
   X17.872       Y8.582
G0   Z3.200

G10 P1 L20 X1200 Y500
G0   Z3.200
   X3.904        Y5.427
G1   Z-2.500     F150
   Y11.737
   X6.004        Y15.269
   Y1.894
   X8.104
   Y15.269
   X10.204
   Y1.894
   X12.304
   Y15.269
   X14.404       Y13.988
   Y3.175
   X16.504       Y6.812
   Y10.351
G0   Z3.200
   X17.872       Y8.582
G1   Z-2.500     F150
   X13.838       Y15.569
   X5.770
   X1.736        Y8.582
   X5.770        Y1.594
   X13.838
   X17.872       Y8.582
G0   Z3.200

G10 P1 L20 X0 Y600
G0   Z3.200
   X3.904        Y5.427
G1   Z-2.500     F150
   Y11.737
   X6.004        Y15.269
   Y1.894
   X8.104
   Y15.269
   X10.204
   Y1.894
   X12.304
   Y15.269
   X14.404       Y13.988
   Y3.175
   X16.504       Y6.812
   Y10.351
G0   Z3.200
   X17.872       Y8.582
G1   Z-2.500     F150
   X13.838       Y15.569
   X5.770
   X1.736        Y8.582
   X5.770        Y1.594
   X13.838
   X17.872       Y8.582
G0   Z3.200

G10 P1 L20 X100 Y600
G0   Z3.200
   X3.904        Y5.427
G1   Z-2.500     F150
   Y11.737
   X6.004        Y15.269
   Y1.894
   X8.104
   Y15.269
   X10.204
   Y1.894
   X12.304
   Y15.269
   X14.404       Y13.988
   Y3.175
   X16.504       Y6.812
   Y10.351
G0   Z3.200
   X17.872       Y8.582
G1   Z-2.500     F150
   X13.838       Y15.569
   X5.770
   X1.736        Y8.582
   X5.770        Y1.594
   X13.838
   X17.872       Y8.582
G0   Z3.200

G10 P1 L20 X200 Y600
G0   Z3.200
   X3.904        Y5.427
G1   Z-2.500     F150
   Y11.737
   X6.004        Y15.269
   Y1.894
   X8.104
   Y15.269
   X10.204
   Y1.894
   X12.304
   Y15.269
   X14.404       Y13.988
   Y3.175
   X16.504       Y6.812
   Y10.351
G0   Z3.200
   X17.872       Y8.582
G1   Z-2.500     F150
   X13.838       Y15.569
   X5.770
   X1.736        Y8.582
   X5.770        Y1.594
   X13.838
   X17.872       Y8.582
G0   Z3.200

G10 P1 L20 X300 Y600
G0   Z3.200
   X3.904        Y5.427
G1   Z-2.500     F150
   Y11.737
   X6.004        Y15.269
   Y1.894
   X8.104
   Y15.269
   X10.204
   Y1.894
   X12.304
   Y15.269
   X14.404       Y13.988
   Y3.175
   X16.504       Y6.812
   Y10.351
G0   Z3.200
   X17.872       Y8.582
G1   Z-2.500     F150
   X13.838       Y15.569
   X5.770
   X1.736        Y8.582
   X5.770        Y1.594
   X13.838
   X17.872       Y8.582
G0   Z3.200

G10 P1 L20 X400 Y600
G0   Z3.200
   X3.904        Y5.427
G1   Z-2.500     F150
   Y11.737
   X6.004        Y15.269
   Y1.894
   X8.104
   Y15.269
   X10.204
   Y1.894
   X12.304
   Y15.269
   X14.404       Y13.988
   Y3.175
   X16.504       Y6.812
   Y10.351
G0   Z3.200
   X17.872       Y8.582
G1   Z-2.500     F150
   X13.838       Y15.569
   X5.770
   X1.736        Y8.582
   X5.770        Y1.594
   X13.838
   X17.872       Y8.582
G0   Z3.200

G10 P1 L20 X500 Y600
G0   Z3.200
   X3.904        Y5.427
G1   Z-2.500     F150
   Y11.737
   X6.004        Y15.269
   Y1.894
   X8.104
   Y15.269
   X10.204
   Y1.894
   X12.304
   Y15.269
   X14.404       Y13.988
   Y3.175
   X16.504       Y6.812
   Y10.351
G0   Z3.200
   X17.872       Y8.582
G1   Z-2.500     F150
   X13.838       Y15.569
   X5.770
   X1.736        Y8.582
   X5.770        Y1.594
   X13.838
   X17.872       Y8.582
G0   Z3.200

G10 P1 L20 X600 Y600
G0   Z3.200
   X3.904        Y5.427
G1   Z-2.500     F150
   Y11.737
   X6.004        Y15.269
   Y1.894
   X8.104
   Y15.269
   X10.204
   Y1.894
   X12.304
   Y15.269
   X14.404       Y13.988
   Y3.175
   X16.504       Y6.812
   Y10.351
G0   Z3.200
   X17.872       Y8.582
G1   Z-2.500     F150
   X13.838       Y15.569
   X5.770
   X1.736        Y8.582
   X5.770        Y1.594
   X13.838
   X17.872       Y8.582
G0   Z3.200

G10 P1 L20 X700 Y600
G0   Z3.200
   X3.904        Y5.427
G1   Z-2.500     F150
   Y11.737
   X6.004        Y15.269
   Y1.894
   X8.104
   Y15.269
   X10.204
   Y1.894
   X12.304
   Y15.269
   X14.404       Y13.988
   Y3.175
   X16.504       Y6.812
   Y10.351
G0   Z3.200
   X17.872       Y8.582
G1   Z-2.500     F150
   X13.838       Y15.569
   X5.770
   X1.736        Y8.582
   X5.770        Y1.594
   X13.838
   X17.872       Y8.582
G0   Z3.200

G10 P1 L20 X800 Y600
G0   Z3.200
   X3.904        Y5.427
G1   Z-2.500     F150
   Y11.737
   X6.004        Y15.269
   Y1.894
   X8.104
   Y15.269
   X10.204
   Y1.894
   X12.304
   Y15.269
   X14.404       Y13.988
   Y3.175
   X16.504       Y6.812
   Y10.351
G0   Z3.200
   X17.872       Y8.582
G1   Z-2.500     F150
   X13.838       Y15.569
   X5.770
   X1.736        Y8.582
   X5.770        Y1.594
   X13.838
   X17.872       Y8.582
G0   Z3.200

G10 P1 L20 X900 Y600
G0   Z3.200
   X3.904        Y5.427
G1   Z-2.500     F150
   Y11.737
   X6.004        Y15.269
   Y1.894
   X8.104
   Y15.269
   X10.204
   Y1.894
   X12.304
   Y15.269
   X14.404       Y13.988
   Y3.175
   X16.504       Y6.812
   Y10.351
G0   Z3.200
   X17.872       Y8.582
G1   Z-2.500     F150
   X13.838       Y15.569
   X5.770
   X1.736        Y8.582
   X5.770        Y1.594
   X13.838
   X17.872       Y8.582
G0   Z3.200

G10 P1 L20 X1000 Y600
G0   Z3.200
   X3.904        Y5.427
G1   Z-2.500     F150
   Y11.737
   X6.004        Y15.269
   Y1.894
   X8.104
   Y15.269
   X10.204
   Y1.894
   X12.304
   Y15.269
   X14.404       Y13.988
   Y3.175
   X16.504       Y6.812
   Y10.351
G0   Z3.200
   X17.872       Y8.582
G1   Z-2.500     F150
   X13.838       Y15.569
   X5.770
   X1.736        Y8.582
   X5.770        Y1.594
   X13.838
   X17.872       Y8.582
G0   Z3.200

G10 P1 L20 X1100 Y600
G0   Z3.200
   X3.904        Y5.427
G1   Z-2.500     F150
   Y11.737
   X6.004        Y15.269
   Y1.894
   X8.104
   Y15.269
   X10.204
   Y1.894
   X12.304
   Y15.269
   X14.404       Y13.988
   Y3.175
   X16.504       Y6.812
   Y10.351
G0   Z3.200
   X17.872       Y8.582
G1   Z-2.500     F150
   X13.838       Y15.569
   X5.770
   X1.736        Y8.582
   X5.770        Y1.594
   X13.838
   X17.872       Y8.582
G0   Z3.200

G10 P1 L20 X1200 Y600
G0   Z3.200
   X3.904        Y5.427
G1   Z-2.500     F150
   Y11.737
   X6.004        Y15.269
   Y1.894
   X8.104
   Y15.269
   X10.204
   Y1.894
   X12.304
   Y15.269
   X14.404       Y13.988
   Y3.175
   X16.504       Y6.812
   Y10.351
G0   Z3.200
   X17.872       Y8.582
G1   Z-2.500     F150
   X13.838       Y15.569
   X5.770
   X1.736        Y8.582
   X5.770        Y1.594
   X13.838
   X17.872       Y8.582
G0   Z3.200

G10 P1 L20 X0 Y700
G0   Z3.200
   X3.904        Y5.427
G1   Z-2.500     F150
   Y11.737
   X6.004        Y15.269
   Y1.894
   X8.104
   Y15.269
   X10.204
   Y1.894
   X12.304
   Y15.269
   X14.404       Y13.988
   Y3.175
   X16.504       Y6.812
   Y10.351
G0   Z3.200
   X17.872       Y8.582
G1   Z-2.500     F150
   X13.838       Y15.569
   X5.770
   X1.736        Y8.582
   X5.770        Y1.594
   X13.838
   X17.872       Y8.582
G0   Z3.200

G10 P1 L20 X100 Y700
G0   Z3.200
   X3.904        Y5.427
G1   Z-2.500     F150
   Y11.737
   X6.004        Y15.269
   Y1.894
   X8.104
   Y15.269
   X10.204
   Y1.894
   X12.304
   Y15.269
   X14.404       Y13.988
   Y3.175
   X16.504       Y6.812
   Y10.351
G0   Z3.200
   X17.872       Y8.582
G1   Z-2.500     F150
   X13.838       Y15.569
   X5.770
   X1.736        Y8.582
   X5.770        Y1.594
   X13.838
   X17.872       Y8.582
G0   Z3.200

G10 P1 L20 X200 Y700
G0   Z3.200
   X3.904        Y5.427
G1   Z-2.500     F150
   Y11.737
   X6.004        Y15.269
   Y1.894
   X8.104
   Y15.269
   X10.204
   Y1.894
   X12.304
   Y15.269
   X14.404       Y13.988
   Y3.175
   X16.504       Y6.812
   Y10.351
G0   Z3.200
   X17.872       Y8.582
G1   Z-2.500     F150
   X13.838       Y15.569
   X5.770
   X1.736        Y8.582
   X5.770        Y1.594
   X13.838
   X17.872       Y8.582
G0   Z3.200

G10 P1 L20 X300 Y700
G0   Z3.200
   X3.904        Y5.427
G1   Z-2.500     F150
   Y11.737
   X6.004        Y15.269
   Y1.894
   X8.104
   Y15.269
   X10.204
   Y1.894
   X12.304
   Y15.269
   X14.404       Y13.988
   Y3.175
   X16.504       Y6.812
   Y10.351
G0   Z3.200
   X17.872       Y8.582
G1   Z-2.500     F150
   X13.838       Y15.569
   X5.770
   X1.736        Y8.582
   X5.770        Y1.594
   X13.838
   X17.872       Y8.582
G0   Z3.200

G10 P1 L20 X400 Y700
G0   Z3.200
   X3.904        Y5.427
G1   Z-2.500     F150
   Y11.737
   X6.004        Y15.269
   Y1.894
   X8.104
   Y15.269
   X10.204
   Y1.894
   X12.304
   Y15.269
   X14.404       Y13.988
   Y3.175
   X16.504       Y6.812
   Y10.351
G0   Z3.200
   X17.872       Y8.582
G1   Z-2.500     F150
   X13.838       Y15.569
   X5.770
   X1.736        Y8.582
   X5.770        Y1.594
   X13.838
   X17.872       Y8.582
G0   Z3.200

G10 P1 L20 X500 Y700
G0   Z3.200
   X3.904        Y5.427
G1   Z-2.500     F150
   Y11.737
   X6.004        Y15.269
   Y1.894
   X8.104
   Y15.269
   X10.204
   Y1.894
   X12.304
   Y15.269
   X14.404       Y13.988
   Y3.175
   X16.504       Y6.812
   Y10.351
G0   Z3.200
   X17.872       Y8.582
G1   Z-2.500     F150
   X13.838       Y15.569
   X5.770
   X1.736        Y8.582
   X5.770        Y1.594
   X13.838
   X17.872       Y8.582
G0   Z3.200

G10 P1 L20 X600 Y700
G0   Z3.200
   X3.904        Y5.427
G1   Z-2.500     F150
   Y11.737
   X6.004        Y15.269
   Y1.894
   X8.104
   Y15.269
   X10.204
   Y1.894
   X12.304
   Y15.269
   X14.404       Y13.988
   Y3.175
   X16.504       Y6.812
   Y10.351
G0   Z3.200
   X17.872       Y8.582
G1   Z-2.500     F150
   X13.838       Y15.569
   X5.770
   X1.736        Y8.582
   X5.770        Y1.594
   X13.838
   X17.872       Y8.582
G0   Z3.200

G10 P1 L20 X700 Y700
G0   Z3.200
   X3.904        Y5.427
G1   Z-2.500     F150
   Y11.737
   X6.004        Y15.269
   Y1.894
   X8.104
   Y15.269
   X10.204
   Y1.894
   X12.304
   Y15.269
   X14.404       Y13.988
   Y3.175
   X16.504       Y6.812
   Y10.351
G0   Z3.200
   X17.872       Y8.582
G1   Z-2.500     F150
   X13.838       Y15.569
   X5.770
   X1.736        Y8.582
   X5.770        Y1.594
   X13.838
   X17.872       Y8.582
G0   Z3.200

G10 P1 L20 X800 Y700
G0   Z3.200
   X3.904        Y5.427
G1   Z-2.500     F150
   Y11.737
   X6.004        Y15.269
   Y1.894
   X8.104
   Y15.269
   X10.204
   Y1.894
   X12.304
   Y15.269
   X14.404       Y13.988
   Y3.175
   X16.504       Y6.812
   Y10.351
G0   Z3.200
   X17.872       Y8.582
G1   Z-2.500     F150
   X13.838       Y15.569
   X5.770
   X1.736        Y8.582
   X5.770        Y1.594
   X13.838
   X17.872       Y8.582
G0   Z3.200

G10 P1 L20 X900 Y700
G0   Z3.200
   X3.904        Y5.427
G1   Z-2.500     F150
   Y11.737
   X6.004        Y15.269
   Y1.894
   X8.104
   Y15.269
   X10.204
   Y1.894
   X12.304
   Y15.269
   X14.404       Y13.988
   Y3.175
   X16.504       Y6.812
   Y10.351
G0   Z3.200
   X17.872       Y8.582
G1   Z-2.500     F150
   X13.838       Y15.569
   X5.770
   X1.736        Y8.582
   X5.770        Y1.594
   X13.838
   X17.872       Y8.582
G0   Z3.200

G10 P1 L20 X1000 Y700
G0   Z3.200
   X3.904        Y5.427
G1   Z-2.500     F150
   Y11.737
   X6.004        Y15.269
   Y1.894
   X8.104
   Y15.269
   X10.204
   Y1.894
   X12.304
   Y15.269
   X14.404       Y13.988
   Y3.175
   X16.504       Y6.812
   Y10.351
G0   Z3.200
   X17.872       Y8.582
G1   Z-2.500     F150
   X13.838       Y15.569
   X5.770
   X1.736        Y8.582
   X5.770        Y1.594
   X13.838
   X17.872       Y8.582
G0   Z3.200

G10 P1 L20 X1100 Y700
G0   Z3.200
   X3.904        Y5.427
G1   Z-2.500     F150
   Y11.737
   X6.004        Y15.269
   Y1.894
   X8.104
   Y15.269
   X10.204
   Y1.894
   X12.304
   Y15.269
   X14.404       Y13.988
   Y3.175
   X16.504       Y6.812
   Y10.351
G0   Z3.200
   X17.872       Y8.582
G1   Z-2.500     F150
   X13.838       Y15.569
   X5.770
   X1.736        Y8.582
   X5.770        Y1.594
   X13.838
   X17.872       Y8.582
G0   Z3.200

G10 P1 L20 X1200 Y700
G0   Z3.200
   X3.904        Y5.427
G1   Z-2.500     F150
   Y11.737
   X6.004        Y15.269
   Y1.894
   X8.104
   Y15.269
   X10.204
   Y1.894
   X12.304
   Y15.269
   X14.404       Y13.988
   Y3.175
   X16.504       Y6.812
   Y10.351
G0   Z3.200
   X17.872       Y8.582
G1   Z-2.500     F150
   X13.838       Y15.569
   X5.770
   X1.736        Y8.582
   X5.770        Y1.594
   X13.838
   X17.872       Y8.582
G0   Z3.200

G10 P1 L20 X0 Y800
G0   Z3.200
   X3.904        Y5.427
G1   Z-2.500     F150
   Y11.737
   X6.004        Y15.269
   Y1.894
   X8.104
   Y15.269
   X10.204
   Y1.894
   X12.304
   Y15.269
   X14.404       Y13.988
   Y3.175
   X16.504       Y6.812
   Y10.351
G0   Z3.200
   X17.872       Y8.582
G1   Z-2.500     F150
   X13.838       Y15.569
   X5.770
   X1.736        Y8.582
   X5.770        Y1.594
   X13.838
   X17.872       Y8.582
G0   Z3.200

G10 P1 L20 X100 Y800
G0   Z3.200
   X3.904        Y5.427
G1   Z-2.500     F150
   Y11.737
   X6.004        Y15.269
   Y1.894
   X8.104
   Y15.269
   X10.204
   Y1.894
   X12.304
   Y15.269
   X14.404       Y13.988
   Y3.175
   X16.504       Y6.812
   Y10.351
G0   Z3.200
   X17.872       Y8.582
G1   Z-2.500     F150
   X13.838       Y15.569
   X5.770
   X1.736        Y8.582
   X5.770        Y1.594
   X13.838
   X17.872       Y8.582
G0   Z3.200

G10 P1 L20 X200 Y800
G0   Z3.200
   X3.904        Y5.427
G1   Z-2.500     F150
   Y11.737
   X6.004        Y15.269
   Y1.894
   X8.104
   Y15.269
   X10.204
   Y1.894
   X12.304
   Y15.269
   X14.404       Y13.988
   Y3.175
   X16.504       Y6.812
   Y10.351
G0   Z3.200
   X17.872       Y8.582
G1   Z-2.500     F150
   X13.838       Y15.569
   X5.770
   X1.736        Y8.582
   X5.770        Y1.594
   X13.838
   X17.872       Y8.582
G0   Z3.200

G10 P1 L20 X300 Y800
G0   Z3.200
   X3.904        Y5.427
G1   Z-2.500     F150
   Y11.737
   X6.004        Y15.269
   Y1.894
   X8.104
   Y15.269
   X10.204
   Y1.894
   X12.304
   Y15.269
   X14.404       Y13.988
   Y3.175
   X16.504       Y6.812
   Y10.351
G0   Z3.200
   X17.872       Y8.582
G1   Z-2.500     F150
   X13.838       Y15.569
   X5.770
   X1.736        Y8.582
   X5.770        Y1.594
   X13.838
   X17.872       Y8.582
G0   Z3.200

G10 P1 L20 X400 Y800
G0   Z3.200
   X3.904        Y5.427
G1   Z-2.500     F150
   Y11.737
   X6.004        Y15.269
   Y1.894
   X8.104
   Y15.269
   X10.204
   Y1.894
   X12.304
   Y15.269
   X14.404       Y13.988
   Y3.175
   X16.504       Y6.812
   Y10.351
G0   Z3.200
   X17.872       Y8.582
G1   Z-2.500     F150
   X13.838       Y15.569
   X5.770
   X1.736        Y8.582
   X5.770        Y1.594
   X13.838
   X17.872       Y8.582
G0   Z3.200

G10 P1 L20 X500 Y800
G0   Z3.200
   X3.904        Y5.427
G1   Z-2.500     F150
   Y11.737
   X6.004        Y15.269
   Y1.894
   X8.104
   Y15.269
   X10.204
   Y1.894
   X12.304
   Y15.269
   X14.404       Y13.988
   Y3.175
   X16.504       Y6.812
   Y10.351
G0   Z3.200
   X17.872       Y8.582
G1   Z-2.500     F150
   X13.838       Y15.569
   X5.770
   X1.736        Y8.582
   X5.770        Y1.594
   X13.838
   X17.872       Y8.582
G0   Z3.200

G10 P1 L20 X600 Y800
G0   Z3.200
   X3.904        Y5.427
G1   Z-2.500     F150
   Y11.737
   X6.004        Y15.269
   Y1.894
   X8.104
   Y15.269
   X10.204
   Y1.894
   X12.304
   Y15.269
   X14.404       Y13.988
   Y3.175
   X16.504       Y6.812
   Y10.351
G0   Z3.200
   X17.872       Y8.582
G1   Z-2.500     F150
   X13.838       Y15.569
   X5.770
   X1.736        Y8.582
   X5.770        Y1.594
   X13.838
   X17.872       Y8.582
G0   Z3.200

G10 P1 L20 X700 Y800
G0   Z3.200
   X3.904        Y5.427
G1   Z-2.500     F150
   Y11.737
   X6.004        Y15.269
   Y1.894
   X8.104
   Y15.269
   X10.204
   Y1.894
   X12.304
   Y15.269
   X14.404       Y13.988
   Y3.175
   X16.504       Y6.812
   Y10.351
G0   Z3.200
   X17.872       Y8.582
G1   Z-2.500     F150
   X13.838       Y15.569
   X5.770
   X1.736        Y8.582
   X5.770        Y1.594
   X13.838
   X17.872       Y8.582
G0   Z3.200

G10 P1 L20 X800 Y800
G0   Z3.200
   X3.904        Y5.427
G1   Z-2.500     F150
   Y11.737
   X6.004        Y15.269
   Y1.894
   X8.104
   Y15.269
   X10.204
   Y1.894
   X12.304
   Y15.269
   X14.404       Y13.988
   Y3.175
   X16.504       Y6.812
   Y10.351
G0   Z3.200
   X17.872       Y8.582
G1   Z-2.500     F150
   X13.838       Y15.569
   X5.770
   X1.736        Y8.582
   X5.770        Y1.594
   X13.838
   X17.872       Y8.582
G0   Z3.200

G10 P1 L20 X900 Y800
G0   Z3.200
   X3.904        Y5.427
G1   Z-2.500     F150
   Y11.737
   X6.004        Y15.269
   Y1.894
   X8.104
   Y15.269
   X10.204
   Y1.894
   X12.304
   Y15.269
   X14.404       Y13.988
   Y3.175
   X16.504       Y6.812
   Y10.351
G0   Z3.200
   X17.872       Y8.582
G1   Z-2.500     F150
   X13.838       Y15.569
   X5.770
   X1.736        Y8.582
   X5.770        Y1.594
   X13.838
   X17.872       Y8.582
G0   Z3.200

G10 P1 L20 X1000 Y800
G0   Z3.200
   X3.904        Y5.427
G1   Z-2.500     F150
   Y11.737
   X6.004        Y15.269
   Y1.894
   X8.104
   Y15.269
   X10.204
   Y1.894
   X12.304
   Y15.269
   X14.404       Y13.988
   Y3.175
   X16.504       Y6.812
   Y10.351
G0   Z3.200
   X17.872       Y8.582
G1   Z-2.500     F150
   X13.838       Y15.569
   X5.770
   X1.736        Y8.582
   X5.770        Y1.594
   X13.838
   X17.872       Y8.582
G0   Z3.200

G10 P1 L20 X1100 Y800
G0   Z3.200
   X3.904        Y5.427
G1   Z-2.500     F150
   Y11.737
   X6.004        Y15.269
   Y1.894
   X8.104
   Y15.269
   X10.204
   Y1.894
   X12.304
   Y15.269
   X14.404       Y13.988
   Y3.175
   X16.504       Y6.812
   Y10.351
G0   Z3.200
   X17.872       Y8.582
G1   Z-2.500     F150
   X13.838       Y15.569
   X5.770
   X1.736        Y8.582
   X5.770        Y1.594
   X13.838
   X17.872       Y8.582
G0   Z3.200

G10 P1 L20 X1200 Y800
G0   Z3.200
   X3.904        Y5.427
G1   Z-2.500     F150
   Y11.737
   X6.004        Y15.269
   Y1.894
   X8.104
   Y15.269
   X10.204
   Y1.894
   X12.304
   Y15.269
   X14.404       Y13.988
   Y3.175
   X16.504       Y6.812
   Y10.351
G0   Z3.200
   X17.872       Y8.582
G1   Z-2.500     F150
   X13.838       Y15.569
   X5.770
   X1.736        Y8.582
   X5.770        Y1.594
   X13.838
   X17.872       Y8.582
G0   Z3.200

G10 P1 L20 X0 Y900
G0   Z3.200
   X3.904        Y5.427
G1   Z-2.500     F150
   Y11.737
   X6.004        Y15.269
   Y1.894
   X8.104
   Y15.269
   X10.204
   Y1.894
   X12.304
   Y15.269
   X14.404       Y13.988
   Y3.175
   X16.504       Y6.812
   Y10.351
G0   Z3.200
   X17.872       Y8.582
G1   Z-2.500     F150
   X13.838       Y15.569
   X5.770
   X1.736        Y8.582
   X5.770        Y1.594
   X13.838
   X17.872       Y8.582
G0   Z3.200

G10 P1 L20 X100 Y900
G0   Z3.200
   X3.904        Y5.427
G1   Z-2.500     F150
   Y11.737
   X6.004        Y15.269
   Y1.894
   X8.104
   Y15.269
   X10.204
   Y1.894
   X12.304
   Y15.269
   X14.404       Y13.988
   Y3.175
   X16.504       Y6.812
   Y10.351
G0   Z3.200
   X17.872       Y8.582
G1   Z-2.500     F150
   X13.838       Y15.569
   X5.770
   X1.736        Y8.582
   X5.770        Y1.594
   X13.838
   X17.872       Y8.582
G0   Z3.200

G10 P1 L20 X200 Y900
G0   Z3.200
   X3.904        Y5.427
G1   Z-2.500     F150
   Y11.737
   X6.004        Y15.269
   Y1.894
   X8.104
   Y15.269
   X10.204
   Y1.894
   X12.304
   Y15.269
   X14.404       Y13.988
   Y3.175
   X16.504       Y6.812
   Y10.351
G0   Z3.200
   X17.872       Y8.582
G1   Z-2.500     F150
   X13.838       Y15.569
   X5.770
   X1.736        Y8.582
   X5.770        Y1.594
   X13.838
   X17.872       Y8.582
G0   Z3.200

G10 P1 L20 X300 Y900
G0   Z3.200
   X3.904        Y5.427
G1   Z-2.500     F150
   Y11.737
   X6.004        Y15.269
   Y1.894
   X8.104
   Y15.269
   X10.204
   Y1.894
   X12.304
   Y15.269
   X14.404       Y13.988
   Y3.175
   X16.504       Y6.812
   Y10.351
G0   Z3.200
   X17.872       Y8.582
G1   Z-2.500     F150
   X13.838       Y15.569
   X5.770
   X1.736        Y8.582
   X5.770        Y1.594
   X13.838
   X17.872       Y8.582
G0   Z3.200

G10 P1 L20 X400 Y900
G0   Z3.200
   X3.904        Y5.427
G1   Z-2.500     F150
   Y11.737
   X6.004        Y15.269
   Y1.894
   X8.104
   Y15.269
   X10.204
   Y1.894
   X12.304
   Y15.269
   X14.404       Y13.988
   Y3.175
   X16.504       Y6.812
   Y10.351
G0   Z3.200
   X17.872       Y8.582
G1   Z-2.500     F150
   X13.838       Y15.569
   X5.770
   X1.736        Y8.582
   X5.770        Y1.594
   X13.838
   X17.872       Y8.582
G0   Z3.200

G10 P1 L20 X500 Y900
G0   Z3.200
   X3.904        Y5.427
G1   Z-2.500     F150
   Y11.737
   X6.004        Y15.269
   Y1.894
   X8.104
   Y15.269
   X10.204
   Y1.894
   X12.304
   Y15.269
   X14.404       Y13.988
   Y3.175
   X16.504       Y6.812
   Y10.351
G0   Z3.200
   X17.872       Y8.582
G1   Z-2.500     F150
   X13.838       Y15.569
   X5.770
   X1.736        Y8.582
   X5.770        Y1.594
   X13.838
   X17.872       Y8.582
G0   Z3.200

G10 P1 L20 X600 Y900
G0   Z3.200
   X3.904        Y5.427
G1   Z-2.500     F150
   Y11.737
   X6.004        Y15.269
   Y1.894
   X8.104
   Y15.269
   X10.204
   Y1.894
   X12.304
   Y15.269
   X14.404       Y13.988
   Y3.175
   X16.504       Y6.812
   Y10.351
G0   Z3.200
   X17.872       Y8.582
G1   Z-2.500     F150
   X13.838       Y15.569
   X5.770
   X1.736        Y8.582
   X5.770        Y1.594
   X13.838
   X17.872       Y8.582
G0   Z3.200

G10 P1 L20 X700 Y900
G0   Z3.200
   X3.904        Y5.427
G1   Z-2.500     F150
   Y11.737
   X6.004        Y15.269
   Y1.894
   X8.104
   Y15.269
   X10.204
   Y1.894
   X12.304
   Y15.269
   X14.404       Y13.988
   Y3.175
   X16.504       Y6.812
   Y10.351
G0   Z3.200
   X17.872       Y8.582
G1   Z-2.500     F150
   X13.838       Y15.569
   X5.770
   X1.736        Y8.582
   X5.770        Y1.594
   X13.838
   X17.872       Y8.582
G0   Z3.200

G10 P1 L20 X800 Y900
G0   Z3.200
   X3.904        Y5.427
G1   Z-2.500     F150
   Y11.737
   X6.004        Y15.269
   Y1.894
   X8.104
   Y15.269
   X10.204
   Y1.894
   X12.304
   Y15.269
   X14.404       Y13.988
   Y3.175
   X16.504       Y6.812
   Y10.351
G0   Z3.200
   X17.872       Y8.582
G1   Z-2.500     F150
   X13.838       Y15.569
   X5.770
   X1.736        Y8.582
   X5.770        Y1.594
   X13.838
   X17.872       Y8.582
G0   Z3.200

G10 P1 L20 X900 Y900
G0   Z3.200
   X3.904        Y5.427
G1   Z-2.500     F150
   Y11.737
   X6.004        Y15.269
   Y1.894
   X8.104
   Y15.269
   X10.204
   Y1.894
   X12.304
   Y15.269
   X14.404       Y13.988
   Y3.175
   X16.504       Y6.812
   Y10.351
G0   Z3.200
   X17.872       Y8.582
G1   Z-2.500     F150
   X13.838       Y15.569
   X5.770
   X1.736        Y8.582
   X5.770        Y1.594
   X13.838
   X17.872       Y8.582
G0   Z3.200

G10 P1 L20 X1000 Y900
G0   Z3.200
   X3.904        Y5.427
G1   Z-2.500     F150
   Y11.737
   X6.004        Y15.269
   Y1.894
   X8.104
   Y15.269
   X10.204
   Y1.894
   X12.304
   Y15.269
   X14.404       Y13.988
   Y3.175
   X16.504       Y6.812
   Y10.351
G0   Z3.200
   X17.872       Y8.582
G1   Z-2.500     F150
   X13.838       Y15.569
   X5.770
   X1.736        Y8.582
   X5.770        Y1.594
   X13.838
   X17.872       Y8.582
G0   Z3.200

G10 P1 L20 X1100 Y900
G0   Z3.200
   X3.904        Y5.427
G1   Z-2.500     F150
   Y11.737
   X6.004        Y15.269
   Y1.894
   X8.104
   Y15.269
   X10.204
   Y1.894
   X12.304
   Y15.269
   X14.404       Y13.988
   Y3.175
   X16.504       Y6.812
   Y10.351
G0   Z3.200
   X17.872       Y8.582
G1   Z-2.500     F150
   X13.838       Y15.569
   X5.770
   X1.736        Y8.582
   X5.770        Y1.594
   X13.838
   X17.872       Y8.582
G0   Z3.200

G10 P1 L20 X1200 Y900
G0   Z3.200
   X3.904        Y5.427
G1   Z-2.500     F150
   Y11.737
   X6.004        Y15.269
   Y1.894
   X8.104
   Y15.269
   X10.204
   Y1.894
   X12.304
   Y15.269
   X14.404       Y13.988
   Y3.175
   X16.504       Y6.812
   Y10.351
G0   Z3.200
   X17.872       Y8.582
G1   Z-2.500     F150
   X13.838       Y15.569
   X5.770
   X1.736        Y8.582
   X5.770        Y1.594
   X13.838
   X17.872       Y8.582
G0   Z3.200

G10 P1 L20 X0 Y1000
G0   Z3.200
   X3.904        Y5.427
G1   Z-2.500     F150
   Y11.737
   X6.004        Y15.269
   Y1.894
   X8.104
   Y15.269
   X10.204
   Y1.894
   X12.304
   Y15.269
   X14.404       Y13.988
   Y3.175
   X16.504       Y6.812
   Y10.351
G0   Z3.200
   X17.872       Y8.582
G1   Z-2.500     F150
   X13.838       Y15.569
   X5.770
   X1.736        Y8.582
   X5.770        Y1.594
   X13.838
   X17.872       Y8.582
G0   Z3.200

G10 P1 L20 X100 Y1000
G0   Z3.200
   X3.904        Y5.427
G1   Z-2.500     F150
   Y11.737
   X6.004        Y15.269
   Y1.894
   X8.104
   Y15.269
   X10.204
   Y1.894
   X12.304
   Y15.269
   X14.404       Y13.988
   Y3.175
   X16.504       Y6.812
   Y10.351
G0   Z3.200
   X17.872       Y8.582
G1   Z-2.500     F150
   X13.838       Y15.569
   X5.770
   X1.736        Y8.582
   X5.770        Y1.594
   X13.838
   X17.872       Y8.582
G0   Z3.200

G10 P1 L20 X200 Y1000
G0   Z3.200
   X3.904        Y5.427
G1   Z-2.500     F150
   Y11.737
   X6.004        Y15.269
   Y1.894
   X8.104
   Y15.269
   X10.204
   Y1.894
   X12.304
   Y15.269
   X14.404       Y13.988
   Y3.175
   X16.504       Y6.812
   Y10.351
G0   Z3.200
   X17.872       Y8.582
G1   Z-2.500     F150
   X13.838       Y15.569
   X5.770
   X1.736        Y8.582
   X5.770        Y1.594
   X13.838
   X17.872       Y8.582
G0   Z3.200

G10 P1 L20 X300 Y1000
G0   Z3.200
   X3.904        Y5.427
G1   Z-2.500     F150
   Y11.737
   X6.004        Y15.269
   Y1.894
   X8.104
   Y15.269
   X10.204
   Y1.894
   X12.304
   Y15.269
   X14.404       Y13.988
   Y3.175
   X16.504       Y6.812
   Y10.351
G0   Z3.200
   X17.872       Y8.582
G1   Z-2.500     F150
   X13.838       Y15.569
   X5.770
   X1.736        Y8.582
   X5.770        Y1.594
   X13.838
   X17.872       Y8.582
G0   Z3.200

G10 P1 L20 X400 Y1000
G0   Z3.200
   X3.904        Y5.427
G1   Z-2.500     F150
   Y11.737
   X6.004        Y15.269
   Y1.894
   X8.104
   Y15.269
   X10.204
   Y1.894
   X12.304
   Y15.269
   X14.404       Y13.988
   Y3.175
   X16.504       Y6.812
   Y10.351
G0   Z3.200
   X17.872       Y8.582
G1   Z-2.500     F150
   X13.838       Y15.569
   X5.770
   X1.736        Y8.582
   X5.770        Y1.594
   X13.838
   X17.872       Y8.582
G0   Z3.200

G10 P1 L20 X500 Y1000
G0   Z3.200
   X3.904        Y5.427
G1   Z-2.500     F150
   Y11.737
   X6.004        Y15.269
   Y1.894
   X8.104
   Y15.269
   X10.204
   Y1.894
   X12.304
   Y15.269
   X14.404       Y13.988
   Y3.175
   X16.504       Y6.812
   Y10.351
G0   Z3.200
   X17.872       Y8.582
G1   Z-2.500     F150
   X13.838       Y15.569
   X5.770
   X1.736        Y8.582
   X5.770        Y1.594
   X13.838
   X17.872       Y8.582
G0   Z3.200

G10 P1 L20 X600 Y1000
G0   Z3.200
   X3.904        Y5.427
G1   Z-2.500     F150
   Y11.737
   X6.004        Y15.269
   Y1.894
   X8.104
   Y15.269
   X10.204
   Y1.894
   X12.304
   Y15.269
   X14.404       Y13.988
   Y3.175
   X16.504       Y6.812
   Y10.351
G0   Z3.200
   X17.872       Y8.582
G1   Z-2.500     F150
   X13.838       Y15.569
   X5.770
   X1.736        Y8.582
   X5.770        Y1.594
   X13.838
   X17.872       Y8.582
G0   Z3.200

G10 P1 L20 X700 Y1000
G0   Z3.200
   X3.904        Y5.427
G1   Z-2.500     F150
   Y11.737
   X6.004        Y15.269
   Y1.894
   X8.104
   Y15.269
   X10.204
   Y1.894
   X12.304
   Y15.269
   X14.404       Y13.988
   Y3.175
   X16.504       Y6.812
   Y10.351
G0   Z3.200
   X17.872       Y8.582
G1   Z-2.500     F150
   X13.838       Y15.569
   X5.770
   X1.736        Y8.582
   X5.770        Y1.594
   X13.838
   X17.872       Y8.582
G0   Z3.200

G10 P1 L20 X800 Y1000
G0   Z3.200
   X3.904        Y5.427
G1   Z-2.500     F150
   Y11.737
   X6.004        Y15.269
   Y1.894
   X8.104
   Y15.269
   X10.204
   Y1.894
   X12.304
   Y15.269
   X14.404       Y13.988
   Y3.175
   X16.504       Y6.812
   Y10.351
G0   Z3.200
   X17.872       Y8.582
G1   Z-2.500     F150
   X13.838       Y15.569
   X5.770
   X1.736        Y8.582
   X5.770        Y1.594
   X13.838
   X17.872       Y8.582
G0   Z3.200

G10 P1 L20 X900 Y1000
G0   Z3.200
   X3.904        Y5.427
G1   Z-2.500     F150
   Y11.737
   X6.004        Y15.269
   Y1.894
   X8.104
   Y15.269
   X10.204
   Y1.894
   X12.304
   Y15.269
   X14.404       Y13.988
   Y3.175
   X16.504       Y6.812
   Y10.351
G0   Z3.200
   X17.872       Y8.582
G1   Z-2.500     F150
   X13.838       Y15.569
   X5.770
   X1.736        Y8.582
   X5.770        Y1.594
   X13.838
   X17.872       Y8.582
G0   Z3.200

G10 P1 L20 X1000 Y1000
G0   Z3.200
   X3.904        Y5.427
G1   Z-2.500     F150
   Y11.737
   X6.004        Y15.269
   Y1.894
   X8.104
   Y15.269
   X10.204
   Y1.894
   X12.304
   Y15.269
   X14.404       Y13.988
   Y3.175
   X16.504       Y6.812
   Y10.351
G0   Z3.200
   X17.872       Y8.582
G1   Z-2.500     F150
   X13.838       Y15.569
   X5.770
   X1.736        Y8.582
   X5.770        Y1.594
   X13.838
   X17.872       Y8.582
G0   Z3.200

G10 P1 L20 X1100 Y1000
G0   Z3.200
   X3.904        Y5.427
G1   Z-2.500     F150
   Y11.737
   X6.004        Y15.269
   Y1.894
   X8.104
   Y15.269
   X10.204
   Y1.894
   X12.304
   Y15.269
   X14.404       Y13.988
   Y3.175
   X16.504       Y6.812
   Y10.351
G0   Z3.200
   X17.872       Y8.582
G1   Z-2.500     F150
   X13.838       Y15.569
   X5.770
   X1.736        Y8.582
   X5.770        Y1.594
   X13.838
   X17.872       Y8.582
G0   Z3.200

G10 P1 L20 X1200 Y1000
G0   Z3.200
   X3.904        Y5.427
G1   Z-2.500     F150
   Y11.737
   X6.004        Y15.269
   Y1.894
   X8.104
   Y15.269
   X10.204
   Y1.894
   X12.304
   Y15.269
   X14.404       Y13.988
   Y3.175
   X16.504       Y6.812
   Y10.351
G0   Z3.200
   X17.872       Y8.582
G1   Z-2.500     F150
   X13.838       Y15.569
   X5.770
   X1.736        Y8.582
   X5.770        Y1.594
   X13.838
   X17.872       Y8.582
G0   Z3.200

G10 P1 L20 X0 Y1100
G0   Z3.200
   X3.904        Y5.427
G1   Z-2.500     F150
   Y11.737
   X6.004        Y15.269
   Y1.894
   X8.104
   Y15.269
   X10.204
   Y1.894
   X12.304
   Y15.269
   X14.404       Y13.988
   Y3.175
   X16.504       Y6.812
   Y10.351
G0   Z3.200
   X17.872       Y8.582
G1   Z-2.500     F150
   X13.838       Y15.569
   X5.770
   X1.736        Y8.582
   X5.770        Y1.594
   X13.838
   X17.872       Y8.582
G0   Z3.200

G10 P1 L20 X100 Y1100
G0   Z3.200
   X3.904        Y5.427
G1   Z-2.500     F150
   Y11.737
   X6.004        Y15.269
   Y1.894
   X8.104
   Y15.269
   X10.204
   Y1.894
   X12.304
   Y15.269
   X14.404       Y13.988
   Y3.175
   X16.504       Y6.812
   Y10.351
G0   Z3.200
   X17.872       Y8.582
G1   Z-2.500     F150
   X13.838       Y15.569
   X5.770
   X1.736        Y8.582
   X5.770        Y1.594
   X13.838
   X17.872       Y8.582
G0   Z3.200

G10 P1 L20 X200 Y1100
G0   Z3.200
   X3.904        Y5.427
G1   Z-2.500     F150
   Y11.737
   X6.004        Y15.269
   Y1.894
   X8.104
   Y15.269
   X10.204
   Y1.894
   X12.304
   Y15.269
   X14.404       Y13.988
   Y3.175
   X16.504       Y6.812
   Y10.351
G0   Z3.200
   X17.872       Y8.582
G1   Z-2.500     F150
   X13.838       Y15.569
   X5.770
   X1.736        Y8.582
   X5.770        Y1.594
   X13.838
   X17.872       Y8.582
G0   Z3.200

G10 P1 L20 X300 Y1100
G0   Z3.200
   X3.904        Y5.427
G1   Z-2.500     F150
   Y11.737
   X6.004        Y15.269
   Y1.894
   X8.104
   Y15.269
   X10.204
   Y1.894
   X12.304
   Y15.269
   X14.404       Y13.988
   Y3.175
   X16.504       Y6.812
   Y10.351
G0   Z3.200
   X17.872       Y8.582
G1   Z-2.500     F150
   X13.838       Y15.569
   X5.770
   X1.736        Y8.582
   X5.770        Y1.594
   X13.838
   X17.872       Y8.582
G0   Z3.200

G10 P1 L20 X400 Y1100
G0   Z3.200
   X3.904        Y5.427
G1   Z-2.500     F150
   Y11.737
   X6.004        Y15.269
   Y1.894
   X8.104
   Y15.269
   X10.204
   Y1.894
   X12.304
   Y15.269
   X14.404       Y13.988
   Y3.175
   X16.504       Y6.812
   Y10.351
G0   Z3.200
   X17.872       Y8.582
G1   Z-2.500     F150
   X13.838       Y15.569
   X5.770
   X1.736        Y8.582
   X5.770        Y1.594
   X13.838
   X17.872       Y8.582
G0   Z3.200

G10 P1 L20 X500 Y1100
G0   Z3.200
   X3.904        Y5.427
G1   Z-2.500     F150
   Y11.737
   X6.004        Y15.269
   Y1.894
   X8.104
   Y15.269
   X10.204
   Y1.894
   X12.304
   Y15.269
   X14.404       Y13.988
   Y3.175
   X16.504       Y6.812
   Y10.351
G0   Z3.200
   X17.872       Y8.582
G1   Z-2.500     F150
   X13.838       Y15.569
   X5.770
   X1.736        Y8.582
   X5.770        Y1.594
   X13.838
   X17.872       Y8.582
G0   Z3.200

G10 P1 L20 X600 Y1100
G0   Z3.200
   X3.904        Y5.427
G1   Z-2.500     F150
   Y11.737
   X6.004        Y15.269
   Y1.894
   X8.104
   Y15.269
   X10.204
   Y1.894
   X12.304
   Y15.269
   X14.404       Y13.988
   Y3.175
   X16.504       Y6.812
   Y10.351
G0   Z3.200
   X17.872       Y8.582
G1   Z-2.500     F150
   X13.838       Y15.569
   X5.770
   X1.736        Y8.582
   X5.770        Y1.594
   X13.838
   X17.872       Y8.582
G0   Z3.200

G10 P1 L20 X700 Y1100
G0   Z3.200
   X3.904        Y5.427
G1   Z-2.500     F150
   Y11.737
   X6.004        Y15.269
   Y1.894
   X8.104
   Y15.269
   X10.204
   Y1.894
   X12.304
   Y15.269
   X14.404       Y13.988
   Y3.175
   X16.504       Y6.812
   Y10.351
G0   Z3.200
   X17.872       Y8.582
G1   Z-2.500     F150
   X13.838       Y15.569
   X5.770
   X1.736        Y8.582
   X5.770        Y1.594
   X13.838
   X17.872       Y8.582
G0   Z3.200

G10 P1 L20 X800 Y1100
G0   Z3.200
   X3.904        Y5.427
G1   Z-2.500     F150
   Y11.737
   X6.004        Y15.269
   Y1.894
   X8.104
   Y15.269
   X10.204
   Y1.894
   X12.304
   Y15.269
   X14.404       Y13.988
   Y3.175
   X16.504       Y6.812
   Y10.351
G0   Z3.200
   X17.872       Y8.582
G1   Z-2.500     F150
   X13.838       Y15.569
   X5.770
   X1.736        Y8.582
   X5.770        Y1.594
   X13.838
   X17.872       Y8.582
G0   Z3.200

G10 P1 L20 X900 Y1100
G0   Z3.200
   X3.904        Y5.427
G1   Z-2.500     F150
   Y11.737
   X6.004        Y15.269
   Y1.894
   X8.104
   Y15.269
   X10.204
   Y1.894
   X12.304
   Y15.269
   X14.404       Y13.988
   Y3.175
   X16.504       Y6.812
   Y10.351
G0   Z3.200
   X17.872       Y8.582
G1   Z-2.500     F150
   X13.838       Y15.569
   X5.770
   X1.736        Y8.582
   X5.770        Y1.594
   X13.838
   X17.872       Y8.582
G0   Z3.200

G10 P1 L20 X1000 Y1100
G0   Z3.200
   X3.904        Y5.427
G1   Z-2.500     F150
   Y11.737
   X6.004        Y15.269
   Y1.894
   X8.104
   Y15.269
   X10.204
   Y1.894
   X12.304
   Y15.269
   X14.404       Y13.988
   Y3.175
   X16.504       Y6.812
   Y10.351
G0   Z3.200
   X17.872       Y8.582
G1   Z-2.500     F150
   X13.838       Y15.569
   X5.770
   X1.736        Y8.582
   X5.770        Y1.594
   X13.838
   X17.872       Y8.582
G0   Z3.200

G10 P1 L20 X1100 Y1100
G0   Z3.200
   X3.904        Y5.427
G1   Z-2.500     F150
   Y11.737
   X6.004        Y15.269
   Y1.894
   X8.104
   Y15.269
   X10.204
   Y1.894
   X12.304
   Y15.269
   X14.404       Y13.988
   Y3.175
   X16.504       Y6.812
   Y10.351
G0   Z3.200
   X17.872       Y8.582
G1   Z-2.500     F150
   X13.838       Y15.569
   X5.770
   X1.736        Y8.582
   X5.770        Y1.594
   X13.838
   X17.872       Y8.582
G0   Z3.200

G10 P1 L20 X1200 Y1100
G0   Z3.200
   X3.904        Y5.427
G1   Z-2.500     F150
   Y11.737
   X6.004        Y15.269
   Y1.894
   X8.104
   Y15.269
   X10.204
   Y1.894
   X12.304
   Y15.269
   X14.404       Y13.988
   Y3.175
   X16.504       Y6.812
   Y10.351
G0   Z3.200
   X17.872       Y8.582
G1   Z-2.500     F150
   X13.838       Y15.569
   X5.770
   X1.736        Y8.582
   X5.770        Y1.594
   X13.838
   X17.872       Y8.582
G0   Z3.200

G10 P1 L20 X0 Y1200
G0   Z3.200
   X3.904        Y5.427
G1   Z-2.500     F150
   Y11.737
   X6.004        Y15.269
   Y1.894
   X8.104
   Y15.269
   X10.204
   Y1.894
   X12.304
   Y15.269
   X14.404       Y13.988
   Y3.175
   X16.504       Y6.812
   Y10.351
G0   Z3.200
   X17.872       Y8.582
G1   Z-2.500     F150
   X13.838       Y15.569
   X5.770
   X1.736        Y8.582
   X5.770        Y1.594
   X13.838
   X17.872       Y8.582
G0   Z3.200

G10 P1 L20 X100 Y1200
G0   Z3.200
   X3.904        Y5.427
G1   Z-2.500     F150
   Y11.737
   X6.004        Y15.269
   Y1.894
   X8.104
   Y15.269
   X10.204
   Y1.894
   X12.304
   Y15.269
   X14.404       Y13.988
   Y3.175
   X16.504       Y6.812
   Y10.351
G0   Z3.200
   X17.872       Y8.582
G1   Z-2.500     F150
   X13.838       Y15.569
   X5.770
   X1.736        Y8.582
   X5.770        Y1.594
   X13.838
   X17.872       Y8.582
G0   Z3.200

G10 P1 L20 X200 Y1200
G0   Z3.200
   X3.904        Y5.427
G1   Z-2.500     F150
   Y11.737
   X6.004        Y15.269
   Y1.894
   X8.104
   Y15.269
   X10.204
   Y1.894
   X12.304
   Y15.269
   X14.404       Y13.988
   Y3.175
   X16.504       Y6.812
   Y10.351
G0   Z3.200
   X17.872       Y8.582
G1   Z-2.500     F150
   X13.838       Y15.569
   X5.770
   X1.736        Y8.582
   X5.770        Y1.594
   X13.838
   X17.872       Y8.582
G0   Z3.200

G10 P1 L20 X300 Y1200
G0   Z3.200
   X3.904        Y5.427
G1   Z-2.500     F150
   Y11.737
   X6.004        Y15.269
   Y1.894
   X8.104
   Y15.269
   X10.204
   Y1.894
   X12.304
   Y15.269
   X14.404       Y13.988
   Y3.175
   X16.504       Y6.812
   Y10.351
G0   Z3.200
   X17.872       Y8.582
G1   Z-2.500     F150
   X13.838       Y15.569
   X5.770
   X1.736        Y8.582
   X5.770        Y1.594
   X13.838
   X17.872       Y8.582
G0   Z3.200

G10 P1 L20 X400 Y1200
G0   Z3.200
   X3.904        Y5.427
G1   Z-2.500     F150
   Y11.737
   X6.004        Y15.269
   Y1.894
   X8.104
   Y15.269
   X10.204
   Y1.894
   X12.304
   Y15.269
   X14.404       Y13.988
   Y3.175
   X16.504       Y6.812
   Y10.351
G0   Z3.200
   X17.872       Y8.582
G1   Z-2.500     F150
   X13.838       Y15.569
   X5.770
   X1.736        Y8.582
   X5.770        Y1.594
   X13.838
   X17.872       Y8.582
G0   Z3.200

G10 P1 L20 X500 Y1200
G0   Z3.200
   X3.904        Y5.427
G1   Z-2.500     F150
   Y11.737
   X6.004        Y15.269
   Y1.894
   X8.104
   Y15.269
   X10.204
   Y1.894
   X12.304
   Y15.269
   X14.404       Y13.988
   Y3.175
   X16.504       Y6.812
   Y10.351
G0   Z3.200
   X17.872       Y8.582
G1   Z-2.500     F150
   X13.838       Y15.569
   X5.770
   X1.736        Y8.582
   X5.770        Y1.594
   X13.838
   X17.872       Y8.582
G0   Z3.200

G10 P1 L20 X600 Y1200
G0   Z3.200
   X3.904        Y5.427
G1   Z-2.500     F150
   Y11.737
   X6.004        Y15.269
   Y1.894
   X8.104
   Y15.269
   X10.204
   Y1.894
   X12.304
   Y15.269
   X14.404       Y13.988
   Y3.175
   X16.504       Y6.812
   Y10.351
G0   Z3.200
   X17.872       Y8.582
G1   Z-2.500     F150
   X13.838       Y15.569
   X5.770
   X1.736        Y8.582
   X5.770        Y1.594
   X13.838
   X17.872       Y8.582
G0   Z3.200

G10 P1 L20 X700 Y1200
G0   Z3.200
   X3.904        Y5.427
G1   Z-2.500     F150
   Y11.737
   X6.004        Y15.269
   Y1.894
   X8.104
   Y15.269
   X10.204
   Y1.894
   X12.304
   Y15.269
   X14.404       Y13.988
   Y3.175
   X16.504       Y6.812
   Y10.351
G0   Z3.200
   X17.872       Y8.582
G1   Z-2.500     F150
   X13.838       Y15.569
   X5.770
   X1.736        Y8.582
   X5.770        Y1.594
   X13.838
   X17.872       Y8.582
G0   Z3.200

G10 P1 L20 X800 Y1200
G0   Z3.200
   X3.904        Y5.427
G1   Z-2.500     F150
   Y11.737
   X6.004        Y15.269
   Y1.894
   X8.104
   Y15.269
   X10.204
   Y1.894
   X12.304
   Y15.269
   X14.404       Y13.988
   Y3.175
   X16.504       Y6.812
   Y10.351
G0   Z3.200
   X17.872       Y8.582
G1   Z-2.500     F150
   X13.838       Y15.569
   X5.770
   X1.736        Y8.582
   X5.770        Y1.594
   X13.838
   X17.872       Y8.582
G0   Z3.200

G10 P1 L20 X900 Y1200
G0   Z3.200
   X3.904        Y5.427
G1   Z-2.500     F150
   Y11.737
   X6.004        Y15.269
   Y1.894
   X8.104
   Y15.269
   X10.204
   Y1.894
   X12.304
   Y15.269
   X14.404       Y13.988
   Y3.175
   X16.504       Y6.812
   Y10.351
G0   Z3.200
   X17.872       Y8.582
G1   Z-2.500     F150
   X13.838       Y15.569
   X5.770
   X1.736        Y8.582
   X5.770        Y1.594
   X13.838
   X17.872       Y8.582
G0   Z3.200

G10 P1 L20 X1000 Y1200
G0   Z3.200
   X3.904        Y5.427
G1   Z-2.500     F150
   Y11.737
   X6.004        Y15.269
   Y1.894
   X8.104
   Y15.269
   X10.204
   Y1.894
   X12.304
   Y15.269
   X14.404       Y13.988
   Y3.175
   X16.504       Y6.812
   Y10.351
G0   Z3.200
   X17.872       Y8.582
G1   Z-2.500     F150
   X13.838       Y15.569
   X5.770
   X1.736        Y8.582
   X5.770        Y1.594
   X13.838
   X17.872       Y8.582
G0   Z3.200

G10 P1 L20 X1100 Y1200
G0   Z3.200
   X3.904        Y5.427
G1   Z-2.500     F150
   Y11.737
   X6.004        Y15.269
   Y1.894
   X8.104
   Y15.269
   X10.204
   Y1.894
   X12.304
   Y15.269
   X14.404       Y13.988
   Y3.175
   X16.504       Y6.812
   Y10.351
G0   Z3.200
   X17.872       Y8.582
G1   Z-2.500     F150
   X13.838       Y15.569
   X5.770
   X1.736        Y8.582
   X5.770        Y1.594
   X13.838
   X17.872       Y8.582
G0   Z3.200

G10 P1 L20 X1200 Y1200
G0   Z3.200
   X3.904        Y5.427
G1   Z-2.500     F150
   Y11.737
   X6.004        Y15.269
   Y1.894
   X8.104
   Y15.269
   X10.204
   Y1.894
   X12.304
   Y15.269
   X14.404       Y13.988
   Y3.175
   X16.504       Y6.812
   Y10.351
G0   Z3.200
   X17.872       Y8.582
G1   Z-2.500     F150
   X13.838       Y15.569
   X5.770
   X1.736        Y8.582
   X5.770        Y1.594
   X13.838
   X17.872       Y8.582
G0   Z3.200

G10 P1 L20 X0 Y1300
G0   Z3.200
   X3.904        Y5.427
G1   Z-2.500     F150
   Y11.737
   X6.004        Y15.269
   Y1.894
   X8.104
   Y15.269
   X10.204
   Y1.894
   X12.304
   Y15.269
   X14.404       Y13.988
   Y3.175
   X16.504       Y6.812
   Y10.351
G0   Z3.200
   X17.872       Y8.582
G1   Z-2.500     F150
   X13.838       Y15.569
   X5.770
   X1.736        Y8.582
   X5.770        Y1.594
   X13.838
   X17.872       Y8.582
G0   Z3.200

G10 P1 L20 X100 Y1300
G0   Z3.200
   X3.904        Y5.427
G1   Z-2.500     F150
   Y11.737
   X6.004        Y15.269
   Y1.894
   X8.104
   Y15.269
   X10.204
   Y1.894
   X12.304
   Y15.269
   X14.404       Y13.988
   Y3.175
   X16.504       Y6.812
   Y10.351
G0   Z3.200
   X17.872       Y8.582
G1   Z-2.500     F150
   X13.838       Y15.569
   X5.770
   X1.736        Y8.582
   X5.770        Y1.594
   X13.838
   X17.872       Y8.582
G0   Z3.200

G10 P1 L20 X200 Y1300
G0   Z3.200
   X3.904        Y5.427
G1   Z-2.500     F150
   Y11.737
   X6.004        Y15.269
   Y1.894
   X8.104
   Y15.269
   X10.204
   Y1.894
   X12.304
   Y15.269
   X14.404       Y13.988
   Y3.175
   X16.504       Y6.812
   Y10.351
G0   Z3.200
   X17.872       Y8.582
G1   Z-2.500     F150
   X13.838       Y15.569
   X5.770
   X1.736        Y8.582
   X5.770        Y1.594
   X13.838
   X17.872       Y8.582
G0   Z3.200

G10 P1 L20 X300 Y1300
G0   Z3.200
   X3.904        Y5.427
G1   Z-2.500     F150
   Y11.737
   X6.004        Y15.269
   Y1.894
   X8.104
   Y15.269
   X10.204
   Y1.894
   X12.304
   Y15.269
   X14.404       Y13.988
   Y3.175
   X16.504       Y6.812
   Y10.351
G0   Z3.200
   X17.872       Y8.582
G1   Z-2.500     F150
   X13.838       Y15.569
   X5.770
   X1.736        Y8.582
   X5.770        Y1.594
   X13.838
   X17.872       Y8.582
G0   Z3.200

G10 P1 L20 X400 Y1300
G0   Z3.200
   X3.904        Y5.427
G1   Z-2.500     F150
   Y11.737
   X6.004        Y15.269
   Y1.894
   X8.104
   Y15.269
   X10.204
   Y1.894
   X12.304
   Y15.269
   X14.404       Y13.988
   Y3.175
   X16.504       Y6.812
   Y10.351
G0   Z3.200
   X17.872       Y8.582
G1   Z-2.500     F150
   X13.838       Y15.569
   X5.770
   X1.736        Y8.582
   X5.770        Y1.594
   X13.838
   X17.872       Y8.582
G0   Z3.200

G10 P1 L20 X500 Y1300
G0   Z3.200
   X3.904        Y5.427
G1   Z-2.500     F150
   Y11.737
   X6.004        Y15.269
   Y1.894
   X8.104
   Y15.269
   X10.204
   Y1.894
   X12.304
   Y15.269
   X14.404       Y13.988
   Y3.175
   X16.504       Y6.812
   Y10.351
G0   Z3.200
   X17.872       Y8.582
G1   Z-2.500     F150
   X13.838       Y15.569
   X5.770
   X1.736        Y8.582
   X5.770        Y1.594
   X13.838
   X17.872       Y8.582
G0   Z3.200

G10 P1 L20 X600 Y1300
G0   Z3.200
   X3.904        Y5.427
G1   Z-2.500     F150
   Y11.737
   X6.004        Y15.269
   Y1.894
   X8.104
   Y15.269
   X10.204
   Y1.894
   X12.304
   Y15.269
   X14.404       Y13.988
   Y3.175
   X16.504       Y6.812
   Y10.351
G0   Z3.200
   X17.872       Y8.582
G1   Z-2.500     F150
   X13.838       Y15.569
   X5.770
   X1.736        Y8.582
   X5.770        Y1.594
   X13.838
   X17.872       Y8.582
G0   Z3.200

G10 P1 L20 X700 Y1300
G0   Z3.200
   X3.904        Y5.427
G1   Z-2.500     F150
   Y11.737
   X6.004        Y15.269
   Y1.894
   X8.104
   Y15.269
   X10.204
   Y1.894
   X12.304
   Y15.269
   X14.404       Y13.988
   Y3.175
   X16.504       Y6.812
   Y10.351
G0   Z3.200
   X17.872       Y8.582
G1   Z-2.500     F150
   X13.838       Y15.569
   X5.770
   X1.736        Y8.582
   X5.770        Y1.594
   X13.838
   X17.872       Y8.582
G0   Z3.200

G10 P1 L20 X800 Y1300
G0   Z3.200
   X3.904        Y5.427
G1   Z-2.500     F150
   Y11.737
   X6.004        Y15.269
   Y1.894
   X8.104
   Y15.269
   X10.204
   Y1.894
   X12.304
   Y15.269
   X14.404       Y13.988
   Y3.175
   X16.504       Y6.812
   Y10.351
G0   Z3.200
   X17.872       Y8.582
G1   Z-2.500     F150
   X13.838       Y15.569
   X5.770
   X1.736        Y8.582
   X5.770        Y1.594
   X13.838
   X17.872       Y8.582
G0   Z3.200

G10 P1 L20 X900 Y1300
G0   Z3.200
   X3.904        Y5.427
G1   Z-2.500     F150
   Y11.737
   X6.004        Y15.269
   Y1.894
   X8.104
   Y15.269
   X10.204
   Y1.894
   X12.304
   Y15.269
   X14.404       Y13.988
   Y3.175
   X16.504       Y6.812
   Y10.351
G0   Z3.200
   X17.872       Y8.582
G1   Z-2.500     F150
   X13.838       Y15.569
   X5.770
   X1.736        Y8.582
   X5.770        Y1.594
   X13.838
   X17.872       Y8.582
G0   Z3.200

G10 P1 L20 X1000 Y1300
G0   Z3.200
   X3.904        Y5.427
G1   Z-2.500     F150
   Y11.737
   X6.004        Y15.269
   Y1.894
   X8.104
   Y15.269
   X10.204
   Y1.894
   X12.304
   Y15.269
   X14.404       Y13.988
   Y3.175
   X16.504       Y6.812
   Y10.351
G0   Z3.200
   X17.872       Y8.582
G1   Z-2.500     F150
   X13.838       Y15.569
   X5.770
   X1.736        Y8.582
   X5.770        Y1.594
   X13.838
   X17.872       Y8.582
G0   Z3.200

G10 P1 L20 X1100 Y1300
G0   Z3.200
   X3.904        Y5.427
G1   Z-2.500     F150
   Y11.737
   X6.004        Y15.269
   Y1.894
   X8.104
   Y15.269
   X10.204
   Y1.894
   X12.304
   Y15.269
   X14.404       Y13.988
   Y3.175
   X16.504       Y6.812
   Y10.351
G0   Z3.200
   X17.872       Y8.582
G1   Z-2.500     F150
   X13.838       Y15.569
   X5.770
   X1.736        Y8.582
   X5.770        Y1.594
   X13.838
   X17.872       Y8.582
G0   Z3.200

G10 P1 L20 X1200 Y1300
G0   Z3.200
   X3.904        Y5.427
G1   Z-2.500     F150
   Y11.737
   X6.004        Y15.269
   Y1.894
   X8.104
   Y15.269
   X10.204
   Y1.894
   X12.304
   Y15.269
   X14.404       Y13.988
   Y3.175
   X16.504       Y6.812
   Y10.351
G0   Z3.200
   X17.872       Y8.582
G1   Z-2.500     F150
   X13.838       Y15.569
   X5.770
   X1.736        Y8.582
   X5.770        Y1.594
   X13.838
   X17.872       Y8.582
G0   Z3.200

G10 P1 L20 X0 Y1400
G0   Z3.200
   X3.904        Y5.427
G1   Z-2.500     F150
   Y11.737
   X6.004        Y15.269
   Y1.894
   X8.104
   Y15.269
   X10.204
   Y1.894
   X12.304
   Y15.269
   X14.404       Y13.988
   Y3.175
   X16.504       Y6.812
   Y10.351
G0   Z3.200
   X17.872       Y8.582
G1   Z-2.500     F150
   X13.838       Y15.569
   X5.770
   X1.736        Y8.582
   X5.770        Y1.594
   X13.838
   X17.872       Y8.582
G0   Z3.200

G10 P1 L20 X100 Y1400
G0   Z3.200
   X3.904        Y5.427
G1   Z-2.500     F150
   Y11.737
   X6.004        Y15.269
   Y1.894
   X8.104
   Y15.269
   X10.204
   Y1.894
   X12.304
   Y15.269
   X14.404       Y13.988
   Y3.175
   X16.504       Y6.812
   Y10.351
G0   Z3.200
   X17.872       Y8.582
G1   Z-2.500     F150
   X13.838       Y15.569
   X5.770
   X1.736        Y8.582
   X5.770        Y1.594
   X13.838
   X17.872       Y8.582
G0   Z3.200

G10 P1 L20 X200 Y1400
G0   Z3.200
   X3.904        Y5.427
G1   Z-2.500     F150
   Y11.737
   X6.004        Y15.269
   Y1.894
   X8.104
   Y15.269
   X10.204
   Y1.894
   X12.304
   Y15.269
   X14.404       Y13.988
   Y3.175
   X16.504       Y6.812
   Y10.351
G0   Z3.200
   X17.872       Y8.582
G1   Z-2.500     F150
   X13.838       Y15.569
   X5.770
   X1.736        Y8.582
   X5.770        Y1.594
   X13.838
   X17.872       Y8.582
G0   Z3.200

G10 P1 L20 X300 Y1400
G0   Z3.200
   X3.904        Y5.427
G1   Z-2.500     F150
   Y11.737
   X6.004        Y15.269
   Y1.894
   X8.104
   Y15.269
   X10.204
   Y1.894
   X12.304
   Y15.269
   X14.404       Y13.988
   Y3.175
   X16.504       Y6.812
   Y10.351
G0   Z3.200
   X17.872       Y8.582
G1   Z-2.500     F150
   X13.838       Y15.569
   X5.770
   X1.736        Y8.582
   X5.770        Y1.594
   X13.838
   X17.872       Y8.582
G0   Z3.200

G10 P1 L20 X400 Y1400
G0   Z3.200
   X3.904        Y5.427
G1   Z-2.500     F150
   Y11.737
   X6.004        Y15.269
   Y1.894
   X8.104
   Y15.269
   X10.204
   Y1.894
   X12.304
   Y15.269
   X14.404       Y13.988
   Y3.175
   X16.504       Y6.812
   Y10.351
G0   Z3.200
   X17.872       Y8.582
G1   Z-2.500     F150
   X13.838       Y15.569
   X5.770
   X1.736        Y8.582
   X5.770        Y1.594
   X13.838
   X17.872       Y8.582
G0   Z3.200

G10 P1 L20 X500 Y1400
G0   Z3.200
   X3.904        Y5.427
G1   Z-2.500     F150
   Y11.737
   X6.004        Y15.269
   Y1.894
   X8.104
   Y15.269
   X10.204
   Y1.894
   X12.304
   Y15.269
   X14.404       Y13.988
   Y3.175
   X16.504       Y6.812
   Y10.351
G0   Z3.200
   X17.872       Y8.582
G1   Z-2.500     F150
   X13.838       Y15.569
   X5.770
   X1.736        Y8.582
   X5.770        Y1.594
   X13.838
   X17.872       Y8.582
G0   Z3.200

G10 P1 L20 X600 Y1400
G0   Z3.200
   X3.904        Y5.427
G1   Z-2.500     F150
   Y11.737
   X6.004        Y15.269
   Y1.894
   X8.104
   Y15.269
   X10.204
   Y1.894
   X12.304
   Y15.269
   X14.404       Y13.988
   Y3.175
   X16.504       Y6.812
   Y10.351
G0   Z3.200
   X17.872       Y8.582
G1   Z-2.500     F150
   X13.838       Y15.569
   X5.770
   X1.736        Y8.582
   X5.770        Y1.594
   X13.838
   X17.872       Y8.582
G0   Z3.200

G10 P1 L20 X700 Y1400
G0   Z3.200
   X3.904        Y5.427
G1   Z-2.500     F150
   Y11.737
   X6.004        Y15.269
   Y1.894
   X8.104
   Y15.269
   X10.204
   Y1.894
   X12.304
   Y15.269
   X14.404       Y13.988
   Y3.175
   X16.504       Y6.812
   Y10.351
G0   Z3.200
   X17.872       Y8.582
G1   Z-2.500     F150
   X13.838       Y15.569
   X5.770
   X1.736        Y8.582
   X5.770        Y1.594
   X13.838
   X17.872       Y8.582
G0   Z3.200

G10 P1 L20 X800 Y1400
G0   Z3.200
   X3.904        Y5.427
G1   Z-2.500     F150
   Y11.737
   X6.004        Y15.269
   Y1.894
   X8.104
   Y15.269
   X10.204
   Y1.894
   X12.304
   Y15.269
   X14.404       Y13.988
   Y3.175
   X16.504       Y6.812
   Y10.351
G0   Z3.200
   X17.872       Y8.582
G1   Z-2.500     F150
   X13.838       Y15.569
   X5.770
   X1.736        Y8.582
   X5.770        Y1.594
   X13.838
   X17.872       Y8.582
G0   Z3.200

G10 P1 L20 X900 Y1400
G0   Z3.200
   X3.904        Y5.427
G1   Z-2.500     F150
   Y11.737
   X6.004        Y15.269
   Y1.894
   X8.104
   Y15.269
   X10.204
   Y1.894
   X12.304
   Y15.269
   X14.404       Y13.988
   Y3.175
   X16.504       Y6.812
   Y10.351
G0   Z3.200
   X17.872       Y8.582
G1   Z-2.500     F150
   X13.838       Y15.569
   X5.770
   X1.736        Y8.582
   X5.770        Y1.594
   X13.838
   X17.872       Y8.582
G0   Z3.200

G10 P1 L20 X1000 Y1400
G0   Z3.200
   X3.904        Y5.427
G1   Z-2.500     F150
   Y11.737
   X6.004        Y15.269
   Y1.894
   X8.104
   Y15.269
   X10.204
   Y1.894
   X12.304
   Y15.269
   X14.404       Y13.988
   Y3.175
   X16.504       Y6.812
   Y10.351
G0   Z3.200
   X17.872       Y8.582
G1   Z-2.500     F150
   X13.838       Y15.569
   X5.770
   X1.736        Y8.582
   X5.770        Y1.594
   X13.838
   X17.872       Y8.582
G0   Z3.200

G10 P1 L20 X1100 Y1400
G0   Z3.200
   X3.904        Y5.427
G1   Z-2.500     F150
   Y11.737
   X6.004        Y15.269
   Y1.894
   X8.104
   Y15.269
   X10.204
   Y1.894
   X12.304
   Y15.269
   X14.404       Y13.988
   Y3.175
   X16.504       Y6.812
   Y10.351
G0   Z3.200
   X17.872       Y8.582
G1   Z-2.500     F150
   X13.838       Y15.569
   X5.770
   X1.736        Y8.582
   X5.770        Y1.594
   X13.838
   X17.872       Y8.582
G0   Z3.200

G10 P1 L20 X1200 Y1400
G0   Z3.200
   X3.904        Y5.427
G1   Z-2.500     F150
   Y11.737
   X6.004        Y15.269
   Y1.894
   X8.104
   Y15.269
   X10.204
   Y1.894
   X12.304
   Y15.269
   X14.404       Y13.988
   Y3.175
   X16.504       Y6.812
   Y10.351
G0   Z3.200
   X17.872       Y8.582
G1   Z-2.500     F150
   X13.838       Y15.569
   X5.770
   X1.736        Y8.582
   X5.770        Y1.594
   X13.838
   X17.872       Y8.582
G0   Z3.200

G10 P1 L20 X0 Y1500
G0   Z3.200
   X3.904        Y5.427
G1   Z-2.500     F150
   Y11.737
   X6.004        Y15.269
   Y1.894
   X8.104
   Y15.269
   X10.204
   Y1.894
   X12.304
   Y15.269
   X14.404       Y13.988
   Y3.175
   X16.504       Y6.812
   Y10.351
G0   Z3.200
   X17.872       Y8.582
G1   Z-2.500     F150
   X13.838       Y15.569
   X5.770
   X1.736        Y8.582
   X5.770        Y1.594
   X13.838
   X17.872       Y8.582
G0   Z3.200

G10 P1 L20 X100 Y1500
G0   Z3.200
   X3.904        Y5.427
G1   Z-2.500     F150
   Y11.737
   X6.004        Y15.269
   Y1.894
   X8.104
   Y15.269
   X10.204
   Y1.894
   X12.304
   Y15.269
   X14.404       Y13.988
   Y3.175
   X16.504       Y6.812
   Y10.351
G0   Z3.200
   X17.872       Y8.582
G1   Z-2.500     F150
   X13.838       Y15.569
   X5.770
   X1.736        Y8.582
   X5.770        Y1.594
   X13.838
   X17.872       Y8.582
G0   Z3.200

G10 P1 L20 X200 Y1500
G0   Z3.200
   X3.904        Y5.427
G1   Z-2.500     F150
   Y11.737
   X6.004        Y15.269
   Y1.894
   X8.104
   Y15.269
   X10.204
   Y1.894
   X12.304
   Y15.269
   X14.404       Y13.988
   Y3.175
   X16.504       Y6.812
   Y10.351
G0   Z3.200
   X17.872       Y8.582
G1   Z-2.500     F150
   X13.838       Y15.569
   X5.770
   X1.736        Y8.582
   X5.770        Y1.594
   X13.838
   X17.872       Y8.582
G0   Z3.200

G10 P1 L20 X300 Y1500
G0   Z3.200
   X3.904        Y5.427
G1   Z-2.500     F150
   Y11.737
   X6.004        Y15.269
   Y1.894
   X8.104
   Y15.269
   X10.204
   Y1.894
   X12.304
   Y15.269
   X14.404       Y13.988
   Y3.175
   X16.504       Y6.812
   Y10.351
G0   Z3.200
   X17.872       Y8.582
G1   Z-2.500     F150
   X13.838       Y15.569
   X5.770
   X1.736        Y8.582
   X5.770        Y1.594
   X13.838
   X17.872       Y8.582
G0   Z3.200

G10 P1 L20 X400 Y1500
G0   Z3.200
   X3.904        Y5.427
G1   Z-2.500     F150
   Y11.737
   X6.004        Y15.269
   Y1.894
   X8.104
   Y15.269
   X10.204
   Y1.894
   X12.304
   Y15.269
   X14.404       Y13.988
   Y3.175
   X16.504       Y6.812
   Y10.351
G0   Z3.200
   X17.872       Y8.582
G1   Z-2.500     F150
   X13.838       Y15.569
   X5.770
   X1.736        Y8.582
   X5.770        Y1.594
   X13.838
   X17.872       Y8.582
G0   Z3.200

G10 P1 L20 X500 Y1500
G0   Z3.200
   X3.904        Y5.427
G1   Z-2.500     F150
   Y11.737
   X6.004        Y15.269
   Y1.894
   X8.104
   Y15.269
   X10.204
   Y1.894
   X12.304
   Y15.269
   X14.404       Y13.988
   Y3.175
   X16.504       Y6.812
   Y10.351
G0   Z3.200
   X17.872       Y8.582
G1   Z-2.500     F150
   X13.838       Y15.569
   X5.770
   X1.736        Y8.582
   X5.770        Y1.594
   X13.838
   X17.872       Y8.582
G0   Z3.200

G10 P1 L20 X600 Y1500
G0   Z3.200
   X3.904        Y5.427
G1   Z-2.500     F150
   Y11.737
   X6.004        Y15.269
   Y1.894
   X8.104
   Y15.269
   X10.204
   Y1.894
   X12.304
   Y15.269
   X14.404       Y13.988
   Y3.175
   X16.504       Y6.812
   Y10.351
G0   Z3.200
   X17.872       Y8.582
G1   Z-2.500     F150
   X13.838       Y15.569
   X5.770
   X1.736        Y8.582
   X5.770        Y1.594
   X13.838
   X17.872       Y8.582
G0   Z3.200

G10 P1 L20 X700 Y1500
G0   Z3.200
   X3.904        Y5.427
G1   Z-2.500     F150
   Y11.737
   X6.004        Y15.269
   Y1.894
   X8.104
   Y15.269
   X10.204
   Y1.894
   X12.304
   Y15.269
   X14.404       Y13.988
   Y3.175
   X16.504       Y6.812
   Y10.351
G0   Z3.200
   X17.872       Y8.582
G1   Z-2.500     F150
   X13.838       Y15.569
   X5.770
   X1.736        Y8.582
   X5.770        Y1.594
   X13.838
   X17.872       Y8.582
G0   Z3.200

G10 P1 L20 X800 Y1500
G0   Z3.200
   X3.904        Y5.427
G1   Z-2.500     F150
   Y11.737
   X6.004        Y15.269
   Y1.894
   X8.104
   Y15.269
   X10.204
   Y1.894
   X12.304
   Y15.269
   X14.404       Y13.988
   Y3.175
   X16.504       Y6.812
   Y10.351
G0   Z3.200
   X17.872       Y8.582
G1   Z-2.500     F150
   X13.838       Y15.569
   X5.770
   X1.736        Y8.582
   X5.770        Y1.594
   X13.838
   X17.872       Y8.582
G0   Z3.200

G10 P1 L20 X900 Y1500
G0   Z3.200
   X3.904        Y5.427
G1   Z-2.500     F150
   Y11.737
   X6.004        Y15.269
   Y1.894
   X8.104
   Y15.269
   X10.204
   Y1.894
   X12.304
   Y15.269
   X14.404       Y13.988
   Y3.175
   X16.504       Y6.812
   Y10.351
G0   Z3.200
   X17.872       Y8.582
G1   Z-2.500     F150
   X13.838       Y15.569
   X5.770
   X1.736        Y8.582
   X5.770        Y1.594
   X13.838
   X17.872       Y8.582
G0   Z3.200

G10 P1 L20 X1000 Y1500
G0   Z3.200
   X3.904        Y5.427
G1   Z-2.500     F150
   Y11.737
   X6.004        Y15.269
   Y1.894
   X8.104
   Y15.269
   X10.204
   Y1.894
   X12.304
   Y15.269
   X14.404       Y13.988
   Y3.175
   X16.504       Y6.812
   Y10.351
G0   Z3.200
   X17.872       Y8.582
G1   Z-2.500     F150
   X13.838       Y15.569
   X5.770
   X1.736        Y8.582
   X5.770        Y1.594
   X13.838
   X17.872       Y8.582
G0   Z3.200

G10 P1 L20 X1100 Y1500
G0   Z3.200
   X3.904        Y5.427
G1   Z-2.500     F150
   Y11.737
   X6.004        Y15.269
   Y1.894
   X8.104
   Y15.269
   X10.204
   Y1.894
   X12.304
   Y15.269
   X14.404       Y13.988
   Y3.175
   X16.504       Y6.812
   Y10.351
G0   Z3.200
   X17.872       Y8.582
G1   Z-2.500     F150
   X13.838       Y15.569
   X5.770
   X1.736        Y8.582
   X5.770        Y1.594
   X13.838
   X17.872       Y8.582
G0   Z3.200

G10 P1 L20 X1200 Y1500
G0   Z3.200
   X3.904        Y5.427
G1   Z-2.500     F150
   Y11.737
   X6.004        Y15.269
   Y1.894
   X8.104
   Y15.269
   X10.204
   Y1.894
   X12.304
   Y15.269
   X14.404       Y13.988
   Y3.175
   X16.504       Y6.812
   Y10.351
G0   Z3.200
   X17.872       Y8.582
G1   Z-2.500     F150
   X13.838       Y15.569
   X5.770
   X1.736        Y8.582
   X5.770        Y1.594
   X13.838
   X17.872       Y8.582
G0   Z3.200

G10 P1 L20 X0 Y1600
G0   Z3.200
   X3.904        Y5.427
G1   Z-2.500     F150
   Y11.737
   X6.004        Y15.269
   Y1.894
   X8.104
   Y15.269
   X10.204
   Y1.894
   X12.304
   Y15.269
   X14.404       Y13.988
   Y3.175
   X16.504       Y6.812
   Y10.351
G0   Z3.200
   X17.872       Y8.582
G1   Z-2.500     F150
   X13.838       Y15.569
   X5.770
   X1.736        Y8.582
   X5.770        Y1.594
   X13.838
   X17.872       Y8.582
G0   Z3.200

G10 P1 L20 X100 Y1600
G0   Z3.200
   X3.904        Y5.427
G1   Z-2.500     F150
   Y11.737
   X6.004        Y15.269
   Y1.894
   X8.104
   Y15.269
   X10.204
   Y1.894
   X12.304
   Y15.269
   X14.404       Y13.988
   Y3.175
   X16.504       Y6.812
   Y10.351
G0   Z3.200
   X17.872       Y8.582
G1   Z-2.500     F150
   X13.838       Y15.569
   X5.770
   X1.736        Y8.582
   X5.770        Y1.594
   X13.838
   X17.872       Y8.582
G0   Z3.200

G10 P1 L20 X200 Y1600
G0   Z3.200
   X3.904        Y5.427
G1   Z-2.500     F150
   Y11.737
   X6.004        Y15.269
   Y1.894
   X8.104
   Y15.269
   X10.204
   Y1.894
   X12.304
   Y15.269
   X14.404       Y13.988
   Y3.175
   X16.504       Y6.812
   Y10.351
G0   Z3.200
   X17.872       Y8.582
G1   Z-2.500     F150
   X13.838       Y15.569
   X5.770
   X1.736        Y8.582
   X5.770        Y1.594
   X13.838
   X17.872       Y8.582
G0   Z3.200

G10 P1 L20 X300 Y1600
G0   Z3.200
   X3.904        Y5.427
G1   Z-2.500     F150
   Y11.737
   X6.004        Y15.269
   Y1.894
   X8.104
   Y15.269
   X10.204
   Y1.894
   X12.304
   Y15.269
   X14.404       Y13.988
   Y3.175
   X16.504       Y6.812
   Y10.351
G0   Z3.200
   X17.872       Y8.582
G1   Z-2.500     F150
   X13.838       Y15.569
   X5.770
   X1.736        Y8.582
   X5.770        Y1.594
   X13.838
   X17.872       Y8.582
G0   Z3.200

G10 P1 L20 X400 Y1600
G0   Z3.200
   X3.904        Y5.427
G1   Z-2.500     F150
   Y11.737
   X6.004        Y15.269
   Y1.894
   X8.104
   Y15.269
   X10.204
   Y1.894
   X12.304
   Y15.269
   X14.404       Y13.988
   Y3.175
   X16.504       Y6.812
   Y10.351
G0   Z3.200
   X17.872       Y8.582
G1   Z-2.500     F150
   X13.838       Y15.569
   X5.770
   X1.736        Y8.582
   X5.770        Y1.594
   X13.838
   X17.872       Y8.582
G0   Z3.200

G10 P1 L20 X500 Y1600
G0   Z3.200
   X3.904        Y5.427
G1   Z-2.500     F150
   Y11.737
   X6.004        Y15.269
   Y1.894
   X8.104
   Y15.269
   X10.204
   Y1.894
   X12.304
   Y15.269
   X14.404       Y13.988
   Y3.175
   X16.504       Y6.812
   Y10.351
G0   Z3.200
   X17.872       Y8.582
G1   Z-2.500     F150
   X13.838       Y15.569
   X5.770
   X1.736        Y8.582
   X5.770        Y1.594
   X13.838
   X17.872       Y8.582
G0   Z3.200

G10 P1 L20 X600 Y1600
G0   Z3.200
   X3.904        Y5.427
G1   Z-2.500     F150
   Y11.737
   X6.004        Y15.269
   Y1.894
   X8.104
   Y15.269
   X10.204
   Y1.894
   X12.304
   Y15.269
   X14.404       Y13.988
   Y3.175
   X16.504       Y6.812
   Y10.351
G0   Z3.200
   X17.872       Y8.582
G1   Z-2.500     F150
   X13.838       Y15.569
   X5.770
   X1.736        Y8.582
   X5.770        Y1.594
   X13.838
   X17.872       Y8.582
G0   Z3.200

G10 P1 L20 X700 Y1600
G0   Z3.200
   X3.904        Y5.427
G1   Z-2.500     F150
   Y11.737
   X6.004        Y15.269
   Y1.894
   X8.104
   Y15.269
   X10.204
   Y1.894
   X12.304
   Y15.269
   X14.404       Y13.988
   Y3.175
   X16.504       Y6.812
   Y10.351
G0   Z3.200
   X17.872       Y8.582
G1   Z-2.500     F150
   X13.838       Y15.569
   X5.770
   X1.736        Y8.582
   X5.770        Y1.594
   X13.838
   X17.872       Y8.582
G0   Z3.200

G10 P1 L20 X800 Y1600
G0   Z3.200
   X3.904        Y5.427
G1   Z-2.500     F150
   Y11.737
   X6.004        Y15.269
   Y1.894
   X8.104
   Y15.269
   X10.204
   Y1.894
   X12.304
   Y15.269
   X14.404       Y13.988
   Y3.175
   X16.504       Y6.812
   Y10.351
G0   Z3.200
   X17.872       Y8.582
G1   Z-2.500     F150
   X13.838       Y15.569
   X5.770
   X1.736        Y8.582
   X5.770        Y1.594
   X13.838
   X17.872       Y8.582
G0   Z3.200

G10 P1 L20 X900 Y1600
G0   Z3.200
   X3.904        Y5.427
G1   Z-2.500     F150
   Y11.737
   X6.004        Y15.269
   Y1.894
   X8.104
   Y15.269
   X10.204
   Y1.894
   X12.304
   Y15.269
   X14.404       Y13.988
   Y3.175
   X16.504       Y6.812
   Y10.351
G0   Z3.200
   X17.872       Y8.582
G1   Z-2.500     F150
   X13.838       Y15.569
   X5.770
   X1.736        Y8.582
   X5.770        Y1.594
   X13.838
   X17.872       Y8.582
G0   Z3.200

G10 P1 L20 X1000 Y1600
G0   Z3.200
   X3.904        Y5.427
G1   Z-2.500     F150
   Y11.737
   X6.004        Y15.269
   Y1.894
   X8.104
   Y15.269
   X10.204
   Y1.894
   X12.304
   Y15.269
   X14.404       Y13.988
   Y3.175
   X16.504       Y6.812
   Y10.351
G0   Z3.200
   X17.872       Y8.582
G1   Z-2.500     F150
   X13.838       Y15.569
   X5.770
   X1.736        Y8.582
   X5.770        Y1.594
   X13.838
   X17.872       Y8.582
G0   Z3.200

G10 P1 L20 X1100 Y1600
G0   Z3.200
   X3.904        Y5.427
G1   Z-2.500     F150
   Y11.737
   X6.004        Y15.269
   Y1.894
   X8.104
   Y15.269
   X10.204
   Y1.894
   X12.304
   Y15.269
   X14.404       Y13.988
   Y3.175
   X16.504       Y6.812
   Y10.351
G0   Z3.200
   X17.872       Y8.582
G1   Z-2.500     F150
   X13.838       Y15.569
   X5.770
   X1.736        Y8.582
   X5.770        Y1.594
   X13.838
   X17.872       Y8.582
G0   Z3.200

G10 P1 L20 X1200 Y1600
G0   Z3.200
   X3.904        Y5.427
G1   Z-2.500     F150
   Y11.737
   X6.004        Y15.269
   Y1.894
   X8.104
   Y15.269
   X10.204
   Y1.894
   X12.304
   Y15.269
   X14.404       Y13.988
   Y3.175
   X16.504       Y6.812
   Y10.351
G0   Z3.200
   X17.872       Y8.582
G1   Z-2.500     F150
   X13.838       Y15.569
   X5.770
   X1.736        Y8.582
   X5.770        Y1.594
   X13.838
   X17.872       Y8.582
G0   Z3.200

G10 P1 L20 X0 Y1700
G0   Z3.200
   X3.904        Y5.427
G1   Z-2.500     F150
   Y11.737
   X6.004        Y15.269
   Y1.894
   X8.104
   Y15.269
   X10.204
   Y1.894
   X12.304
   Y15.269
   X14.404       Y13.988
   Y3.175
   X16.504       Y6.812
   Y10.351
G0   Z3.200
   X17.872       Y8.582
G1   Z-2.500     F150
   X13.838       Y15.569
   X5.770
   X1.736        Y8.582
   X5.770        Y1.594
   X13.838
   X17.872       Y8.582
G0   Z3.200

G10 P1 L20 X100 Y1700
G0   Z3.200
   X3.904        Y5.427
G1   Z-2.500     F150
   Y11.737
   X6.004        Y15.269
   Y1.894
   X8.104
   Y15.269
