%
(Generated by SketchUcam {1.2a})
(File: NutHole.skp)
(Bit diameter: 3.0mm)
(Feed rate: 150.0mm/min)
(Material Thickness: 10.0mm)
(Material length: 558.8mm X width: 1066.8mm)
(Overhead Gantry: true)
(Retract feed rate NOT limited to plunge feed rate)
(Optimization is ON)
(www.PhlatBoyz.com)
G90 G21 G49 
M3 S20000
G0   Z3.200     
   X4.400        Y3.037     
G1   Z-10.000    F150 
   Y8.963     
   X6.500     
   Y3.037     
   X8.600        Y4.577     
   Y7.423     
G0   Z3.200     
   X9.768        Y6.000     
G1   Z-10.000    F150 
   X7.884        Y9.263     
   X4.116     
   X2.232        Y6.000     
   X4.116        Y2.737     
   X7.884     
   X9.768        Y6.000     
G0   Z3.200     
G0 X0 Y0 (home)
M05
M30
%
