%
(Generated by SketchUcam {1.2a})
(File: NutHole.skp)
(Bit diameter: 3.0mm)
(Feed rate: 150.0mm/min)
(Material Thickness: 5.0mm)
(Material length: 558.8mm X width: 1066.8mm)
(Overhead Gantry: true)
(Retract feed rate NOT limited to plunge feed rate)
(Optimization is ON)
(www.PhlatBoyz.com)
G90 G21 G49
M3 S20000

G10 P2 L20 X-100 Y-100
G55
G0   Z15.0
   X4.400        Y3.037
G1   Z-9.000    F150
   Y8.963
   X6.500
   Y3.037
   X8.600        Y4.577
   Y7.423
G0   Z4.0
   X9.768        Y6.000
G1   Z-9.000    F150
   X7.884        Y9.263
   X4.116
   X2.232        Y6.000
   X4.116        Y2.737
   X7.884
   X9.768        Y6.000
G0   Z15.0
G53
G10 P2 L20 X-200 Y-100
G55
G0   Z15.0
   X4.400        Y3.037
G1   Z-9.000    F150
   Y8.963
   X6.500
   Y3.037
   X8.600        Y4.577
   Y7.423
G0   Z4.0
   X9.768        Y6.000
G1   Z-9.000    F150
   X7.884        Y9.263
   X4.116
   X2.232        Y6.000
   X4.116        Y2.737
   X7.884
   X9.768        Y6.000
G0   Z15.0
G53
G10 P2 L20 X-300 Y-100
G55
G0   Z15.0
   X4.400        Y3.037
G1   Z-9.000    F150
   Y8.963
   X6.500
   Y3.037
   X8.600        Y4.577
   Y7.423
G0   Z4.0
   X9.768        Y6.000
G1   Z-9.000    F150
   X7.884        Y9.263
   X4.116
   X2.232        Y6.000
   X4.116        Y2.737
   X7.884
   X9.768        Y6.000
G0   Z15.0
G53
G10 P2 L20 X-400 Y-100
G55
G0   Z15.0
   X4.400        Y3.037
G1   Z-9.000    F150
   Y8.963
   X6.500
   Y3.037
   X8.600        Y4.577
   Y7.423
G0   Z4.0
   X9.768        Y6.000
G1   Z-9.000    F150
   X7.884        Y9.263
   X4.116
   X2.232        Y6.000
   X4.116        Y2.737
   X7.884
   X9.768        Y6.000
G0   Z15.0
G53
G10 P2 L20 X-500 Y-100
G55
G0   Z15.0
   X4.400        Y3.037
G1   Z-9.000    F150
   Y8.963
   X6.500
   Y3.037
   X8.600        Y4.577
   Y7.423
G0   Z4.0
   X9.768        Y6.000
G1   Z-9.000    F150
   X7.884        Y9.263
   X4.116
   X2.232        Y6.000
   X4.116        Y2.737
   X7.884
   X9.768        Y6.000
G0   Z15.0
G53
G10 P2 L20 X-600 Y-100
G55
G0   Z15.0
   X4.400        Y3.037
G1   Z-9.000    F150
   Y8.963
   X6.500
   Y3.037
   X8.600        Y4.577
   Y7.423
G0   Z4.0
   X9.768        Y6.000
G1   Z-9.000    F150
   X7.884        Y9.263
   X4.116
   X2.232        Y6.000
   X4.116        Y2.737
   X7.884
   X9.768        Y6.000
G0   Z15.0
G53
G10 P2 L20 X-700 Y-100
G55
G0   Z15.0
   X4.400        Y3.037
G1   Z-9.000    F150
   Y8.963
   X6.500
   Y3.037
   X8.600        Y4.577
   Y7.423
G0   Z4.0
   X9.768        Y6.000
G1   Z-9.000    F150
   X7.884        Y9.263
   X4.116
   X2.232        Y6.000
   X4.116        Y2.737
   X7.884
   X9.768        Y6.000
G0   Z15.0
G53
G10 P2 L20 X-800 Y-100
G55
G0   Z15.0
   X4.400        Y3.037
G1   Z-9.000    F150
   Y8.963
   X6.500
   Y3.037
   X8.600        Y4.577
   Y7.423
G0   Z4.0
   X9.768        Y6.000
G1   Z-9.000    F150
   X7.884        Y9.263
   X4.116
   X2.232        Y6.000
   X4.116        Y2.737
   X7.884
   X9.768        Y6.000
G0   Z15.0
G53
G10 P2 L20 X-900 Y-100
G55
G0   Z15.0
   X4.400        Y3.037
G1   Z-9.000    F150
   Y8.963
   X6.500
   Y3.037
   X8.600        Y4.577
   Y7.423
G0   Z4.0
   X9.768        Y6.000
G1   Z-9.000    F150
   X7.884        Y9.263
   X4.116
   X2.232        Y6.000
   X4.116        Y2.737
   X7.884
   X9.768        Y6.000
G0   Z15.0
G53
G10 P2 L20 X-1000 Y-100
G55
G0   Z15.0
   X4.400        Y3.037
G1   Z-9.000    F150
   Y8.963
   X6.500
   Y3.037
   X8.600        Y4.577
   Y7.423
G0   Z4.0
   X9.768        Y6.000
G1   Z-9.000    F150
   X7.884        Y9.263
   X4.116
   X2.232        Y6.000
   X4.116        Y2.737
   X7.884
   X9.768        Y6.000
G0   Z15.0
G53
G10 P2 L20 X-1100 Y-100
G55
G0   Z15.0
   X4.400        Y3.037
G1   Z-9.000    F150
   Y8.963
   X6.500
   Y3.037
   X8.600        Y4.577
   Y7.423
G0   Z4.0
   X9.768        Y6.000
G1   Z-9.000    F150
   X7.884        Y9.263
   X4.116
   X2.232        Y6.000
   X4.116        Y2.737
   X7.884
   X9.768        Y6.000
G0   Z15.0
G53
G10 P2 L20 X-100 Y-200
G55
G0   Z15.0
   X4.400        Y3.037
G1   Z-9.000    F150
   Y8.963
   X6.500
   Y3.037
   X8.600        Y4.577
   Y7.423
G0   Z4.0
   X9.768        Y6.000
G1   Z-9.000    F150
   X7.884        Y9.263
   X4.116
   X2.232        Y6.000
   X4.116        Y2.737
   X7.884
   X9.768        Y6.000
G0   Z15.0
G53
G10 P2 L20 X-200 Y-200
G55
G0   Z15.0
   X4.400        Y3.037
G1   Z-9.000    F150
   Y8.963
   X6.500
   Y3.037
   X8.600        Y4.577
   Y7.423
G0   Z4.0
   X9.768        Y6.000
G1   Z-9.000    F150
   X7.884        Y9.263
   X4.116
   X2.232        Y6.000
   X4.116        Y2.737
   X7.884
   X9.768        Y6.000
G0   Z15.0
G53
G10 P2 L20 X-300 Y-200
G55
G0   Z15.0
   X4.400        Y3.037
G1   Z-9.000    F150
   Y8.963
   X6.500
   Y3.037
   X8.600        Y4.577
   Y7.423
G0   Z4.0
   X9.768        Y6.000
G1   Z-9.000    F150
   X7.884        Y9.263
   X4.116
   X2.232        Y6.000
   X4.116        Y2.737
   X7.884
   X9.768        Y6.000
G0   Z15.0
G53
G10 P2 L20 X-400 Y-200
G55
G0   Z15.0
   X4.400        Y3.037
G1   Z-9.000    F150
   Y8.963
   X6.500
   Y3.037
   X8.600        Y4.577
   Y7.423
G0   Z4.0
   X9.768        Y6.000
G1   Z-9.000    F150
   X7.884        Y9.263
   X4.116
   X2.232        Y6.000
   X4.116        Y2.737
   X7.884
   X9.768        Y6.000
G0   Z15.0
G53
G10 P2 L20 X-500 Y-200
G55
G0   Z15.0
   X4.400        Y3.037
G1   Z-9.000    F150
   Y8.963
   X6.500
   Y3.037
   X8.600        Y4.577
   Y7.423
G0   Z4.0
   X9.768        Y6.000
G1   Z-9.000    F150
   X7.884        Y9.263
   X4.116
   X2.232        Y6.000
   X4.116        Y2.737
   X7.884
   X9.768        Y6.000
G0   Z15.0
G53
G10 P2 L20 X-600 Y-200
G55
G0   Z15.0
   X4.400        Y3.037
G1   Z-9.000    F150
   Y8.963
   X6.500
   Y3.037
   X8.600        Y4.577
   Y7.423
G0   Z4.0
   X9.768        Y6.000
G1   Z-9.000    F150
   X7.884        Y9.263
   X4.116
   X2.232        Y6.000
   X4.116        Y2.737
   X7.884
   X9.768        Y6.000
G0   Z15.0
G53
G10 P2 L20 X-700 Y-200
G55
G0   Z15.0
   X4.400        Y3.037
G1   Z-9.000    F150
   Y8.963
   X6.500
   Y3.037
   X8.600        Y4.577
   Y7.423
G0   Z4.0
   X9.768        Y6.000
G1   Z-9.000    F150
   X7.884        Y9.263
   X4.116
   X2.232        Y6.000
   X4.116        Y2.737
   X7.884
   X9.768        Y6.000
G0   Z15.0
G53
G10 P2 L20 X-800 Y-200
G55
G0   Z15.0
   X4.400        Y3.037
G1   Z-9.000    F150
   Y8.963
   X6.500
   Y3.037
   X8.600        Y4.577
   Y7.423
G0   Z4.0
   X9.768        Y6.000
G1   Z-9.000    F150
   X7.884        Y9.263
   X4.116
   X2.232        Y6.000
   X4.116        Y2.737
   X7.884
   X9.768        Y6.000
G0   Z15.0
G53
G10 P2 L20 X-900 Y-200
G55
G0   Z15.0
   X4.400        Y3.037
G1   Z-9.000    F150
   Y8.963
   X6.500
   Y3.037
   X8.600        Y4.577
   Y7.423
G0   Z4.0
   X9.768        Y6.000
G1   Z-9.000    F150
   X7.884        Y9.263
   X4.116
   X2.232        Y6.000
   X4.116        Y2.737
   X7.884
   X9.768        Y6.000
G0   Z15.0
G53
G10 P2 L20 X-1000 Y-200
G55
G0   Z15.0
   X4.400        Y3.037
G1   Z-9.000    F150
   Y8.963
   X6.500
   Y3.037
   X8.600        Y4.577
   Y7.423
G0   Z4.0
   X9.768        Y6.000
G1   Z-9.000    F150
   X7.884        Y9.263
   X4.116
   X2.232        Y6.000
   X4.116        Y2.737
   X7.884
   X9.768        Y6.000
G0   Z15.0
G53
G10 P2 L20 X-1100 Y-200
G55
G0   Z15.0
   X4.400        Y3.037
G1   Z-9.000    F150
   Y8.963
   X6.500
   Y3.037
   X8.600        Y4.577
   Y7.423
G0   Z4.0
   X9.768        Y6.000
G1   Z-9.000    F150
   X7.884        Y9.263
   X4.116
   X2.232        Y6.000
   X4.116        Y2.737
   X7.884
   X9.768        Y6.000
G0   Z15.0
G53
G10 P2 L20 X-100 Y-300
G55
G0   Z15.0
   X4.400        Y3.037
G1   Z-9.000    F150
   Y8.963
   X6.500
   Y3.037
   X8.600        Y4.577
   Y7.423
G0   Z4.0
   X9.768        Y6.000
G1   Z-9.000    F150
   X7.884        Y9.263
   X4.116
   X2.232        Y6.000
   X4.116        Y2.737
   X7.884
   X9.768        Y6.000
G0   Z15.0
G53
G10 P2 L20 X-200 Y-300
G55
G0   Z15.0
   X4.400        Y3.037
G1   Z-9.000    F150
   Y8.963
   X6.500
   Y3.037
   X8.600        Y4.577
   Y7.423
G0   Z4.0
   X9.768        Y6.000
G1   Z-9.000    F150
   X7.884        Y9.263
   X4.116
   X2.232        Y6.000
   X4.116        Y2.737
   X7.884
   X9.768        Y6.000
G0   Z15.0
G53
G10 P2 L20 X-300 Y-300
G55
G0   Z15.0
   X4.400        Y3.037
G1   Z-9.000    F150
   Y8.963
   X6.500
   Y3.037
   X8.600        Y4.577
   Y7.423
G0   Z4.0
   X9.768        Y6.000
G1   Z-9.000    F150
   X7.884        Y9.263
   X4.116
   X2.232        Y6.000
   X4.116        Y2.737
   X7.884
   X9.768        Y6.000
G0   Z15.0
G53
G10 P2 L20 X-400 Y-300
G55
G0   Z15.0
   X4.400        Y3.037
G1   Z-9.000    F150
   Y8.963
   X6.500
   Y3.037
   X8.600        Y4.577
   Y7.423
G0   Z4.0
   X9.768        Y6.000
G1   Z-9.000    F150
   X7.884        Y9.263
   X4.116
   X2.232        Y6.000
   X4.116        Y2.737
   X7.884
   X9.768        Y6.000
G0   Z15.0
G53
G10 P2 L20 X-500 Y-300
G55
G0   Z15.0
   X4.400        Y3.037
G1   Z-9.000    F150
   Y8.963
   X6.500
   Y3.037
   X8.600        Y4.577
   Y7.423
G0   Z4.0
   X9.768        Y6.000
G1   Z-9.000    F150
   X7.884        Y9.263
   X4.116
   X2.232        Y6.000
   X4.116        Y2.737
   X7.884
   X9.768        Y6.000
G0   Z15.0
G53
G10 P2 L20 X-600 Y-300
G55
G0   Z15.0
   X4.400        Y3.037
G1   Z-9.000    F150
   Y8.963
   X6.500
   Y3.037
   X8.600        Y4.577
   Y7.423
G0   Z4.0
   X9.768        Y6.000
G1   Z-9.000    F150
   X7.884        Y9.263
   X4.116
   X2.232        Y6.000
   X4.116        Y2.737
   X7.884
   X9.768        Y6.000
G0   Z15.0
G53
G10 P2 L20 X-700 Y-300
G55
G0   Z15.0
   X4.400        Y3.037
G1   Z-9.000    F150
   Y8.963
   X6.500
   Y3.037
   X8.600        Y4.577
   Y7.423
G0   Z4.0
   X9.768        Y6.000
G1   Z-9.000    F150
   X7.884        Y9.263
   X4.116
   X2.232        Y6.000
   X4.116        Y2.737
   X7.884
   X9.768        Y6.000
G0   Z15.0
G53
G10 P2 L20 X-800 Y-300
G55
G0   Z15.0
   X4.400        Y3.037
G1   Z-9.000    F150
   Y8.963
   X6.500
   Y3.037
   X8.600        Y4.577
   Y7.423
G0   Z4.0
   X9.768        Y6.000
G1   Z-9.000    F150
   X7.884        Y9.263
   X4.116
   X2.232        Y6.000
   X4.116        Y2.737
   X7.884
   X9.768        Y6.000
G0   Z15.0
G53
G10 P2 L20 X-900 Y-300
G55
G0   Z15.0
   X4.400        Y3.037
G1   Z-9.000    F150
   Y8.963
   X6.500
   Y3.037
   X8.600        Y4.577
   Y7.423
G0   Z4.0
   X9.768        Y6.000
G1   Z-9.000    F150
   X7.884        Y9.263
   X4.116
   X2.232        Y6.000
   X4.116        Y2.737
   X7.884
   X9.768        Y6.000
G0   Z15.0
G53
G10 P2 L20 X-1000 Y-300
G55
G0   Z15.0
   X4.400        Y3.037
G1   Z-9.000    F150
   Y8.963
   X6.500
   Y3.037
   X8.600        Y4.577
   Y7.423
G0   Z4.0
   X9.768        Y6.000
G1   Z-9.000    F150
   X7.884        Y9.263
   X4.116
   X2.232        Y6.000
   X4.116        Y2.737
   X7.884
   X9.768        Y6.000
G0   Z15.0
G53
G10 P2 L20 X-1100 Y-300
G55
G0   Z15.0
   X4.400        Y3.037
G1   Z-9.000    F150
   Y8.963
   X6.500
   Y3.037
   X8.600        Y4.577
   Y7.423
G0   Z4.0
   X9.768        Y6.000
G1   Z-9.000    F150
   X7.884        Y9.263
   X4.116
   X2.232        Y6.000
   X4.116        Y2.737
   X7.884
   X9.768        Y6.000
G0   Z15.0
G53
G10 P2 L20 X-100 Y-400
G55
G0   Z15.0
   X4.400        Y3.037
G1   Z-9.000    F150
   Y8.963
   X6.500
   Y3.037
   X8.600        Y4.577
   Y7.423
G0   Z4.0
   X9.768        Y6.000
G1   Z-9.000    F150
   X7.884        Y9.263
   X4.116
   X2.232        Y6.000
   X4.116        Y2.737
   X7.884
   X9.768        Y6.000
G0   Z15.0
G53
G10 P2 L20 X-200 Y-400
G55
G0   Z15.0
   X4.400        Y3.037
G1   Z-9.000    F150
   Y8.963
   X6.500
   Y3.037
   X8.600        Y4.577
   Y7.423
G0   Z4.0
   X9.768        Y6.000
G1   Z-9.000    F150
   X7.884        Y9.263
   X4.116
   X2.232        Y6.000
   X4.116        Y2.737
   X7.884
   X9.768        Y6.000
G0   Z15.0
G53
G10 P2 L20 X-300 Y-400
G55
G0   Z15.0
   X4.400        Y3.037
G1   Z-9.000    F150
   Y8.963
   X6.500
   Y3.037
   X8.600        Y4.577
   Y7.423
G0   Z4.0
   X9.768        Y6.000
G1   Z-9.000    F150
   X7.884        Y9.263
   X4.116
   X2.232        Y6.000
   X4.116        Y2.737
   X7.884
   X9.768        Y6.000
G0   Z15.0
G53
G10 P2 L20 X-400 Y-400
G55
G0   Z15.0
   X4.400        Y3.037
G1   Z-9.000    F150
   Y8.963
   X6.500
   Y3.037
   X8.600        Y4.577
   Y7.423
G0   Z4.0
   X9.768        Y6.000
G1   Z-9.000    F150
   X7.884        Y9.263
   X4.116
   X2.232        Y6.000
   X4.116        Y2.737
   X7.884
   X9.768        Y6.000
G0   Z15.0
G53
G10 P2 L20 X-500 Y-400
G55
G0   Z15.0
   X4.400        Y3.037
G1   Z-9.000    F150
   Y8.963
   X6.500
   Y3.037
   X8.600        Y4.577
   Y7.423
G0   Z4.0
   X9.768        Y6.000
G1   Z-9.000    F150
   X7.884        Y9.263
   X4.116
   X2.232        Y6.000
   X4.116        Y2.737
   X7.884
   X9.768        Y6.000
G0   Z15.0
G53
G10 P2 L20 X-600 Y-400
G55
G0   Z15.0
   X4.400        Y3.037
G1   Z-9.000    F150
   Y8.963
   X6.500
   Y3.037
   X8.600        Y4.577
   Y7.423
G0   Z4.0
   X9.768        Y6.000
G1   Z-9.000    F150
   X7.884        Y9.263
   X4.116
   X2.232        Y6.000
   X4.116        Y2.737
   X7.884
   X9.768        Y6.000
G0   Z15.0
G53
G10 P2 L20 X-700 Y-400
G55
G0   Z15.0
   X4.400        Y3.037
G1   Z-9.000    F150
   Y8.963
   X6.500
   Y3.037
   X8.600        Y4.577
   Y7.423
G0   Z4.0
   X9.768        Y6.000
G1   Z-9.000    F150
   X7.884        Y9.263
   X4.116
   X2.232        Y6.000
   X4.116        Y2.737
   X7.884
   X9.768        Y6.000
G0   Z15.0
G53
G10 P2 L20 X-800 Y-400
G55
G0   Z15.0
   X4.400        Y3.037
G1   Z-9.000    F150
   Y8.963
   X6.500
   Y3.037
   X8.600        Y4.577
   Y7.423
G0   Z4.0
   X9.768        Y6.000
G1   Z-9.000    F150
   X7.884        Y9.263
   X4.116
   X2.232        Y6.000
   X4.116        Y2.737
   X7.884
   X9.768        Y6.000
G0   Z15.0
G53
G10 P2 L20 X-900 Y-400
G55
G0   Z15.0
   X4.400        Y3.037
G1   Z-9.000    F150
   Y8.963
   X6.500
   Y3.037
   X8.600        Y4.577
   Y7.423
G0   Z4.0
   X9.768        Y6.000
G1   Z-9.000    F150
   X7.884        Y9.263
   X4.116
   X2.232        Y6.000
   X4.116        Y2.737
   X7.884
   X9.768        Y6.000
G0   Z15.0
G53
G10 P2 L20 X-1000 Y-400
G55
G0   Z15.0
   X4.400        Y3.037
G1   Z-9.000    F150
   Y8.963
   X6.500
   Y3.037
   X8.600        Y4.577
   Y7.423
G0   Z4.0
   X9.768        Y6.000
G1   Z-9.000    F150
   X7.884        Y9.263
   X4.116
   X2.232        Y6.000
   X4.116        Y2.737
   X7.884
   X9.768        Y6.000
G0   Z15.0
G53
G10 P2 L20 X-1100 Y-400
G55
G0   Z15.0
   X4.400        Y3.037
G1   Z-9.000    F150
   Y8.963
   X6.500
   Y3.037
   X8.600        Y4.577
   Y7.423
G0   Z4.0
   X9.768        Y6.000
G1   Z-9.000    F150
   X7.884        Y9.263
   X4.116
   X2.232        Y6.000
   X4.116        Y2.737
   X7.884
   X9.768        Y6.000
G0   Z15.0
G53
G10 P2 L20 X-100 Y-500
G55
G0   Z15.0
   X4.400        Y3.037
G1   Z-9.000    F150
   Y8.963
   X6.500
   Y3.037
   X8.600        Y4.577
   Y7.423
G0   Z4.0
   X9.768        Y6.000
G1   Z-9.000    F150
   X7.884        Y9.263
   X4.116
   X2.232        Y6.000
   X4.116        Y2.737
   X7.884
   X9.768        Y6.000
G0   Z15.0
G53
G10 P2 L20 X-200 Y-500
G55
G0   Z15.0
   X4.400        Y3.037
G1   Z-9.000    F150
   Y8.963
   X6.500
   Y3.037
   X8.600        Y4.577
   Y7.423
G0   Z4.0
   X9.768        Y6.000
G1   Z-9.000    F150
   X7.884        Y9.263
   X4.116
   X2.232        Y6.000
   X4.116        Y2.737
   X7.884
   X9.768        Y6.000
G0   Z15.0
G53
G10 P2 L20 X-300 Y-500
G55
G0   Z15.0
   X4.400        Y3.037
G1   Z-9.000    F150
   Y8.963
   X6.500
   Y3.037
   X8.600        Y4.577
   Y7.423
G0   Z4.0
   X9.768        Y6.000
G1   Z-9.000    F150
   X7.884        Y9.263
   X4.116
   X2.232        Y6.000
   X4.116        Y2.737
   X7.884
   X9.768        Y6.000
G0   Z15.0
G53
G10 P2 L20 X-400 Y-500
G55
G0   Z15.0
   X4.400        Y3.037
G1   Z-9.000    F150
   Y8.963
   X6.500
   Y3.037
   X8.600        Y4.577
   Y7.423
G0   Z4.0
   X9.768        Y6.000
G1   Z-9.000    F150
   X7.884        Y9.263
   X4.116
   X2.232        Y6.000
   X4.116        Y2.737
   X7.884
   X9.768        Y6.000
G0   Z15.0
G53
G10 P2 L20 X-500 Y-500
G55
G0   Z15.0
   X4.400        Y3.037
G1   Z-9.000    F150
   Y8.963
   X6.500
   Y3.037
   X8.600        Y4.577
   Y7.423
G0   Z4.0
   X9.768        Y6.000
G1   Z-9.000    F150
   X7.884        Y9.263
   X4.116
   X2.232        Y6.000
   X4.116        Y2.737
   X7.884
   X9.768        Y6.000
G0   Z15.0
G53
G10 P2 L20 X-600 Y-500
G55
G0   Z15.0
   X4.400        Y3.037
G1   Z-9.000    F150
   Y8.963
   X6.500
   Y3.037
   X8.600        Y4.577
   Y7.423
G0   Z4.0
   X9.768        Y6.000
G1   Z-9.000    F150
   X7.884        Y9.263
   X4.116
   X2.232        Y6.000
   X4.116        Y2.737
   X7.884
   X9.768        Y6.000
G0   Z15.0
G53
G10 P2 L20 X-700 Y-500
G55
G0   Z15.0
   X4.400        Y3.037
G1   Z-9.000    F150
   Y8.963
   X6.500
   Y3.037
   X8.600        Y4.577
   Y7.423
G0   Z4.0
   X9.768        Y6.000
G1   Z-9.000    F150
   X7.884        Y9.263
   X4.116
   X2.232        Y6.000
   X4.116        Y2.737
   X7.884
   X9.768        Y6.000
G0   Z15.0
G53
G10 P2 L20 X-800 Y-500
G55
G0   Z15.0
   X4.400        Y3.037
G1   Z-9.000    F150
   Y8.963
   X6.500
   Y3.037
   X8.600        Y4.577
   Y7.423
G0   Z4.0
   X9.768        Y6.000
G1   Z-9.000    F150
   X7.884        Y9.263
   X4.116
   X2.232        Y6.000
   X4.116        Y2.737
   X7.884
   X9.768        Y6.000
G0   Z15.0
G53
G10 P2 L20 X-900 Y-500
G55
G0   Z15.0
   X4.400        Y3.037
G1   Z-9.000    F150
   Y8.963
   X6.500
   Y3.037
   X8.600        Y4.577
   Y7.423
G0   Z4.0
   X9.768        Y6.000
G1   Z-9.000    F150
   X7.884        Y9.263
   X4.116
   X2.232        Y6.000
   X4.116        Y2.737
   X7.884
   X9.768        Y6.000
G0   Z15.0
G53
G10 P2 L20 X-1000 Y-500
G55
G0   Z15.0
   X4.400        Y3.037
G1   Z-9.000    F150
   Y8.963
   X6.500
   Y3.037
   X8.600        Y4.577
   Y7.423
G0   Z4.0
   X9.768        Y6.000
G1   Z-9.000    F150
   X7.884        Y9.263
   X4.116
   X2.232        Y6.000
   X4.116        Y2.737
   X7.884
   X9.768        Y6.000
G0   Z15.0
G53
G10 P2 L20 X-1100 Y-500
G55
G0   Z15.0
   X4.400        Y3.037
G1   Z-9.000    F150
   Y8.963
   X6.500
   Y3.037
   X8.600        Y4.577
   Y7.423
G0   Z4.0
   X9.768        Y6.000
G1   Z-9.000    F150
   X7.884        Y9.263
   X4.116
   X2.232        Y6.000
   X4.116        Y2.737
   X7.884
   X9.768        Y6.000
G0   Z15.0
G53
G10 P2 L20 X-100 Y-600
G55
G0   Z15.0
   X4.400        Y3.037
G1   Z-9.000    F150
   Y8.963
   X6.500
   Y3.037
   X8.600        Y4.577
   Y7.423
G0   Z4.0
   X9.768        Y6.000
G1   Z-9.000    F150
   X7.884        Y9.263
   X4.116
   X2.232        Y6.000
   X4.116        Y2.737
   X7.884
   X9.768        Y6.000
G0   Z15.0
G53
G10 P2 L20 X-200 Y-600
G55
G0   Z15.0
   X4.400        Y3.037
G1   Z-9.000    F150
   Y8.963
   X6.500
   Y3.037
   X8.600        Y4.577
   Y7.423
G0   Z4.0
   X9.768        Y6.000
G1   Z-9.000    F150
   X7.884        Y9.263
   X4.116
   X2.232        Y6.000
   X4.116        Y2.737
   X7.884
   X9.768        Y6.000
G0   Z15.0
G53
G10 P2 L20 X-300 Y-600
G55
G0   Z15.0
   X4.400        Y3.037
G1   Z-9.000    F150
   Y8.963
   X6.500
   Y3.037
   X8.600        Y4.577
   Y7.423
G0   Z4.0
   X9.768        Y6.000
G1   Z-9.000    F150
   X7.884        Y9.263
   X4.116
   X2.232        Y6.000
   X4.116        Y2.737
   X7.884
   X9.768        Y6.000
G0   Z15.0
G53
G10 P2 L20 X-400 Y-600
G55
G0   Z15.0
   X4.400        Y3.037
G1   Z-9.000    F150
   Y8.963
   X6.500
   Y3.037
   X8.600        Y4.577
   Y7.423
G0   Z4.0
   X9.768        Y6.000
G1   Z-9.000    F150
   X7.884        Y9.263
   X4.116
   X2.232        Y6.000
   X4.116        Y2.737
   X7.884
   X9.768        Y6.000
G0   Z15.0
G53
G10 P2 L20 X-500 Y-600
G55
G0   Z15.0
   X4.400        Y3.037
G1   Z-9.000    F150
   Y8.963
   X6.500
   Y3.037
   X8.600        Y4.577
   Y7.423
G0   Z4.0
   X9.768        Y6.000
G1   Z-9.000    F150
   X7.884        Y9.263
   X4.116
   X2.232        Y6.000
   X4.116        Y2.737
   X7.884
   X9.768        Y6.000
G0   Z15.0
G53
G10 P2 L20 X-600 Y-600
G55
G0   Z15.0
   X4.400        Y3.037
G1   Z-9.000    F150
   Y8.963
   X6.500
   Y3.037
   X8.600        Y4.577
   Y7.423
G0   Z4.0
   X9.768        Y6.000
G1   Z-9.000    F150
   X7.884        Y9.263
   X4.116
   X2.232        Y6.000
   X4.116        Y2.737
   X7.884
   X9.768        Y6.000
G0   Z15.0
G53
G10 P2 L20 X-700 Y-600
G55
G0   Z15.0
   X4.400        Y3.037
G1   Z-9.000    F150
   Y8.963
   X6.500
   Y3.037
   X8.600        Y4.577
   Y7.423
G0   Z4.0
   X9.768        Y6.000
G1   Z-9.000    F150
   X7.884        Y9.263
   X4.116
   X2.232        Y6.000
   X4.116        Y2.737
   X7.884
   X9.768        Y6.000
G0   Z15.0
G53
G10 P2 L20 X-800 Y-600
G55
G0   Z15.0
   X4.400        Y3.037
G1   Z-9.000    F150
   Y8.963
   X6.500
   Y3.037
   X8.600        Y4.577
   Y7.423
G0   Z4.0
   X9.768        Y6.000
G1   Z-9.000    F150
   X7.884        Y9.263
   X4.116
   X2.232        Y6.000
   X4.116        Y2.737
   X7.884
   X9.768        Y6.000
G0   Z15.0
G53
G10 P2 L20 X-900 Y-600
G55
G0   Z15.0
   X4.400        Y3.037
G1   Z-9.000    F150
   Y8.963
   X6.500
   Y3.037
   X8.600        Y4.577
   Y7.423
G0   Z4.0
   X9.768        Y6.000
G1   Z-9.000    F150
   X7.884        Y9.263
   X4.116
   X2.232        Y6.000
   X4.116        Y2.737
   X7.884
   X9.768        Y6.000
G0   Z15.0
G53
G10 P2 L20 X-1000 Y-600
G55
G0   Z15.0
   X4.400        Y3.037
G1   Z-9.000    F150
   Y8.963
   X6.500
   Y3.037
   X8.600        Y4.577
   Y7.423
G0   Z4.0
   X9.768        Y6.000
G1   Z-9.000    F150
   X7.884        Y9.263
   X4.116
   X2.232        Y6.000
   X4.116        Y2.737
   X7.884
   X9.768        Y6.000
G0   Z15.0
G53
G10 P2 L20 X-1100 Y-600
G55
G0   Z15.0
   X4.400        Y3.037
G1   Z-9.000    F150
   Y8.963
   X6.500
   Y3.037
   X8.600        Y4.577
   Y7.423
G0   Z4.0
   X9.768        Y6.000
G1   Z-9.000    F150
   X7.884        Y9.263
   X4.116
   X2.232        Y6.000
   X4.116        Y2.737
   X7.884
   X9.768        Y6.000
G0   Z15.0
G53
G10 P2 L20 X-100 Y-700
G55
G0   Z15.0
   X4.400        Y3.037
G1   Z-9.000    F150
   Y8.963
   X6.500
   Y3.037
   X8.600        Y4.577
   Y7.423
G0   Z4.0
   X9.768        Y6.000
G1   Z-9.000    F150
   X7.884        Y9.263
   X4.116
   X2.232        Y6.000
   X4.116        Y2.737
   X7.884
   X9.768        Y6.000
G0   Z15.0
G53
G10 P2 L20 X-200 Y-700
G55
G0   Z15.0
   X4.400        Y3.037
G1   Z-9.000    F150
   Y8.963
   X6.500
   Y3.037
   X8.600        Y4.577
   Y7.423
G0   Z4.0
   X9.768        Y6.000
G1   Z-9.000    F150
   X7.884        Y9.263
   X4.116
   X2.232        Y6.000
   X4.116        Y2.737
   X7.884
   X9.768        Y6.000
G0   Z15.0
G53
G10 P2 L20 X-300 Y-700
G55
G0   Z15.0
   X4.400        Y3.037
G1   Z-9.000    F150
   Y8.963
   X6.500
   Y3.037
   X8.600        Y4.577
   Y7.423
G0   Z4.0
   X9.768        Y6.000
G1   Z-9.000    F150
   X7.884        Y9.263
   X4.116
   X2.232        Y6.000
   X4.116        Y2.737
   X7.884
   X9.768        Y6.000
G0   Z15.0
G53
G10 P2 L20 X-400 Y-700
G55
G0   Z15.0
   X4.400        Y3.037
G1   Z-9.000    F150
   Y8.963
   X6.500
   Y3.037
   X8.600        Y4.577
   Y7.423
G0   Z4.0
   X9.768        Y6.000
G1   Z-9.000    F150
   X7.884        Y9.263
   X4.116
   X2.232        Y6.000
   X4.116        Y2.737
   X7.884
   X9.768        Y6.000
G0   Z15.0
G53
G10 P2 L20 X-500 Y-700
G55
G0   Z15.0
   X4.400        Y3.037
G1   Z-9.000    F150
   Y8.963
   X6.500
   Y3.037
   X8.600        Y4.577
   Y7.423
G0   Z4.0
   X9.768        Y6.000
G1   Z-9.000    F150
   X7.884        Y9.263
   X4.116
   X2.232        Y6.000
   X4.116        Y2.737
   X7.884
   X9.768        Y6.000
G0   Z15.0
G53
G10 P2 L20 X-600 Y-700
G55
G0   Z15.0
   X4.400        Y3.037
G1   Z-9.000    F150
   Y8.963
   X6.500
   Y3.037
   X8.600        Y4.577
   Y7.423
G0   Z4.0
   X9.768        Y6.000
G1   Z-9.000    F150
   X7.884        Y9.263
   X4.116
   X2.232        Y6.000
   X4.116        Y2.737
   X7.884
   X9.768        Y6.000
G0   Z15.0
G53
G10 P2 L20 X-700 Y-700
G55
G0   Z15.0
   X4.400        Y3.037
G1   Z-9.000    F150
   Y8.963
   X6.500
   Y3.037
   X8.600        Y4.577
   Y7.423
G0   Z4.0
   X9.768        Y6.000
G1   Z-9.000    F150
   X7.884        Y9.263
   X4.116
   X2.232        Y6.000
   X4.116        Y2.737
   X7.884
   X9.768        Y6.000
G0   Z15.0
G53
G10 P2 L20 X-800 Y-700
G55
G0   Z15.0
   X4.400        Y3.037
G1   Z-9.000    F150
   Y8.963
   X6.500
   Y3.037
   X8.600        Y4.577
   Y7.423
G0   Z4.0
   X9.768        Y6.000
G1   Z-9.000    F150
   X7.884        Y9.263
   X4.116
   X2.232        Y6.000
   X4.116        Y2.737
   X7.884
   X9.768        Y6.000
G0   Z15.0
G53
G10 P2 L20 X-900 Y-700
G55
G0   Z15.0
   X4.400        Y3.037
G1   Z-9.000    F150
   Y8.963
   X6.500
   Y3.037
   X8.600        Y4.577
   Y7.423
G0   Z4.0
   X9.768        Y6.000
G1   Z-9.000    F150
   X7.884        Y9.263
   X4.116
   X2.232        Y6.000
   X4.116        Y2.737
   X7.884
   X9.768        Y6.000
G0   Z15.0
G53
G10 P2 L20 X-1000 Y-700
G55
G0   Z15.0
   X4.400        Y3.037
G1   Z-9.000    F150
   Y8.963
   X6.500
   Y3.037
   X8.600        Y4.577
   Y7.423
G0   Z4.0
   X9.768        Y6.000
G1   Z-9.000    F150
   X7.884        Y9.263
   X4.116
   X2.232        Y6.000
   X4.116        Y2.737
   X7.884
   X9.768        Y6.000
G0   Z15.0
G53
G10 P2 L20 X-1100 Y-700
G55
G0   Z15.0
   X4.400        Y3.037
G1   Z-9.000    F150
   Y8.963
   X6.500
   Y3.037
   X8.600        Y4.577
   Y7.423
G0   Z4.0
   X9.768        Y6.000
G1   Z-9.000    F150
   X7.884        Y9.263
   X4.116
   X2.232        Y6.000
   X4.116        Y2.737
   X7.884
   X9.768        Y6.000
G0   Z15.0
G53
G10 P2 L20 X-100 Y-800
G55
G0   Z15.0
   X4.400        Y3.037
G1   Z-9.000    F150
   Y8.963
   X6.500
   Y3.037
   X8.600        Y4.577
   Y7.423
G0   Z4.0
   X9.768        Y6.000
G1   Z-9.000    F150
   X7.884        Y9.263
   X4.116
   X2.232        Y6.000
   X4.116        Y2.737
   X7.884
   X9.768        Y6.000
G0   Z15.0
G53
G10 P2 L20 X-200 Y-800
G55
G0   Z15.0
   X4.400        Y3.037
G1   Z-9.000    F150
   Y8.963
   X6.500
   Y3.037
   X8.600        Y4.577
   Y7.423
G0   Z4.0
   X9.768        Y6.000
G1   Z-9.000    F150
   X7.884        Y9.263
   X4.116
   X2.232        Y6.000
   X4.116        Y2.737
   X7.884
   X9.768        Y6.000
G0   Z15.0
G53
G10 P2 L20 X-300 Y-800
G55
G0   Z15.0
   X4.400        Y3.037
G1   Z-9.000    F150
   Y8.963
   X6.500
   Y3.037
   X8.600        Y4.577
   Y7.423
G0   Z4.0
   X9.768        Y6.000
G1   Z-9.000    F150
   X7.884        Y9.263
   X4.116
   X2.232        Y6.000
   X4.116        Y2.737
   X7.884
   X9.768        Y6.000
G0   Z15.0
G53
G10 P2 L20 X-400 Y-800
G55
G0   Z15.0
   X4.400        Y3.037
G1   Z-9.000    F150
   Y8.963
   X6.500
   Y3.037
   X8.600        Y4.577
   Y7.423
G0   Z4.0
   X9.768        Y6.000
G1   Z-9.000    F150
   X7.884        Y9.263
   X4.116
   X2.232        Y6.000
   X4.116        Y2.737
   X7.884
   X9.768        Y6.000
G0   Z15.0
G53
G10 P2 L20 X-500 Y-800
G55
G0   Z15.0
   X4.400        Y3.037
G1   Z-9.000    F150
   Y8.963
   X6.500
   Y3.037
   X8.600        Y4.577
   Y7.423
G0   Z4.0
   X9.768        Y6.000
G1   Z-9.000    F150
   X7.884        Y9.263
   X4.116
   X2.232        Y6.000
   X4.116        Y2.737
   X7.884
   X9.768        Y6.000
G0   Z15.0
G53
G10 P2 L20 X-600 Y-800
G55
G0   Z15.0
   X4.400        Y3.037
G1   Z-9.000    F150
   Y8.963
   X6.500
   Y3.037
   X8.600        Y4.577
   Y7.423
G0   Z4.0
   X9.768        Y6.000
G1   Z-9.000    F150
   X7.884        Y9.263
   X4.116
   X2.232        Y6.000
   X4.116        Y2.737
   X7.884
   X9.768        Y6.000
G0   Z15.0
G53
G10 P2 L20 X-700 Y-800
G55
G0   Z15.0
   X4.400        Y3.037
G1   Z-9.000    F150
   Y8.963
   X6.500
   Y3.037
   X8.600        Y4.577
   Y7.423
G0   Z4.0
   X9.768        Y6.000
G1   Z-9.000    F150
   X7.884        Y9.263
   X4.116
   X2.232        Y6.000
   X4.116        Y2.737
   X7.884
   X9.768        Y6.000
G0   Z15.0
G53
G10 P2 L20 X-800 Y-800
G55
G0   Z15.0
   X4.400        Y3.037
G1   Z-9.000    F150
   Y8.963
   X6.500
   Y3.037
   X8.600        Y4.577
   Y7.423
G0   Z4.0
   X9.768        Y6.000
G1   Z-9.000    F150
   X7.884        Y9.263
   X4.116
   X2.232        Y6.000
   X4.116        Y2.737
   X7.884
   X9.768        Y6.000
G0   Z15.0
G53
G10 P2 L20 X-900 Y-800
G55
G0   Z15.0
   X4.400        Y3.037
G1   Z-9.000    F150
   Y8.963
   X6.500
   Y3.037
   X8.600        Y4.577
   Y7.423
G0   Z4.0
   X9.768        Y6.000
G1   Z-9.000    F150
   X7.884        Y9.263
   X4.116
   X2.232        Y6.000
   X4.116        Y2.737
   X7.884
   X9.768        Y6.000
G0   Z15.0
G53
G10 P2 L20 X-1000 Y-800
G55
G0   Z15.0
   X4.400        Y3.037
G1   Z-9.000    F150
   Y8.963
   X6.500
   Y3.037
   X8.600        Y4.577
   Y7.423
G0   Z4.0
   X9.768        Y6.000
G1   Z-9.000    F150
   X7.884        Y9.263
   X4.116
   X2.232        Y6.000
   X4.116        Y2.737
   X7.884
   X9.768        Y6.000
G0   Z15.0
G53
G10 P2 L20 X-1100 Y-800
G55
G0   Z15.0
   X4.400        Y3.037
G1   Z-9.000    F150
   Y8.963
   X6.500
   Y3.037
   X8.600        Y4.577
   Y7.423
G0   Z4.0
   X9.768        Y6.000
G1   Z-9.000    F150
   X7.884        Y9.263
   X4.116
   X2.232        Y6.000
   X4.116        Y2.737
   X7.884
   X9.768        Y6.000
G0   Z15.0
G53
G10 P2 L20 X-100 Y-900
G55
G0   Z15.0
   X4.400        Y3.037
G1   Z-9.000    F150
   Y8.963
   X6.500
   Y3.037
   X8.600        Y4.577
   Y7.423
G0   Z4.0
   X9.768        Y6.000
G1   Z-9.000    F150
   X7.884        Y9.263
   X4.116
   X2.232        Y6.000
   X4.116        Y2.737
   X7.884
   X9.768        Y6.000
G0   Z15.0
G53
G10 P2 L20 X-200 Y-900
G55
G0   Z15.0
   X4.400        Y3.037
G1   Z-9.000    F150
   Y8.963
   X6.500
   Y3.037
   X8.600        Y4.577
   Y7.423
G0   Z4.0
   X9.768        Y6.000
G1   Z-9.000    F150
   X7.884        Y9.263
   X4.116
   X2.232        Y6.000
   X4.116        Y2.737
   X7.884
   X9.768        Y6.000
G0   Z15.0
G53
G10 P2 L20 X-300 Y-900
G55
G0   Z15.0
   X4.400        Y3.037
G1   Z-9.000    F150
   Y8.963
   X6.500
   Y3.037
   X8.600        Y4.577
   Y7.423
G0   Z4.0
   X9.768        Y6.000
G1   Z-9.000    F150
   X7.884        Y9.263
   X4.116
   X2.232        Y6.000
   X4.116        Y2.737
   X7.884
   X9.768        Y6.000
G0   Z15.0
G53
G10 P2 L20 X-400 Y-900
G55
G0   Z15.0
   X4.400        Y3.037
G1   Z-9.000    F150
   Y8.963
   X6.500
   Y3.037
   X8.600        Y4.577
   Y7.423
G0   Z4.0
   X9.768        Y6.000
G1   Z-9.000    F150
   X7.884        Y9.263
   X4.116
   X2.232        Y6.000
   X4.116        Y2.737
   X7.884
   X9.768        Y6.000
G0   Z15.0
G53
G10 P2 L20 X-500 Y-900
G55
G0   Z15.0
   X4.400        Y3.037
G1   Z-9.000    F150
   Y8.963
   X6.500
   Y3.037
   X8.600        Y4.577
   Y7.423
G0   Z4.0
   X9.768        Y6.000
G1   Z-9.000    F150
   X7.884        Y9.263
   X4.116
   X2.232        Y6.000
   X4.116        Y2.737
   X7.884
   X9.768        Y6.000
G0   Z15.0
G53
G10 P2 L20 X-600 Y-900
G55
G0   Z15.0
   X4.400        Y3.037
G1   Z-9.000    F150
   Y8.963
   X6.500
   Y3.037
   X8.600        Y4.577
   Y7.423
G0   Z4.0
   X9.768        Y6.000
G1   Z-9.000    F150
   X7.884        Y9.263
   X4.116
   X2.232        Y6.000
   X4.116        Y2.737
   X7.884
   X9.768        Y6.000
G0   Z15.0
G53
G10 P2 L20 X-700 Y-900
G55
G0   Z15.0
   X4.400        Y3.037
G1   Z-9.000    F150
   Y8.963
   X6.500
   Y3.037
   X8.600        Y4.577
   Y7.423
G0   Z4.0
   X9.768        Y6.000
G1   Z-9.000    F150
   X7.884        Y9.263
   X4.116
   X2.232        Y6.000
   X4.116        Y2.737
   X7.884
   X9.768        Y6.000
G0   Z15.0
G53
G10 P2 L20 X-800 Y-900
G55
G0   Z15.0
   X4.400        Y3.037
G1   Z-9.000    F150
   Y8.963
   X6.500
   Y3.037
   X8.600        Y4.577
   Y7.423
G0   Z4.0
   X9.768        Y6.000
G1   Z-9.000    F150
   X7.884        Y9.263
   X4.116
   X2.232        Y6.000
   X4.116        Y2.737
   X7.884
   X9.768        Y6.000
G0   Z15.0
G53
G10 P2 L20 X-900 Y-900
G55
G0   Z15.0
   X4.400        Y3.037
G1   Z-9.000    F150
   Y8.963
   X6.500
   Y3.037
   X8.600        Y4.577
   Y7.423
G0   Z4.0
   X9.768        Y6.000
G1   Z-9.000    F150
   X7.884        Y9.263
   X4.116
   X2.232        Y6.000
   X4.116        Y2.737
   X7.884
   X9.768        Y6.000
G0   Z15.0
G53
G10 P2 L20 X-1000 Y-900
G55
G0   Z15.0
   X4.400        Y3.037
G1   Z-9.000    F150
   Y8.963
   X6.500
   Y3.037
   X8.600        Y4.577
   Y7.423
G0   Z4.0
   X9.768        Y6.000
G1   Z-9.000    F150
   X7.884        Y9.263
   X4.116
   X2.232        Y6.000
   X4.116        Y2.737
   X7.884
   X9.768        Y6.000
G0   Z15.0
G53
G10 P2 L20 X-1100 Y-900
G55
G0   Z15.0
   X4.400        Y3.037
G1   Z-9.000    F150
   Y8.963
   X6.500
   Y3.037
   X8.600        Y4.577
   Y7.423
G0   Z4.0
   X9.768        Y6.000
G1   Z-9.000    F150
   X7.884        Y9.263
   X4.116
   X2.232        Y6.000
   X4.116        Y2.737
   X7.884
   X9.768        Y6.000
G0   Z15.0
G53
G10 P2 L20 X-100 Y-1000
G55
G0   Z15.0
   X4.400        Y3.037
G1   Z-9.000    F150
   Y8.963
   X6.500
   Y3.037
   X8.600        Y4.577
   Y7.423
G0   Z4.0
   X9.768        Y6.000
G1   Z-9.000    F150
   X7.884        Y9.263
   X4.116
   X2.232        Y6.000
   X4.116        Y2.737
   X7.884
   X9.768        Y6.000
G0   Z15.0
G53
G10 P2 L20 X-200 Y-1000
G55
G0   Z15.0
   X4.400        Y3.037
G1   Z-9.000    F150
   Y8.963
   X6.500
   Y3.037
   X8.600        Y4.577
   Y7.423
G0   Z4.0
   X9.768        Y6.000
G1   Z-9.000    F150
   X7.884        Y9.263
   X4.116
   X2.232        Y6.000
   X4.116        Y2.737
   X7.884
   X9.768        Y6.000
G0   Z15.0
G53
G10 P2 L20 X-300 Y-1000
G55
G0   Z15.0
   X4.400        Y3.037
G1   Z-9.000    F150
   Y8.963
   X6.500
   Y3.037
   X8.600        Y4.577
   Y7.423
G0   Z4.0
   X9.768        Y6.000
G1   Z-9.000    F150
   X7.884        Y9.263
   X4.116
   X2.232        Y6.000
   X4.116        Y2.737
   X7.884
   X9.768        Y6.000
G0   Z15.0
G53
G10 P2 L20 X-400 Y-1000
G55
G0   Z15.0
   X4.400        Y3.037
G1   Z-9.000    F150
   Y8.963
   X6.500
   Y3.037
   X8.600        Y4.577
   Y7.423
G0   Z4.0
   X9.768        Y6.000
G1   Z-9.000    F150
   X7.884        Y9.263
   X4.116
   X2.232        Y6.000
   X4.116        Y2.737
   X7.884
   X9.768        Y6.000
G0   Z15.0
G53
G10 P2 L20 X-500 Y-1000
G55
G0   Z15.0
   X4.400        Y3.037
G1   Z-9.000    F150
   Y8.963
   X6.500
   Y3.037
   X8.600        Y4.577
   Y7.423
G0   Z4.0
   X9.768        Y6.000
G1   Z-9.000    F150
   X7.884        Y9.263
   X4.116
   X2.232        Y6.000
   X4.116        Y2.737
   X7.884
   X9.768        Y6.000
G0   Z15.0
G53
G10 P2 L20 X-600 Y-1000
G55
G0   Z15.0
   X4.400        Y3.037
G1   Z-9.000    F150
   Y8.963
   X6.500
   Y3.037
   X8.600        Y4.577
   Y7.423
G0   Z4.0
   X9.768        Y6.000
G1   Z-9.000    F150
   X7.884        Y9.263
   X4.116
   X2.232        Y6.000
   X4.116        Y2.737
   X7.884
   X9.768        Y6.000
G0   Z15.0
G53
G10 P2 L20 X-700 Y-1000
G55
G0   Z15.0
   X4.400        Y3.037
G1   Z-9.000    F150
   Y8.963
   X6.500
   Y3.037
   X8.600        Y4.577
   Y7.423
G0   Z4.0
   X9.768        Y6.000
G1   Z-9.000    F150
   X7.884        Y9.263
   X4.116
   X2.232        Y6.000
   X4.116        Y2.737
   X7.884
   X9.768        Y6.000
G0   Z15.0
G53
G10 P2 L20 X-800 Y-1000
G55
G0   Z15.0
   X4.400        Y3.037
G1   Z-9.000    F150
   Y8.963
   X6.500
   Y3.037
   X8.600        Y4.577
   Y7.423
G0   Z4.0
   X9.768        Y6.000
G1   Z-9.000    F150
   X7.884        Y9.263
   X4.116
   X2.232        Y6.000
   X4.116        Y2.737
   X7.884
   X9.768        Y6.000
G0   Z15.0
G53
G10 P2 L20 X-900 Y-1000
G55
G0   Z15.0
   X4.400        Y3.037
G1   Z-9.000    F150
   Y8.963
   X6.500
   Y3.037
   X8.600        Y4.577
   Y7.423
G0   Z4.0
   X9.768        Y6.000
G1   Z-9.000    F150
   X7.884        Y9.263
   X4.116
   X2.232        Y6.000
   X4.116        Y2.737
   X7.884
   X9.768        Y6.000
G0   Z15.0
G53
G10 P2 L20 X-1000 Y-1000
G55
G0   Z15.0
   X4.400        Y3.037
G1   Z-9.000    F150
   Y8.963
   X6.500
   Y3.037
   X8.600        Y4.577
   Y7.423
G0   Z4.0
   X9.768        Y6.000
G1   Z-9.000    F150
   X7.884        Y9.263
   X4.116
   X2.232        Y6.000
   X4.116        Y2.737
   X7.884
   X9.768        Y6.000
G0   Z15.0
G53
G10 P2 L20 X-1100 Y-1000
G55
G0   Z15.0
   X4.400        Y3.037
G1   Z-9.000    F150
   Y8.963
   X6.500
   Y3.037
   X8.600        Y4.577
   Y7.423
G0   Z4.0
   X9.768        Y6.000
G1   Z-9.000    F150
   X7.884        Y9.263
   X4.116
   X2.232        Y6.000
   X4.116        Y2.737
   X7.884
   X9.768        Y6.000
G0   Z15.0
G53
G10 P2 L20 X-100 Y-1100
G55
G0   Z15.0
   X4.400        Y3.037
G1   Z-9.000    F150
   Y8.963
   X6.500
   Y3.037
   X8.600        Y4.577
   Y7.423
G0   Z4.0
   X9.768        Y6.000
G1   Z-9.000    F150
   X7.884        Y9.263
   X4.116
   X2.232        Y6.000
   X4.116        Y2.737
   X7.884
   X9.768        Y6.000
G0   Z15.0
G53
G10 P2 L20 X-200 Y-1100
G55
G0   Z15.0
   X4.400        Y3.037
G1   Z-9.000    F150
   Y8.963
   X6.500
   Y3.037
   X8.600        Y4.577
   Y7.423
G0   Z4.0
   X9.768        Y6.000
G1   Z-9.000    F150
   X7.884        Y9.263
   X4.116
   X2.232        Y6.000
   X4.116        Y2.737
   X7.884
   X9.768        Y6.000
G0   Z15.0
G53
G10 P2 L20 X-300 Y-1100
G55
G0   Z15.0
   X4.400        Y3.037
G1   Z-9.000    F150
   Y8.963
   X6.500
   Y3.037
   X8.600        Y4.577
   Y7.423
G0   Z4.0
   X9.768        Y6.000
G1   Z-9.000    F150
   X7.884        Y9.263
   X4.116
   X2.232        Y6.000
   X4.116        Y2.737
   X7.884
   X9.768        Y6.000
G0   Z15.0
G53
G10 P2 L20 X-400 Y-1100
G55
G0   Z15.0
   X4.400        Y3.037
G1   Z-9.000    F150
   Y8.963
   X6.500
   Y3.037
   X8.600        Y4.577
   Y7.423
G0   Z4.0
   X9.768        Y6.000
G1   Z-9.000    F150
   X7.884        Y9.263
   X4.116
   X2.232        Y6.000
   X4.116        Y2.737
   X7.884
   X9.768        Y6.000
G0   Z15.0
G53
G10 P2 L20 X-500 Y-1100
G55
G0   Z15.0
   X4.400        Y3.037
G1   Z-9.000    F150
   Y8.963
   X6.500
   Y3.037
   X8.600        Y4.577
   Y7.423
G0   Z4.0
   X9.768        Y6.000
G1   Z-9.000    F150
   X7.884        Y9.263
   X4.116
   X2.232        Y6.000
   X4.116        Y2.737
   X7.884
   X9.768        Y6.000
G0   Z15.0
G53
G10 P2 L20 X-600 Y-1100
G55
G0   Z15.0
   X4.400        Y3.037
G1   Z-9.000    F150
   Y8.963
   X6.500
   Y3.037
   X8.600        Y4.577
   Y7.423
G0   Z4.0
   X9.768        Y6.000
G1   Z-9.000    F150
   X7.884        Y9.263
   X4.116
   X2.232        Y6.000
   X4.116        Y2.737
   X7.884
   X9.768        Y6.000
G0   Z15.0
G53
G10 P2 L20 X-700 Y-1100
G55
G0   Z15.0
   X4.400        Y3.037
G1   Z-9.000    F150
   Y8.963
   X6.500
   Y3.037
   X8.600        Y4.577
   Y7.423
G0   Z4.0
   X9.768        Y6.000
G1   Z-9.000    F150
   X7.884        Y9.263
   X4.116
   X2.232        Y6.000
   X4.116        Y2.737
   X7.884
   X9.768        Y6.000
G0   Z15.0
G53
G10 P2 L20 X-800 Y-1100
G55
G0   Z15.0
   X4.400        Y3.037
G1   Z-9.000    F150
   Y8.963
   X6.500
   Y3.037
   X8.600        Y4.577
   Y7.423
G0   Z4.0
   X9.768        Y6.000
G1   Z-9.000    F150
   X7.884        Y9.263
   X4.116
   X2.232        Y6.000
   X4.116        Y2.737
   X7.884
   X9.768        Y6.000
G0   Z15.0
G53
G10 P2 L20 X-900 Y-1100
G55
G0   Z15.0
   X4.400        Y3.037
G1   Z-9.000    F150
   Y8.963
   X6.500
   Y3.037
   X8.600        Y4.577
   Y7.423
G0   Z4.0
   X9.768        Y6.000
G1   Z-9.000    F150
   X7.884        Y9.263
   X4.116
   X2.232        Y6.000
   X4.116        Y2.737
   X7.884
   X9.768        Y6.000
G0   Z15.0
G53
G10 P2 L20 X-1000 Y-1100
G55
G0   Z15.0
   X4.400        Y3.037
G1   Z-9.000    F150
   Y8.963
   X6.500
   Y3.037
   X8.600        Y4.577
   Y7.423
G0   Z4.0
   X9.768        Y6.000
G1   Z-9.000    F150
   X7.884        Y9.263
   X4.116
   X2.232        Y6.000
   X4.116        Y2.737
   X7.884
   X9.768        Y6.000
G0   Z15.0
G53
G10 P2 L20 X-1100 Y-1100
G55
G0   Z15.0
   X4.400        Y3.037
G1   Z-9.000    F150
   Y8.963
   X6.500
   Y3.037
   X8.600        Y4.577
   Y7.423
G0   Z4.0
   X9.768        Y6.000
G1   Z-9.000    F150
   X7.884        Y9.263
   X4.116
   X2.232        Y6.000
   X4.116        Y2.737
   X7.884
   X9.768        Y6.000
G0   Z15.0
G53
G10 P2 L20 X-100 Y-1200
G55
G0   Z15.0
   X4.400        Y3.037
G1   Z-9.000    F150
   Y8.963
   X6.500
   Y3.037
   X8.600        Y4.577
   Y7.423
G0   Z4.0
   X9.768        Y6.000
G1   Z-9.000    F150
   X7.884        Y9.263
   X4.116
   X2.232        Y6.000
   X4.116        Y2.737
   X7.884
   X9.768        Y6.000
G0   Z15.0
G53
G10 P2 L20 X-200 Y-1200
G55
G0   Z15.0
   X4.400        Y3.037
G1   Z-9.000    F150
   Y8.963
   X6.500
   Y3.037
   X8.600        Y4.577
   Y7.423
G0   Z4.0
   X9.768        Y6.000
G1   Z-9.000    F150
   X7.884        Y9.263
   X4.116
   X2.232        Y6.000
   X4.116        Y2.737
   X7.884
   X9.768        Y6.000
G0   Z15.0
G53
G10 P2 L20 X-300 Y-1200
G55
G0   Z15.0
   X4.400        Y3.037
G1   Z-9.000    F150
   Y8.963
   X6.500
   Y3.037
   X8.600        Y4.577
   Y7.423
G0   Z4.0
   X9.768        Y6.000
G1   Z-9.000    F150
   X7.884        Y9.263
   X4.116
   X2.232        Y6.000
   X4.116        Y2.737
   X7.884
   X9.768        Y6.000
G0   Z15.0
G53
G10 P2 L20 X-400 Y-1200
G55
G0   Z15.0
   X4.400        Y3.037
G1   Z-9.000    F150
   Y8.963
   X6.500
   Y3.037
   X8.600        Y4.577
   Y7.423
G0   Z4.0
   X9.768        Y6.000
G1   Z-9.000    F150
   X7.884        Y9.263
   X4.116
   X2.232        Y6.000
   X4.116        Y2.737
   X7.884
   X9.768        Y6.000
G0   Z15.0
G53
G10 P2 L20 X-500 Y-1200
G55
G0   Z15.0
   X4.400        Y3.037
G1   Z-9.000    F150
   Y8.963
   X6.500
   Y3.037
   X8.600        Y4.577
   Y7.423
G0   Z4.0
   X9.768        Y6.000
G1   Z-9.000    F150
   X7.884        Y9.263
   X4.116
   X2.232        Y6.000
   X4.116        Y2.737
   X7.884
   X9.768        Y6.000
G0   Z15.0
G53
G10 P2 L20 X-600 Y-1200
G55
G0   Z15.0
   X4.400        Y3.037
G1   Z-9.000    F150
   Y8.963
   X6.500
   Y3.037
   X8.600        Y4.577
   Y7.423
G0   Z4.0
   X9.768        Y6.000
G1   Z-9.000    F150
   X7.884        Y9.263
   X4.116
   X2.232        Y6.000
   X4.116        Y2.737
   X7.884
   X9.768        Y6.000
G0   Z15.0
G53
G10 P2 L20 X-700 Y-1200
G55
G0   Z15.0
   X4.400        Y3.037
G1   Z-9.000    F150
   Y8.963
   X6.500
   Y3.037
   X8.600        Y4.577
   Y7.423
G0   Z4.0
   X9.768        Y6.000
G1   Z-9.000    F150
   X7.884        Y9.263
   X4.116
   X2.232        Y6.000
   X4.116        Y2.737
   X7.884
   X9.768        Y6.000
G0   Z15.0
G53
G10 P2 L20 X-800 Y-1200
G55
G0   Z15.0
   X4.400        Y3.037
G1   Z-9.000    F150
   Y8.963
   X6.500
   Y3.037
   X8.600        Y4.577
   Y7.423
G0   Z4.0
   X9.768        Y6.000
G1   Z-9.000    F150
   X7.884        Y9.263
   X4.116
   X2.232        Y6.000
   X4.116        Y2.737
   X7.884
   X9.768        Y6.000
G0   Z15.0
G53
G10 P2 L20 X-900 Y-1200
G55
G0   Z15.0
   X4.400        Y3.037
G1   Z-9.000    F150
   Y8.963
   X6.500
   Y3.037
   X8.600        Y4.577
   Y7.423
G0   Z4.0
   X9.768        Y6.000
G1   Z-9.000    F150
   X7.884        Y9.263
   X4.116
   X2.232        Y6.000
   X4.116        Y2.737
   X7.884
   X9.768        Y6.000
G0   Z15.0
G53
G10 P2 L20 X-1000 Y-1200
G55
G0   Z15.0
   X4.400        Y3.037
G1   Z-9.000    F150
   Y8.963
   X6.500
   Y3.037
   X8.600        Y4.577
   Y7.423
G0   Z4.0
   X9.768        Y6.000
G1   Z-9.000    F150
   X7.884        Y9.263
   X4.116
   X2.232        Y6.000
   X4.116        Y2.737
   X7.884
   X9.768        Y6.000
G0   Z15.0
G53
G10 P2 L20 X-1100 Y-1200
G55
G0   Z15.0
   X4.400        Y3.037
G1   Z-9.000    F150
   Y8.963
   X6.500
   Y3.037
   X8.600        Y4.577
   Y7.423
G0   Z4.0
   X9.768        Y6.000
G1   Z-9.000    F150
   X7.884        Y9.263
   X4.116
   X2.232        Y6.000
   X4.116        Y2.737
   X7.884
   X9.768        Y6.000
G0   Z15.0
G53
G10 P2 L20 X-100 Y-1300
G55
G0   Z15.0
   X4.400        Y3.037
G1   Z-9.000    F150
   Y8.963
   X6.500
   Y3.037
   X8.600        Y4.577
   Y7.423
G0   Z4.0
   X9.768        Y6.000
G1   Z-9.000    F150
   X7.884        Y9.263
   X4.116
   X2.232        Y6.000
   X4.116        Y2.737
   X7.884
   X9.768        Y6.000
G0   Z15.0
G53
G10 P2 L20 X-200 Y-1300
G55
G0   Z15.0
   X4.400        Y3.037
G1   Z-9.000    F150
   Y8.963
   X6.500
   Y3.037
   X8.600        Y4.577
   Y7.423
G0   Z4.0
   X9.768        Y6.000
G1   Z-9.000    F150
   X7.884        Y9.263
   X4.116
   X2.232        Y6.000
   X4.116        Y2.737
   X7.884
   X9.768        Y6.000
G0   Z15.0
G53
G10 P2 L20 X-300 Y-1300
G55
G0   Z15.0
   X4.400        Y3.037
G1   Z-9.000    F150
   Y8.963
   X6.500
   Y3.037
   X8.600        Y4.577
   Y7.423
G0   Z4.0
   X9.768        Y6.000
G1   Z-9.000    F150
   X7.884        Y9.263
   X4.116
   X2.232        Y6.000
   X4.116        Y2.737
   X7.884
   X9.768        Y6.000
G0   Z15.0
G53
G10 P2 L20 X-400 Y-1300
G55
G0   Z15.0
   X4.400        Y3.037
G1   Z-9.000    F150
   Y8.963
   X6.500
   Y3.037
   X8.600        Y4.577
   Y7.423
G0   Z4.0
   X9.768        Y6.000
G1   Z-9.000    F150
   X7.884        Y9.263
   X4.116
   X2.232        Y6.000
   X4.116        Y2.737
   X7.884
   X9.768        Y6.000
G0   Z15.0
G53
G10 P2 L20 X-500 Y-1300
G55
G0   Z15.0
   X4.400        Y3.037
G1   Z-9.000    F150
   Y8.963
   X6.500
   Y3.037
   X8.600        Y4.577
   Y7.423
G0   Z4.0
   X9.768        Y6.000
G1   Z-9.000    F150
   X7.884        Y9.263
   X4.116
   X2.232        Y6.000
   X4.116        Y2.737
   X7.884
   X9.768        Y6.000
G0   Z15.0
G53
G10 P2 L20 X-600 Y-1300
G55
G0   Z15.0
   X4.400        Y3.037
G1   Z-9.000    F150
   Y8.963
   X6.500
   Y3.037
   X8.600        Y4.577
   Y7.423
G0   Z4.0
   X9.768        Y6.000
G1   Z-9.000    F150
   X7.884        Y9.263
   X4.116
   X2.232        Y6.000
   X4.116        Y2.737
   X7.884
   X9.768        Y6.000
G0   Z15.0
G53
G10 P2 L20 X-700 Y-1300
G55
G0   Z15.0
   X4.400        Y3.037
G1   Z-9.000    F150
   Y8.963
   X6.500
   Y3.037
   X8.600        Y4.577
   Y7.423
G0   Z4.0
   X9.768        Y6.000
G1   Z-9.000    F150
   X7.884        Y9.263
   X4.116
   X2.232        Y6.000
   X4.116        Y2.737
   X7.884
   X9.768        Y6.000
G0   Z15.0
G53
G10 P2 L20 X-800 Y-1300
G55
G0   Z15.0
   X4.400        Y3.037
G1   Z-9.000    F150
   Y8.963
   X6.500
   Y3.037
   X8.600        Y4.577
   Y7.423
G0   Z4.0
   X9.768        Y6.000
G1   Z-9.000    F150
   X7.884        Y9.263
   X4.116
   X2.232        Y6.000
   X4.116        Y2.737
   X7.884
   X9.768        Y6.000
G0   Z15.0
G53
G10 P2 L20 X-900 Y-1300
G55
G0   Z15.0
   X4.400        Y3.037
G1   Z-9.000    F150
   Y8.963
   X6.500
   Y3.037
   X8.600        Y4.577
   Y7.423
G0   Z4.0
   X9.768        Y6.000
G1   Z-9.000    F150
   X7.884        Y9.263
   X4.116
   X2.232        Y6.000
   X4.116        Y2.737
   X7.884
   X9.768        Y6.000
G0   Z15.0
G53
G10 P2 L20 X-1000 Y-1300
G55
G0   Z15.0
   X4.400        Y3.037
G1   Z-9.000    F150
   Y8.963
   X6.500
   Y3.037
   X8.600        Y4.577
   Y7.423
G0   Z4.0
   X9.768        Y6.000
G1   Z-9.000    F150
   X7.884        Y9.263
   X4.116
   X2.232        Y6.000
   X4.116        Y2.737
   X7.884
   X9.768        Y6.000
G0   Z15.0
G53
G10 P2 L20 X-1100 Y-1300
G55
G0   Z15.0
   X4.400        Y3.037
G1   Z-9.000    F150
   Y8.963
   X6.500
   Y3.037
   X8.600        Y4.577
   Y7.423
G0   Z4.0
   X9.768        Y6.000
G1   Z-9.000    F150
   X7.884        Y9.263
   X4.116
   X2.232        Y6.000
   X4.116        Y2.737
   X7.884
   X9.768        Y6.000
G0   Z15.0
G53
G10 P2 L20 X-100 Y-1400
G55
G0   Z15.0
   X4.400        Y3.037
G1   Z-9.000    F150
   Y8.963
   X6.500
   Y3.037
   X8.600        Y4.577
   Y7.423
G0   Z4.0
   X9.768        Y6.000
G1   Z-9.000    F150
   X7.884        Y9.263
   X4.116
   X2.232        Y6.000
   X4.116        Y2.737
   X7.884
   X9.768        Y6.000
G0   Z15.0
G53
G10 P2 L20 X-200 Y-1400
G55
G0   Z15.0
   X4.400        Y3.037
G1   Z-9.000    F150
   Y8.963
   X6.500
   Y3.037
   X8.600        Y4.577
   Y7.423
G0   Z4.0
   X9.768        Y6.000
G1   Z-9.000    F150
   X7.884        Y9.263
   X4.116
   X2.232        Y6.000
   X4.116        Y2.737
   X7.884
   X9.768        Y6.000
G0   Z15.0
G53
G10 P2 L20 X-300 Y-1400
G55
G0   Z15.0
   X4.400        Y3.037
G1   Z-9.000    F150
   Y8.963
   X6.500
   Y3.037
   X8.600        Y4.577
   Y7.423
G0   Z4.0
   X9.768        Y6.000
G1   Z-9.000    F150
   X7.884        Y9.263
   X4.116
   X2.232        Y6.000
   X4.116        Y2.737
   X7.884
   X9.768        Y6.000
G0   Z15.0
G53
G10 P2 L20 X-400 Y-1400
G55
G0   Z15.0
   X4.400        Y3.037
G1   Z-9.000    F150
   Y8.963
   X6.500
   Y3.037
   X8.600        Y4.577
   Y7.423
G0   Z4.0
   X9.768        Y6.000
G1   Z-9.000    F150
   X7.884        Y9.263
   X4.116
   X2.232        Y6.000
   X4.116        Y2.737
   X7.884
   X9.768        Y6.000
G0   Z15.0
G53
G10 P2 L20 X-500 Y-1400
G55
G0   Z15.0
   X4.400        Y3.037
G1   Z-9.000    F150
   Y8.963
   X6.500
   Y3.037
   X8.600        Y4.577
   Y7.423
G0   Z4.0
   X9.768        Y6.000
G1   Z-9.000    F150
   X7.884        Y9.263
   X4.116
   X2.232        Y6.000
   X4.116        Y2.737
   X7.884
   X9.768        Y6.000
G0   Z15.0
G53
G10 P2 L20 X-600 Y-1400
G55
G0   Z15.0
   X4.400        Y3.037
G1   Z-9.000    F150
   Y8.963
   X6.500
   Y3.037
   X8.600        Y4.577
   Y7.423
G0   Z4.0
   X9.768        Y6.000
G1   Z-9.000    F150
   X7.884        Y9.263
   X4.116
   X2.232        Y6.000
   X4.116        Y2.737
   X7.884
   X9.768        Y6.000
G0   Z15.0
G53
G10 P2 L20 X-700 Y-1400
G55
G0   Z15.0
   X4.400        Y3.037
G1   Z-9.000    F150
   Y8.963
   X6.500
   Y3.037
   X8.600        Y4.577
   Y7.423
G0   Z4.0
   X9.768        Y6.000
G1   Z-9.000    F150
   X7.884        Y9.263
   X4.116
   X2.232        Y6.000
   X4.116        Y2.737
   X7.884
   X9.768        Y6.000
G0   Z15.0
G53
G10 P2 L20 X-800 Y-1400
G55
G0   Z15.0
   X4.400        Y3.037
G1   Z-9.000    F150
   Y8.963
   X6.500
   Y3.037
   X8.600        Y4.577
   Y7.423
G0   Z4.0
   X9.768        Y6.000
G1   Z-9.000    F150
   X7.884        Y9.263
   X4.116
   X2.232        Y6.000
   X4.116        Y2.737
   X7.884
   X9.768        Y6.000
G0   Z15.0
G53
G10 P2 L20 X-900 Y-1400
G55
G0   Z15.0
   X4.400        Y3.037
G1   Z-9.000    F150
   Y8.963
   X6.500
   Y3.037
   X8.600        Y4.577
   Y7.423
G0   Z4.0
   X9.768        Y6.000
G1   Z-9.000    F150
   X7.884        Y9.263
   X4.116
   X2.232        Y6.000
   X4.116        Y2.737
   X7.884
   X9.768        Y6.000
G0   Z15.0
G53
G10 P2 L20 X-1000 Y-1400
G55
G0   Z15.0
   X4.400        Y3.037
G1   Z-9.000    F150
   Y8.963
   X6.500
   Y3.037
   X8.600        Y4.577
   Y7.423
G0   Z4.0
   X9.768        Y6.000
G1   Z-9.000    F150
   X7.884        Y9.263
   X4.116
   X2.232        Y6.000
   X4.116        Y2.737
   X7.884
   X9.768        Y6.000
G0   Z15.0
G53
G10 P2 L20 X-1100 Y-1400
G55
G0   Z15.0
   X4.400        Y3.037
G1   Z-9.000    F150
   Y8.963
   X6.500
   Y3.037
   X8.600        Y4.577
   Y7.423
G0   Z4.0
   X9.768        Y6.000
G1   Z-9.000    F150
   X7.884        Y9.263
   X4.116
   X2.232        Y6.000
   X4.116        Y2.737
   X7.884
   X9.768        Y6.000
G0   Z15.0
G53
G10 P2 L20 X-100 Y-1500
G55
G0   Z15.0
   X4.400        Y3.037
G1   Z-9.000    F150
   Y8.963
   X6.500
   Y3.037
   X8.600        Y4.577
   Y7.423
G0   Z4.0
   X9.768        Y6.000
G1   Z-9.000    F150
   X7.884        Y9.263
   X4.116
   X2.232        Y6.000
   X4.116        Y2.737
   X7.884
   X9.768        Y6.000
G0   Z15.0
G53
G10 P2 L20 X-200 Y-1500
G55
G0   Z15.0
   X4.400        Y3.037
G1   Z-9.000    F150
   Y8.963
   X6.500
   Y3.037
   X8.600        Y4.577
   Y7.423
G0   Z4.0
   X9.768        Y6.000
G1   Z-9.000    F150
   X7.884        Y9.263
   X4.116
   X2.232        Y6.000
   X4.116        Y2.737
   X7.884
   X9.768        Y6.000
G0   Z15.0
G53
G10 P2 L20 X-300 Y-1500
G55
G0   Z15.0
   X4.400        Y3.037
G1   Z-9.000    F150
   Y8.963
   X6.500
   Y3.037
   X8.600        Y4.577
   Y7.423
G0   Z4.0
   X9.768        Y6.000
G1   Z-9.000    F150
   X7.884        Y9.263
   X4.116
   X2.232        Y6.000
   X4.116        Y2.737
   X7.884
   X9.768        Y6.000
G0   Z15.0
G53
G10 P2 L20 X-400 Y-1500
G55
G0   Z15.0
   X4.400        Y3.037
G1   Z-9.000    F150
   Y8.963
   X6.500
   Y3.037
   X8.600        Y4.577
   Y7.423
G0   Z4.0
   X9.768        Y6.000
G1   Z-9.000    F150
   X7.884        Y9.263
   X4.116
   X2.232        Y6.000
   X4.116        Y2.737
   X7.884
   X9.768        Y6.000
G0   Z15.0
G53
G10 P2 L20 X-500 Y-1500
G55
G0   Z15.0
   X4.400        Y3.037
G1   Z-9.000    F150
   Y8.963
   X6.500
   Y3.037
   X8.600        Y4.577
   Y7.423
G0   Z4.0
   X9.768        Y6.000
G1   Z-9.000    F150
   X7.884        Y9.263
   X4.116
   X2.232        Y6.000
   X4.116        Y2.737
   X7.884
   X9.768        Y6.000
G0   Z15.0
G53
G10 P2 L20 X-600 Y-1500
G55
G0   Z15.0
   X4.400        Y3.037
G1   Z-9.000    F150
   Y8.963
   X6.500
   Y3.037
   X8.600        Y4.577
   Y7.423
G0   Z4.0
   X9.768        Y6.000
G1   Z-9.000    F150
   X7.884        Y9.263
   X4.116
   X2.232        Y6.000
   X4.116        Y2.737
   X7.884
   X9.768        Y6.000
G0   Z15.0
G53
G10 P2 L20 X-700 Y-1500
G55
G0   Z15.0
   X4.400        Y3.037
G1   Z-9.000    F150
   Y8.963
   X6.500
   Y3.037
   X8.600        Y4.577
   Y7.423
G0   Z4.0
   X9.768        Y6.000
G1   Z-9.000    F150
   X7.884        Y9.263
   X4.116
   X2.232        Y6.000
   X4.116        Y2.737
   X7.884
   X9.768        Y6.000
G0   Z15.0
G53
G10 P2 L20 X-800 Y-1500
G55
G0   Z15.0
   X4.400        Y3.037
G1   Z-9.000    F150
   Y8.963
   X6.500
   Y3.037
   X8.600        Y4.577
   Y7.423
G0   Z4.0
   X9.768        Y6.000
G1   Z-9.000    F150
   X7.884        Y9.263
   X4.116
   X2.232        Y6.000
   X4.116        Y2.737
   X7.884
   X9.768        Y6.000
G0   Z15.0
G53
G10 P2 L20 X-900 Y-1500
G55
G0   Z15.0
   X4.400        Y3.037
G1   Z-9.000    F150
   Y8.963
   X6.500
   Y3.037
   X8.600        Y4.577
   Y7.423
G0   Z4.0
   X9.768        Y6.000
G1   Z-9.000    F150
   X7.884        Y9.263
   X4.116
   X2.232        Y6.000
   X4.116        Y2.737
   X7.884
   X9.768        Y6.000
G0   Z15.0
G53
G10 P2 L20 X-1000 Y-1500
G55
G0   Z15.0
   X4.400        Y3.037
G1   Z-9.000    F150
   Y8.963
   X6.500
   Y3.037
   X8.600        Y4.577
   Y7.423
G0   Z4.0
   X9.768        Y6.000
G1   Z-9.000    F150
   X7.884        Y9.263
   X4.116
   X2.232        Y6.000
   X4.116        Y2.737
   X7.884
   X9.768        Y6.000
G0   Z15.0
G53
G10 P2 L20 X-1100 Y-1500
G55
G0   Z15.0
   X4.400        Y3.037
G1   Z-9.000    F150
   Y8.963
   X6.500
   Y3.037
   X8.600        Y4.577
   Y7.423
G0   Z4.0
   X9.768        Y6.000
G1   Z-9.000    F150
   X7.884        Y9.263
   X4.116
   X2.232        Y6.000
   X4.116        Y2.737
   X7.884
   X9.768        Y6.000
G0   Z15.0
G53
G10 P2 L20 X-100 Y-1600
G55
G0   Z15.0
   X4.400        Y3.037
G1   Z-9.000    F150
   Y8.963
   X6.500
   Y3.037
   X8.600        Y4.577
   Y7.423
G0   Z4.0
   X9.768        Y6.000
G1   Z-9.000    F150
   X7.884        Y9.263
   X4.116
   X2.232        Y6.000
   X4.116        Y2.737
   X7.884
   X9.768        Y6.000
G0   Z15.0
G53
G10 P2 L20 X-200 Y-1600
G55
G0   Z15.0
   X4.400        Y3.037
G1   Z-9.000    F150
   Y8.963
   X6.500
   Y3.037
   X8.600        Y4.577
   Y7.423
G0   Z4.0
   X9.768        Y6.000
G1   Z-9.000    F150
   X7.884        Y9.263
   X4.116
   X2.232        Y6.000
   X4.116        Y2.737
   X7.884
   X9.768        Y6.000
G0   Z15.0
G53
G10 P2 L20 X-300 Y-1600
G55
G0   Z15.0
   X4.400        Y3.037
G1   Z-9.000    F150
   Y8.963
   X6.500
   Y3.037
   X8.600        Y4.577
   Y7.423
G0   Z4.0
   X9.768        Y6.000
G1   Z-9.000    F150
   X7.884        Y9.263
   X4.116
   X2.232        Y6.000
   X4.116        Y2.737
   X7.884
   X9.768        Y6.000
G0   Z15.0
G53
G10 P2 L20 X-400 Y-1600
G55
G0   Z15.0
   X4.400        Y3.037
G1   Z-9.000    F150
   Y8.963
   X6.500
   Y3.037
   X8.600        Y4.577
   Y7.423
G0   Z4.0
   X9.768        Y6.000
G1   Z-9.000    F150
   X7.884        Y9.263
   X4.116
   X2.232        Y6.000
   X4.116        Y2.737
   X7.884
   X9.768        Y6.000
G0   Z15.0
G53
G10 P2 L20 X-500 Y-1600
G55
G0   Z15.0
   X4.400        Y3.037
G1   Z-9.000    F150
   Y8.963
   X6.500
   Y3.037
   X8.600        Y4.577
   Y7.423
G0   Z4.0
   X9.768        Y6.000
G1   Z-9.000    F150
   X7.884        Y9.263
   X4.116
   X2.232        Y6.000
   X4.116        Y2.737
   X7.884
   X9.768        Y6.000
G0   Z15.0
G53
G10 P2 L20 X-600 Y-1600
G55
G0   Z15.0
   X4.400        Y3.037
G1   Z-9.000    F150
   Y8.963
   X6.500
   Y3.037
   X8.600        Y4.577
   Y7.423
G0   Z4.0
   X9.768        Y6.000
G1   Z-9.000    F150
   X7.884        Y9.263
   X4.116
   X2.232        Y6.000
   X4.116        Y2.737
   X7.884
   X9.768        Y6.000
G0   Z15.0
G53
G10 P2 L20 X-700 Y-1600
G55
G0   Z15.0
   X4.400        Y3.037
G1   Z-9.000    F150
   Y8.963
   X6.500
   Y3.037
   X8.600        Y4.577
   Y7.423
G0   Z4.0
   X9.768        Y6.000
G1   Z-9.000    F150
   X7.884        Y9.263
   X4.116
   X2.232        Y6.000
   X4.116        Y2.737
   X7.884
   X9.768        Y6.000
G0   Z15.0
G53
G10 P2 L20 X-800 Y-1600
G55
G0   Z15.0
   X4.400        Y3.037
G1   Z-9.000    F150
   Y8.963
   X6.500
   Y3.037
   X8.600        Y4.577
   Y7.423
G0   Z4.0
   X9.768        Y6.000
G1   Z-9.000    F150
   X7.884        Y9.263
   X4.116
   X2.232        Y6.000
   X4.116        Y2.737
   X7.884
   X9.768        Y6.000
G0   Z15.0
G53
G10 P2 L20 X-900 Y-1600
G55
G0   Z15.0
   X4.400        Y3.037
G1   Z-9.000    F150
   Y8.963
   X6.500
   Y3.037
   X8.600        Y4.577
   Y7.423
G0   Z4.0
   X9.768        Y6.000
G1   Z-9.000    F150
   X7.884        Y9.263
   X4.116
   X2.232        Y6.000
   X4.116        Y2.737
   X7.884
   X9.768        Y6.000
G0   Z15.0
G53
G10 P2 L20 X-1000 Y-1600
G55
G0   Z15.0
   X4.400        Y3.037
G1   Z-9.000    F150
   Y8.963
   X6.500
   Y3.037
   X8.600        Y4.577
   Y7.423
G0   Z4.0
   X9.768        Y6.000
G1   Z-9.000    F150
   X7.884        Y9.263
   X4.116
   X2.232        Y6.000
   X4.116        Y2.737
   X7.884
   X9.768        Y6.000
G0   Z15.0
G53
G10 P2 L20 X-1100 Y-1600
G55
G0   Z15.0
   X4.400        Y3.037
G1   Z-9.000    F150
   Y8.963
   X6.500
   Y3.037
   X8.600        Y4.577
   Y7.423
G0   Z4.0
   X9.768        Y6.000
G1   Z-9.000    F150
   X7.884        Y9.263
   X4.116
   X2.232        Y6.000
   X4.116        Y2.737
   X7.884
   X9.768        Y6.000
G0   Z15.0
G53
G10 P2 L20 X-100 Y-1700
G55
G0   Z15.0
   X4.400        Y3.037
G1   Z-9.000    F150
   Y8.963
   X6.500
   Y3.037
   X8.600        Y4.577
   Y7.423
G0   Z4.0
   X9.768        Y6.000
G1   Z-9.000    F150
   X7.884        Y9.263
   X4.116
   X2.232        Y6.000
   X4.116        Y2.737
   X7.884
   X9.768        Y6.000
G0   Z15.0
G53
G10 P2 L20 X-200 Y-1700
G55
G0   Z15.0
   X4.400        Y3.037
G1   Z-9.000    F150
   Y8.963
   X6.500
   Y3.037
   X8.600        Y4.577
   Y7.423
G0   Z4.0
   X9.768        Y6.000
G1   Z-9.000    F150
   X7.884        Y9.263
   X4.116
   X2.232        Y6.000
   X4.116        Y2.737
   X7.884
   X9.768        Y6.000
G0   Z15.0
G53
G10 P2 L20 X-300 Y-1700
G55
G0   Z15.0
   X4.400        Y3.037
G1   Z-9.000    F150
   Y8.963
   X6.500
   Y3.037
   X8.600        Y4.577
   Y7.423
G0   Z4.0
   X9.768        Y6.000
G1   Z-9.000    F150
   X7.884        Y9.263
   X4.116
   X2.232        Y6.000
   X4.116        Y2.737
   X7.884
   X9.768        Y6.000
G0   Z15.0
G53
G10 P2 L20 X-400 Y-1700
G55
G0   Z15.0
   X4.400        Y3.037
G1   Z-9.000    F150
   Y8.963
   X6.500
   Y3.037
   X8.600        Y4.577
   Y7.423
G0   Z4.0
   X9.768        Y6.000
G1   Z-9.000    F150
   X7.884        Y9.263
   X4.116
   X2.232        Y6.000
   X4.116        Y2.737
   X7.884
   X9.768        Y6.000
G0   Z15.0
G53
G10 P2 L20 X-500 Y-1700
G55
G0   Z15.0
   X4.400        Y3.037
G1   Z-9.000    F150
   Y8.963
   X6.500
   Y3.037
   X8.600        Y4.577
   Y7.423
G0   Z4.0
   X9.768        Y6.000
G1   Z-9.000    F150
   X7.884        Y9.263
   X4.116
   X2.232        Y6.000
   X4.116        Y2.737
   X7.884
   X9.768        Y6.000
G0   Z15.0
G53
G10 P2 L20 X-600 Y-1700
G55
G0   Z15.0
   X4.400        Y3.037
G1   Z-9.000    F150
   Y8.963
   X6.500
   Y3.037
   X8.600        Y4.577
   Y7.423
G0   Z4.0
   X9.768        Y6.000
G1   Z-9.000    F150
   X7.884        Y9.263
   X4.116
   X2.232        Y6.000
   X4.116        Y2.737
   X7.884
   X9.768        Y6.000
G0   Z15.0
G53
G10 P2 L20 X-700 Y-1700
G55
G0   Z15.0
   X4.400        Y3.037
G1   Z-9.000    F150
   Y8.963
   X6.500
   Y3.037
   X8.600        Y4.577
   Y7.423
G0   Z4.0
   X9.768        Y6.000
G1   Z-9.000    F150
   X7.884        Y9.263
   X4.116
   X2.232        Y6.000
   X4.116        Y2.737
   X7.884
   X9.768        Y6.000
G0   Z15.0
G53
G10 P2 L20 X-800 Y-1700
G55
G0   Z15.0
   X4.400        Y3.037
G1   Z-9.000    F150
   Y8.963
   X6.500
   Y3.037
   X8.600        Y4.577
   Y7.423
G0   Z4.0
   X9.768        Y6.000
G1   Z-9.000    F150
   X7.884        Y9.263
   X4.116
   X2.232        Y6.000
   X4.116        Y2.737
   X7.884
   X9.768        Y6.000
G0   Z15.0
G53
G10 P2 L20 X-900 Y-1700
G55
G0   Z15.0
   X4.400        Y3.037
G1   Z-9.000    F150
   Y8.963
   X6.500
   Y3.037
   X8.600        Y4.577
   Y7.423
G0   Z4.0
   X9.768        Y6.000
G1   Z-9.000    F150
   X7.884        Y9.263
   X4.116
   X2.232        Y6.000
   X4.116        Y2.737
   X7.884
   X9.768        Y6.000
G0   Z15.0
G53
G10 P2 L20 X-1000 Y-1700
G55
G0   Z15.0
   X4.400        Y3.037
G1   Z-9.000    F150
   Y8.963
   X6.500
   Y3.037
   X8.600        Y4.577
   Y7.423
G0   Z4.0
   X9.768        Y6.000
G1   Z-9.000    F150
   X7.884        Y9.263
   X4.116
   X2.232        Y6.000
   X4.116        Y2.737
   X7.884
   X9.768        Y6.000
G0   Z15.0
G53
G10 P2 L20 X-1100 Y-1700
G55
G0   Z15.0
   X4.400        Y3.037
G1   Z-9.000    F150
   Y8.963
   X6.500
   Y3.037
   X8.600        Y4.577
   Y7.423
G0   Z4.0
   X9.768        Y6.000
G1   Z-9.000    F150
   X7.884        Y9.263
   X4.116
   X2.232        Y6.000
   X4.116        Y2.737
   X7.884
   X9.768        Y6.000
G0   Z15.0
G53
G10 P2 L20 X-100 Y-1800
G55
G0   Z15.0
   X4.400        Y3.037
G1   Z-9.000    F150
   Y8.963
   X6.500
   Y3.037
   X8.600        Y4.577
   Y7.423
G0   Z4.0
   X9.768        Y6.000
G1   Z-9.000    F150
   X7.884        Y9.263
   X4.116
   X2.232        Y6.000
   X4.116        Y2.737
   X7.884
   X9.768        Y6.000
G0   Z15.0
G53
G10 P2 L20 X-200 Y-1800
G55
G0   Z15.0
   X4.400        Y3.037
G1   Z-9.000    F150
   Y8.963
   X6.500
   Y3.037
   X8.600        Y4.577
   Y7.423
G0   Z4.0
   X9.768        Y6.000
G1   Z-9.000    F150
   X7.884        Y9.263
   X4.116
   X2.232        Y6.000
   X4.116        Y2.737
   X7.884
   X9.768        Y6.000
G0   Z15.0
G53
G10 P2 L20 X-300 Y-1800
G55
G0   Z15.0
   X4.400        Y3.037
G1   Z-9.000    F150
   Y8.963
   X6.500
   Y3.037
   X8.600        Y4.577
   Y7.423
G0   Z4.0
   X9.768        Y6.000
G1   Z-9.000    F150
   X7.884        Y9.263
   X4.116
   X2.232        Y6.000
   X4.116        Y2.737
   X7.884
   X9.768        Y6.000
G0   Z15.0
G53
G10 P2 L20 X-400 Y-1800
G55
G0   Z15.0
   X4.400        Y3.037
G1   Z-9.000    F150
   Y8.963
   X6.500
   Y3.037
   X8.600        Y4.577
   Y7.423
G0   Z4.0
   X9.768        Y6.000
G1   Z-9.000    F150
   X7.884        Y9.263
   X4.116
   X2.232        Y6.000
   X4.116        Y2.737
   X7.884
   X9.768        Y6.000
G0   Z15.0
G53
G10 P2 L20 X-500 Y-1800
G55
G0   Z15.0
   X4.400        Y3.037
G1   Z-9.000    F150
   Y8.963
   X6.500
   Y3.037
   X8.600        Y4.577
   Y7.423
G0   Z4.0
   X9.768        Y6.000
G1   Z-9.000    F150
   X7.884        Y9.263
   X4.116
   X2.232        Y6.000
   X4.116        Y2.737
   X7.884
   X9.768        Y6.000
G0   Z15.0
G53
G10 P2 L20 X-600 Y-1800
G55
G0   Z15.0
   X4.400        Y3.037
G1   Z-9.000    F150
   Y8.963
   X6.500
   Y3.037
   X8.600        Y4.577
   Y7.423
G0   Z4.0
   X9.768        Y6.000
G1   Z-9.000    F150
   X7.884        Y9.263
   X4.116
   X2.232        Y6.000
   X4.116        Y2.737
   X7.884
   X9.768        Y6.000
G0   Z15.0
G53
G10 P2 L20 X-700 Y-1800
G55
G0   Z15.0
   X4.400        Y3.037
G1   Z-9.000    F150
   Y8.963
   X6.500
   Y3.037
   X8.600        Y4.577
   Y7.423
G0   Z4.0
   X9.768        Y6.000
G1   Z-9.000    F150
   X7.884        Y9.263
   X4.116
   X2.232        Y6.000
   X4.116        Y2.737
   X7.884
   X9.768        Y6.000
G0   Z15.0
G53
G10 P2 L20 X-800 Y-1800
G55
G0   Z15.0
   X4.400        Y3.037
G1   Z-9.000    F150
   Y8.963
   X6.500
   Y3.037
   X8.600        Y4.577
   Y7.423
G0   Z4.0
   X9.768        Y6.000
G1   Z-9.000    F150
   X7.884        Y9.263
   X4.116
   X2.232        Y6.000
   X4.116        Y2.737
   X7.884
   X9.768        Y6.000
G0   Z15.0
G53
G10 P2 L20 X-900 Y-1800
G55
G0   Z15.0
   X4.400        Y3.037
G1   Z-9.000    F150
   Y8.963
   X6.500
   Y3.037
   X8.600        Y4.577
   Y7.423
G0   Z4.0
   X9.768        Y6.000
G1   Z-9.000    F150
   X7.884        Y9.263
   X4.116
   X2.232        Y6.000
   X4.116        Y2.737
   X7.884
   X9.768        Y6.000
G0   Z15.0
G53
G10 P2 L20 X-1000 Y-1800
G55
G0   Z15.0
   X4.400        Y3.037
G1   Z-9.000    F150
   Y8.963
   X6.500
   Y3.037
   X8.600        Y4.577
   Y7.423
G0   Z4.0
   X9.768        Y6.000
G1   Z-9.000    F150
   X7.884        Y9.263
   X4.116
   X2.232        Y6.000
   X4.116        Y2.737
   X7.884
   X9.768        Y6.000
G0   Z15.0
G53
G10 P2 L20 X-1100 Y-1800
G55
G0   Z15.0
   X4.400        Y3.037
G1   Z-9.000    F150
   Y8.963
   X6.500
   Y3.037
   X8.600        Y4.577
   Y7.423
G0   Z4.0
   X9.768        Y6.000
G1   Z-9.000    F150
   X7.884        Y9.263
   X4.116
   X2.232        Y6.000
   X4.116        Y2.737
   X7.884
   X9.768        Y6.000
G0   Z15.0
G53
G10 P2 L20 X-100 Y-1900
G55
G0   Z15.0
   X4.400        Y3.037
G1   Z-9.000    F150
   Y8.963
   X6.500
   Y3.037
   X8.600        Y4.577
   Y7.423
G0   Z4.0
   X9.768        Y6.000
G1   Z-9.000    F150
   X7.884        Y9.263
   X4.116
   X2.232        Y6.000
   X4.116        Y2.737
   X7.884
   X9.768        Y6.000
G0   Z15.0
G53
G10 P2 L20 X-200 Y-1900
G55
G0   Z15.0
   X4.400        Y3.037
G1   Z-9.000    F150
   Y8.963
   X6.500
   Y3.037
   X8.600        Y4.577
   Y7.423
G0   Z4.0
   X9.768        Y6.000
G1   Z-9.000    F150
   X7.884        Y9.263
   X4.116
   X2.232        Y6.000
   X4.116        Y2.737
   X7.884
   X9.768        Y6.000
G0   Z15.0
G53
G10 P2 L20 X-300 Y-1900
G55
G0   Z15.0
   X4.400        Y3.037
G1   Z-9.000    F150
   Y8.963
   X6.500
   Y3.037
   X8.600        Y4.577
   Y7.423
G0   Z4.0
   X9.768        Y6.000
G1   Z-9.000    F150
   X7.884        Y9.263
   X4.116
   X2.232        Y6.000
   X4.116        Y2.737
   X7.884
   X9.768        Y6.000
G0   Z15.0
G53
G10 P2 L20 X-400 Y-1900
G55
G0   Z15.0
   X4.400        Y3.037
G1   Z-9.000    F150
   Y8.963
   X6.500
   Y3.037
   X8.600        Y4.577
   Y7.423
G0   Z4.0
   X9.768        Y6.000
G1   Z-9.000    F150
   X7.884        Y9.263
   X4.116
   X2.232        Y6.000
   X4.116        Y2.737
   X7.884
   X9.768        Y6.000
G0   Z15.0
G53
G10 P2 L20 X-500 Y-1900
G55
G0   Z15.0
   X4.400        Y3.037
G1   Z-9.000    F150
   Y8.963
   X6.500
   Y3.037
   X8.600        Y4.577
   Y7.423
G0   Z4.0
   X9.768        Y6.000
G1   Z-9.000    F150
   X7.884        Y9.263
   X4.116
   X2.232        Y6.000
   X4.116        Y2.737
   X7.884
   X9.768        Y6.000
G0   Z15.0
G53
G10 P2 L20 X-600 Y-1900
G55
G0   Z15.0
   X4.400        Y3.037
G1   Z-9.000    F150
   Y8.963
   X6.500
   Y3.037
   X8.600        Y4.577
   Y7.423
G0   Z4.0
   X9.768        Y6.000
G1   Z-9.000    F150
   X7.884        Y9.263
   X4.116
   X2.232        Y6.000
   X4.116        Y2.737
   X7.884
   X9.768        Y6.000
G0   Z15.0
G53
G10 P2 L20 X-700 Y-1900
G55
G0   Z15.0
   X4.400        Y3.037
G1   Z-9.000    F150
   Y8.963
   X6.500
   Y3.037
   X8.600        Y4.577
   Y7.423
G0   Z4.0
   X9.768        Y6.000
G1   Z-9.000    F150
   X7.884        Y9.263
   X4.116
   X2.232        Y6.000
   X4.116        Y2.737
   X7.884
   X9.768        Y6.000
G0   Z15.0
G53
G10 P2 L20 X-800 Y-1900
G55
G0   Z15.0
   X4.400        Y3.037
G1   Z-9.000    F150
   Y8.963
   X6.500
   Y3.037
   X8.600        Y4.577
   Y7.423
G0   Z4.0
   X9.768        Y6.000
G1   Z-9.000    F150
   X7.884        Y9.263
   X4.116
   X2.232        Y6.000
   X4.116        Y2.737
   X7.884
   X9.768        Y6.000
G0   Z15.0
G53
G10 P2 L20 X-900 Y-1900
G55
G0   Z15.0
   X4.400        Y3.037
G1   Z-9.000    F150
   Y8.963
   X6.500
   Y3.037
   X8.600        Y4.577
   Y7.423
G0   Z4.0
   X9.768        Y6.000
G1   Z-9.000    F150
   X7.884        Y9.263
   X4.116
   X2.232        Y6.000
   X4.116        Y2.737
   X7.884
   X9.768        Y6.000
G0   Z15.0
G53
G10 P2 L20 X-1000 Y-1900
G55
G0   Z15.0
   X4.400        Y3.037
G1   Z-9.000    F150
   Y8.963
   X6.500
   Y3.037
   X8.600        Y4.577
   Y7.423
G0   Z4.0
   X9.768        Y6.000
G1   Z-9.000    F150
   X7.884        Y9.263
   X4.116
   X2.232        Y6.000
   X4.116        Y2.737
   X7.884
   X9.768        Y6.000
G0   Z15.0
G53
G10 P2 L20 X-1100 Y-1900
G55
G0   Z15.0
   X4.400        Y3.037
G1   Z-9.000    F150
   Y8.963
   X6.500
   Y3.037
   X8.600        Y4.577
   Y7.423
G0   Z4.0
   X9.768        Y6.000
G1   Z-9.000    F150
   X7.884        Y9.263
   X4.116
   X2.232        Y6.000
   X4.116        Y2.737
   X7.884
   X9.768        Y6.000
G0   Z15.0
G53
G10 P2 L20 X-100 Y-2000
G55
G0   Z15.0
   X4.400        Y3.037
G1   Z-9.000    F150
   Y8.963
   X6.500
   Y3.037
   X8.600        Y4.577
   Y7.423
G0   Z4.0
   X9.768        Y6.000
G1   Z-9.000    F150
   X7.884        Y9.263
   X4.116
   X2.232        Y6.000
   X4.116        Y2.737
   X7.884
   X9.768        Y6.000
G0   Z15.0
G53
G10 P2 L20 X-200 Y-2000
G55
G0   Z15.0
   X4.400        Y3.037
G1   Z-9.000    F150
   Y8.963
   X6.500
   Y3.037
   X8.600        Y4.577
   Y7.423
G0   Z4.0
   X9.768        Y6.000
G1   Z-9.000    F150
   X7.884        Y9.263
   X4.116
   X2.232        Y6.000
   X4.116        Y2.737
   X7.884
   X9.768        Y6.000
G0   Z15.0
G53
G10 P2 L20 X-300 Y-2000
G55
G0   Z15.0
   X4.400        Y3.037
G1   Z-9.000    F150
   Y8.963
   X6.500
   Y3.037
   X8.600        Y4.577
   Y7.423
G0   Z4.0
   X9.768        Y6.000
G1   Z-9.000    F150
   X7.884        Y9.263
   X4.116
   X2.232        Y6.000
   X4.116        Y2.737
   X7.884
   X9.768        Y6.000
G0   Z15.0
G53
G10 P2 L20 X-400 Y-2000
G55
G0   Z15.0
   X4.400        Y3.037
G1   Z-9.000    F150
   Y8.963
   X6.500
   Y3.037
   X8.600        Y4.577
   Y7.423
G0   Z4.0
   X9.768        Y6.000
G1   Z-9.000    F150
   X7.884        Y9.263
   X4.116
   X2.232        Y6.000
   X4.116        Y2.737
   X7.884
   X9.768        Y6.000
G0   Z15.0
G53
G10 P2 L20 X-500 Y-2000
G55
G0   Z15.0
   X4.400        Y3.037
G1   Z-9.000    F150
   Y8.963
   X6.500
   Y3.037
   X8.600        Y4.577
   Y7.423
G0   Z4.0
   X9.768        Y6.000
G1   Z-9.000    F150
   X7.884        Y9.263
   X4.116
   X2.232        Y6.000
   X4.116        Y2.737
   X7.884
   X9.768        Y6.000
G0   Z15.0
G53
G10 P2 L20 X-600 Y-2000
G55
G0   Z15.0
   X4.400        Y3.037
G1   Z-9.000    F150
   Y8.963
   X6.500
   Y3.037
   X8.600        Y4.577
   Y7.423
G0   Z4.0
   X9.768        Y6.000
G1   Z-9.000    F150
   X7.884        Y9.263
   X4.116
   X2.232        Y6.000
   X4.116        Y2.737
   X7.884
   X9.768        Y6.000
G0   Z15.0
G53
G10 P2 L20 X-700 Y-2000
G55
G0   Z15.0
   X4.400        Y3.037
G1   Z-9.000    F150
   Y8.963
   X6.500
   Y3.037
   X8.600        Y4.577
   Y7.423
G0   Z4.0
   X9.768        Y6.000
G1   Z-9.000    F150
   X7.884        Y9.263
   X4.116
   X2.232        Y6.000
   X4.116        Y2.737
   X7.884
   X9.768        Y6.000
G0   Z15.0
G53
G10 P2 L20 X-800 Y-2000
G55
G0   Z15.0
   X4.400        Y3.037
G1   Z-9.000    F150
   Y8.963
   X6.500
   Y3.037
   X8.600        Y4.577
   Y7.423
G0   Z4.0
   X9.768        Y6.000
G1   Z-9.000    F150
   X7.884        Y9.263
   X4.116
   X2.232        Y6.000
   X4.116        Y2.737
   X7.884
   X9.768        Y6.000
G0   Z15.0
G53
G10 P2 L20 X-900 Y-2000
G55
G0   Z15.0
   X4.400        Y3.037
G1   Z-9.000    F150
   Y8.963
   X6.500
   Y3.037
   X8.600        Y4.577
   Y7.423
G0   Z4.0
   X9.768        Y6.000
G1   Z-9.000    F150
   X7.884        Y9.263
   X4.116
   X2.232        Y6.000
   X4.116        Y2.737
   X7.884
   X9.768        Y6.000
G0   Z15.0
G53
G10 P2 L20 X-1000 Y-2000
G55
G0   Z15.0
   X4.400        Y3.037
G1   Z-9.000    F150
   Y8.963
   X6.500
   Y3.037
   X8.600        Y4.577
   Y7.423
G0   Z4.0
   X9.768        Y6.000
G1   Z-9.000    F150
   X7.884        Y9.263
   X4.116
   X2.232        Y6.000
   X4.116        Y2.737
   X7.884
   X9.768        Y6.000
G0   Z15.0
G53
G10 P2 L20 X-1100 Y-2000
G55
G0   Z15.0
   X4.400        Y3.037
G1   Z-9.000    F150
   Y8.963
   X6.500
   Y3.037
   X8.600        Y4.577
   Y7.423
G0   Z4.0
   X9.768        Y6.000
G1   Z-9.000    F150
   X7.884        Y9.263
   X4.116
   X2.232        Y6.000
   X4.116        Y2.737
   X7.884
   X9.768        Y6.000
G0   Z15.0
G53
G10 P2 L20 X-100 Y-2100
G55
G0   Z15.0
   X4.400        Y3.037
G1   Z-9.000    F150
   Y8.963
   X6.500
   Y3.037
   X8.600        Y4.577
   Y7.423
G0   Z4.0
   X9.768        Y6.000
G1   Z-9.000    F150
   X7.884        Y9.263
   X4.116
   X2.232        Y6.000
   X4.116        Y2.737
   X7.884
   X9.768        Y6.000
G0   Z15.0
G53
G10 P2 L20 X-200 Y-2100
G55
G0   Z15.0
   X4.400        Y3.037
G1   Z-9.000    F150
   Y8.963
   X6.500
   Y3.037
   X8.600        Y4.577
   Y7.423
G0   Z4.0
   X9.768        Y6.000
G1   Z-9.000    F150
   X7.884        Y9.263
   X4.116
   X2.232        Y6.000
   X4.116        Y2.737
   X7.884
   X9.768        Y6.000
G0   Z15.0
G53
G10 P2 L20 X-300 Y-2100
G55
G0   Z15.0
   X4.400        Y3.037
G1   Z-9.000    F150
   Y8.963
   X6.500
   Y3.037
   X8.600        Y4.577
   Y7.423
G0   Z4.0
   X9.768        Y6.000
G1   Z-9.000    F150
   X7.884        Y9.263
   X4.116
   X2.232        Y6.000
   X4.116        Y2.737
   X7.884
   X9.768        Y6.000
G0   Z15.0
G53
G10 P2 L20 X-400 Y-2100
G55
G0   Z15.0
   X4.400        Y3.037
G1   Z-9.000    F150
   Y8.963
   X6.500
   Y3.037
   X8.600        Y4.577
   Y7.423
G0   Z4.0
   X9.768        Y6.000
G1   Z-9.000    F150
   X7.884        Y9.263
   X4.116
   X2.232        Y6.000
   X4.116        Y2.737
   X7.884
   X9.768        Y6.000
G0   Z15.0
G53
G10 P2 L20 X-500 Y-2100
G55
G0   Z15.0
   X4.400        Y3.037
G1   Z-9.000    F150
   Y8.963
   X6.500
   Y3.037
   X8.600        Y4.577
   Y7.423
G0   Z4.0
   X9.768        Y6.000
G1   Z-9.000    F150
   X7.884        Y9.263
   X4.116
   X2.232        Y6.000
   X4.116        Y2.737
   X7.884
   X9.768        Y6.000
G0   Z15.0
G53
G10 P2 L20 X-600 Y-2100
G55
G0   Z15.0
   X4.400        Y3.037
G1   Z-9.000    F150
   Y8.963
   X6.500
   Y3.037
   X8.600        Y4.577
   Y7.423
G0   Z4.0
   X9.768        Y6.000
G1   Z-9.000    F150
   X7.884        Y9.263
   X4.116
   X2.232        Y6.000
   X4.116        Y2.737
   X7.884
   X9.768        Y6.000
G0   Z15.0
G53
G10 P2 L20 X-700 Y-2100
G55
G0   Z15.0
   X4.400        Y3.037
G1   Z-9.000    F150
   Y8.963
   X6.500
   Y3.037
   X8.600        Y4.577
   Y7.423
G0   Z4.0
   X9.768        Y6.000
G1   Z-9.000    F150
   X7.884        Y9.263
   X4.116
   X2.232        Y6.000
   X4.116        Y2.737
   X7.884
   X9.768        Y6.000
G0   Z15.0
G53
G10 P2 L20 X-800 Y-2100
G55
G0   Z15.0
   X4.400        Y3.037
G1   Z-9.000    F150
   Y8.963
   X6.500
   Y3.037
   X8.600        Y4.577
   Y7.423
G0   Z4.0
   X9.768        Y6.000
G1   Z-9.000    F150
   X7.884        Y9.263
   X4.116
   X2.232        Y6.000
   X4.116        Y2.737
   X7.884
   X9.768        Y6.000
G0   Z15.0
G53
G10 P2 L20 X-900 Y-2100
G55
G0   Z15.0
   X4.400        Y3.037
G1   Z-9.000    F150
   Y8.963
   X6.500
   Y3.037
   X8.600        Y4.577
   Y7.423
G0   Z4.0
   X9.768        Y6.000
G1   Z-9.000    F150
   X7.884        Y9.263
   X4.116
   X2.232        Y6.000
   X4.116        Y2.737
   X7.884
   X9.768        Y6.000
G0   Z15.0
G53
G10 P2 L20 X-1000 Y-2100
G55
G0   Z15.0
   X4.400        Y3.037
G1   Z-9.000    F150
   Y8.963
   X6.500
   Y3.037
   X8.600        Y4.577
   Y7.423
G0   Z4.0
   X9.768        Y6.000
G1   Z-9.000    F150
   X7.884        Y9.263
   X4.116
   X2.232        Y6.000
   X4.116        Y2.737
   X7.884
   X9.768        Y6.000
G0   Z15.0
G53
G10 P2 L20 X-1100 Y-2100
G55
G0   Z15.0
   X4.400        Y3.037
G1   Z-9.000    F150
   Y8.963
   X6.500
   Y3.037
   X8.600        Y4.577
   Y7.423
G0   Z4.0
   X9.768        Y6.000
G1   Z-9.000    F150
   X7.884        Y9.263
   X4.116
   X2.232        Y6.000
   X4.116        Y2.737
   X7.884
   X9.768        Y6.000
G0   Z15.0
G53
G10 P2 L20 X-100 Y-2200
G55
G0   Z15.0
   X4.400        Y3.037
G1   Z-9.000    F150
   Y8.963
   X6.500
   Y3.037
   X8.600        Y4.577
   Y7.423
G0   Z4.0
   X9.768        Y6.000
G1   Z-9.000    F150
   X7.884        Y9.263
   X4.116
   X2.232        Y6.000
   X4.116        Y2.737
   X7.884
   X9.768        Y6.000
G0   Z15.0
G53
G10 P2 L20 X-200 Y-2200
G55
G0   Z15.0
   X4.400        Y3.037
G1   Z-9.000    F150
   Y8.963
   X6.500
   Y3.037
   X8.600        Y4.577
   Y7.423
G0   Z4.0
   X9.768        Y6.000
G1   Z-9.000    F150
   X7.884        Y9.263
   X4.116
   X2.232        Y6.000
   X4.116        Y2.737
   X7.884
   X9.768        Y6.000
G0   Z15.0
G53
G10 P2 L20 X-300 Y-2200
G55
G0   Z15.0
   X4.400        Y3.037
G1   Z-9.000    F150
   Y8.963
   X6.500
   Y3.037
   X8.600        Y4.577
   Y7.423
G0   Z4.0
   X9.768        Y6.000
G1   Z-9.000    F150
   X7.884        Y9.263
   X4.116
   X2.232        Y6.000
   X4.116        Y2.737
   X7.884
   X9.768        Y6.000
G0   Z15.0
G53
G10 P2 L20 X-400 Y-2200
G55
G0   Z15.0
   X4.400        Y3.037
G1   Z-9.000    F150
   Y8.963
   X6.500
   Y3.037
   X8.600        Y4.577
   Y7.423
G0   Z4.0
   X9.768        Y6.000
G1   Z-9.000    F150
   X7.884        Y9.263
   X4.116
   X2.232        Y6.000
   X4.116        Y2.737
   X7.884
   X9.768        Y6.000
G0   Z15.0
G53
G10 P2 L20 X-500 Y-2200
G55
G0   Z15.0
   X4.400        Y3.037
G1   Z-9.000    F150
   Y8.963
   X6.500
   Y3.037
   X8.600        Y4.577
   Y7.423
G0   Z4.0
   X9.768        Y6.000
G1   Z-9.000    F150
   X7.884        Y9.263
   X4.116
   X2.232        Y6.000
   X4.116        Y2.737
   X7.884
   X9.768        Y6.000
G0   Z15.0
G53
G10 P2 L20 X-600 Y-2200
G55
G0   Z15.0
   X4.400        Y3.037
G1   Z-9.000    F150
   Y8.963
   X6.500
   Y3.037
   X8.600        Y4.577
   Y7.423
G0   Z4.0
   X9.768        Y6.000
G1   Z-9.000    F150
   X7.884        Y9.263
   X4.116
   X2.232        Y6.000
   X4.116        Y2.737
   X7.884
   X9.768        Y6.000
G0   Z15.0
G53
G10 P2 L20 X-700 Y-2200
G55
G0   Z15.0
   X4.400        Y3.037
G1   Z-9.000    F150
   Y8.963
   X6.500
   Y3.037
   X8.600        Y4.577
   Y7.423
G0   Z4.0
   X9.768        Y6.000
G1   Z-9.000    F150
   X7.884        Y9.263
   X4.116
   X2.232        Y6.000
   X4.116        Y2.737
   X7.884
   X9.768        Y6.000
G0   Z15.0
G53
G10 P2 L20 X-800 Y-2200
G55
G0   Z15.0
   X4.400        Y3.037
G1   Z-9.000    F150
   Y8.963
   X6.500
   Y3.037
   X8.600        Y4.577
   Y7.423
G0   Z4.0
   X9.768        Y6.000
G1   Z-9.000    F150
   X7.884        Y9.263
   X4.116
   X2.232        Y6.000
   X4.116        Y2.737
   X7.884
   X9.768        Y6.000
G0   Z15.0
G53
G10 P2 L20 X-900 Y-2200
G55
G0   Z15.0
   X4.400        Y3.037
G1   Z-9.000    F150
   Y8.963
   X6.500
   Y3.037
   X8.600        Y4.577
   Y7.423
G0   Z4.0
   X9.768        Y6.000
G1   Z-9.000    F150
   X7.884        Y9.263
   X4.116
   X2.232        Y6.000
   X4.116        Y2.737
   X7.884
   X9.768        Y6.000
G0   Z15.0
G53
G10 P2 L20 X-1000 Y-2200
G55
G0   Z15.0
   X4.400        Y3.037
G1   Z-9.000    F150
   Y8.963
   X6.500
   Y3.037
   X8.600        Y4.577
   Y7.423
G0   Z4.0
   X9.768        Y6.000
G1   Z-9.000    F150
   X7.884        Y9.263
   X4.116
   X2.232        Y6.000
   X4.116        Y2.737
   X7.884
   X9.768        Y6.000
G0   Z15.0
G53
G10 P2 L20 X-1100 Y-2200
G55
G0   Z15.0
   X4.400        Y3.037
G1   Z-9.000    F150
   Y8.963
   X6.500
   Y3.037
   X8.600        Y4.577
   Y7.423
G0   Z4.0
   X9.768        Y6.000
G1   Z-9.000    F150
   X7.884        Y9.263
   X4.116
   X2.232        Y6.000
   X4.116        Y2.737
   X7.884
   X9.768        Y6.000
G0   Z15.0
G53
G10 P2 L20 X-100 Y-2300
G55
G0   Z15.0
   X4.400        Y3.037
G1   Z-9.000    F150
   Y8.963
   X6.500
   Y3.037
   X8.600        Y4.577
   Y7.423
G0   Z4.0
   X9.768        Y6.000
G1   Z-9.000    F150
   X7.884        Y9.263
   X4.116
   X2.232        Y6.000
   X4.116        Y2.737
   X7.884
   X9.768        Y6.000
G0   Z15.0
G53
G10 P2 L20 X-200 Y-2300
G55
G0   Z15.0
   X4.400        Y3.037
G1   Z-9.000    F150
   Y8.963
   X6.500
   Y3.037
   X8.600        Y4.577
   Y7.423
G0   Z4.0
   X9.768        Y6.000
G1   Z-9.000    F150
   X7.884        Y9.263
   X4.116
   X2.232        Y6.000
   X4.116        Y2.737
   X7.884
   X9.768        Y6.000
G0   Z15.0
G53
G10 P2 L20 X-300 Y-2300
G55
G0   Z15.0
   X4.400        Y3.037
G1   Z-9.000    F150
   Y8.963
   X6.500
   Y3.037
   X8.600        Y4.577
   Y7.423
G0   Z4.0
   X9.768        Y6.000
G1   Z-9.000    F150
   X7.884        Y9.263
   X4.116
   X2.232        Y6.000
   X4.116        Y2.737
   X7.884
   X9.768        Y6.000
G0   Z15.0
G53
G10 P2 L20 X-400 Y-2300
G55
G0   Z15.0
   X4.400        Y3.037
G1   Z-9.000    F150
   Y8.963
   X6.500
   Y3.037
   X8.600        Y4.577
   Y7.423
G0   Z4.0
   X9.768        Y6.000
G1   Z-9.000    F150
   X7.884        Y9.263
   X4.116
   X2.232        Y6.000
   X4.116        Y2.737
   X7.884
   X9.768        Y6.000
G0   Z15.0
G53
G10 P2 L20 X-500 Y-2300
G55
G0   Z15.0
   X4.400        Y3.037
G1   Z-9.000    F150
   Y8.963
   X6.500
   Y3.037
   X8.600        Y4.577
   Y7.423
G0   Z4.0
   X9.768        Y6.000
G1   Z-9.000    F150
   X7.884        Y9.263
   X4.116
   X2.232        Y6.000
   X4.116        Y2.737
   X7.884
   X9.768        Y6.000
G0   Z15.0
G53
G10 P2 L20 X-600 Y-2300
G55
G0   Z15.0
   X4.400        Y3.037
G1   Z-9.000    F150
   Y8.963
   X6.500
   Y3.037
   X8.600        Y4.577
   Y7.423
G0   Z4.0
   X9.768        Y6.000
G1   Z-9.000    F150
   X7.884        Y9.263
   X4.116
   X2.232        Y6.000
   X4.116        Y2.737
   X7.884
   X9.768        Y6.000
G0   Z15.0
G53
G10 P2 L20 X-700 Y-2300
G55
G0   Z15.0
   X4.400        Y3.037
G1   Z-9.000    F150
   Y8.963
   X6.500
   Y3.037
   X8.600        Y4.577
   Y7.423
G0   Z4.0
   X9.768        Y6.000
G1   Z-9.000    F150
   X7.884        Y9.263
   X4.116
   X2.232        Y6.000
   X4.116        Y2.737
   X7.884
   X9.768        Y6.000
G0   Z15.0
G53
G10 P2 L20 X-800 Y-2300
G55
G0   Z15.0
   X4.400        Y3.037
G1   Z-9.000    F150
   Y8.963
   X6.500
   Y3.037
   X8.600        Y4.577
   Y7.423
G0   Z4.0
   X9.768        Y6.000
G1   Z-9.000    F150
   X7.884        Y9.263
   X4.116
   X2.232        Y6.000
   X4.116        Y2.737
   X7.884
   X9.768        Y6.000
G0   Z15.0
G53
G10 P2 L20 X-900 Y-2300
G55
G0   Z15.0
   X4.400        Y3.037
G1   Z-9.000    F150
   Y8.963
   X6.500
   Y3.037
   X8.600        Y4.577
   Y7.423
G0   Z4.0
   X9.768        Y6.000
G1   Z-9.000    F150
   X7.884        Y9.263
   X4.116
   X2.232        Y6.000
   X4.116        Y2.737
   X7.884
   X9.768        Y6.000
G0   Z15.0
G53
G10 P2 L20 X-1000 Y-2300
G55
G0   Z15.0
   X4.400        Y3.037
G1   Z-9.000    F150
   Y8.963
   X6.500
   Y3.037
   X8.600        Y4.577
   Y7.423
G0   Z4.0
   X9.768        Y6.000
G1   Z-9.000    F150
   X7.884        Y9.263
   X4.116
   X2.232        Y6.000
   X4.116        Y2.737
   X7.884
   X9.768        Y6.000
G0   Z15.0
G53
G10 P2 L20 X-1100 Y-2300
G55
G0   Z15.0
   X4.400        Y3.037
G1   Z-9.000    F150
   Y8.963
   X6.500
   Y3.037
   X8.600        Y4.577
   Y7.423
G0   Z4.0
   X9.768        Y6.000
G1   Z-9.000    F150
   X7.884        Y9.263
   X4.116
   X2.232        Y6.000
   X4.116        Y2.737
   X7.884
   X9.768        Y6.000
G0   Z15.0
G53


G0 X0 Y0 (home)
M05
M30
%
