%
(Generated by SketchUcam {1.2a})
(File: RelayPanel.skp)
(Bit diameter: 3.0mm)
(Feed rate: 150.0mm/min)
(Material Thickness: 0.6mm)
(Material length: 558.8mm X width: 1066.8mm)
(Overhead Gantry: true)
(Retract feed rate NOT limited to plunge feed rate)
(Multipass enabled, Depth = 0.1mm)
(Optimization is ON)
(www.PhlatBoyz.com)
G90 G21 G49 
M3 S11000
G0   Z3.200     
(Pass: 1)
   X8.000        Y8.000     
(plungebore    depth=0.840         diam=3.000     )
G00   Z1.067     
G01   Z-0.100     F150 
G00   z1.067     
G01   Z-0.200    
G00   z1.067     
G01   Z-0.300    
G00   z1.067     
G01   Z-0.400    
G00   z1.067     
G01   Z-0.500    
G00   z1.067     
G01   Z-0.600    
G00   z1.067     
G01   Z-0.700    
G00   z1.067     
G01   Z-0.800    
G00   z1.067     
G01   Z-0.840    
G00   z1.067     
G00   Y8.000         Z3.200     
(plungebore end)
(BREAK pass 7)
(Pass: 1)
G0   X40.000    
(plungebore    depth=0.840         diam=3.000     )
G00   Z1.067     
G01   Z-0.100     F150 
G00   z1.067     
G01   Z-0.200    
G00   z1.067     
G01   Z-0.300    
G00   z1.067     
G01   Z-0.400    
G00   z1.067     
G01   Z-0.500    
G00   z1.067     
G01   Z-0.600    
G00   z1.067     
G01   Z-0.700    
G00   z1.067     
G01   Z-0.800    
G00   z1.067     
G01   Z-0.840    
G00   z1.067     
G00   Y8.000         Z3.200     
(plungebore end)
(BREAK pass 7)
(Pass: 1)
G0   Y118.000   
(plungebore    depth=0.840         diam=3.000     )
G00   Z1.067     
G01   Z-0.100     F150 
G00   z1.067     
G01   Z-0.200    
G00   z1.067     
G01   Z-0.300    
G00   z1.067     
G01   Z-0.400    
G00   z1.067     
G01   Z-0.500    
G00   z1.067     
G01   Z-0.600    
G00   z1.067     
G01   Z-0.700    
G00   z1.067     
G01   Z-0.800    
G00   z1.067     
G01   Z-0.840    
G00   z1.067     
G00   Y118.000       Z3.200     
(plungebore end)
(BREAK pass 7)
(Pass: 1)
G0   X8.000     
(plungebore    depth=0.840         diam=3.000     )
G00   Z1.067     
G01   Z-0.100     F150 
G00   z1.067     
G01   Z-0.200    
G00   z1.067     
G01   Z-0.300    
G00   z1.067     
G01   Z-0.400    
G00   z1.067     
G01   Z-0.500    
G00   z1.067     
G01   Z-0.600    
G00   z1.067     
G01   Z-0.700    
G00   z1.067     
G01   Z-0.800    
G00   z1.067     
G01   Z-0.840    
G00   z1.067     
G00   Y118.000       Z3.200     
(plungebore end)
(BREAK pass 7)
(Pass: 1)
G0   X21.803       Y71.198    
G1   Z-0.100     F150 
G17 G2   X24.0000      Y71.4871      R8.5000    
   X26.1966      Y71.1979      R8.5000    
   X28.2435      Y70.3500      R8.5000    
   X30.0013      Y69.0013      R8.5000    
   X31.3500      Y67.2435      R8.5000    
   X32.1979      Y65.1966      R8.5000    
   X32.4871      Y63.0000      R8.5000    
   X32.1979      Y60.8034      R8.5000    
   X31.3500      Y58.7565      R8.5000    
   X30.0013      Y56.9987      R8.5000    
   X28.2435      Y55.6500      R8.5000    
   X26.1966      Y54.8021      R8.5000    
   X24.0000      Y54.5129      R8.5000    
   X21.8034      Y54.8021      R8.5000    
   X19.7565      Y55.6500      R8.5000    
   X17.9987      Y56.9987      R8.5000    
   X16.6500      Y58.7565      R8.5000    
   X15.8021      Y60.8034      R8.5000    
   X15.5129      Y63.0000      R8.5000    
   X15.8021      Y65.1966      R8.5000    
   X16.6500      Y67.2435      R8.5000    
   X17.9987      Y69.0013      R8.5000    
   X19.7565      Y70.3500      R8.5000    
   X21.8034      Y71.1979      R8.5000    
(Pass: 2)
G1   Z-0.200    
G17 G2   X24.0000      Y71.4871      R8.5000    
   X26.1966      Y71.1979      R8.5000    
   X28.2435      Y70.3500      R8.5000    
   X30.0013      Y69.0013      R8.5000    
   X31.3500      Y67.2435      R8.5000    
   X32.1979      Y65.1966      R8.5000    
   X32.4871      Y63.0000      R8.5000    
   X32.1979      Y60.8034      R8.5000    
   X31.3500      Y58.7565      R8.5000    
   X30.0013      Y56.9987      R8.5000    
   X28.2435      Y55.6500      R8.5000    
   X26.1966      Y54.8021      R8.5000    
   X24.0000      Y54.5129      R8.5000    
   X21.8034      Y54.8021      R8.5000    
   X19.7565      Y55.6500      R8.5000    
   X17.9987      Y56.9987      R8.5000    
   X16.6500      Y58.7565      R8.5000    
   X15.8021      Y60.8034      R8.5000    
   X15.5129      Y63.0000      R8.5000    
   X15.8021      Y65.1966      R8.5000    
   X16.6500      Y67.2435      R8.5000    
   X17.9987      Y69.0013      R8.5000    
   X19.7565      Y70.3500      R8.5000    
   X21.8034      Y71.1979      R8.5000    
(Pass: 3)
G1   Z-0.300    
G17 G2   X24.0000      Y71.4871      R8.5000    
   X26.1966      Y71.1979      R8.5000    
   X28.2435      Y70.3500      R8.5000    
   X30.0013      Y69.0013      R8.5000    
   X31.3500      Y67.2435      R8.5000    
   X32.1979      Y65.1966      R8.5000    
   X32.4871      Y63.0000      R8.5000    
   X32.1979      Y60.8034      R8.5000    
   X31.3500      Y58.7565      R8.5000    
   X30.0013      Y56.9987      R8.5000    
   X28.2435      Y55.6500      R8.5000    
   X26.1966      Y54.8021      R8.5000    
   X24.0000      Y54.5129      R8.5000    
   X21.8034      Y54.8021      R8.5000    
   X19.7565      Y55.6500      R8.5000    
   X17.9987      Y56.9987      R8.5000    
   X16.6500      Y58.7565      R8.5000    
   X15.8021      Y60.8034      R8.5000    
   X15.5129      Y63.0000      R8.5000    
   X15.8021      Y65.1966      R8.5000    
   X16.6500      Y67.2435      R8.5000    
   X17.9987      Y69.0013      R8.5000    
   X19.7565      Y70.3500      R8.5000    
   X21.8034      Y71.1979      R8.5000    
(Pass: 4)
G1   Z-0.400    
G17 G2   X24.0000      Y71.4871      R8.5000    
   X26.1966      Y71.1979      R8.5000    
   X28.2435      Y70.3500      R8.5000    
   X30.0013      Y69.0013      R8.5000    
   X31.3500      Y67.2435      R8.5000    
   X32.1979      Y65.1966      R8.5000    
   X32.4871      Y63.0000      R8.5000    
   X32.1979      Y60.8034      R8.5000    
   X31.3500      Y58.7565      R8.5000    
   X30.0013      Y56.9987      R8.5000    
   X28.2435      Y55.6500      R8.5000    
   X26.1966      Y54.8021      R8.5000    
   X24.0000      Y54.5129      R8.5000    
   X21.8034      Y54.8021      R8.5000    
   X19.7565      Y55.6500      R8.5000    
   X17.9987      Y56.9987      R8.5000    
   X16.6500      Y58.7565      R8.5000    
   X15.8021      Y60.8034      R8.5000    
   X15.5129      Y63.0000      R8.5000    
   X15.8021      Y65.1966      R8.5000    
   X16.6500      Y67.2435      R8.5000    
   X17.9987      Y69.0013      R8.5000    
   X19.7565      Y70.3500      R8.5000    
   X21.8034      Y71.1979      R8.5000    
(Pass: 5)
G1   Z-0.500    
G17 G2   X24.0000      Y71.4871      R8.5000    
   X26.1966      Y71.1979      R8.5000    
   X28.2435      Y70.3500      R8.5000    
   X30.0013      Y69.0013      R8.5000    
   X31.3500      Y67.2435      R8.5000    
   X32.1979      Y65.1966      R8.5000    
   X32.4871      Y63.0000      R8.5000    
   X32.1979      Y60.8034      R8.5000    
   X31.3500      Y58.7565      R8.5000    
   X30.0013      Y56.9987      R8.5000    
   X28.2435      Y55.6500      R8.5000    
   X26.1966      Y54.8021      R8.5000    
   X24.0000      Y54.5129      R8.5000    
   X21.8034      Y54.8021      R8.5000    
   X19.7565      Y55.6500      R8.5000    
   X17.9987      Y56.9987      R8.5000    
   X16.6500      Y58.7565      R8.5000    
   X15.8021      Y60.8034      R8.5000    
   X15.5129      Y63.0000      R8.5000    
   X15.8021      Y65.1966      R8.5000    
   X16.6500      Y67.2435      R8.5000    
   X17.9987      Y69.0013      R8.5000    
   X19.7565      Y70.3500      R8.5000    
   X21.8034      Y71.1979      R8.5000    
(Pass: 6)
G1   Z-0.600    
G17 G2   X24.0000      Y71.4871      R8.5000    
   X26.1966      Y71.1979      R8.5000    
   X28.2435      Y70.3500      R8.5000    
   X30.0013      Y69.0013      R8.5000    
   X31.3500      Y67.2435      R8.5000    
   X32.1979      Y65.1966      R8.5000    
   X32.4871      Y63.0000      R8.5000    
   X32.1979      Y60.8034      R8.5000    
   X31.3500      Y58.7565      R8.5000    
   X30.0013      Y56.9987      R8.5000    
   X28.2435      Y55.6500      R8.5000    
   X26.1966      Y54.8021      R8.5000    
   X24.0000      Y54.5129      R8.5000    
   X21.8034      Y54.8021      R8.5000    
   X19.7565      Y55.6500      R8.5000    
   X17.9987      Y56.9987      R8.5000    
   X16.6500      Y58.7565      R8.5000    
   X15.8021      Y60.8034      R8.5000    
   X15.5129      Y63.0000      R8.5000    
   X15.8021      Y65.1966      R8.5000    
   X16.6500      Y67.2435      R8.5000    
   X17.9987      Y69.0013      R8.5000    
   X19.7565      Y70.3500      R8.5000    
   X21.8034      Y71.1979      R8.5000    
(Pass: 7)
G1   Z-0.700    
G17 G2   X24.0000      Y71.4871      R8.5000    
   X26.1966      Y71.1979      R8.5000    
   X28.2435      Y70.3500      R8.5000    
   X30.0013      Y69.0013      R8.5000    
   X31.3500      Y67.2435      R8.5000    
   X32.1979      Y65.1966      R8.5000    
   X32.4871      Y63.0000      R8.5000    
   X32.1979      Y60.8034      R8.5000    
   X31.3500      Y58.7565      R8.5000    
   X30.0013      Y56.9987      R8.5000    
   X28.2435      Y55.6500      R8.5000    
   X26.1966      Y54.8021      R8.5000    
   X24.0000      Y54.5129      R8.5000    
   X21.8034      Y54.8021      R8.5000    
   X19.7565      Y55.6500      R8.5000    
   X17.9987      Y56.9987      R8.5000    
   X16.6500      Y58.7565      R8.5000    
   X15.8021      Y60.8034      R8.5000    
   X15.5129      Y63.0000      R8.5000    
   X15.8021      Y65.1966      R8.5000    
   X16.6500      Y67.2435      R8.5000    
   X17.9987      Y69.0013      R8.5000    
   X19.7565      Y70.3500      R8.5000    
   X21.8034      Y71.1979      R8.5000    
(BREAK pass 7)
G0   Z3.200     
(Pass: 1)
   X23.615       Y91.564    
G1   Z-0.100     F150 
G17 G2   X23.2565      Y91.7122      R1.5000    
   X22.9485      Y91.9485      R1.5000    
   X22.7122      Y92.2565      R1.5000    
   X22.5636      Y92.6151      R1.5000    
   X22.5129      Y93.0000      R1.5000    
   X22.5636      Y93.3849      R1.5000    
   X22.7122      Y93.7435      R1.5000    
   X22.9485      Y94.0515      R1.5000    
   X23.2565      Y94.2878      R1.5000    
   X23.6151      Y94.4364      R1.5000    
   X24.0000      Y94.4871      R1.5000    
   X24.3849      Y94.4364      R1.5000    
   X24.7435      Y94.2878      R1.5000    
   X25.0515      Y94.0515      R1.5000    
   X25.2878      Y93.7435      R1.5000    
   X25.4364      Y93.3849      R1.5000    
   X25.4871      Y93.0000      R1.5000    
   X25.4364      Y92.6151      R1.5000    
   X25.2878      Y92.2565      R1.5000    
   X25.0515      Y91.9485      R1.5000    
   X24.7435      Y91.7122      R1.5000    
   X24.3849      Y91.5636      R1.5000    
   X24.0000      Y91.5129      R1.5000    
   X23.6151      Y91.5636      R1.5000    
(Pass: 2)
G1   Z-0.200    
G17 G2   X23.2565      Y91.7122      R1.5000    
   X22.9485      Y91.9485      R1.5000    
   X22.7122      Y92.2565      R1.5000    
   X22.5636      Y92.6151      R1.5000    
   X22.5129      Y93.0000      R1.5000    
   X22.5636      Y93.3849      R1.5000    
   X22.7122      Y93.7435      R1.5000    
   X22.9485      Y94.0515      R1.5000    
   X23.2565      Y94.2878      R1.5000    
   X23.6151      Y94.4364      R1.5000    
   X24.0000      Y94.4871      R1.5000    
   X24.3849      Y94.4364      R1.5000    
   X24.7435      Y94.2878      R1.5000    
   X25.0515      Y94.0515      R1.5000    
   X25.2878      Y93.7435      R1.5000    
   X25.4364      Y93.3849      R1.5000    
   X25.4871      Y93.0000      R1.5000    
   X25.4364      Y92.6151      R1.5000    
   X25.2878      Y92.2565      R1.5000    
   X25.0515      Y91.9485      R1.5000    
   X24.7435      Y91.7122      R1.5000    
   X24.3849      Y91.5636      R1.5000    
   X24.0000      Y91.5129      R1.5000    
   X23.6151      Y91.5636      R1.5000    
(Pass: 3)
G1   Z-0.300    
G17 G2   X23.2565      Y91.7122      R1.5000    
   X22.9485      Y91.9485      R1.5000    
   X22.7122      Y92.2565      R1.5000    
   X22.5636      Y92.6151      R1.5000    
   X22.5129      Y93.0000      R1.5000    
   X22.5636      Y93.3849      R1.5000    
   X22.7122      Y93.7435      R1.5000    
   X22.9485      Y94.0515      R1.5000    
   X23.2565      Y94.2878      R1.5000    
   X23.6151      Y94.4364      R1.5000    
   X24.0000      Y94.4871      R1.5000    
   X24.3849      Y94.4364      R1.5000    
   X24.7435      Y94.2878      R1.5000    
   X25.0515      Y94.0515      R1.5000    
   X25.2878      Y93.7435      R1.5000    
   X25.4364      Y93.3849      R1.5000    
   X25.4871      Y93.0000      R1.5000    
   X25.4364      Y92.6151      R1.5000    
   X25.2878      Y92.2565      R1.5000    
   X25.0515      Y91.9485      R1.5000    
   X24.7435      Y91.7122      R1.5000    
   X24.3849      Y91.5636      R1.5000    
   X24.0000      Y91.5129      R1.5000    
   X23.6151      Y91.5636      R1.5000    
(Pass: 4)
G1   Z-0.400    
G17 G2   X23.2565      Y91.7122      R1.5000    
   X22.9485      Y91.9485      R1.5000    
   X22.7122      Y92.2565      R1.5000    
   X22.5636      Y92.6151      R1.5000    
   X22.5129      Y93.0000      R1.5000    
   X22.5636      Y93.3849      R1.5000    
   X22.7122      Y93.7435      R1.5000    
   X22.9485      Y94.0515      R1.5000    
   X23.2565      Y94.2878      R1.5000    
   X23.6151      Y94.4364      R1.5000    
   X24.0000      Y94.4871      R1.5000    
   X24.3849      Y94.4364      R1.5000    
   X24.7435      Y94.2878      R1.5000    
   X25.0515      Y94.0515      R1.5000    
   X25.2878      Y93.7435      R1.5000    
   X25.4364      Y93.3849      R1.5000    
   X25.4871      Y93.0000      R1.5000    
   X25.4364      Y92.6151      R1.5000    
   X25.2878      Y92.2565      R1.5000    
   X25.0515      Y91.9485      R1.5000    
   X24.7435      Y91.7122      R1.5000    
   X24.3849      Y91.5636      R1.5000    
   X24.0000      Y91.5129      R1.5000    
   X23.6151      Y91.5636      R1.5000    
(Pass: 5)
G1   Z-0.500    
G17 G2   X23.2565      Y91.7122      R1.5000    
   X22.9485      Y91.9485      R1.5000    
   X22.7122      Y92.2565      R1.5000    
   X22.5636      Y92.6151      R1.5000    
   X22.5129      Y93.0000      R1.5000    
   X22.5636      Y93.3849      R1.5000    
   X22.7122      Y93.7435      R1.5000    
   X22.9485      Y94.0515      R1.5000    
   X23.2565      Y94.2878      R1.5000    
   X23.6151      Y94.4364      R1.5000    
   X24.0000      Y94.4871      R1.5000    
   X24.3849      Y94.4364      R1.5000    
   X24.7435      Y94.2878      R1.5000    
   X25.0515      Y94.0515      R1.5000    
   X25.2878      Y93.7435      R1.5000    
   X25.4364      Y93.3849      R1.5000    
   X25.4871      Y93.0000      R1.5000    
   X25.4364      Y92.6151      R1.5000    
   X25.2878      Y92.2565      R1.5000    
   X25.0515      Y91.9485      R1.5000    
   X24.7435      Y91.7122      R1.5000    
   X24.3849      Y91.5636      R1.5000    
   X24.0000      Y91.5129      R1.5000    
   X23.6151      Y91.5636      R1.5000    
(Pass: 6)
G1   Z-0.600    
G17 G2   X23.2565      Y91.7122      R1.5000    
   X22.9485      Y91.9485      R1.5000    
   X22.7122      Y92.2565      R1.5000    
   X22.5636      Y92.6151      R1.5000    
   X22.5129      Y93.0000      R1.5000    
   X22.5636      Y93.3849      R1.5000    
   X22.7122      Y93.7435      R1.5000    
   X22.9485      Y94.0515      R1.5000    
   X23.2565      Y94.2878      R1.5000    
   X23.6151      Y94.4364      R1.5000    
   X24.0000      Y94.4871      R1.5000    
   X24.3849      Y94.4364      R1.5000    
   X24.7435      Y94.2878      R1.5000    
   X25.0515      Y94.0515      R1.5000    
   X25.2878      Y93.7435      R1.5000    
   X25.4364      Y93.3849      R1.5000    
   X25.4871      Y93.0000      R1.5000    
   X25.4364      Y92.6151      R1.5000    
   X25.2878      Y92.2565      R1.5000    
   X25.0515      Y91.9485      R1.5000    
   X24.7435      Y91.7122      R1.5000    
   X24.3849      Y91.5636      R1.5000    
   X24.0000      Y91.5129      R1.5000    
   X23.6151      Y91.5636      R1.5000    
(Pass: 7)
G1   Z-0.700    
G17 G2   X23.2565      Y91.7122      R1.5000    
   X22.9485      Y91.9485      R1.5000    
   X22.7122      Y92.2565      R1.5000    
   X22.5636      Y92.6151      R1.5000    
   X22.5129      Y93.0000      R1.5000    
   X22.5636      Y93.3849      R1.5000    
   X22.7122      Y93.7435      R1.5000    
   X22.9485      Y94.0515      R1.5000    
   X23.2565      Y94.2878      R1.5000    
   X23.6151      Y94.4364      R1.5000    
   X24.0000      Y94.4871      R1.5000    
   X24.3849      Y94.4364      R1.5000    
   X24.7435      Y94.2878      R1.5000    
   X25.0515      Y94.0515      R1.5000    
   X25.2878      Y93.7435      R1.5000    
   X25.4364      Y93.3849      R1.5000    
   X25.4871      Y93.0000      R1.5000    
   X25.4364      Y92.6151      R1.5000    
   X25.2878      Y92.2565      R1.5000    
   X25.0515      Y91.9485      R1.5000    
   X24.7435      Y91.7122      R1.5000    
   X24.3849      Y91.5636      R1.5000    
   X24.0000      Y91.5129      R1.5000    
   X23.6151      Y91.5636      R1.5000    
(BREAK pass 7)
G0   Z3.200     
(Pass: 1)
   X3.500        Y122.500   
G1   Z-0.100     F150 
   Y66.150    
   Y59.850    
   Y3.500     
   X44.500    
   Y122.500   
   X3.500     
(Pass: 2)
   Z-0.200    
   Y66.150    
   Y59.850    
   Y3.500     
   X44.500    
   Y122.500   
   X3.500     
(Pass: 3)
   Z-0.300    
   Y66.150    
   Y59.850       Z-0.300    
   Y3.500        Z-0.300    
   X44.500    
   Y122.500   
   X3.500     
(Pass: 4)
   Z-0.400    
   Y66.150    
   Z-0.300    
   Y59.850    
   Z-0.400    
   Y3.500     
   X44.500    
   Y122.500   
   X3.500     
(Pass: 5)
   Z-0.500    
   Y66.150    
   Z-0.300    
   Y59.850    
   Z-0.500    
   Y3.500     
   X44.500    
   Y122.500   
   X3.500     
(Pass: 6)
   Z-0.600    
   Y66.150    
   Z-0.300    
   Y59.850    
   Z-0.600    
   Y3.500     
   X44.500    
   Y122.500   
   X3.500     
(Pass: 7)
   Z-0.700    
   Y66.150    
   Z-0.300    
   Y59.850    
   Z-0.700    
   Y3.500     
   X44.500    
   Y122.500   
   X3.500     
(BREAK pass 7)
G0   Z3.200     
G0 X0 Y0 (home)
M05
M30
%
