%
(Generated by SketchUcam {1.2a})
(File: RelayPanel.skp)
(Bit diameter: 3.0mm)
(Feed rate: 150.0mm/min)
(Material Thickness: 0.6mm)
(Material length: 558.8mm X width: 1066.8mm)
(Overhead Gantry: true)
(Retract feed rate NOT limited to plunge feed rate)
(Multipass enabled, Depth = 0.1mm)
(Optimization is ON)
(www.PhlatBoyz.com)
G90 G21 G49 
M3 S11000
G0   Z3.200     
(Pass: 1)
   X8.000        Y8.000     
(plungebore    depth=0.840         diam=3.000     )
G00   Z1.067     
G01   Z-0.100     F150 
G00   z1.067     
G01   Z-0.200    
G00   z1.067     
G01   Z-0.300    
G00   z1.067     
G01   Z-0.400    
G00   z1.067     
G01   Z-0.500    
G00   z1.067     
G01   Z-0.600    
G00   z1.067     
G01   Z-0.700    
G00   z1.067     
G01   Z-0.800    
G00   z1.067     
G01   Z-0.840    
G00   z1.067     
G00   Y8.000         Z3.200     
(plungebore end)
(BREAK pass 7)
(Pass: 1)
G0   X42.000    
(plungebore    depth=0.840         diam=3.000     )
G00   Z1.067     
G01   Z-0.100     F150 
G00   z1.067     
G01   Z-0.200    
G00   z1.067     
G01   Z-0.300    
G00   z1.067     
G01   Z-0.400    
G00   z1.067     
G01   Z-0.500    
G00   z1.067     
G01   Z-0.600    
G00   z1.067     
G01   Z-0.700    
G00   z1.067     
G01   Z-0.800    
G00   z1.067     
G01   Z-0.840    
G00   z1.067     
G00   Y8.000         Z3.200     
(plungebore end)
(BREAK pass 7)
(Pass: 1)
G0   Y142.000   
(plungebore    depth=0.840         diam=3.000     )
G00   Z1.067     
G01   Z-0.100     F150 
G00   z1.067     
G01   Z-0.200    
G00   z1.067     
G01   Z-0.300    
G00   z1.067     
G01   Z-0.400    
G00   z1.067     
G01   Z-0.500    
G00   z1.067     
G01   Z-0.600    
G00   z1.067     
G01   Z-0.700    
G00   z1.067     
G01   Z-0.800    
G00   z1.067     
G01   Z-0.840    
G00   z1.067     
G00   Y142.000       Z3.200     
(plungebore end)
(BREAK pass 7)
(Pass: 1)
G0   X8.000     
(plungebore    depth=0.840         diam=3.000     )
G00   Z1.067     
G01   Z-0.100     F150 
G00   z1.067     
G01   Z-0.200    
G00   z1.067     
G01   Z-0.300    
G00   z1.067     
G01   Z-0.400    
G00   z1.067     
G01   Z-0.500    
G00   z1.067     
G01   Z-0.600    
G00   z1.067     
G01   Z-0.700    
G00   z1.067     
G01   Z-0.800    
G00   z1.067     
G01   Z-0.840    
G00   z1.067     
G00   Y142.000       Z3.200     
(plungebore end)
(BREAK pass 7)
(Pass: 1)
G0   X22.803       Y83.198    
G1   Z-0.100     F150 
G17 G2   X25.0000      Y83.4871      R8.5000    
   X27.1966      Y83.1979      R8.5000    
   X29.2435      Y82.3500      R8.5000    
   X31.0013      Y81.0013      R8.5000    
   X32.3500      Y79.2435      R8.5000    
   X33.1979      Y77.1966      R8.5000    
   X33.4871      Y75.0000      R8.5000    
   X33.1979      Y72.8034      R8.5000    
   X32.3500      Y70.7565      R8.5000    
   X31.0013      Y68.9987      R8.5000    
   X29.2435      Y67.6500      R8.5000    
   X27.1966      Y66.8021      R8.5000    
   X25.0000      Y66.5129      R8.5000    
   X22.8034      Y66.8021      R8.5000    
   X20.7565      Y67.6500      R8.5000    
   X18.9987      Y68.9987      R8.5000    
   X17.6500      Y70.7565      R8.5000    
   X16.8021      Y72.8034      R8.5000    
   X16.5129      Y75.0000      R8.5000    
   X16.8021      Y77.1966      R8.5000    
   X17.6500      Y79.2435      R8.5000    
   X18.9987      Y81.0013      R8.5000    
   X20.7565      Y82.3500      R8.5000    
   X22.8034      Y83.1979      R8.5000    
(Pass: 2)
G1   Z-0.200    
G17 G2   X25.0000      Y83.4871      R8.5000    
   X27.1966      Y83.1979      R8.5000    
   X29.2435      Y82.3500      R8.5000    
   X31.0013      Y81.0013      R8.5000    
   X32.3500      Y79.2435      R8.5000    
   X33.1979      Y77.1966      R8.5000    
   X33.4871      Y75.0000      R8.5000    
   X33.1979      Y72.8034      R8.5000    
   X32.3500      Y70.7565      R8.5000    
   X31.0013      Y68.9987      R8.5000    
   X29.2435      Y67.6500      R8.5000    
   X27.1966      Y66.8021      R8.5000    
   X25.0000      Y66.5129      R8.5000    
   X22.8034      Y66.8021      R8.5000    
   X20.7565      Y67.6500      R8.5000    
   X18.9987      Y68.9987      R8.5000    
   X17.6500      Y70.7565      R8.5000    
   X16.8021      Y72.8034      R8.5000    
   X16.5129      Y75.0000      R8.5000    
   X16.8021      Y77.1966      R8.5000    
   X17.6500      Y79.2435      R8.5000    
   X18.9987      Y81.0013      R8.5000    
   X20.7565      Y82.3500      R8.5000    
   X22.8034      Y83.1979      R8.5000    
(Pass: 3)
G1   Z-0.300    
G17 G2   X25.0000      Y83.4871      R8.5000    
   X27.1966      Y83.1979      R8.5000    
   X29.2435      Y82.3500      R8.5000    
   X31.0013      Y81.0013      R8.5000    
   X32.3500      Y79.2435      R8.5000    
   X33.1979      Y77.1966      R8.5000    
   X33.4871      Y75.0000      R8.5000    
   X33.1979      Y72.8034      R8.5000    
   X32.3500      Y70.7565      R8.5000    
   X31.0013      Y68.9987      R8.5000    
   X29.2435      Y67.6500      R8.5000    
   X27.1966      Y66.8021      R8.5000    
   X25.0000      Y66.5129      R8.5000    
   X22.8034      Y66.8021      R8.5000    
   X20.7565      Y67.6500      R8.5000    
   X18.9987      Y68.9987      R8.5000    
   X17.6500      Y70.7565      R8.5000    
   X16.8021      Y72.8034      R8.5000    
   X16.5129      Y75.0000      R8.5000    
   X16.8021      Y77.1966      R8.5000    
   X17.6500      Y79.2435      R8.5000    
   X18.9987      Y81.0013      R8.5000    
   X20.7565      Y82.3500      R8.5000    
   X22.8034      Y83.1979      R8.5000    
(Pass: 4)
G1   Z-0.400    
G17 G2   X25.0000      Y83.4871      R8.5000    
   X27.1966      Y83.1979      R8.5000    
   X29.2435      Y82.3500      R8.5000    
   X31.0013      Y81.0013      R8.5000    
   X32.3500      Y79.2435      R8.5000    
   X33.1979      Y77.1966      R8.5000    
   X33.4871      Y75.0000      R8.5000    
   X33.1979      Y72.8034      R8.5000    
   X32.3500      Y70.7565      R8.5000    
   X31.0013      Y68.9987      R8.5000    
   X29.2435      Y67.6500      R8.5000    
   X27.1966      Y66.8021      R8.5000    
   X25.0000      Y66.5129      R8.5000    
   X22.8034      Y66.8021      R8.5000    
   X20.7565      Y67.6500      R8.5000    
   X18.9987      Y68.9987      R8.5000    
   X17.6500      Y70.7565      R8.5000    
   X16.8021      Y72.8034      R8.5000    
   X16.5129      Y75.0000      R8.5000    
   X16.8021      Y77.1966      R8.5000    
   X17.6500      Y79.2435      R8.5000    
   X18.9987      Y81.0013      R8.5000    
   X20.7565      Y82.3500      R8.5000    
   X22.8034      Y83.1979      R8.5000    
(Pass: 5)
G1   Z-0.500    
G17 G2   X25.0000      Y83.4871      R8.5000    
   X27.1966      Y83.1979      R8.5000    
   X29.2435      Y82.3500      R8.5000    
   X31.0013      Y81.0013      R8.5000    
   X32.3500      Y79.2435      R8.5000    
   X33.1979      Y77.1966      R8.5000    
   X33.4871      Y75.0000      R8.5000    
   X33.1979      Y72.8034      R8.5000    
   X32.3500      Y70.7565      R8.5000    
   X31.0013      Y68.9987      R8.5000    
   X29.2435      Y67.6500      R8.5000    
   X27.1966      Y66.8021      R8.5000    
   X25.0000      Y66.5129      R8.5000    
   X22.8034      Y66.8021      R8.5000    
   X20.7565      Y67.6500      R8.5000    
   X18.9987      Y68.9987      R8.5000    
   X17.6500      Y70.7565      R8.5000    
   X16.8021      Y72.8034      R8.5000    
   X16.5129      Y75.0000      R8.5000    
   X16.8021      Y77.1966      R8.5000    
   X17.6500      Y79.2435      R8.5000    
   X18.9987      Y81.0013      R8.5000    
   X20.7565      Y82.3500      R8.5000    
   X22.8034      Y83.1979      R8.5000    
(Pass: 6)
G1   Z-0.600    
G17 G2   X25.0000      Y83.4871      R8.5000    
   X27.1966      Y83.1979      R8.5000    
   X29.2435      Y82.3500      R8.5000    
   X31.0013      Y81.0013      R8.5000    
   X32.3500      Y79.2435      R8.5000    
   X33.1979      Y77.1966      R8.5000    
   X33.4871      Y75.0000      R8.5000    
   X33.1979      Y72.8034      R8.5000    
   X32.3500      Y70.7565      R8.5000    
   X31.0013      Y68.9987      R8.5000    
   X29.2435      Y67.6500      R8.5000    
   X27.1966      Y66.8021      R8.5000    
   X25.0000      Y66.5129      R8.5000    
   X22.8034      Y66.8021      R8.5000    
   X20.7565      Y67.6500      R8.5000    
   X18.9987      Y68.9987      R8.5000    
   X17.6500      Y70.7565      R8.5000    
   X16.8021      Y72.8034      R8.5000    
   X16.5129      Y75.0000      R8.5000    
   X16.8021      Y77.1966      R8.5000    
   X17.6500      Y79.2435      R8.5000    
   X18.9987      Y81.0013      R8.5000    
   X20.7565      Y82.3500      R8.5000    
   X22.8034      Y83.1979      R8.5000    
(Pass: 7)
G1   Z-0.700    
G17 G2   X25.0000      Y83.4871      R8.5000    
   X27.1966      Y83.1979      R8.5000    
   X29.2435      Y82.3500      R8.5000    
   X31.0013      Y81.0013      R8.5000    
   X32.3500      Y79.2435      R8.5000    
   X33.1979      Y77.1966      R8.5000    
   X33.4871      Y75.0000      R8.5000    
   X33.1979      Y72.8034      R8.5000    
   X32.3500      Y70.7565      R8.5000    
   X31.0013      Y68.9987      R8.5000    
   X29.2435      Y67.6500      R8.5000    
   X27.1966      Y66.8021      R8.5000    
   X25.0000      Y66.5129      R8.5000    
   X22.8034      Y66.8021      R8.5000    
   X20.7565      Y67.6500      R8.5000    
   X18.9987      Y68.9987      R8.5000    
   X17.6500      Y70.7565      R8.5000    
   X16.8021      Y72.8034      R8.5000    
   X16.5129      Y75.0000      R8.5000    
   X16.8021      Y77.1966      R8.5000    
   X17.6500      Y79.2435      R8.5000    
   X18.9987      Y81.0013      R8.5000    
   X20.7565      Y82.3500      R8.5000    
   X22.8034      Y83.1979      R8.5000    
(BREAK pass 7)
G0   Z3.200     
(Pass: 1)
   X24.615       Y103.564   
G1   Z-0.100     F150 
G17 G2   X24.2565      Y103.7122     R1.5000    
   X23.9485      Y103.9485     R1.5000    
   X23.7122      Y104.2565     R1.5000    
   X23.5636      Y104.6151     R1.5000    
   X23.5129      Y105.0000     R1.5000    
   X23.5636      Y105.3849     R1.5000    
   X23.7122      Y105.7435     R1.5000    
   X23.9485      Y106.0515     R1.5000    
   X24.2565      Y106.2878     R1.5000    
   X24.6151      Y106.4364     R1.5000    
   X25.0000      Y106.4871     R1.5000    
   X25.3849      Y106.4364     R1.5000    
   X25.7435      Y106.2878     R1.5000    
   X26.0515      Y106.0515     R1.5000    
   X26.2878      Y105.7435     R1.5000    
   X26.4364      Y105.3849     R1.5000    
   X26.4871      Y105.0000     R1.5000    
   X26.4364      Y104.6151     R1.5000    
   X26.2878      Y104.2565     R1.5000    
   X26.0515      Y103.9485     R1.5000    
   X25.7435      Y103.7122     R1.5000    
   X25.3849      Y103.5636     R1.5000    
   X25.0000      Y103.5129     R1.5000    
   X24.6151      Y103.5636     R1.5000    
(Pass: 2)
G1   Z-0.200    
G17 G2   X24.2565      Y103.7122     R1.5000    
   X23.9485      Y103.9485     R1.5000    
   X23.7122      Y104.2565     R1.5000    
   X23.5636      Y104.6151     R1.5000    
   X23.5129      Y105.0000     R1.5000    
   X23.5636      Y105.3849     R1.5000    
   X23.7122      Y105.7435     R1.5000    
   X23.9485      Y106.0515     R1.5000    
   X24.2565      Y106.2878     R1.5000    
   X24.6151      Y106.4364     R1.5000    
   X25.0000      Y106.4871     R1.5000    
   X25.3849      Y106.4364     R1.5000    
   X25.7435      Y106.2878     R1.5000    
   X26.0515      Y106.0515     R1.5000    
   X26.2878      Y105.7435     R1.5000    
   X26.4364      Y105.3849     R1.5000    
   X26.4871      Y105.0000     R1.5000    
   X26.4364      Y104.6151     R1.5000    
   X26.2878      Y104.2565     R1.5000    
   X26.0515      Y103.9485     R1.5000    
   X25.7435      Y103.7122     R1.5000    
   X25.3849      Y103.5636     R1.5000    
   X25.0000      Y103.5129     R1.5000    
   X24.6151      Y103.5636     R1.5000    
(Pass: 3)
G1   Z-0.300    
G17 G2   X24.2565      Y103.7122     R1.5000    
   X23.9485      Y103.9485     R1.5000    
   X23.7122      Y104.2565     R1.5000    
   X23.5636      Y104.6151     R1.5000    
   X23.5129      Y105.0000     R1.5000    
   X23.5636      Y105.3849     R1.5000    
   X23.7122      Y105.7435     R1.5000    
   X23.9485      Y106.0515     R1.5000    
   X24.2565      Y106.2878     R1.5000    
   X24.6151      Y106.4364     R1.5000    
   X25.0000      Y106.4871     R1.5000    
   X25.3849      Y106.4364     R1.5000    
   X25.7435      Y106.2878     R1.5000    
   X26.0515      Y106.0515     R1.5000    
   X26.2878      Y105.7435     R1.5000    
   X26.4364      Y105.3849     R1.5000    
   X26.4871      Y105.0000     R1.5000    
   X26.4364      Y104.6151     R1.5000    
   X26.2878      Y104.2565     R1.5000    
   X26.0515      Y103.9485     R1.5000    
   X25.7435      Y103.7122     R1.5000    
   X25.3849      Y103.5636     R1.5000    
   X25.0000      Y103.5129     R1.5000    
   X24.6151      Y103.5636     R1.5000    
(Pass: 4)
G1   Z-0.400    
G17 G2   X24.2565      Y103.7122     R1.5000    
   X23.9485      Y103.9485     R1.5000    
   X23.7122      Y104.2565     R1.5000    
   X23.5636      Y104.6151     R1.5000    
   X23.5129      Y105.0000     R1.5000    
   X23.5636      Y105.3849     R1.5000    
   X23.7122      Y105.7435     R1.5000    
   X23.9485      Y106.0515     R1.5000    
   X24.2565      Y106.2878     R1.5000    
   X24.6151      Y106.4364     R1.5000    
   X25.0000      Y106.4871     R1.5000    
   X25.3849      Y106.4364     R1.5000    
   X25.7435      Y106.2878     R1.5000    
   X26.0515      Y106.0515     R1.5000    
   X26.2878      Y105.7435     R1.5000    
   X26.4364      Y105.3849     R1.5000    
   X26.4871      Y105.0000     R1.5000    
   X26.4364      Y104.6151     R1.5000    
   X26.2878      Y104.2565     R1.5000    
   X26.0515      Y103.9485     R1.5000    
   X25.7435      Y103.7122     R1.5000    
   X25.3849      Y103.5636     R1.5000    
   X25.0000      Y103.5129     R1.5000    
   X24.6151      Y103.5636     R1.5000    
(Pass: 5)
G1   Z-0.500    
G17 G2   X24.2565      Y103.7122     R1.5000    
   X23.9485      Y103.9485     R1.5000    
   X23.7122      Y104.2565     R1.5000    
   X23.5636      Y104.6151     R1.5000    
   X23.5129      Y105.0000     R1.5000    
   X23.5636      Y105.3849     R1.5000    
   X23.7122      Y105.7435     R1.5000    
   X23.9485      Y106.0515     R1.5000    
   X24.2565      Y106.2878     R1.5000    
   X24.6151      Y106.4364     R1.5000    
   X25.0000      Y106.4871     R1.5000    
   X25.3849      Y106.4364     R1.5000    
   X25.7435      Y106.2878     R1.5000    
   X26.0515      Y106.0515     R1.5000    
   X26.2878      Y105.7435     R1.5000    
   X26.4364      Y105.3849     R1.5000    
   X26.4871      Y105.0000     R1.5000    
   X26.4364      Y104.6151     R1.5000    
   X26.2878      Y104.2565     R1.5000    
   X26.0515      Y103.9485     R1.5000    
   X25.7435      Y103.7122     R1.5000    
   X25.3849      Y103.5636     R1.5000    
   X25.0000      Y103.5129     R1.5000    
   X24.6151      Y103.5636     R1.5000    
(Pass: 6)
G1   Z-0.600    
G17 G2   X24.2565      Y103.7122     R1.5000    
   X23.9485      Y103.9485     R1.5000    
   X23.7122      Y104.2565     R1.5000    
   X23.5636      Y104.6151     R1.5000    
   X23.5129      Y105.0000     R1.5000    
   X23.5636      Y105.3849     R1.5000    
   X23.7122      Y105.7435     R1.5000    
   X23.9485      Y106.0515     R1.5000    
   X24.2565      Y106.2878     R1.5000    
   X24.6151      Y106.4364     R1.5000    
   X25.0000      Y106.4871     R1.5000    
   X25.3849      Y106.4364     R1.5000    
   X25.7435      Y106.2878     R1.5000    
   X26.0515      Y106.0515     R1.5000    
   X26.2878      Y105.7435     R1.5000    
   X26.4364      Y105.3849     R1.5000    
   X26.4871      Y105.0000     R1.5000    
   X26.4364      Y104.6151     R1.5000    
   X26.2878      Y104.2565     R1.5000    
   X26.0515      Y103.9485     R1.5000    
   X25.7435      Y103.7122     R1.5000    
   X25.3849      Y103.5636     R1.5000    
   X25.0000      Y103.5129     R1.5000    
   X24.6151      Y103.5636     R1.5000    
(Pass: 7)
G1   Z-0.700    
G17 G2   X24.2565      Y103.7122     R1.5000    
   X23.9485      Y103.9485     R1.5000    
   X23.7122      Y104.2565     R1.5000    
   X23.5636      Y104.6151     R1.5000    
   X23.5129      Y105.0000     R1.5000    
   X23.5636      Y105.3849     R1.5000    
   X23.7122      Y105.7435     R1.5000    
   X23.9485      Y106.0515     R1.5000    
   X24.2565      Y106.2878     R1.5000    
   X24.6151      Y106.4364     R1.5000    
   X25.0000      Y106.4871     R1.5000    
   X25.3849      Y106.4364     R1.5000    
   X25.7435      Y106.2878     R1.5000    
   X26.0515      Y106.0515     R1.5000    
   X26.2878      Y105.7435     R1.5000    
   X26.4364      Y105.3849     R1.5000    
   X26.4871      Y105.0000     R1.5000    
   X26.4364      Y104.6151     R1.5000    
   X26.2878      Y104.2565     R1.5000    
   X26.0515      Y103.9485     R1.5000    
   X25.7435      Y103.7122     R1.5000    
   X25.3849      Y103.5636     R1.5000    
   X25.0000      Y103.5129     R1.5000    
   X24.6151      Y103.5636     R1.5000    
(BREAK pass 7)
G0   Z3.200     
(Pass: 1)
   X3.500        Y71.850    
G1   Z-0.100     F150 
   Y3.500     
   X46.500    
   Y146.500   
   X3.500     
   Y78.150    
   Y71.850    
(Pass: 2)
   Z-0.200    
   Y3.500     
   X46.500    
   Y146.500   
   X3.500     
   Y78.150    
   Y71.850    
(Pass: 3)
   Z-0.300    
   Y3.500     
   X46.500    
   Y146.500   
   X3.500     
   Y78.150    
   Y71.850       Z-0.300    
(Pass: 4)
   Z-0.400    
   Y3.500     
   X46.500    
   Y146.500   
   X3.500     
   Y78.150    
   Z-0.300    
   Y71.850    
   Z-0.400    
(Pass: 5)
   Z-0.500    
   Y3.500     
   X46.500    
   Y146.500   
   X3.500     
   Y78.150    
   Z-0.300    
   Y71.850    
   Z-0.500    
(Pass: 6)
   Z-0.600    
   Y3.500     
   X46.500    
   Y146.500   
   X3.500     
   Y78.150    
   Z-0.300    
   Y71.850    
   Z-0.600    
(Pass: 7)
   Z-0.700    
   Y3.500     
   X46.500    
   Y146.500   
   X3.500     
   Y78.150    
   Z-0.300    
   Y71.850    
   Z-0.700    
(BREAK pass 7)
G0   Z3.200     
G0 X0 Y0 (home)
M05
M30
%
