%
(Generated by SketchUcam {1.2a})
(Bit diameter: 7.0mm)
(Feed rate: 50.0mm/min)
(Plunge Feed rate: 25.0mm/min)
(Material Thickness: 12.7mm)
(Material length: 558.8mm X width: 1066.8mm)
(Overhead Gantry: true)
(Retract feed rate NOT limited to plunge feed rate)
(Optimization is ON)
(www.PhlatBoyz.com)
G90 G21 G49 
M3 S11000
G0   Z10.000    
   X63.250       Y7.500     
G1   Z-15.875    F25  
G0   Z10.000    
   X89.250    
G1   Z-15.875    F25  
G0   Z10.000    
   X63.250       Y52.500    
G1   Z-15.875    F25  
G0   Z10.000    
   X89.250    
G1   Z-15.875    F25  
G0   Z10.000    
   X42.500       Y161.498   
G1   Z-15.875    F25  
G0   Z10.000    
   X7.500     
G1   Z-15.875    F25  
G0   Z10.000    
   Y196.498   
G1   Z-15.875    F25  
G0   Z10.000    
   X42.500    
G1   Z-15.875    F25  
G0   Z10.000    
   X145.000      Y161.498   
G1   Z-15.875    F25  
G0   Z10.000    
   X110.000   
G1   Z-15.875    F25  
G0   Z10.000    
   Y196.498   
G1   Z-15.875    F25  
G0   Z10.000    
   X145.000   
G1   Z-15.875    F25  
G0   Z10.000    
G0 X0 Y0 (home)
M05
M30
%
