%
(Generated by SketchUcam V1.3a)
(File: ToolMountDrills.skp)
(Bit diameter: 5.0mm)
(Feed rate: 400.0mm/min)
(Plunge Feed rate: 40.0mm/min)
(Material Thickness: 6.3mm)
(Material length: 558.8mm X width: 1066.8mm)
(Overhead Gantry: true)
(Optimization is ON)
(www.PhlatBoyz.com)
G90 G21 G49  G17
M3 S8000
G00 Z10.000
 X8.000 Y5.230
(plungebore  DEPTH=7.560  DIAM=5.000)
G00 Z3.333
G01 Z-7.560 F40  
G00 Z3.333
G00 Y5.230 Z10.000
(plungebore end)
G00 X38.000
(plungebore  DEPTH=7.560  DIAM=5.000)
G00 Z3.333
G01 Z-7.560 F40  
G00 Z3.333
G00 Y5.230 Z10.000
(plungebore end)
G00 X70.000
(plungebore  DEPTH=7.560  DIAM=5.000)
G00 Z3.333
G01 Z-7.560 F40  
G00 Z3.333
G00 Y5.230 Z10.000
(plungebore end)
G00 X100.000
(plungebore  DEPTH=7.560  DIAM=5.000)
G00 Z3.333
G01 Z-7.560 F40  
G00 Z3.333
G00 Y5.230 Z10.000
(plungebore end)
G00 Y37.230
(plungebore  DEPTH=7.560  DIAM=5.000)
G00 Z3.333
G01 Z-7.560 F40  
G00 Z3.333
G00 Y37.230 Z10.000
(plungebore end)
G00 X70.000
(plungebore  DEPTH=7.560  DIAM=5.000)
G00 Z3.333
G01 Z-7.560 F40  
G00 Z3.333
G00 Y37.230 Z10.000
(plungebore end)
G00 X38.000
(plungebore  DEPTH=7.560  DIAM=5.000)
G00 Z3.333
G01 Z-7.560 F40  
G00 Z3.333
G00 Y37.230 Z10.000
(plungebore end)
G00 X8.000
(plungebore  DEPTH=7.560  DIAM=5.000)
G00 Z3.333
G01 Z-7.560 F40  
G00 Z3.333
G00 Y37.230 Z10.000
(plungebore end)
G00 X112.771 Y78.690
(plungebore  DEPTH=7.560  DIAM=5.000)
G00 Z3.333
G01 Z-7.560 F40  
G00 Z3.333
G00 Y78.690 Z10.000
(plungebore end)
G00 X138.771
(plungebore  DEPTH=7.560  DIAM=5.000)
G00 Z3.333
G01 Z-7.560 F40  
G00 Z3.333
G00 Y78.690 Z10.000
(plungebore end)
G00 Y123.690
(plungebore  DEPTH=7.560  DIAM=5.000)
G00 Z3.333
G01 Z-7.560 F40  
G00 Z3.333
G00 Y123.690 Z10.000
(plungebore end)
G00 X112.771
(plungebore  DEPTH=7.560  DIAM=5.000)
G00 Z3.333
G01 Z-7.560 F40  
G00 Z3.333
G00 Y123.690 Z10.000
(plungebore end)
G00 X8.000 Y165.230
(plungebore  DEPTH=7.560  DIAM=5.000)
G00 Z3.333
G01 Z-7.560 F40  
G00 Z3.333
G00 Y165.230 Z10.000
(plungebore end)
G00 X38.000
(plungebore  DEPTH=7.560  DIAM=5.000)
G00 Z3.333
G01 Z-7.560 F40  
G00 Z3.333
G00 Y165.230 Z10.000
(plungebore end)
G00 X70.000
(plungebore  DEPTH=7.560  DIAM=5.000)
G00 Z3.333
G01 Z-7.560 F40  
G00 Z3.333
G00 Y165.230 Z10.000
(plungebore end)
G00 X100.000
(plungebore  DEPTH=7.560  DIAM=5.000)
G00 Z3.333
G01 Z-7.560 F40  
G00 Z3.333
G00 Y165.230 Z10.000
(plungebore end)
G00 Y197.230
(plungebore  DEPTH=7.560  DIAM=5.000)
G00 Z3.333
G01 Z-7.560 F40  
G00 Z3.333
G00 Y197.230 Z10.000
(plungebore end)
G00 X70.000
(plungebore  DEPTH=7.560  DIAM=5.000)
G00 Z3.333
G01 Z-7.560 F40  
G00 Z3.333
G00 Y197.230 Z10.000
(plungebore end)
G00 X38.000
(plungebore  DEPTH=7.560  DIAM=5.000)
G00 Z3.333
G01 Z-7.560 F40  
G00 Z3.333
G00 Y197.230 Z10.000
(plungebore end)
G00 X8.000
(plungebore  DEPTH=7.560  DIAM=5.000)
G00 Z3.333
G01 Z-7.560 F40  
G00 Z3.333
G00 Y197.230 Z10.000
(plungebore end)
G00 X0 Y0 (home)
M05
M30
%
