%
(Generated by SketchUcam {1.2a})
(File: ToolMountDrills.skp)
(Bit diameter: 5.0mm)
(Feed rate: 100.0mm/min)
(Plunge Feed rate: 25.0mm/min)
(Material Thickness: 6.3mm)
(Material length: 558.8mm X width: 1066.8mm)
(Overhead Gantry: true)
(Retract feed rate NOT limited to plunge feed rate)
(Optimization is ON)
(www.PhlatBoyz.com)
G90 G21 G49 
M3 S10000
G0   Z5.000     
   X35.000       Y8.000     
G1   Z-7.560     F25  
G0   Z5.000     
   X167.500   
G1   Z-7.560     F25  
G0   Z5.000     
   Y70.000    
G1   Z-7.560     F25  
G0   Z5.000     
   X165.270      Y110.270   
G1   Z-7.560     F25  
G0   Z5.000     
   X197.270   
G1   Z-7.560     F25  
G0   Z5.000     
   Y140.270   
G1   Z-7.560     F25  
G0   Z5.000     
   X165.270   
G1   Z-7.560     F25  
G0   Z5.000     
   Y166.270   
G1   Z-7.560     F25  
G0   Z5.000     
   X197.270   
G1   Z-7.560     F25  
G0   Z5.000     
   Y196.270   
G1   Z-7.560     F25  
G0   Z5.000     
   X165.270   
G1   Z-7.560     F25  
G0   Z5.000     
   X123.810      Y166.271   
G1   Z-7.560     F25  
G0   Z5.000     
   Y140.271   
G1   Z-7.560     F25  
G0   Z5.000     
   X78.810    
G1   Z-7.560     F25  
G0   Z5.000     
   Y166.271   
G1   Z-7.560     F25  
G0   Z5.000     
   X37.270       Y196.270   
G1   Z-7.560     F25  
G0   Z5.000     
   X5.270     
G1   Z-7.560     F25  
G0   Z5.000     
   Y166.270   
G1   Z-7.560     F25  
G0   Z5.000     
   X37.270    
G1   Z-7.560     F25  
G0   Z5.000     
   Y140.270   
G1   Z-7.560     F25  
G0   Z5.000     
   X5.270     
G1   Z-7.560     F25  
G0   Z5.000     
   Y110.270   
G1   Z-7.560     F25  
G0   Z5.000     
   X37.270    
G1   Z-7.560     F25  
G0   Z5.000     
   X35.000       Y70.000    
G1   Z-7.560     F25  
G0   Z5.000     
G0 X0 Y0 (home)
M05
M30
%
