%
(Generated by SketchUcam V1.3a)
(File: ToolMountDrills.skp)
(Bit diameter: 5.0mm)
(Feed rate: 100.0mm/min)
(Plunge Feed rate: 25.0mm/min)
(Material Thickness: 12.7mm)
(Material length: 558.8mm X width: 1066.8mm)
(Overhead Gantry: true)
(Optimization is ON)
(Z ZERO IS TABLETOP)
(www.PhlatBoyz.com)
G90 G21 G49  G17
M3 S22000
G00 Z17.700
 X35.000 Y8.000
(plungebore  DEPTH=12.700  DIAM=5.000)
G00 Z14.367
G01 Z0.000 F25  
G00 Z14.367
G00 Y8.000 Z17.700
(plungebore end)
G00 X167.500
(plungebore  DEPTH=12.700  DIAM=5.000)
G00 Z14.367
G01 Z0.000 F25  
G00 Z14.367
G00 Y8.000 Z17.700
(plungebore end)
G00 Y70.000
(plungebore  DEPTH=12.700  DIAM=5.000)
G00 Z14.367
G01 Z0.000 F25  
G00 Z14.367
G00 Y70.000 Z17.700
(plungebore end)
G00 X165.270 Y110.270
(plungebore  DEPTH=12.700  DIAM=5.000)
G00 Z14.367
G01 Z0.000 F25  
G00 Z14.367
G00 Y110.270 Z17.700
(plungebore end)
G00 X197.270
(plungebore  DEPTH=12.700  DIAM=5.000)
G00 Z14.367
G01 Z0.000 F25  
G00 Z14.367
G00 Y110.270 Z17.700
(plungebore end)
G00 Y140.270
(plungebore  DEPTH=12.700  DIAM=5.000)
G00 Z14.367
G01 Z0.000 F25  
G00 Z14.367
G00 Y140.270 Z17.700
(plungebore end)
G00 X165.270
(plungebore  DEPTH=12.700  DIAM=5.000)
G00 Z14.367
G01 Z0.000 F25  
G00 Z14.367
G00 Y140.270 Z17.700
(plungebore end)
G00 Y166.270
(plungebore  DEPTH=12.700  DIAM=5.000)
G00 Z14.367
G01 Z0.000 F25  
G00 Z14.367
G00 Y166.270 Z17.700
(plungebore end)
G00 X197.270
(plungebore  DEPTH=12.700  DIAM=5.000)
G00 Z14.367
G01 Z0.000 F25  
G00 Z14.367
G00 Y166.270 Z17.700
(plungebore end)
G00 Y196.270
(plungebore  DEPTH=12.700  DIAM=5.000)
G00 Z14.367
G01 Z0.000 F25  
G00 Z14.367
G00 Y196.270 Z17.700
(plungebore end)
G00 X165.270
(plungebore  DEPTH=12.700  DIAM=5.000)
G00 Z14.367
G01 Z0.000 F25  
G00 Z14.367
G00 Y196.270 Z17.700
(plungebore end)
G00 X123.810 Y166.271
(plungebore  DEPTH=12.700  DIAM=5.000)
G00 Z14.367
G01 Z0.000 F25  
G00 Z14.367
G00 Y166.271 Z17.700
(plungebore end)
G00 Y140.271
(plungebore  DEPTH=12.700  DIAM=5.000)
G00 Z14.367
G01 Z0.000 F25  
G00 Z14.367
G00 Y140.271 Z17.700
(plungebore end)
G00 X78.810
(plungebore  DEPTH=12.700  DIAM=5.000)
G00 Z14.367
G01 Z0.000 F25  
G00 Z14.367
G00 Y140.271 Z17.700
(plungebore end)
G00 Y166.271
(plungebore  DEPTH=12.700  DIAM=5.000)
G00 Z14.367
G01 Z0.000 F25  
G00 Z14.367
G00 Y166.271 Z17.700
(plungebore end)
G00 X37.270 Y196.270
(plungebore  DEPTH=12.700  DIAM=5.000)
G00 Z14.367
G01 Z0.000 F25  
G00 Z14.367
G00 Y196.270 Z17.700
(plungebore end)
G00 X5.270
(plungebore  DEPTH=12.700  DIAM=5.000)
G00 Z14.367
G01 Z0.000 F25  
G00 Z14.367
G00 Y196.270 Z17.700
(plungebore end)
G00 Y166.270
(plungebore  DEPTH=12.700  DIAM=5.000)
G00 Z14.367
G01 Z0.000 F25  
G00 Z14.367
G00 Y166.270 Z17.700
(plungebore end)
G00 X37.270
(plungebore  DEPTH=12.700  DIAM=5.000)
G00 Z14.367
G01 Z0.000 F25  
G00 Z14.367
G00 Y166.270 Z17.700
(plungebore end)
G00 Y140.270
(plungebore  DEPTH=12.700  DIAM=5.000)
G00 Z14.367
G01 Z0.000 F25  
G00 Z14.367
G00 Y140.270 Z17.700
(plungebore end)
G00 X5.270
(plungebore  DEPTH=12.700  DIAM=5.000)
G00 Z14.367
G01 Z0.000 F25  
G00 Z14.367
G00 Y140.270 Z17.700
(plungebore end)
G00 Y110.270
(plungebore  DEPTH=12.700  DIAM=5.000)
G00 Z14.367
G01 Z0.000 F25  
G00 Z14.367
G00 Y110.270 Z17.700
(plungebore end)
G00 X37.270
(plungebore  DEPTH=12.700  DIAM=5.000)
G00 Z14.367
G01 Z0.000 F25  
G00 Z14.367
G00 Y110.270 Z17.700
(plungebore end)
G00 X35.000 Y70.000
(plungebore  DEPTH=12.700  DIAM=5.000)
G00 Z14.367
G01 Z0.000 F25  
G00 Z14.367
G00 Y70.000 Z17.700
(plungebore end)
G00 X0 Y0 (home)
M05
M30
%
