%
(Generated by SketchUcam V1.3a)
(File: ToolMountDrills.skp)
(Bit diameter: 5.0mm)
(Feed rate: 500.0mm/min)
(Plunge Feed rate: 50.0mm/min)
(Material Thickness: 12.7mm)
(Material length: 558.8mm X width: 1066.8mm)
(Overhead Gantry: true)
(Optimization is ON)
(www.PhlatBoyz.com)
G90 G21 G49  G17
M3 S20000
G00 Z5.000
 X35.000 Y8.000
(plungebore  DEPTH=13.970  DIAM=5.000)
G00 Z1.667
G01 Z-13.970 F50  
G00 Z1.667
G00 Y8.000 Z5.000
(plungebore end)
G00 X167.500
(plungebore  DEPTH=13.970  DIAM=5.000)
G00 Z1.667
G01 Z-13.970 F50  
G00 Z1.667
G00 Y8.000 Z5.000
(plungebore end)
G00 Y70.000
(plungebore  DEPTH=13.970  DIAM=5.000)
G00 Z1.667
G01 Z-13.970 F50  
G00 Z1.667
G00 Y70.000 Z5.000
(plungebore end)
G00 X165.270 Y110.270
(plungebore  DEPTH=13.970  DIAM=5.000)
G00 Z1.667
G01 Z-13.970 F50  
G00 Z1.667
G00 Y110.270 Z5.000
(plungebore end)
G00 X197.270
(plungebore  DEPTH=13.970  DIAM=5.000)
G00 Z1.667
G01 Z-13.970 F50  
G00 Z1.667
G00 Y110.270 Z5.000
(plungebore end)
G00 Y140.270
(plungebore  DEPTH=13.970  DIAM=5.000)
G00 Z1.667
G01 Z-13.970 F50  
G00 Z1.667
G00 Y140.270 Z5.000
(plungebore end)
G00 X165.270
(plungebore  DEPTH=13.970  DIAM=5.000)
G00 Z1.667
G01 Z-13.970 F50  
G00 Z1.667
G00 Y140.270 Z5.000
(plungebore end)
G00 Y166.270
(plungebore  DEPTH=13.970  DIAM=5.000)
G00 Z1.667
G01 Z-13.970 F50  
G00 Z1.667
G00 Y166.270 Z5.000
(plungebore end)
G00 X197.270
(plungebore  DEPTH=13.970  DIAM=5.000)
G00 Z1.667
G01 Z-13.970 F50  
G00 Z1.667
G00 Y166.270 Z5.000
(plungebore end)
G00 Y196.270
(plungebore  DEPTH=13.970  DIAM=5.000)
G00 Z1.667
G01 Z-13.970 F50  
G00 Z1.667
G00 Y196.270 Z5.000
(plungebore end)
G00 X165.270
(plungebore  DEPTH=13.970  DIAM=5.000)
G00 Z1.667
G01 Z-13.970 F50  
G00 Z1.667
G00 Y196.270 Z5.000
(plungebore end)
G00 X37.270
(plungebore  DEPTH=13.970  DIAM=5.000)
G00 Z1.667
G01 Z-13.970 F50  
G00 Z1.667
G00 Y196.270 Z5.000
(plungebore end)
G00 X5.270
(plungebore  DEPTH=13.970  DIAM=5.000)
G00 Z1.667
G01 Z-13.970 F50  
G00 Z1.667
G00 Y196.270 Z5.000
(plungebore end)
G00 Y166.270
(plungebore  DEPTH=13.970  DIAM=5.000)
G00 Z1.667
G01 Z-13.970 F50  
G00 Z1.667
G00 Y166.270 Z5.000
(plungebore end)
G00 X37.270
(plungebore  DEPTH=13.970  DIAM=5.000)
G00 Z1.667
G01 Z-13.970 F50  
G00 Z1.667
G00 Y166.270 Z5.000
(plungebore end)
G00 Y140.270
(plungebore  DEPTH=13.970  DIAM=5.000)
G00 Z1.667
G01 Z-13.970 F50  
G00 Z1.667
G00 Y140.270 Z5.000
(plungebore end)
G00 X5.270
(plungebore  DEPTH=13.970  DIAM=5.000)
G00 Z1.667
G01 Z-13.970 F50  
G00 Z1.667
G00 Y140.270 Z5.000
(plungebore end)
G00 Y110.270
(plungebore  DEPTH=13.970  DIAM=5.000)
G00 Z1.667
G01 Z-13.970 F50  
G00 Z1.667
G00 Y110.270 Z5.000
(plungebore end)
G00 X37.270
(plungebore  DEPTH=13.970  DIAM=5.000)
G00 Z1.667
G01 Z-13.970 F50  
G00 Z1.667
G00 Y110.270 Z5.000
(plungebore end)
G00 X35.000 Y70.000
(plungebore  DEPTH=13.970  DIAM=5.000)
G00 Z1.667
G01 Z-13.970 F50  
G00 Z1.667
G00 Y70.000 Z5.000
(plungebore end)
(Group: _diam_6.0mm)
G00 X78.810 Y166.271
(plungebore  DEPTH=13.970  DIAM=6.000)
G00 Z1.667
G01 Z-13.970 F50  
G00 Z1.667
G00 Y165.7713
G01 Z0.0000 F500 
G03 X79.3099 Y166.2713 Z-0.5821 I0.0000 J0.5000
G03 X78.8099 Y166.7713 Z-1.1642 I-0.5000 J0.0000
G03 X78.3099 Y166.2713 Z-1.7463 I0.0000 J-0.5000
G03 X78.8099 Y165.7713 Z-2.3283 I0.5000 J0.0000
G03 X79.3099 Y166.2713 Z-2.9104 I0.0000 J0.5000
G03 X78.8099 Y166.7713 Z-3.4925 I-0.5000 J0.0000
G03 X78.3099 Y166.2713 Z-4.0746 I0.0000 J-0.5000
G03 X78.8099 Y165.7713 Z-4.6567 I0.5000 J0.0000
G03 X79.3099 Y166.2713 Z-5.2388 I0.0000 J0.5000
G03 X78.8099 Y166.7713 Z-5.8208 I-0.5000 J0.0000
G03 X78.3099 Y166.2713 Z-6.4029 I0.0000 J-0.5000
G03 X78.8099 Y165.7713 Z-6.9850 I0.5000 J0.0000
G03 X79.3099 Y166.2713 Z-7.5671 I0.0000 J0.5000
G03 X78.8099 Y166.7713 Z-8.1492 I-0.5000 J0.0000
G03 X78.3099 Y166.2713 Z-8.7312 I0.0000 J-0.5000
G03 X78.8099 Y165.7713 Z-9.3133 I0.5000 J0.0000
G03 X79.3099 Y166.2713 Z-9.8954 I0.0000 J0.5000
G03 X78.8099 Y166.7713 Z-10.4775 I-0.5000 J0.0000
G03 X78.3099 Y166.2713 Z-11.0596 I0.0000 J-0.5000
G03 X78.8099 Y165.7713 Z-11.6417 I0.5000 J0.0000
G03 X79.3099 Y166.2713 Z-12.2238 I0.0000 J0.5000
G03 X78.8099 Y166.7713 Z-12.8058 I-0.5000 J0.0000
G03 X78.3099 Y166.2713 Z-13.3879 I0.0000 J-0.5000
G03 X78.8099 Y165.7713 Z-13.9700 I0.5000 J0.0000
G03 X79.3099 Y166.2713 I0.0000 J0.5000
G03 X78.8099 Y166.7713 I-0.5000 J0.0000
G03 X78.3099 Y166.2713 I0.0000 J-0.5000
G03 X78.8099 Y165.7713 I0.5000 J0.0000
G00 Y166.271 Z5.000
(plungebore end)
G00 X81.310
(plungebore  DEPTH=13.970  DIAM=6.000)
G00 Z1.667
G01 Z-13.970 F50  
G00 Z1.667
G00 Y165.7713
G01 Z0.0000 F500 
G03 X81.8099 Y166.2713 Z-0.5821 I0.0000 J0.5000
G03 X81.3099 Y166.7713 Z-1.1642 I-0.5000 J0.0000
G03 X80.8099 Y166.2713 Z-1.7463 I0.0000 J-0.5000
G03 X81.3099 Y165.7713 Z-2.3283 I0.5000 J0.0000
G03 X81.8099 Y166.2713 Z-2.9104 I0.0000 J0.5000
G03 X81.3099 Y166.7713 Z-3.4925 I-0.5000 J0.0000
G03 X80.8099 Y166.2713 Z-4.0746 I0.0000 J-0.5000
G03 X81.3099 Y165.7713 Z-4.6567 I0.5000 J0.0000
G03 X81.8099 Y166.2713 Z-5.2388 I0.0000 J0.5000
G03 X81.3099 Y166.7713 Z-5.8208 I-0.5000 J0.0000
G03 X80.8099 Y166.2713 Z-6.4029 I0.0000 J-0.5000
G03 X81.3099 Y165.7713 Z-6.9850 I0.5000 J0.0000
G03 X81.8099 Y166.2713 Z-7.5671 I0.0000 J0.5000
G03 X81.3099 Y166.7713 Z-8.1492 I-0.5000 J0.0000
G03 X80.8099 Y166.2713 Z-8.7312 I0.0000 J-0.5000
G03 X81.3099 Y165.7713 Z-9.3133 I0.5000 J0.0000
G03 X81.8099 Y166.2713 Z-9.8954 I0.0000 J0.5000
G03 X81.3099 Y166.7713 Z-10.4775 I-0.5000 J0.0000
G03 X80.8099 Y166.2713 Z-11.0596 I0.0000 J-0.5000
G03 X81.3099 Y165.7713 Z-11.6417 I0.5000 J0.0000
G03 X81.8099 Y166.2713 Z-12.2238 I0.0000 J0.5000
G03 X81.3099 Y166.7713 Z-12.8058 I-0.5000 J0.0000
G03 X80.8099 Y166.2713 Z-13.3879 I0.0000 J-0.5000
G03 X81.3099 Y165.7713 Z-13.9700 I0.5000 J0.0000
G03 X81.8099 Y166.2713 I0.0000 J0.5000
G03 X81.3099 Y166.7713 I-0.5000 J0.0000
G03 X80.8099 Y166.2713 I0.0000 J-0.5000
G03 X81.3099 Y165.7713 I0.5000 J0.0000
G00 Y166.271 Z5.000
(plungebore end)
(Group complete: _diam_6.0mm)
(Group: _diam_6.0mm)
G00 X123.810
(plungebore  DEPTH=13.970  DIAM=6.000)
G00 Z1.667
G01 Z-13.970 F50  
G00 Z1.667
G00 Y165.7713
G01 Z0.0000 F500 
G03 X124.3099 Y166.2713 Z-0.5821 I0.0000 J0.5000
G03 X123.8099 Y166.7713 Z-1.1642 I-0.5000 J0.0000
G03 X123.3099 Y166.2713 Z-1.7463 I0.0000 J-0.5000
G03 X123.8099 Y165.7713 Z-2.3283 I0.5000 J0.0000
G03 X124.3099 Y166.2713 Z-2.9104 I0.0000 J0.5000
G03 X123.8099 Y166.7713 Z-3.4925 I-0.5000 J0.0000
G03 X123.3099 Y166.2713 Z-4.0746 I0.0000 J-0.5000
G03 X123.8099 Y165.7713 Z-4.6567 I0.5000 J0.0000
G03 X124.3099 Y166.2713 Z-5.2388 I0.0000 J0.5000
G03 X123.8099 Y166.7713 Z-5.8208 I-0.5000 J0.0000
G03 X123.3099 Y166.2713 Z-6.4029 I0.0000 J-0.5000
G03 X123.8099 Y165.7713 Z-6.9850 I0.5000 J0.0000
G03 X124.3099 Y166.2713 Z-7.5671 I0.0000 J0.5000
G03 X123.8099 Y166.7713 Z-8.1492 I-0.5000 J0.0000
G03 X123.3099 Y166.2713 Z-8.7312 I0.0000 J-0.5000
G03 X123.8099 Y165.7713 Z-9.3133 I0.5000 J0.0000
G03 X124.3099 Y166.2713 Z-9.8954 I0.0000 J0.5000
G03 X123.8099 Y166.7713 Z-10.4775 I-0.5000 J0.0000
G03 X123.3099 Y166.2713 Z-11.0596 I0.0000 J-0.5000
G03 X123.8099 Y165.7713 Z-11.6417 I0.5000 J0.0000
G03 X124.3099 Y166.2713 Z-12.2238 I0.0000 J0.5000
G03 X123.8099 Y166.7713 Z-12.8058 I-0.5000 J0.0000
G03 X123.3099 Y166.2713 Z-13.3879 I0.0000 J-0.5000
G03 X123.8099 Y165.7713 Z-13.9700 I0.5000 J0.0000
G03 X124.3099 Y166.2713 I0.0000 J0.5000
G03 X123.8099 Y166.7713 I-0.5000 J0.0000
G03 X123.3099 Y166.2713 I0.0000 J-0.5000
G03 X123.8099 Y165.7713 I0.5000 J0.0000
G00 Y166.271 Z5.000
(plungebore end)
G00 X126.310
(plungebore  DEPTH=13.970  DIAM=6.000)
G00 Z1.667
G01 Z-13.970 F50  
G00 Z1.667
G00 Y165.7713
G01 Z0.0000 F500 
G03 X126.8099 Y166.2713 Z-0.5821 I0.0000 J0.5000
G03 X126.3099 Y166.7713 Z-1.1642 I-0.5000 J0.0000
G03 X125.8099 Y166.2713 Z-1.7463 I0.0000 J-0.5000
G03 X126.3099 Y165.7713 Z-2.3283 I0.5000 J0.0000
G03 X126.8099 Y166.2713 Z-2.9104 I0.0000 J0.5000
G03 X126.3099 Y166.7713 Z-3.4925 I-0.5000 J0.0000
G03 X125.8099 Y166.2713 Z-4.0746 I0.0000 J-0.5000
G03 X126.3099 Y165.7713 Z-4.6567 I0.5000 J0.0000
G03 X126.8099 Y166.2713 Z-5.2388 I0.0000 J0.5000
G03 X126.3099 Y166.7713 Z-5.8208 I-0.5000 J0.0000
G03 X125.8099 Y166.2713 Z-6.4029 I0.0000 J-0.5000
G03 X126.3099 Y165.7713 Z-6.9850 I0.5000 J0.0000
G03 X126.8099 Y166.2713 Z-7.5671 I0.0000 J0.5000
G03 X126.3099 Y166.7713 Z-8.1492 I-0.5000 J0.0000
G03 X125.8099 Y166.2713 Z-8.7312 I0.0000 J-0.5000
G03 X126.3099 Y165.7713 Z-9.3133 I0.5000 J0.0000
G03 X126.8099 Y166.2713 Z-9.8954 I0.0000 J0.5000
G03 X126.3099 Y166.7713 Z-10.4775 I-0.5000 J0.0000
G03 X125.8099 Y166.2713 Z-11.0596 I0.0000 J-0.5000
G03 X126.3099 Y165.7713 Z-11.6417 I0.5000 J0.0000
G03 X126.8099 Y166.2713 Z-12.2238 I0.0000 J0.5000
G03 X126.3099 Y166.7713 Z-12.8058 I-0.5000 J0.0000
G03 X125.8099 Y166.2713 Z-13.3879 I0.0000 J-0.5000
G03 X126.3099 Y165.7713 Z-13.9700 I0.5000 J0.0000
G03 X126.8099 Y166.2713 I0.0000 J0.5000
G03 X126.3099 Y166.7713 I-0.5000 J0.0000
G03 X125.8099 Y166.2713 I0.0000 J-0.5000
G03 X126.3099 Y165.7713 I0.5000 J0.0000
G00 Y166.271 Z5.000
(plungebore end)
(Group complete: _diam_6.0mm)
(Group: _diam_6.0mm)
G00 X123.810 Y140.271
(plungebore  DEPTH=13.970  DIAM=6.000)
G00 Z1.667
G01 Z-13.970 F50  
G00 Z1.667
G00 Y139.7713
G01 Z0.0000 F500 
G03 X124.3099 Y140.2713 Z-0.5821 I0.0000 J0.5000
G03 X123.8099 Y140.7713 Z-1.1642 I-0.5000 J0.0000
G03 X123.3099 Y140.2713 Z-1.7463 I0.0000 J-0.5000
G03 X123.8099 Y139.7713 Z-2.3283 I0.5000 J0.0000
G03 X124.3099 Y140.2713 Z-2.9104 I0.0000 J0.5000
G03 X123.8099 Y140.7713 Z-3.4925 I-0.5000 J0.0000
G03 X123.3099 Y140.2713 Z-4.0746 I0.0000 J-0.5000
G03 X123.8099 Y139.7713 Z-4.6567 I0.5000 J0.0000
G03 X124.3099 Y140.2713 Z-5.2388 I0.0000 J0.5000
G03 X123.8099 Y140.7713 Z-5.8208 I-0.5000 J0.0000
G03 X123.3099 Y140.2713 Z-6.4029 I0.0000 J-0.5000
G03 X123.8099 Y139.7713 Z-6.9850 I0.5000 J0.0000
G03 X124.3099 Y140.2713 Z-7.5671 I0.0000 J0.5000
G03 X123.8099 Y140.7713 Z-8.1492 I-0.5000 J0.0000
G03 X123.3099 Y140.2713 Z-8.7312 I0.0000 J-0.5000
G03 X123.8099 Y139.7713 Z-9.3133 I0.5000 J0.0000
G03 X124.3099 Y140.2713 Z-9.8954 I0.0000 J0.5000
G03 X123.8099 Y140.7713 Z-10.4775 I-0.5000 J0.0000
G03 X123.3099 Y140.2713 Z-11.0596 I0.0000 J-0.5000
G03 X123.8099 Y139.7713 Z-11.6417 I0.5000 J0.0000
G03 X124.3099 Y140.2713 Z-12.2238 I0.0000 J0.5000
G03 X123.8099 Y140.7713 Z-12.8058 I-0.5000 J0.0000
G03 X123.3099 Y140.2713 Z-13.3879 I0.0000 J-0.5000
G03 X123.8099 Y139.7713 Z-13.9700 I0.5000 J0.0000
G03 X124.3099 Y140.2713 I0.0000 J0.5000
G03 X123.8099 Y140.7713 I-0.5000 J0.0000
G03 X123.3099 Y140.2713 I0.0000 J-0.5000
G03 X123.8099 Y139.7713 I0.5000 J0.0000
G00 Y140.271 Z5.000
(plungebore end)
G00 X126.301
(plungebore  DEPTH=13.970  DIAM=6.000)
G00 Z1.667
G01 Z-13.970 F50  
G00 Z1.667
G00 Y139.7713
G01 Z0.0000 F500 
G03 X126.8006 Y140.2713 Z-0.5821 I0.0000 J0.5000
G03 X126.3006 Y140.7713 Z-1.1642 I-0.5000 J0.0000
G03 X125.8006 Y140.2713 Z-1.7463 I0.0000 J-0.5000
G03 X126.3006 Y139.7713 Z-2.3283 I0.5000 J0.0000
G03 X126.8006 Y140.2713 Z-2.9104 I0.0000 J0.5000
G03 X126.3006 Y140.7713 Z-3.4925 I-0.5000 J0.0000
G03 X125.8006 Y140.2713 Z-4.0746 I0.0000 J-0.5000
G03 X126.3006 Y139.7713 Z-4.6567 I0.5000 J0.0000
G03 X126.8006 Y140.2713 Z-5.2388 I0.0000 J0.5000
G03 X126.3006 Y140.7713 Z-5.8208 I-0.5000 J0.0000
G03 X125.8006 Y140.2713 Z-6.4029 I0.0000 J-0.5000
G03 X126.3006 Y139.7713 Z-6.9850 I0.5000 J0.0000
G03 X126.8006 Y140.2713 Z-7.5671 I0.0000 J0.5000
G03 X126.3006 Y140.7713 Z-8.1492 I-0.5000 J0.0000
G03 X125.8006 Y140.2713 Z-8.7312 I0.0000 J-0.5000
G03 X126.3006 Y139.7713 Z-9.3133 I0.5000 J0.0000
G03 X126.8006 Y140.2713 Z-9.8954 I0.0000 J0.5000
G03 X126.3006 Y140.7713 Z-10.4775 I-0.5000 J0.0000
G03 X125.8006 Y140.2713 Z-11.0596 I0.0000 J-0.5000
G03 X126.3006 Y139.7713 Z-11.6417 I0.5000 J0.0000
G03 X126.8006 Y140.2713 Z-12.2238 I0.0000 J0.5000
G03 X126.3006 Y140.7713 Z-12.8058 I-0.5000 J0.0000
G03 X125.8006 Y140.2713 Z-13.3879 I0.0000 J-0.5000
G03 X126.3006 Y139.7713 Z-13.9700 I0.5000 J0.0000
G03 X126.8006 Y140.2713 I0.0000 J0.5000
G03 X126.3006 Y140.7713 I-0.5000 J0.0000
G03 X125.8006 Y140.2713 I0.0000 J-0.5000
G03 X126.3006 Y139.7713 I0.5000 J0.0000
G00 Y140.271 Z5.000
(plungebore end)
(Group complete: _diam_6.0mm)
(Group: _diam_6.0mm)
G00 X78.810
(plungebore  DEPTH=13.970  DIAM=6.000)
G00 Z1.667
G01 Z-13.970 F50  
G00 Z1.667
G00 Y139.7713
G01 Z0.0000 F500 
G03 X79.3099 Y140.2713 Z-0.5821 I0.0000 J0.5000
G03 X78.8099 Y140.7713 Z-1.1642 I-0.5000 J0.0000
G03 X78.3099 Y140.2713 Z-1.7463 I0.0000 J-0.5000
G03 X78.8099 Y139.7713 Z-2.3283 I0.5000 J0.0000
G03 X79.3099 Y140.2713 Z-2.9104 I0.0000 J0.5000
G03 X78.8099 Y140.7713 Z-3.4925 I-0.5000 J0.0000
G03 X78.3099 Y140.2713 Z-4.0746 I0.0000 J-0.5000
G03 X78.8099 Y139.7713 Z-4.6567 I0.5000 J0.0000
G03 X79.3099 Y140.2713 Z-5.2388 I0.0000 J0.5000
G03 X78.8099 Y140.7713 Z-5.8208 I-0.5000 J0.0000
G03 X78.3099 Y140.2713 Z-6.4029 I0.0000 J-0.5000
G03 X78.8099 Y139.7713 Z-6.9850 I0.5000 J0.0000
G03 X79.3099 Y140.2713 Z-7.5671 I0.0000 J0.5000
G03 X78.8099 Y140.7713 Z-8.1492 I-0.5000 J0.0000
G03 X78.3099 Y140.2713 Z-8.7312 I0.0000 J-0.5000
G03 X78.8099 Y139.7713 Z-9.3133 I0.5000 J0.0000
G03 X79.3099 Y140.2713 Z-9.8954 I0.0000 J0.5000
G03 X78.8099 Y140.7713 Z-10.4775 I-0.5000 J0.0000
G03 X78.3099 Y140.2713 Z-11.0596 I0.0000 J-0.5000
G03 X78.8099 Y139.7713 Z-11.6417 I0.5000 J0.0000
G03 X79.3099 Y140.2713 Z-12.2238 I0.0000 J0.5000
G03 X78.8099 Y140.7713 Z-12.8058 I-0.5000 J0.0000
G03 X78.3099 Y140.2713 Z-13.3879 I0.0000 J-0.5000
G03 X78.8099 Y139.7713 Z-13.9700 I0.5000 J0.0000
G03 X79.3099 Y140.2713 I0.0000 J0.5000
G03 X78.8099 Y140.7713 I-0.5000 J0.0000
G03 X78.3099 Y140.2713 I0.0000 J-0.5000
G03 X78.8099 Y139.7713 I0.5000 J0.0000
G00 Y140.271 Z5.000
(plungebore end)
G00 X81.300
(plungebore  DEPTH=13.970  DIAM=6.000)
G00 Z1.667
G01 Z-13.970 F50  
G00 Z1.667
G00 Y139.7713
G01 Z0.0000 F500 
G03 X81.8001 Y140.2713 Z-0.5821 I0.0000 J0.5000
G03 X81.3001 Y140.7713 Z-1.1642 I-0.5000 J0.0000
G03 X80.8001 Y140.2713 Z-1.7463 I0.0000 J-0.5000
G03 X81.3001 Y139.7713 Z-2.3283 I0.5000 J0.0000
G03 X81.8001 Y140.2713 Z-2.9104 I0.0000 J0.5000
G03 X81.3001 Y140.7713 Z-3.4925 I-0.5000 J0.0000
G03 X80.8001 Y140.2713 Z-4.0746 I0.0000 J-0.5000
G03 X81.3001 Y139.7713 Z-4.6567 I0.5000 J0.0000
G03 X81.8001 Y140.2713 Z-5.2388 I0.0000 J0.5000
G03 X81.3001 Y140.7713 Z-5.8208 I-0.5000 J0.0000
G03 X80.8001 Y140.2713 Z-6.4029 I0.0000 J-0.5000
G03 X81.3001 Y139.7713 Z-6.9850 I0.5000 J0.0000
G03 X81.8001 Y140.2713 Z-7.5671 I0.0000 J0.5000
G03 X81.3001 Y140.7713 Z-8.1492 I-0.5000 J0.0000
G03 X80.8001 Y140.2713 Z-8.7312 I0.0000 J-0.5000
G03 X81.3001 Y139.7713 Z-9.3133 I0.5000 J0.0000
G03 X81.8001 Y140.2713 Z-9.8954 I0.0000 J0.5000
G03 X81.3001 Y140.7713 Z-10.4775 I-0.5000 J0.0000
G03 X80.8001 Y140.2713 Z-11.0596 I0.0000 J-0.5000
G03 X81.3001 Y139.7713 Z-11.6417 I0.5000 J0.0000
G03 X81.8001 Y140.2713 Z-12.2238 I0.0000 J0.5000
G03 X81.3001 Y140.7713 Z-12.8058 I-0.5000 J0.0000
G03 X80.8001 Y140.2713 Z-13.3879 I0.0000 J-0.5000
G03 X81.3001 Y139.7713 Z-13.9700 I0.5000 J0.0000
G03 X81.8001 Y140.2713 I0.0000 J0.5000
G03 X81.3001 Y140.7713 I-0.5000 J0.0000
G03 X80.8001 Y140.2713 I0.0000 J-0.5000
G03 X81.3001 Y139.7713 I0.5000 J0.0000
G00 Y140.271 Z5.000
(plungebore end)
(Group complete: _diam_6.0mm)
G00 X0 Y0 (home)
M05
M30
%
