%
(Generated by SketchUcam {1.2a})
(File: WasherHole.skp)
(Bit diameter: 6.0mm)
(Feed rate: 150.0mm/min)
(Material Thickness: 4.0mm)
(Material length: 558.8mm X width: 1066.8mm)
(Overhead Gantry: true)
(Retract feed rate NOT limited to plunge feed rate)
(Optimization is ON)
(www.PhlatBoyz.com)
G90 G21 G49
M3 S12000

G10 P2 L20 X-100 Y-100
G55
G0   Z15.000
   X7.800        Y4.488
G1   Z-3.000     F150
   Y7.512
G0   Z4.0 X8.103 Y8.103
G1   Z-3.000     F150
   X7.487        Y8.576
   X6.770        Y8.873
   X6.000        Y8.974
   X5.230        Y8.873
   X4.513        Y8.576
   X3.897        Y8.103
   X3.424        Y7.487
   X3.127        Y6.770
   X3.026        Y6.000
   X3.127        Y5.230
   X3.424        Y4.513
   X3.897        Y3.897
   X4.513        Y3.424
   X5.230        Y3.127
   X6.000        Y3.026
   X6.770        Y3.127
   X7.487        Y3.424
   X8.103        Y3.897
   X8.576        Y4.513
   X8.873        Y5.230
   X8.974        Y6.000
   X8.873        Y6.770
   X8.576        Y7.487
   X8.103        Y8.103
G0   Z15.0
G53
G10 P2 L20 X-200 Y-100
G55
G0   Z15.000
   X7.800        Y4.488
G1   Z-3.000     F150
   Y7.512
G0   Z4.0 X8.103 Y8.103
G1   Z-3.000     F150
   X7.487        Y8.576
   X6.770        Y8.873
   X6.000        Y8.974
   X5.230        Y8.873
   X4.513        Y8.576
   X3.897        Y8.103
   X3.424        Y7.487
   X3.127        Y6.770
   X3.026        Y6.000
   X3.127        Y5.230
   X3.424        Y4.513
   X3.897        Y3.897
   X4.513        Y3.424
   X5.230        Y3.127
   X6.000        Y3.026
   X6.770        Y3.127
   X7.487        Y3.424
   X8.103        Y3.897
   X8.576        Y4.513
   X8.873        Y5.230
   X8.974        Y6.000
   X8.873        Y6.770
   X8.576        Y7.487
   X8.103        Y8.103
G0   Z15.0
G53
G10 P2 L20 X-300 Y-100
G55
G0   Z15.000
   X7.800        Y4.488
G1   Z-3.000     F150
   Y7.512
G0   Z4.0 X8.103 Y8.103
G1   Z-3.000     F150
   X7.487        Y8.576
   X6.770        Y8.873
   X6.000        Y8.974
   X5.230        Y8.873
   X4.513        Y8.576
   X3.897        Y8.103
   X3.424        Y7.487
   X3.127        Y6.770
   X3.026        Y6.000
   X3.127        Y5.230
   X3.424        Y4.513
   X3.897        Y3.897
   X4.513        Y3.424
   X5.230        Y3.127
   X6.000        Y3.026
   X6.770        Y3.127
   X7.487        Y3.424
   X8.103        Y3.897
   X8.576        Y4.513
   X8.873        Y5.230
   X8.974        Y6.000
   X8.873        Y6.770
   X8.576        Y7.487
   X8.103        Y8.103
G0   Z15.0
G53
G10 P2 L20 X-400 Y-100
G55
G0   Z15.000
   X7.800        Y4.488
G1   Z-3.000     F150
   Y7.512
G0   Z4.0 X8.103 Y8.103
G1   Z-3.000     F150
   X7.487        Y8.576
   X6.770        Y8.873
   X6.000        Y8.974
   X5.230        Y8.873
   X4.513        Y8.576
   X3.897        Y8.103
   X3.424        Y7.487
   X3.127        Y6.770
   X3.026        Y6.000
   X3.127        Y5.230
   X3.424        Y4.513
   X3.897        Y3.897
   X4.513        Y3.424
   X5.230        Y3.127
   X6.000        Y3.026
   X6.770        Y3.127
   X7.487        Y3.424
   X8.103        Y3.897
   X8.576        Y4.513
   X8.873        Y5.230
   X8.974        Y6.000
   X8.873        Y6.770
   X8.576        Y7.487
   X8.103        Y8.103
G0   Z15.0
G53
G10 P2 L20 X-500 Y-100
G55
G0   Z15.000
   X7.800        Y4.488
G1   Z-3.000     F150
   Y7.512
G0   Z4.0 X8.103 Y8.103
G1   Z-3.000     F150
   X7.487        Y8.576
   X6.770        Y8.873
   X6.000        Y8.974
   X5.230        Y8.873
   X4.513        Y8.576
   X3.897        Y8.103
   X3.424        Y7.487
   X3.127        Y6.770
   X3.026        Y6.000
   X3.127        Y5.230
   X3.424        Y4.513
   X3.897        Y3.897
   X4.513        Y3.424
   X5.230        Y3.127
   X6.000        Y3.026
   X6.770        Y3.127
   X7.487        Y3.424
   X8.103        Y3.897
   X8.576        Y4.513
   X8.873        Y5.230
   X8.974        Y6.000
   X8.873        Y6.770
   X8.576        Y7.487
   X8.103        Y8.103
G0   Z15.0
G53
G10 P2 L20 X-600 Y-100
G55
G0   Z15.000
   X7.800        Y4.488
G1   Z-3.000     F150
   Y7.512
G0   Z4.0 X8.103 Y8.103
G1   Z-3.000     F150
   X7.487        Y8.576
   X6.770        Y8.873
   X6.000        Y8.974
   X5.230        Y8.873
   X4.513        Y8.576
   X3.897        Y8.103
   X3.424        Y7.487
   X3.127        Y6.770
   X3.026        Y6.000
   X3.127        Y5.230
   X3.424        Y4.513
   X3.897        Y3.897
   X4.513        Y3.424
   X5.230        Y3.127
   X6.000        Y3.026
   X6.770        Y3.127
   X7.487        Y3.424
   X8.103        Y3.897
   X8.576        Y4.513
   X8.873        Y5.230
   X8.974        Y6.000
   X8.873        Y6.770
   X8.576        Y7.487
   X8.103        Y8.103
G0   Z15.0
G53
G10 P2 L20 X-700 Y-100
G55
G0   Z15.000
   X7.800        Y4.488
G1   Z-3.000     F150
   Y7.512
G0   Z4.0 X8.103 Y8.103
G1   Z-3.000     F150
   X7.487        Y8.576
   X6.770        Y8.873
   X6.000        Y8.974
   X5.230        Y8.873
   X4.513        Y8.576
   X3.897        Y8.103
   X3.424        Y7.487
   X3.127        Y6.770
   X3.026        Y6.000
   X3.127        Y5.230
   X3.424        Y4.513
   X3.897        Y3.897
   X4.513        Y3.424
   X5.230        Y3.127
   X6.000        Y3.026
   X6.770        Y3.127
   X7.487        Y3.424
   X8.103        Y3.897
   X8.576        Y4.513
   X8.873        Y5.230
   X8.974        Y6.000
   X8.873        Y6.770
   X8.576        Y7.487
   X8.103        Y8.103
G0   Z15.0
G53
G10 P2 L20 X-800 Y-100
G55
G0   Z15.000
   X7.800        Y4.488
G1   Z-3.000     F150
   Y7.512
G0   Z4.0 X8.103 Y8.103
G1   Z-3.000     F150
   X7.487        Y8.576
   X6.770        Y8.873
   X6.000        Y8.974
   X5.230        Y8.873
   X4.513        Y8.576
   X3.897        Y8.103
   X3.424        Y7.487
   X3.127        Y6.770
   X3.026        Y6.000
   X3.127        Y5.230
   X3.424        Y4.513
   X3.897        Y3.897
   X4.513        Y3.424
   X5.230        Y3.127
   X6.000        Y3.026
   X6.770        Y3.127
   X7.487        Y3.424
   X8.103        Y3.897
   X8.576        Y4.513
   X8.873        Y5.230
   X8.974        Y6.000
   X8.873        Y6.770
   X8.576        Y7.487
   X8.103        Y8.103
G0   Z15.0
G53
G10 P2 L20 X-900 Y-100
G55
G0   Z15.000
   X7.800        Y4.488
G1   Z-3.000     F150
   Y7.512
G0   Z4.0 X8.103 Y8.103
G1   Z-3.000     F150
   X7.487        Y8.576
   X6.770        Y8.873
   X6.000        Y8.974
   X5.230        Y8.873
   X4.513        Y8.576
   X3.897        Y8.103
   X3.424        Y7.487
   X3.127        Y6.770
   X3.026        Y6.000
   X3.127        Y5.230
   X3.424        Y4.513
   X3.897        Y3.897
   X4.513        Y3.424
   X5.230        Y3.127
   X6.000        Y3.026
   X6.770        Y3.127
   X7.487        Y3.424
   X8.103        Y3.897
   X8.576        Y4.513
   X8.873        Y5.230
   X8.974        Y6.000
   X8.873        Y6.770
   X8.576        Y7.487
   X8.103        Y8.103
G0   Z15.0
G53
G10 P2 L20 X-1000 Y-100
G55
G0   Z15.000
   X7.800        Y4.488
G1   Z-3.000     F150
   Y7.512
G0   Z4.0 X8.103 Y8.103
G1   Z-3.000     F150
   X7.487        Y8.576
   X6.770        Y8.873
   X6.000        Y8.974
   X5.230        Y8.873
   X4.513        Y8.576
   X3.897        Y8.103
   X3.424        Y7.487
   X3.127        Y6.770
   X3.026        Y6.000
   X3.127        Y5.230
   X3.424        Y4.513
   X3.897        Y3.897
   X4.513        Y3.424
   X5.230        Y3.127
   X6.000        Y3.026
   X6.770        Y3.127
   X7.487        Y3.424
   X8.103        Y3.897
   X8.576        Y4.513
   X8.873        Y5.230
   X8.974        Y6.000
   X8.873        Y6.770
   X8.576        Y7.487
   X8.103        Y8.103
G0   Z15.0
G53
G10 P2 L20 X-1100 Y-100
G55
G0   Z15.000
   X7.800        Y4.488
G1   Z-3.000     F150
   Y7.512
G0   Z4.0 X8.103 Y8.103
G1   Z-3.000     F150
   X7.487        Y8.576
   X6.770        Y8.873
   X6.000        Y8.974
   X5.230        Y8.873
   X4.513        Y8.576
   X3.897        Y8.103
   X3.424        Y7.487
   X3.127        Y6.770
   X3.026        Y6.000
   X3.127        Y5.230
   X3.424        Y4.513
   X3.897        Y3.897
   X4.513        Y3.424
   X5.230        Y3.127
   X6.000        Y3.026
   X6.770        Y3.127
   X7.487        Y3.424
   X8.103        Y3.897
   X8.576        Y4.513
   X8.873        Y5.230
   X8.974        Y6.000
   X8.873        Y6.770
   X8.576        Y7.487
   X8.103        Y8.103
G0   Z15.0
G53
G10 P2 L20 X-100 Y-200
G55
G0   Z15.000
   X7.800        Y4.488
G1   Z-3.000     F150
   Y7.512
G0   Z4.0 X8.103 Y8.103
G1   Z-3.000     F150
   X7.487        Y8.576
   X6.770        Y8.873
   X6.000        Y8.974
   X5.230        Y8.873
   X4.513        Y8.576
   X3.897        Y8.103
   X3.424        Y7.487
   X3.127        Y6.770
   X3.026        Y6.000
   X3.127        Y5.230
   X3.424        Y4.513
   X3.897        Y3.897
   X4.513        Y3.424
   X5.230        Y3.127
   X6.000        Y3.026
   X6.770        Y3.127
   X7.487        Y3.424
   X8.103        Y3.897
   X8.576        Y4.513
   X8.873        Y5.230
   X8.974        Y6.000
   X8.873        Y6.770
   X8.576        Y7.487
   X8.103        Y8.103
G0   Z15.0
G53
G10 P2 L20 X-200 Y-200
G55
G0   Z15.000
   X7.800        Y4.488
G1   Z-3.000     F150
   Y7.512
G0   Z4.0 X8.103 Y8.103
G1   Z-3.000     F150
   X7.487        Y8.576
   X6.770        Y8.873
   X6.000        Y8.974
   X5.230        Y8.873
   X4.513        Y8.576
   X3.897        Y8.103
   X3.424        Y7.487
   X3.127        Y6.770
   X3.026        Y6.000
   X3.127        Y5.230
   X3.424        Y4.513
   X3.897        Y3.897
   X4.513        Y3.424
   X5.230        Y3.127
   X6.000        Y3.026
   X6.770        Y3.127
   X7.487        Y3.424
   X8.103        Y3.897
   X8.576        Y4.513
   X8.873        Y5.230
   X8.974        Y6.000
   X8.873        Y6.770
   X8.576        Y7.487
   X8.103        Y8.103
G0   Z15.0
G53
G10 P2 L20 X-300 Y-200
G55
G0   Z15.000
   X7.800        Y4.488
G1   Z-3.000     F150
   Y7.512
G0   Z4.0 X8.103 Y8.103
G1   Z-3.000     F150
   X7.487        Y8.576
   X6.770        Y8.873
   X6.000        Y8.974
   X5.230        Y8.873
   X4.513        Y8.576
   X3.897        Y8.103
   X3.424        Y7.487
   X3.127        Y6.770
   X3.026        Y6.000
   X3.127        Y5.230
   X3.424        Y4.513
   X3.897        Y3.897
   X4.513        Y3.424
   X5.230        Y3.127
   X6.000        Y3.026
   X6.770        Y3.127
   X7.487        Y3.424
   X8.103        Y3.897
   X8.576        Y4.513
   X8.873        Y5.230
   X8.974        Y6.000
   X8.873        Y6.770
   X8.576        Y7.487
   X8.103        Y8.103
G0   Z15.0
G53
G10 P2 L20 X-400 Y-200
G55
G0   Z15.000
   X7.800        Y4.488
G1   Z-3.000     F150
   Y7.512
G0   Z4.0 X8.103 Y8.103
G1   Z-3.000     F150
   X7.487        Y8.576
   X6.770        Y8.873
   X6.000        Y8.974
   X5.230        Y8.873
   X4.513        Y8.576
   X3.897        Y8.103
   X3.424        Y7.487
   X3.127        Y6.770
   X3.026        Y6.000
   X3.127        Y5.230
   X3.424        Y4.513
   X3.897        Y3.897
   X4.513        Y3.424
   X5.230        Y3.127
   X6.000        Y3.026
   X6.770        Y3.127
   X7.487        Y3.424
   X8.103        Y3.897
   X8.576        Y4.513
   X8.873        Y5.230
   X8.974        Y6.000
   X8.873        Y6.770
   X8.576        Y7.487
   X8.103        Y8.103
G0   Z15.0
G53
G10 P2 L20 X-500 Y-200
G55
G0   Z15.000
   X7.800        Y4.488
G1   Z-3.000     F150
   Y7.512
G0   Z4.0 X8.103 Y8.103
G1   Z-3.000     F150
   X7.487        Y8.576
   X6.770        Y8.873
   X6.000        Y8.974
   X5.230        Y8.873
   X4.513        Y8.576
   X3.897        Y8.103
   X3.424        Y7.487
   X3.127        Y6.770
   X3.026        Y6.000
   X3.127        Y5.230
   X3.424        Y4.513
   X3.897        Y3.897
   X4.513        Y3.424
   X5.230        Y3.127
   X6.000        Y3.026
   X6.770        Y3.127
   X7.487        Y3.424
   X8.103        Y3.897
   X8.576        Y4.513
   X8.873        Y5.230
   X8.974        Y6.000
   X8.873        Y6.770
   X8.576        Y7.487
   X8.103        Y8.103
G0   Z15.0
G53
G10 P2 L20 X-600 Y-200
G55
G0   Z15.000
   X7.800        Y4.488
G1   Z-3.000     F150
   Y7.512
G0   Z4.0 X8.103 Y8.103
G1   Z-3.000     F150
   X7.487        Y8.576
   X6.770        Y8.873
   X6.000        Y8.974
   X5.230        Y8.873
   X4.513        Y8.576
   X3.897        Y8.103
   X3.424        Y7.487
   X3.127        Y6.770
   X3.026        Y6.000
   X3.127        Y5.230
   X3.424        Y4.513
   X3.897        Y3.897
   X4.513        Y3.424
   X5.230        Y3.127
   X6.000        Y3.026
   X6.770        Y3.127
   X7.487        Y3.424
   X8.103        Y3.897
   X8.576        Y4.513
   X8.873        Y5.230
   X8.974        Y6.000
   X8.873        Y6.770
   X8.576        Y7.487
   X8.103        Y8.103
G0   Z15.0
G53
G10 P2 L20 X-700 Y-200
G55
G0   Z15.000
   X7.800        Y4.488
G1   Z-3.000     F150
   Y7.512
G0   Z4.0 X8.103 Y8.103
G1   Z-3.000     F150
   X7.487        Y8.576
   X6.770        Y8.873
   X6.000        Y8.974
   X5.230        Y8.873
   X4.513        Y8.576
   X3.897        Y8.103
   X3.424        Y7.487
   X3.127        Y6.770
   X3.026        Y6.000
   X3.127        Y5.230
   X3.424        Y4.513
   X3.897        Y3.897
   X4.513        Y3.424
   X5.230        Y3.127
   X6.000        Y3.026
   X6.770        Y3.127
   X7.487        Y3.424
   X8.103        Y3.897
   X8.576        Y4.513
   X8.873        Y5.230
   X8.974        Y6.000
   X8.873        Y6.770
   X8.576        Y7.487
   X8.103        Y8.103
G0   Z15.0
G53
G10 P2 L20 X-800 Y-200
G55
G0   Z15.000
   X7.800        Y4.488
G1   Z-3.000     F150
   Y7.512
G0   Z4.0 X8.103 Y8.103
G1   Z-3.000     F150
   X7.487        Y8.576
   X6.770        Y8.873
   X6.000        Y8.974
   X5.230        Y8.873
   X4.513        Y8.576
   X3.897        Y8.103
   X3.424        Y7.487
   X3.127        Y6.770
   X3.026        Y6.000
   X3.127        Y5.230
   X3.424        Y4.513
   X3.897        Y3.897
   X4.513        Y3.424
   X5.230        Y3.127
   X6.000        Y3.026
   X6.770        Y3.127
   X7.487        Y3.424
   X8.103        Y3.897
   X8.576        Y4.513
   X8.873        Y5.230
   X8.974        Y6.000
   X8.873        Y6.770
   X8.576        Y7.487
   X8.103        Y8.103
G0   Z15.0
G53
G10 P2 L20 X-900 Y-200
G55
G0   Z15.000
   X7.800        Y4.488
G1   Z-3.000     F150
   Y7.512
G0   Z4.0 X8.103 Y8.103
G1   Z-3.000     F150
   X7.487        Y8.576
   X6.770        Y8.873
   X6.000        Y8.974
   X5.230        Y8.873
   X4.513        Y8.576
   X3.897        Y8.103
   X3.424        Y7.487
   X3.127        Y6.770
   X3.026        Y6.000
   X3.127        Y5.230
   X3.424        Y4.513
   X3.897        Y3.897
   X4.513        Y3.424
   X5.230        Y3.127
   X6.000        Y3.026
   X6.770        Y3.127
   X7.487        Y3.424
   X8.103        Y3.897
   X8.576        Y4.513
   X8.873        Y5.230
   X8.974        Y6.000
   X8.873        Y6.770
   X8.576        Y7.487
   X8.103        Y8.103
G0   Z15.0
G53
G10 P2 L20 X-1000 Y-200
G55
G0   Z15.000
   X7.800        Y4.488
G1   Z-3.000     F150
   Y7.512
G0   Z4.0 X8.103 Y8.103
G1   Z-3.000     F150
   X7.487        Y8.576
   X6.770        Y8.873
   X6.000        Y8.974
   X5.230        Y8.873
   X4.513        Y8.576
   X3.897        Y8.103
   X3.424        Y7.487
   X3.127        Y6.770
   X3.026        Y6.000
   X3.127        Y5.230
   X3.424        Y4.513
   X3.897        Y3.897
   X4.513        Y3.424
   X5.230        Y3.127
   X6.000        Y3.026
   X6.770        Y3.127
   X7.487        Y3.424
   X8.103        Y3.897
   X8.576        Y4.513
   X8.873        Y5.230
   X8.974        Y6.000
   X8.873        Y6.770
   X8.576        Y7.487
   X8.103        Y8.103
G0   Z15.0
G53
G10 P2 L20 X-1100 Y-200
G55
G0   Z15.000
   X7.800        Y4.488
G1   Z-3.000     F150
   Y7.512
G0   Z4.0 X8.103 Y8.103
G1   Z-3.000     F150
   X7.487        Y8.576
   X6.770        Y8.873
   X6.000        Y8.974
   X5.230        Y8.873
   X4.513        Y8.576
   X3.897        Y8.103
   X3.424        Y7.487
   X3.127        Y6.770
   X3.026        Y6.000
   X3.127        Y5.230
   X3.424        Y4.513
   X3.897        Y3.897
   X4.513        Y3.424
   X5.230        Y3.127
   X6.000        Y3.026
   X6.770        Y3.127
   X7.487        Y3.424
   X8.103        Y3.897
   X8.576        Y4.513
   X8.873        Y5.230
   X8.974        Y6.000
   X8.873        Y6.770
   X8.576        Y7.487
   X8.103        Y8.103
G0   Z15.0
G53
G10 P2 L20 X-100 Y-300
G55
G0   Z15.000
   X7.800        Y4.488
G1   Z-3.000     F150
   Y7.512
G0   Z4.0 X8.103 Y8.103
G1   Z-3.000     F150
   X7.487        Y8.576
   X6.770        Y8.873
   X6.000        Y8.974
   X5.230        Y8.873
   X4.513        Y8.576
   X3.897        Y8.103
   X3.424        Y7.487
   X3.127        Y6.770
   X3.026        Y6.000
   X3.127        Y5.230
   X3.424        Y4.513
   X3.897        Y3.897
   X4.513        Y3.424
   X5.230        Y3.127
   X6.000        Y3.026
   X6.770        Y3.127
   X7.487        Y3.424
   X8.103        Y3.897
   X8.576        Y4.513
   X8.873        Y5.230
   X8.974        Y6.000
   X8.873        Y6.770
   X8.576        Y7.487
   X8.103        Y8.103
G0   Z15.0
G53
G10 P2 L20 X-200 Y-300
G55
G0   Z15.000
   X7.800        Y4.488
G1   Z-3.000     F150
   Y7.512
G0   Z4.0 X8.103 Y8.103
G1   Z-3.000     F150
   X7.487        Y8.576
   X6.770        Y8.873
   X6.000        Y8.974
   X5.230        Y8.873
   X4.513        Y8.576
   X3.897        Y8.103
   X3.424        Y7.487
   X3.127        Y6.770
   X3.026        Y6.000
   X3.127        Y5.230
   X3.424        Y4.513
   X3.897        Y3.897
   X4.513        Y3.424
   X5.230        Y3.127
   X6.000        Y3.026
   X6.770        Y3.127
   X7.487        Y3.424
   X8.103        Y3.897
   X8.576        Y4.513
   X8.873        Y5.230
   X8.974        Y6.000
   X8.873        Y6.770
   X8.576        Y7.487
   X8.103        Y8.103
G0   Z15.0
G53
G10 P2 L20 X-300 Y-300
G55
G0   Z15.000
   X7.800        Y4.488
G1   Z-3.000     F150
   Y7.512
G0   Z4.0 X8.103 Y8.103
G1   Z-3.000     F150
   X7.487        Y8.576
   X6.770        Y8.873
   X6.000        Y8.974
   X5.230        Y8.873
   X4.513        Y8.576
   X3.897        Y8.103
   X3.424        Y7.487
   X3.127        Y6.770
   X3.026        Y6.000
   X3.127        Y5.230
   X3.424        Y4.513
   X3.897        Y3.897
   X4.513        Y3.424
   X5.230        Y3.127
   X6.000        Y3.026
   X6.770        Y3.127
   X7.487        Y3.424
   X8.103        Y3.897
   X8.576        Y4.513
   X8.873        Y5.230
   X8.974        Y6.000
   X8.873        Y6.770
   X8.576        Y7.487
   X8.103        Y8.103
G0   Z15.0
G53
G10 P2 L20 X-400 Y-300
G55
G0   Z15.000
   X7.800        Y4.488
G1   Z-3.000     F150
   Y7.512
G0   Z4.0 X8.103 Y8.103
G1   Z-3.000     F150
   X7.487        Y8.576
   X6.770        Y8.873
   X6.000        Y8.974
   X5.230        Y8.873
   X4.513        Y8.576
   X3.897        Y8.103
   X3.424        Y7.487
   X3.127        Y6.770
   X3.026        Y6.000
   X3.127        Y5.230
   X3.424        Y4.513
   X3.897        Y3.897
   X4.513        Y3.424
   X5.230        Y3.127
   X6.000        Y3.026
   X6.770        Y3.127
   X7.487        Y3.424
   X8.103        Y3.897
   X8.576        Y4.513
   X8.873        Y5.230
   X8.974        Y6.000
   X8.873        Y6.770
   X8.576        Y7.487
   X8.103        Y8.103
G0   Z15.0
G53
G10 P2 L20 X-500 Y-300
G55
G0   Z15.000
   X7.800        Y4.488
G1   Z-3.000     F150
   Y7.512
G0   Z4.0 X8.103 Y8.103
G1   Z-3.000     F150
   X7.487        Y8.576
   X6.770        Y8.873
   X6.000        Y8.974
   X5.230        Y8.873
   X4.513        Y8.576
   X3.897        Y8.103
   X3.424        Y7.487
   X3.127        Y6.770
   X3.026        Y6.000
   X3.127        Y5.230
   X3.424        Y4.513
   X3.897        Y3.897
   X4.513        Y3.424
   X5.230        Y3.127
   X6.000        Y3.026
   X6.770        Y3.127
   X7.487        Y3.424
   X8.103        Y3.897
   X8.576        Y4.513
   X8.873        Y5.230
   X8.974        Y6.000
   X8.873        Y6.770
   X8.576        Y7.487
   X8.103        Y8.103
G0   Z15.0
G53
G10 P2 L20 X-600 Y-300
G55
G0   Z15.000
   X7.800        Y4.488
G1   Z-3.000     F150
   Y7.512
G0   Z4.0 X8.103 Y8.103
G1   Z-3.000     F150
   X7.487        Y8.576
   X6.770        Y8.873
   X6.000        Y8.974
   X5.230        Y8.873
   X4.513        Y8.576
   X3.897        Y8.103
   X3.424        Y7.487
   X3.127        Y6.770
   X3.026        Y6.000
   X3.127        Y5.230
   X3.424        Y4.513
   X3.897        Y3.897
   X4.513        Y3.424
   X5.230        Y3.127
   X6.000        Y3.026
   X6.770        Y3.127
   X7.487        Y3.424
   X8.103        Y3.897
   X8.576        Y4.513
   X8.873        Y5.230
   X8.974        Y6.000
   X8.873        Y6.770
   X8.576        Y7.487
   X8.103        Y8.103
G0   Z15.0
G53
G10 P2 L20 X-700 Y-300
G55
G0   Z15.000
   X7.800        Y4.488
G1   Z-3.000     F150
   Y7.512
G0   Z4.0 X8.103 Y8.103
G1   Z-3.000     F150
   X7.487        Y8.576
   X6.770        Y8.873
   X6.000        Y8.974
   X5.230        Y8.873
   X4.513        Y8.576
   X3.897        Y8.103
   X3.424        Y7.487
   X3.127        Y6.770
   X3.026        Y6.000
   X3.127        Y5.230
   X3.424        Y4.513
   X3.897        Y3.897
   X4.513        Y3.424
   X5.230        Y3.127
   X6.000        Y3.026
   X6.770        Y3.127
   X7.487        Y3.424
   X8.103        Y3.897
   X8.576        Y4.513
   X8.873        Y5.230
   X8.974        Y6.000
   X8.873        Y6.770
   X8.576        Y7.487
   X8.103        Y8.103
G0   Z15.0
G53
G10 P2 L20 X-800 Y-300
G55
G0   Z15.000
   X7.800        Y4.488
G1   Z-3.000     F150
   Y7.512
G0   Z4.0 X8.103 Y8.103
G1   Z-3.000     F150
   X7.487        Y8.576
   X6.770        Y8.873
   X6.000        Y8.974
   X5.230        Y8.873
   X4.513        Y8.576
   X3.897        Y8.103
   X3.424        Y7.487
   X3.127        Y6.770
   X3.026        Y6.000
   X3.127        Y5.230
   X3.424        Y4.513
   X3.897        Y3.897
   X4.513        Y3.424
   X5.230        Y3.127
   X6.000        Y3.026
   X6.770        Y3.127
   X7.487        Y3.424
   X8.103        Y3.897
   X8.576        Y4.513
   X8.873        Y5.230
   X8.974        Y6.000
   X8.873        Y6.770
   X8.576        Y7.487
   X8.103        Y8.103
G0   Z15.0
G53
G10 P2 L20 X-900 Y-300
G55
G0   Z15.000
   X7.800        Y4.488
G1   Z-3.000     F150
   Y7.512
G0   Z4.0 X8.103 Y8.103
G1   Z-3.000     F150
   X7.487        Y8.576
   X6.770        Y8.873
   X6.000        Y8.974
   X5.230        Y8.873
   X4.513        Y8.576
   X3.897        Y8.103
   X3.424        Y7.487
   X3.127        Y6.770
   X3.026        Y6.000
   X3.127        Y5.230
   X3.424        Y4.513
   X3.897        Y3.897
   X4.513        Y3.424
   X5.230        Y3.127
   X6.000        Y3.026
   X6.770        Y3.127
   X7.487        Y3.424
   X8.103        Y3.897
   X8.576        Y4.513
   X8.873        Y5.230
   X8.974        Y6.000
   X8.873        Y6.770
   X8.576        Y7.487
   X8.103        Y8.103
G0   Z15.0
G53
G10 P2 L20 X-1000 Y-300
G55
G0   Z15.000
   X7.800        Y4.488
G1   Z-3.000     F150
   Y7.512
G0   Z4.0 X8.103 Y8.103
G1   Z-3.000     F150
   X7.487        Y8.576
   X6.770        Y8.873
   X6.000        Y8.974
   X5.230        Y8.873
   X4.513        Y8.576
   X3.897        Y8.103
   X3.424        Y7.487
   X3.127        Y6.770
   X3.026        Y6.000
   X3.127        Y5.230
   X3.424        Y4.513
   X3.897        Y3.897
   X4.513        Y3.424
   X5.230        Y3.127
   X6.000        Y3.026
   X6.770        Y3.127
   X7.487        Y3.424
   X8.103        Y3.897
   X8.576        Y4.513
   X8.873        Y5.230
   X8.974        Y6.000
   X8.873        Y6.770
   X8.576        Y7.487
   X8.103        Y8.103
G0   Z15.0
G53
G10 P2 L20 X-1100 Y-300
G55
G0   Z15.000
   X7.800        Y4.488
G1   Z-3.000     F150
   Y7.512
G0   Z4.0 X8.103 Y8.103
G1   Z-3.000     F150
   X7.487        Y8.576
   X6.770        Y8.873
   X6.000        Y8.974
   X5.230        Y8.873
   X4.513        Y8.576
   X3.897        Y8.103
   X3.424        Y7.487
   X3.127        Y6.770
   X3.026        Y6.000
   X3.127        Y5.230
   X3.424        Y4.513
   X3.897        Y3.897
   X4.513        Y3.424
   X5.230        Y3.127
   X6.000        Y3.026
   X6.770        Y3.127
   X7.487        Y3.424
   X8.103        Y3.897
   X8.576        Y4.513
   X8.873        Y5.230
   X8.974        Y6.000
   X8.873        Y6.770
   X8.576        Y7.487
   X8.103        Y8.103
G0   Z15.0
G53
G10 P2 L20 X-100 Y-400
G55
G0   Z15.000
   X7.800        Y4.488
G1   Z-3.000     F150
   Y7.512
G0   Z4.0 X8.103 Y8.103
G1   Z-3.000     F150
   X7.487        Y8.576
   X6.770        Y8.873
   X6.000        Y8.974
   X5.230        Y8.873
   X4.513        Y8.576
   X3.897        Y8.103
   X3.424        Y7.487
   X3.127        Y6.770
   X3.026        Y6.000
   X3.127        Y5.230
   X3.424        Y4.513
   X3.897        Y3.897
   X4.513        Y3.424
   X5.230        Y3.127
   X6.000        Y3.026
   X6.770        Y3.127
   X7.487        Y3.424
   X8.103        Y3.897
   X8.576        Y4.513
   X8.873        Y5.230
   X8.974        Y6.000
   X8.873        Y6.770
   X8.576        Y7.487
   X8.103        Y8.103
G0   Z15.0
G53
G10 P2 L20 X-200 Y-400
G55
G0   Z15.000
   X7.800        Y4.488
G1   Z-3.000     F150
   Y7.512
G0   Z4.0 X8.103 Y8.103
G1   Z-3.000     F150
   X7.487        Y8.576
   X6.770        Y8.873
   X6.000        Y8.974
   X5.230        Y8.873
   X4.513        Y8.576
   X3.897        Y8.103
   X3.424        Y7.487
   X3.127        Y6.770
   X3.026        Y6.000
   X3.127        Y5.230
   X3.424        Y4.513
   X3.897        Y3.897
   X4.513        Y3.424
   X5.230        Y3.127
   X6.000        Y3.026
   X6.770        Y3.127
   X7.487        Y3.424
   X8.103        Y3.897
   X8.576        Y4.513
   X8.873        Y5.230
   X8.974        Y6.000
   X8.873        Y6.770
   X8.576        Y7.487
   X8.103        Y8.103
G0   Z15.0
G53
G10 P2 L20 X-300 Y-400
G55
G0   Z15.000
   X7.800        Y4.488
G1   Z-3.000     F150
   Y7.512
G0   Z4.0 X8.103 Y8.103
G1   Z-3.000     F150
   X7.487        Y8.576
   X6.770        Y8.873
   X6.000        Y8.974
   X5.230        Y8.873
   X4.513        Y8.576
   X3.897        Y8.103
   X3.424        Y7.487
   X3.127        Y6.770
   X3.026        Y6.000
   X3.127        Y5.230
   X3.424        Y4.513
   X3.897        Y3.897
   X4.513        Y3.424
   X5.230        Y3.127
   X6.000        Y3.026
   X6.770        Y3.127
   X7.487        Y3.424
   X8.103        Y3.897
   X8.576        Y4.513
   X8.873        Y5.230
   X8.974        Y6.000
   X8.873        Y6.770
   X8.576        Y7.487
   X8.103        Y8.103
G0   Z15.0
G53
G10 P2 L20 X-400 Y-400
G55
G0   Z15.000
   X7.800        Y4.488
G1   Z-3.000     F150
   Y7.512
G0   Z4.0 X8.103 Y8.103
G1   Z-3.000     F150
   X7.487        Y8.576
   X6.770        Y8.873
   X6.000        Y8.974
   X5.230        Y8.873
   X4.513        Y8.576
   X3.897        Y8.103
   X3.424        Y7.487
   X3.127        Y6.770
   X3.026        Y6.000
   X3.127        Y5.230
   X3.424        Y4.513
   X3.897        Y3.897
   X4.513        Y3.424
   X5.230        Y3.127
   X6.000        Y3.026
   X6.770        Y3.127
   X7.487        Y3.424
   X8.103        Y3.897
   X8.576        Y4.513
   X8.873        Y5.230
   X8.974        Y6.000
   X8.873        Y6.770
   X8.576        Y7.487
   X8.103        Y8.103
G0   Z15.0
G53
G10 P2 L20 X-500 Y-400
G55
G0   Z15.000
   X7.800        Y4.488
G1   Z-3.000     F150
   Y7.512
G0   Z4.0 X8.103 Y8.103
G1   Z-3.000     F150
   X7.487        Y8.576
   X6.770        Y8.873
   X6.000        Y8.974
   X5.230        Y8.873
   X4.513        Y8.576
   X3.897        Y8.103
   X3.424        Y7.487
   X3.127        Y6.770
   X3.026        Y6.000
   X3.127        Y5.230
   X3.424        Y4.513
   X3.897        Y3.897
   X4.513        Y3.424
   X5.230        Y3.127
   X6.000        Y3.026
   X6.770        Y3.127
   X7.487        Y3.424
   X8.103        Y3.897
   X8.576        Y4.513
   X8.873        Y5.230
   X8.974        Y6.000
   X8.873        Y6.770
   X8.576        Y7.487
   X8.103        Y8.103
G0   Z15.0
G53
G10 P2 L20 X-600 Y-400
G55
G0   Z15.000
   X7.800        Y4.488
G1   Z-3.000     F150
   Y7.512
G0   Z4.0 X8.103 Y8.103
G1   Z-3.000     F150
   X7.487        Y8.576
   X6.770        Y8.873
   X6.000        Y8.974
   X5.230        Y8.873
   X4.513        Y8.576
   X3.897        Y8.103
   X3.424        Y7.487
   X3.127        Y6.770
   X3.026        Y6.000
   X3.127        Y5.230
   X3.424        Y4.513
   X3.897        Y3.897
   X4.513        Y3.424
   X5.230        Y3.127
   X6.000        Y3.026
   X6.770        Y3.127
   X7.487        Y3.424
   X8.103        Y3.897
   X8.576        Y4.513
   X8.873        Y5.230
   X8.974        Y6.000
   X8.873        Y6.770
   X8.576        Y7.487
   X8.103        Y8.103
G0   Z15.0
G53
G10 P2 L20 X-700 Y-400
G55
G0   Z15.000
   X7.800        Y4.488
G1   Z-3.000     F150
   Y7.512
G0   Z4.0 X8.103 Y8.103
G1   Z-3.000     F150
   X7.487        Y8.576
   X6.770        Y8.873
   X6.000        Y8.974
   X5.230        Y8.873
   X4.513        Y8.576
   X3.897        Y8.103
   X3.424        Y7.487
   X3.127        Y6.770
   X3.026        Y6.000
   X3.127        Y5.230
   X3.424        Y4.513
   X3.897        Y3.897
   X4.513        Y3.424
   X5.230        Y3.127
   X6.000        Y3.026
   X6.770        Y3.127
   X7.487        Y3.424
   X8.103        Y3.897
   X8.576        Y4.513
   X8.873        Y5.230
   X8.974        Y6.000
   X8.873        Y6.770
   X8.576        Y7.487
   X8.103        Y8.103
G0   Z15.0
G53
G10 P2 L20 X-800 Y-400
G55
G0   Z15.000
   X7.800        Y4.488
G1   Z-3.000     F150
   Y7.512
G0   Z4.0 X8.103 Y8.103
G1   Z-3.000     F150
   X7.487        Y8.576
   X6.770        Y8.873
   X6.000        Y8.974
   X5.230        Y8.873
   X4.513        Y8.576
   X3.897        Y8.103
   X3.424        Y7.487
   X3.127        Y6.770
   X3.026        Y6.000
   X3.127        Y5.230
   X3.424        Y4.513
   X3.897        Y3.897
   X4.513        Y3.424
   X5.230        Y3.127
   X6.000        Y3.026
   X6.770        Y3.127
   X7.487        Y3.424
   X8.103        Y3.897
   X8.576        Y4.513
   X8.873        Y5.230
   X8.974        Y6.000
   X8.873        Y6.770
   X8.576        Y7.487
   X8.103        Y8.103
G0   Z15.0
G53
G10 P2 L20 X-900 Y-400
G55
G0   Z15.000
   X7.800        Y4.488
G1   Z-3.000     F150
   Y7.512
G0   Z4.0 X8.103 Y8.103
G1   Z-3.000     F150
   X7.487        Y8.576
   X6.770        Y8.873
   X6.000        Y8.974
   X5.230        Y8.873
   X4.513        Y8.576
   X3.897        Y8.103
   X3.424        Y7.487
   X3.127        Y6.770
   X3.026        Y6.000
   X3.127        Y5.230
   X3.424        Y4.513
   X3.897        Y3.897
   X4.513        Y3.424
   X5.230        Y3.127
   X6.000        Y3.026
   X6.770        Y3.127
   X7.487        Y3.424
   X8.103        Y3.897
   X8.576        Y4.513
   X8.873        Y5.230
   X8.974        Y6.000
   X8.873        Y6.770
   X8.576        Y7.487
   X8.103        Y8.103
G0   Z15.0
G53
G10 P2 L20 X-1000 Y-400
G55
G0   Z15.000
   X7.800        Y4.488
G1   Z-3.000     F150
   Y7.512
G0   Z4.0 X8.103 Y8.103
G1   Z-3.000     F150
   X7.487        Y8.576
   X6.770        Y8.873
   X6.000        Y8.974
   X5.230        Y8.873
   X4.513        Y8.576
   X3.897        Y8.103
   X3.424        Y7.487
   X3.127        Y6.770
   X3.026        Y6.000
   X3.127        Y5.230
   X3.424        Y4.513
   X3.897        Y3.897
   X4.513        Y3.424
   X5.230        Y3.127
   X6.000        Y3.026
   X6.770        Y3.127
   X7.487        Y3.424
   X8.103        Y3.897
   X8.576        Y4.513
   X8.873        Y5.230
   X8.974        Y6.000
   X8.873        Y6.770
   X8.576        Y7.487
   X8.103        Y8.103
G0   Z15.0
G53
G10 P2 L20 X-1100 Y-400
G55
G0   Z15.000
   X7.800        Y4.488
G1   Z-3.000     F150
   Y7.512
G0   Z4.0 X8.103 Y8.103
G1   Z-3.000     F150
   X7.487        Y8.576
   X6.770        Y8.873
   X6.000        Y8.974
   X5.230        Y8.873
   X4.513        Y8.576
   X3.897        Y8.103
   X3.424        Y7.487
   X3.127        Y6.770
   X3.026        Y6.000
   X3.127        Y5.230
   X3.424        Y4.513
   X3.897        Y3.897
   X4.513        Y3.424
   X5.230        Y3.127
   X6.000        Y3.026
   X6.770        Y3.127
   X7.487        Y3.424
   X8.103        Y3.897
   X8.576        Y4.513
   X8.873        Y5.230
   X8.974        Y6.000
   X8.873        Y6.770
   X8.576        Y7.487
   X8.103        Y8.103
G0   Z15.0
G53
G10 P2 L20 X-100 Y-500
G55
G0   Z15.000
   X7.800        Y4.488
G1   Z-3.000     F150
   Y7.512
G0   Z4.0 X8.103 Y8.103
G1   Z-3.000     F150
   X7.487        Y8.576
   X6.770        Y8.873
   X6.000        Y8.974
   X5.230        Y8.873
   X4.513        Y8.576
   X3.897        Y8.103
   X3.424        Y7.487
   X3.127        Y6.770
   X3.026        Y6.000
   X3.127        Y5.230
   X3.424        Y4.513
   X3.897        Y3.897
   X4.513        Y3.424
   X5.230        Y3.127
   X6.000        Y3.026
   X6.770        Y3.127
   X7.487        Y3.424
   X8.103        Y3.897
   X8.576        Y4.513
   X8.873        Y5.230
   X8.974        Y6.000
   X8.873        Y6.770
   X8.576        Y7.487
   X8.103        Y8.103
G0   Z15.0
G53
G10 P2 L20 X-200 Y-500
G55
G0   Z15.000
   X7.800        Y4.488
G1   Z-3.000     F150
   Y7.512
G0   Z4.0 X8.103 Y8.103
G1   Z-3.000     F150
   X7.487        Y8.576
   X6.770        Y8.873
   X6.000        Y8.974
   X5.230        Y8.873
   X4.513        Y8.576
   X3.897        Y8.103
   X3.424        Y7.487
   X3.127        Y6.770
   X3.026        Y6.000
   X3.127        Y5.230
   X3.424        Y4.513
   X3.897        Y3.897
   X4.513        Y3.424
   X5.230        Y3.127
   X6.000        Y3.026
   X6.770        Y3.127
   X7.487        Y3.424
   X8.103        Y3.897
   X8.576        Y4.513
   X8.873        Y5.230
   X8.974        Y6.000
   X8.873        Y6.770
   X8.576        Y7.487
   X8.103        Y8.103
G0   Z15.0
G53
G10 P2 L20 X-300 Y-500
G55
G0   Z15.000
   X7.800        Y4.488
G1   Z-3.000     F150
   Y7.512
G0   Z4.0 X8.103 Y8.103
G1   Z-3.000     F150
   X7.487        Y8.576
   X6.770        Y8.873
   X6.000        Y8.974
   X5.230        Y8.873
   X4.513        Y8.576
   X3.897        Y8.103
   X3.424        Y7.487
   X3.127        Y6.770
   X3.026        Y6.000
   X3.127        Y5.230
   X3.424        Y4.513
   X3.897        Y3.897
   X4.513        Y3.424
   X5.230        Y3.127
   X6.000        Y3.026
   X6.770        Y3.127
   X7.487        Y3.424
   X8.103        Y3.897
   X8.576        Y4.513
   X8.873        Y5.230
   X8.974        Y6.000
   X8.873        Y6.770
   X8.576        Y7.487
   X8.103        Y8.103
G0   Z15.0
G53
G10 P2 L20 X-400 Y-500
G55
G0   Z15.000
   X7.800        Y4.488
G1   Z-3.000     F150
   Y7.512
G0   Z4.0 X8.103 Y8.103
G1   Z-3.000     F150
   X7.487        Y8.576
   X6.770        Y8.873
   X6.000        Y8.974
   X5.230        Y8.873
   X4.513        Y8.576
   X3.897        Y8.103
   X3.424        Y7.487
   X3.127        Y6.770
   X3.026        Y6.000
   X3.127        Y5.230
   X3.424        Y4.513
   X3.897        Y3.897
   X4.513        Y3.424
   X5.230        Y3.127
   X6.000        Y3.026
   X6.770        Y3.127
   X7.487        Y3.424
   X8.103        Y3.897
   X8.576        Y4.513
   X8.873        Y5.230
   X8.974        Y6.000
   X8.873        Y6.770
   X8.576        Y7.487
   X8.103        Y8.103
G0   Z15.0
G53
G10 P2 L20 X-500 Y-500
G55
G0   Z15.000
   X7.800        Y4.488
G1   Z-3.000     F150
   Y7.512
G0   Z4.0 X8.103 Y8.103
G1   Z-3.000     F150
   X7.487        Y8.576
   X6.770        Y8.873
   X6.000        Y8.974
   X5.230        Y8.873
   X4.513        Y8.576
   X3.897        Y8.103
   X3.424        Y7.487
   X3.127        Y6.770
   X3.026        Y6.000
   X3.127        Y5.230
   X3.424        Y4.513
   X3.897        Y3.897
   X4.513        Y3.424
   X5.230        Y3.127
   X6.000        Y3.026
   X6.770        Y3.127
   X7.487        Y3.424
   X8.103        Y3.897
   X8.576        Y4.513
   X8.873        Y5.230
   X8.974        Y6.000
   X8.873        Y6.770
   X8.576        Y7.487
   X8.103        Y8.103
G0   Z15.0
G53
G10 P2 L20 X-600 Y-500
G55
G0   Z15.000
   X7.800        Y4.488
G1   Z-3.000     F150
   Y7.512
G0   Z4.0 X8.103 Y8.103
G1   Z-3.000     F150
   X7.487        Y8.576
   X6.770        Y8.873
   X6.000        Y8.974
   X5.230        Y8.873
   X4.513        Y8.576
   X3.897        Y8.103
   X3.424        Y7.487
   X3.127        Y6.770
   X3.026        Y6.000
   X3.127        Y5.230
   X3.424        Y4.513
   X3.897        Y3.897
   X4.513        Y3.424
   X5.230        Y3.127
   X6.000        Y3.026
   X6.770        Y3.127
   X7.487        Y3.424
   X8.103        Y3.897
   X8.576        Y4.513
   X8.873        Y5.230
   X8.974        Y6.000
   X8.873        Y6.770
   X8.576        Y7.487
   X8.103        Y8.103
G0   Z15.0
G53
G10 P2 L20 X-700 Y-500
G55
G0   Z15.000
   X7.800        Y4.488
G1   Z-3.000     F150
   Y7.512
G0   Z4.0 X8.103 Y8.103
G1   Z-3.000     F150
   X7.487        Y8.576
   X6.770        Y8.873
   X6.000        Y8.974
   X5.230        Y8.873
   X4.513        Y8.576
   X3.897        Y8.103
   X3.424        Y7.487
   X3.127        Y6.770
   X3.026        Y6.000
   X3.127        Y5.230
   X3.424        Y4.513
   X3.897        Y3.897
   X4.513        Y3.424
   X5.230        Y3.127
   X6.000        Y3.026
   X6.770        Y3.127
   X7.487        Y3.424
   X8.103        Y3.897
   X8.576        Y4.513
   X8.873        Y5.230
   X8.974        Y6.000
   X8.873        Y6.770
   X8.576        Y7.487
   X8.103        Y8.103
G0   Z15.0
G53
G10 P2 L20 X-800 Y-500
G55
G0   Z15.000
   X7.800        Y4.488
G1   Z-3.000     F150
   Y7.512
G0   Z4.0 X8.103 Y8.103
G1   Z-3.000     F150
   X7.487        Y8.576
   X6.770        Y8.873
   X6.000        Y8.974
   X5.230        Y8.873
   X4.513        Y8.576
   X3.897        Y8.103
   X3.424        Y7.487
   X3.127        Y6.770
   X3.026        Y6.000
   X3.127        Y5.230
   X3.424        Y4.513
   X3.897        Y3.897
   X4.513        Y3.424
   X5.230        Y3.127
   X6.000        Y3.026
   X6.770        Y3.127
   X7.487        Y3.424
   X8.103        Y3.897
   X8.576        Y4.513
   X8.873        Y5.230
   X8.974        Y6.000
   X8.873        Y6.770
   X8.576        Y7.487
   X8.103        Y8.103
G0   Z15.0
G53
G10 P2 L20 X-900 Y-500
G55
G0   Z15.000
   X7.800        Y4.488
G1   Z-3.000     F150
   Y7.512
G0   Z4.0 X8.103 Y8.103
G1   Z-3.000     F150
   X7.487        Y8.576
   X6.770        Y8.873
   X6.000        Y8.974
   X5.230        Y8.873
   X4.513        Y8.576
   X3.897        Y8.103
   X3.424        Y7.487
   X3.127        Y6.770
   X3.026        Y6.000
   X3.127        Y5.230
   X3.424        Y4.513
   X3.897        Y3.897
   X4.513        Y3.424
   X5.230        Y3.127
   X6.000        Y3.026
   X6.770        Y3.127
   X7.487        Y3.424
   X8.103        Y3.897
   X8.576        Y4.513
   X8.873        Y5.230
   X8.974        Y6.000
   X8.873        Y6.770
   X8.576        Y7.487
   X8.103        Y8.103
G0   Z15.0
G53
G10 P2 L20 X-1000 Y-500
G55
G0   Z15.000
   X7.800        Y4.488
G1   Z-3.000     F150
   Y7.512
G0   Z4.0 X8.103 Y8.103
G1   Z-3.000     F150
   X7.487        Y8.576
   X6.770        Y8.873
   X6.000        Y8.974
   X5.230        Y8.873
   X4.513        Y8.576
   X3.897        Y8.103
   X3.424        Y7.487
   X3.127        Y6.770
   X3.026        Y6.000
   X3.127        Y5.230
   X3.424        Y4.513
   X3.897        Y3.897
   X4.513        Y3.424
   X5.230        Y3.127
   X6.000        Y3.026
   X6.770        Y3.127
   X7.487        Y3.424
   X8.103        Y3.897
   X8.576        Y4.513
   X8.873        Y5.230
   X8.974        Y6.000
   X8.873        Y6.770
   X8.576        Y7.487
   X8.103        Y8.103
G0   Z15.0
G53
G10 P2 L20 X-1100 Y-500
G55
G0   Z15.000
   X7.800        Y4.488
G1   Z-3.000     F150
   Y7.512
G0   Z4.0 X8.103 Y8.103
G1   Z-3.000     F150
   X7.487        Y8.576
   X6.770        Y8.873
   X6.000        Y8.974
   X5.230        Y8.873
   X4.513        Y8.576
   X3.897        Y8.103
   X3.424        Y7.487
   X3.127        Y6.770
   X3.026        Y6.000
   X3.127        Y5.230
   X3.424        Y4.513
   X3.897        Y3.897
   X4.513        Y3.424
   X5.230        Y3.127
   X6.000        Y3.026
   X6.770        Y3.127
   X7.487        Y3.424
   X8.103        Y3.897
   X8.576        Y4.513
   X8.873        Y5.230
   X8.974        Y6.000
   X8.873        Y6.770
   X8.576        Y7.487
   X8.103        Y8.103
G0   Z15.0
G53
G10 P2 L20 X-100 Y-600
G55
G0   Z15.000
   X7.800        Y4.488
G1   Z-3.000     F150
   Y7.512
G0   Z4.0 X8.103 Y8.103
G1   Z-3.000     F150
   X7.487        Y8.576
   X6.770        Y8.873
   X6.000        Y8.974
   X5.230        Y8.873
   X4.513        Y8.576
   X3.897        Y8.103
   X3.424        Y7.487
   X3.127        Y6.770
   X3.026        Y6.000
   X3.127        Y5.230
   X3.424        Y4.513
   X3.897        Y3.897
   X4.513        Y3.424
   X5.230        Y3.127
   X6.000        Y3.026
   X6.770        Y3.127
   X7.487        Y3.424
   X8.103        Y3.897
   X8.576        Y4.513
   X8.873        Y5.230
   X8.974        Y6.000
   X8.873        Y6.770
   X8.576        Y7.487
   X8.103        Y8.103
G0   Z15.0
G53
G10 P2 L20 X-200 Y-600
G55
G0   Z15.000
   X7.800        Y4.488
G1   Z-3.000     F150
   Y7.512
G0   Z4.0 X8.103 Y8.103
G1   Z-3.000     F150
   X7.487        Y8.576
   X6.770        Y8.873
   X6.000        Y8.974
   X5.230        Y8.873
   X4.513        Y8.576
   X3.897        Y8.103
   X3.424        Y7.487
   X3.127        Y6.770
   X3.026        Y6.000
   X3.127        Y5.230
   X3.424        Y4.513
   X3.897        Y3.897
   X4.513        Y3.424
   X5.230        Y3.127
   X6.000        Y3.026
   X6.770        Y3.127
   X7.487        Y3.424
   X8.103        Y3.897
   X8.576        Y4.513
   X8.873        Y5.230
   X8.974        Y6.000
   X8.873        Y6.770
   X8.576        Y7.487
   X8.103        Y8.103
G0   Z15.0
G53
G10 P2 L20 X-300 Y-600
G55
G0   Z15.000
   X7.800        Y4.488
G1   Z-3.000     F150
   Y7.512
G0   Z4.0 X8.103 Y8.103
G1   Z-3.000     F150
   X7.487        Y8.576
   X6.770        Y8.873
   X6.000        Y8.974
   X5.230        Y8.873
   X4.513        Y8.576
   X3.897        Y8.103
   X3.424        Y7.487
   X3.127        Y6.770
   X3.026        Y6.000
   X3.127        Y5.230
   X3.424        Y4.513
   X3.897        Y3.897
   X4.513        Y3.424
   X5.230        Y3.127
   X6.000        Y3.026
   X6.770        Y3.127
   X7.487        Y3.424
   X8.103        Y3.897
   X8.576        Y4.513
   X8.873        Y5.230
   X8.974        Y6.000
   X8.873        Y6.770
   X8.576        Y7.487
   X8.103        Y8.103
G0   Z15.0
G53
G10 P2 L20 X-400 Y-600
G55
G0   Z15.000
   X7.800        Y4.488
G1   Z-3.000     F150
   Y7.512
G0   Z4.0 X8.103 Y8.103
G1   Z-3.000     F150
   X7.487        Y8.576
   X6.770        Y8.873
   X6.000        Y8.974
   X5.230        Y8.873
   X4.513        Y8.576
   X3.897        Y8.103
   X3.424        Y7.487
   X3.127        Y6.770
   X3.026        Y6.000
   X3.127        Y5.230
   X3.424        Y4.513
   X3.897        Y3.897
   X4.513        Y3.424
   X5.230        Y3.127
   X6.000        Y3.026
   X6.770        Y3.127
   X7.487        Y3.424
   X8.103        Y3.897
   X8.576        Y4.513
   X8.873        Y5.230
   X8.974        Y6.000
   X8.873        Y6.770
   X8.576        Y7.487
   X8.103        Y8.103
G0   Z15.0
G53
G10 P2 L20 X-500 Y-600
G55
G0   Z15.000
   X7.800        Y4.488
G1   Z-3.000     F150
   Y7.512
G0   Z4.0 X8.103 Y8.103
G1   Z-3.000     F150
   X7.487        Y8.576
   X6.770        Y8.873
   X6.000        Y8.974
   X5.230        Y8.873
   X4.513        Y8.576
   X3.897        Y8.103
   X3.424        Y7.487
   X3.127        Y6.770
   X3.026        Y6.000
   X3.127        Y5.230
   X3.424        Y4.513
   X3.897        Y3.897
   X4.513        Y3.424
   X5.230        Y3.127
   X6.000        Y3.026
   X6.770        Y3.127
   X7.487        Y3.424
   X8.103        Y3.897
   X8.576        Y4.513
   X8.873        Y5.230
   X8.974        Y6.000
   X8.873        Y6.770
   X8.576        Y7.487
   X8.103        Y8.103
G0   Z15.0
G53
G10 P2 L20 X-600 Y-600
G55
G0   Z15.000
   X7.800        Y4.488
G1   Z-3.000     F150
   Y7.512
G0   Z4.0 X8.103 Y8.103
G1   Z-3.000     F150
   X7.487        Y8.576
   X6.770        Y8.873
   X6.000        Y8.974
   X5.230        Y8.873
   X4.513        Y8.576
   X3.897        Y8.103
   X3.424        Y7.487
   X3.127        Y6.770
   X3.026        Y6.000
   X3.127        Y5.230
   X3.424        Y4.513
   X3.897        Y3.897
   X4.513        Y3.424
   X5.230        Y3.127
   X6.000        Y3.026
   X6.770        Y3.127
   X7.487        Y3.424
   X8.103        Y3.897
   X8.576        Y4.513
   X8.873        Y5.230
   X8.974        Y6.000
   X8.873        Y6.770
   X8.576        Y7.487
   X8.103        Y8.103
G0   Z15.0
G53
G10 P2 L20 X-700 Y-600
G55
G0   Z15.000
   X7.800        Y4.488
G1   Z-3.000     F150
   Y7.512
G0   Z4.0 X8.103 Y8.103
G1   Z-3.000     F150
   X7.487        Y8.576
   X6.770        Y8.873
   X6.000        Y8.974
   X5.230        Y8.873
   X4.513        Y8.576
   X3.897        Y8.103
   X3.424        Y7.487
   X3.127        Y6.770
   X3.026        Y6.000
   X3.127        Y5.230
   X3.424        Y4.513
   X3.897        Y3.897
   X4.513        Y3.424
   X5.230        Y3.127
   X6.000        Y3.026
   X6.770        Y3.127
   X7.487        Y3.424
   X8.103        Y3.897
   X8.576        Y4.513
   X8.873        Y5.230
   X8.974        Y6.000
   X8.873        Y6.770
   X8.576        Y7.487
   X8.103        Y8.103
G0   Z15.0
G53
G10 P2 L20 X-800 Y-600
G55
G0   Z15.000
   X7.800        Y4.488
G1   Z-3.000     F150
   Y7.512
G0   Z4.0 X8.103 Y8.103
G1   Z-3.000     F150
   X7.487        Y8.576
   X6.770        Y8.873
   X6.000        Y8.974
   X5.230        Y8.873
   X4.513        Y8.576
   X3.897        Y8.103
   X3.424        Y7.487
   X3.127        Y6.770
   X3.026        Y6.000
   X3.127        Y5.230
   X3.424        Y4.513
   X3.897        Y3.897
   X4.513        Y3.424
   X5.230        Y3.127
   X6.000        Y3.026
   X6.770        Y3.127
   X7.487        Y3.424
   X8.103        Y3.897
   X8.576        Y4.513
   X8.873        Y5.230
   X8.974        Y6.000
   X8.873        Y6.770
   X8.576        Y7.487
   X8.103        Y8.103
G0   Z15.0
G53
G10 P2 L20 X-900 Y-600
G55
G0   Z15.000
   X7.800        Y4.488
G1   Z-3.000     F150
   Y7.512
G0   Z4.0 X8.103 Y8.103
G1   Z-3.000     F150
   X7.487        Y8.576
   X6.770        Y8.873
   X6.000        Y8.974
   X5.230        Y8.873
   X4.513        Y8.576
   X3.897        Y8.103
   X3.424        Y7.487
   X3.127        Y6.770
   X3.026        Y6.000
   X3.127        Y5.230
   X3.424        Y4.513
   X3.897        Y3.897
   X4.513        Y3.424
   X5.230        Y3.127
   X6.000        Y3.026
   X6.770        Y3.127
   X7.487        Y3.424
   X8.103        Y3.897
   X8.576        Y4.513
   X8.873        Y5.230
   X8.974        Y6.000
   X8.873        Y6.770
   X8.576        Y7.487
   X8.103        Y8.103
G0   Z15.0
G53
G10 P2 L20 X-1000 Y-600
G55
G0   Z15.000
   X7.800        Y4.488
G1   Z-3.000     F150
   Y7.512
G0   Z4.0 X8.103 Y8.103
G1   Z-3.000     F150
   X7.487        Y8.576
   X6.770        Y8.873
   X6.000        Y8.974
   X5.230        Y8.873
   X4.513        Y8.576
   X3.897        Y8.103
   X3.424        Y7.487
   X3.127        Y6.770
   X3.026        Y6.000
   X3.127        Y5.230
   X3.424        Y4.513
   X3.897        Y3.897
   X4.513        Y3.424
   X5.230        Y3.127
   X6.000        Y3.026
   X6.770        Y3.127
   X7.487        Y3.424
   X8.103        Y3.897
   X8.576        Y4.513
   X8.873        Y5.230
   X8.974        Y6.000
   X8.873        Y6.770
   X8.576        Y7.487
   X8.103        Y8.103
G0   Z15.0
G53
G10 P2 L20 X-1100 Y-600
G55
G0   Z15.000
   X7.800        Y4.488
G1   Z-3.000     F150
   Y7.512
G0   Z4.0 X8.103 Y8.103
G1   Z-3.000     F150
   X7.487        Y8.576
   X6.770        Y8.873
   X6.000        Y8.974
   X5.230        Y8.873
   X4.513        Y8.576
   X3.897        Y8.103
   X3.424        Y7.487
   X3.127        Y6.770
   X3.026        Y6.000
   X3.127        Y5.230
   X3.424        Y4.513
   X3.897        Y3.897
   X4.513        Y3.424
   X5.230        Y3.127
   X6.000        Y3.026
   X6.770        Y3.127
   X7.487        Y3.424
   X8.103        Y3.897
   X8.576        Y4.513
   X8.873        Y5.230
   X8.974        Y6.000
   X8.873        Y6.770
   X8.576        Y7.487
   X8.103        Y8.103
G0   Z15.0
G53
G10 P2 L20 X-100 Y-700
G55
G0   Z15.000
   X7.800        Y4.488
G1   Z-3.000     F150
   Y7.512
G0   Z4.0 X8.103 Y8.103
G1   Z-3.000     F150
   X7.487        Y8.576
   X6.770        Y8.873
   X6.000        Y8.974
   X5.230        Y8.873
   X4.513        Y8.576
   X3.897        Y8.103
   X3.424        Y7.487
   X3.127        Y6.770
   X3.026        Y6.000
   X3.127        Y5.230
   X3.424        Y4.513
   X3.897        Y3.897
   X4.513        Y3.424
   X5.230        Y3.127
   X6.000        Y3.026
   X6.770        Y3.127
   X7.487        Y3.424
   X8.103        Y3.897
   X8.576        Y4.513
   X8.873        Y5.230
   X8.974        Y6.000
   X8.873        Y6.770
   X8.576        Y7.487
   X8.103        Y8.103
G0   Z15.0
G53
G10 P2 L20 X-200 Y-700
G55
G0   Z15.000
   X7.800        Y4.488
G1   Z-3.000     F150
   Y7.512
G0   Z4.0 X8.103 Y8.103
G1   Z-3.000     F150
   X7.487        Y8.576
   X6.770        Y8.873
   X6.000        Y8.974
   X5.230        Y8.873
   X4.513        Y8.576
   X3.897        Y8.103
   X3.424        Y7.487
   X3.127        Y6.770
   X3.026        Y6.000
   X3.127        Y5.230
   X3.424        Y4.513
   X3.897        Y3.897
   X4.513        Y3.424
   X5.230        Y3.127
   X6.000        Y3.026
   X6.770        Y3.127
   X7.487        Y3.424
   X8.103        Y3.897
   X8.576        Y4.513
   X8.873        Y5.230
   X8.974        Y6.000
   X8.873        Y6.770
   X8.576        Y7.487
   X8.103        Y8.103
G0   Z15.0
G53
G10 P2 L20 X-300 Y-700
G55
G0   Z15.000
   X7.800        Y4.488
G1   Z-3.000     F150
   Y7.512
G0   Z4.0 X8.103 Y8.103
G1   Z-3.000     F150
   X7.487        Y8.576
   X6.770        Y8.873
   X6.000        Y8.974
   X5.230        Y8.873
   X4.513        Y8.576
   X3.897        Y8.103
   X3.424        Y7.487
   X3.127        Y6.770
   X3.026        Y6.000
   X3.127        Y5.230
   X3.424        Y4.513
   X3.897        Y3.897
   X4.513        Y3.424
   X5.230        Y3.127
   X6.000        Y3.026
   X6.770        Y3.127
   X7.487        Y3.424
   X8.103        Y3.897
   X8.576        Y4.513
   X8.873        Y5.230
   X8.974        Y6.000
   X8.873        Y6.770
   X8.576        Y7.487
   X8.103        Y8.103
G0   Z15.0
G53
G10 P2 L20 X-400 Y-700
G55
G0   Z15.000
   X7.800        Y4.488
G1   Z-3.000     F150
   Y7.512
G0   Z4.0 X8.103 Y8.103
G1   Z-3.000     F150
   X7.487        Y8.576
   X6.770        Y8.873
   X6.000        Y8.974
   X5.230        Y8.873
   X4.513        Y8.576
   X3.897        Y8.103
   X3.424        Y7.487
   X3.127        Y6.770
   X3.026        Y6.000
   X3.127        Y5.230
   X3.424        Y4.513
   X3.897        Y3.897
   X4.513        Y3.424
   X5.230        Y3.127
   X6.000        Y3.026
   X6.770        Y3.127
   X7.487        Y3.424
   X8.103        Y3.897
   X8.576        Y4.513
   X8.873        Y5.230
   X8.974        Y6.000
   X8.873        Y6.770
   X8.576        Y7.487
   X8.103        Y8.103
G0   Z15.0
G53
G10 P2 L20 X-500 Y-700
G55
G0   Z15.000
   X7.800        Y4.488
G1   Z-3.000     F150
   Y7.512
G0   Z4.0 X8.103 Y8.103
G1   Z-3.000     F150
   X7.487        Y8.576
   X6.770        Y8.873
   X6.000        Y8.974
   X5.230        Y8.873
   X4.513        Y8.576
   X3.897        Y8.103
   X3.424        Y7.487
   X3.127        Y6.770
   X3.026        Y6.000
   X3.127        Y5.230
   X3.424        Y4.513
   X3.897        Y3.897
   X4.513        Y3.424
   X5.230        Y3.127
   X6.000        Y3.026
   X6.770        Y3.127
   X7.487        Y3.424
   X8.103        Y3.897
   X8.576        Y4.513
   X8.873        Y5.230
   X8.974        Y6.000
   X8.873        Y6.770
   X8.576        Y7.487
   X8.103        Y8.103
G0   Z15.0
G53
G10 P2 L20 X-600 Y-700
G55
G0   Z15.000
   X7.800        Y4.488
G1   Z-3.000     F150
   Y7.512
G0   Z4.0 X8.103 Y8.103
G1   Z-3.000     F150
   X7.487        Y8.576
   X6.770        Y8.873
   X6.000        Y8.974
   X5.230        Y8.873
   X4.513        Y8.576
   X3.897        Y8.103
   X3.424        Y7.487
   X3.127        Y6.770
   X3.026        Y6.000
   X3.127        Y5.230
   X3.424        Y4.513
   X3.897        Y3.897
   X4.513        Y3.424
   X5.230        Y3.127
   X6.000        Y3.026
   X6.770        Y3.127
   X7.487        Y3.424
   X8.103        Y3.897
   X8.576        Y4.513
   X8.873        Y5.230
   X8.974        Y6.000
   X8.873        Y6.770
   X8.576        Y7.487
   X8.103        Y8.103
G0   Z15.0
G53
G10 P2 L20 X-700 Y-700
G55
G0   Z15.000
   X7.800        Y4.488
G1   Z-3.000     F150
   Y7.512
G0   Z4.0 X8.103 Y8.103
G1   Z-3.000     F150
   X7.487        Y8.576
   X6.770        Y8.873
   X6.000        Y8.974
   X5.230        Y8.873
   X4.513        Y8.576
   X3.897        Y8.103
   X3.424        Y7.487
   X3.127        Y6.770
   X3.026        Y6.000
   X3.127        Y5.230
   X3.424        Y4.513
   X3.897        Y3.897
   X4.513        Y3.424
   X5.230        Y3.127
   X6.000        Y3.026
   X6.770        Y3.127
   X7.487        Y3.424
   X8.103        Y3.897
   X8.576        Y4.513
   X8.873        Y5.230
   X8.974        Y6.000
   X8.873        Y6.770
   X8.576        Y7.487
   X8.103        Y8.103
G0   Z15.0
G53
G10 P2 L20 X-800 Y-700
G55
G0   Z15.000
   X7.800        Y4.488
G1   Z-3.000     F150
   Y7.512
G0   Z4.0 X8.103 Y8.103
G1   Z-3.000     F150
   X7.487        Y8.576
   X6.770        Y8.873
   X6.000        Y8.974
   X5.230        Y8.873
   X4.513        Y8.576
   X3.897        Y8.103
   X3.424        Y7.487
   X3.127        Y6.770
   X3.026        Y6.000
   X3.127        Y5.230
   X3.424        Y4.513
   X3.897        Y3.897
   X4.513        Y3.424
   X5.230        Y3.127
   X6.000        Y3.026
   X6.770        Y3.127
   X7.487        Y3.424
   X8.103        Y3.897
   X8.576        Y4.513
   X8.873        Y5.230
   X8.974        Y6.000
   X8.873        Y6.770
   X8.576        Y7.487
   X8.103        Y8.103
G0   Z15.0
G53
G10 P2 L20 X-900 Y-700
G55
G0   Z15.000
   X7.800        Y4.488
G1   Z-3.000     F150
   Y7.512
G0   Z4.0 X8.103 Y8.103
G1   Z-3.000     F150
   X7.487        Y8.576
   X6.770        Y8.873
   X6.000        Y8.974
   X5.230        Y8.873
   X4.513        Y8.576
   X3.897        Y8.103
   X3.424        Y7.487
   X3.127        Y6.770
   X3.026        Y6.000
   X3.127        Y5.230
   X3.424        Y4.513
   X3.897        Y3.897
   X4.513        Y3.424
   X5.230        Y3.127
   X6.000        Y3.026
   X6.770        Y3.127
   X7.487        Y3.424
   X8.103        Y3.897
   X8.576        Y4.513
   X8.873        Y5.230
   X8.974        Y6.000
   X8.873        Y6.770
   X8.576        Y7.487
   X8.103        Y8.103
G0   Z15.0
G53
G10 P2 L20 X-1000 Y-700
G55
G0   Z15.000
   X7.800        Y4.488
G1   Z-3.000     F150
   Y7.512
G0   Z4.0 X8.103 Y8.103
G1   Z-3.000     F150
   X7.487        Y8.576
   X6.770        Y8.873
   X6.000        Y8.974
   X5.230        Y8.873
   X4.513        Y8.576
   X3.897        Y8.103
   X3.424        Y7.487
   X3.127        Y6.770
   X3.026        Y6.000
   X3.127        Y5.230
   X3.424        Y4.513
   X3.897        Y3.897
   X4.513        Y3.424
   X5.230        Y3.127
   X6.000        Y3.026
   X6.770        Y3.127
   X7.487        Y3.424
   X8.103        Y3.897
   X8.576        Y4.513
   X8.873        Y5.230
   X8.974        Y6.000
   X8.873        Y6.770
   X8.576        Y7.487
   X8.103        Y8.103
G0   Z15.0
G53
G10 P2 L20 X-1100 Y-700
G55
G0   Z15.000
   X7.800        Y4.488
G1   Z-3.000     F150
   Y7.512
G0   Z4.0 X8.103 Y8.103
G1   Z-3.000     F150
   X7.487        Y8.576
   X6.770        Y8.873
   X6.000        Y8.974
   X5.230        Y8.873
   X4.513        Y8.576
   X3.897        Y8.103
   X3.424        Y7.487
   X3.127        Y6.770
   X3.026        Y6.000
   X3.127        Y5.230
   X3.424        Y4.513
   X3.897        Y3.897
   X4.513        Y3.424
   X5.230        Y3.127
   X6.000        Y3.026
   X6.770        Y3.127
   X7.487        Y3.424
   X8.103        Y3.897
   X8.576        Y4.513
   X8.873        Y5.230
   X8.974        Y6.000
   X8.873        Y6.770
   X8.576        Y7.487
   X8.103        Y8.103
G0   Z15.0
G53
G10 P2 L20 X-100 Y-800
G55
G0   Z15.000
   X7.800        Y4.488
G1   Z-3.000     F150
   Y7.512
G0   Z4.0 X8.103 Y8.103
G1   Z-3.000     F150
   X7.487        Y8.576
   X6.770        Y8.873
   X6.000        Y8.974
   X5.230        Y8.873
   X4.513        Y8.576
   X3.897        Y8.103
   X3.424        Y7.487
   X3.127        Y6.770
   X3.026        Y6.000
   X3.127        Y5.230
   X3.424        Y4.513
   X3.897        Y3.897
   X4.513        Y3.424
   X5.230        Y3.127
   X6.000        Y3.026
   X6.770        Y3.127
   X7.487        Y3.424
   X8.103        Y3.897
   X8.576        Y4.513
   X8.873        Y5.230
   X8.974        Y6.000
   X8.873        Y6.770
   X8.576        Y7.487
   X8.103        Y8.103
G0   Z15.0
G53
G10 P2 L20 X-200 Y-800
G55
G0   Z15.000
   X7.800        Y4.488
G1   Z-3.000     F150
   Y7.512
G0   Z4.0 X8.103 Y8.103
G1   Z-3.000     F150
   X7.487        Y8.576
   X6.770        Y8.873
   X6.000        Y8.974
   X5.230        Y8.873
   X4.513        Y8.576
   X3.897        Y8.103
   X3.424        Y7.487
   X3.127        Y6.770
   X3.026        Y6.000
   X3.127        Y5.230
   X3.424        Y4.513
   X3.897        Y3.897
   X4.513        Y3.424
   X5.230        Y3.127
   X6.000        Y3.026
   X6.770        Y3.127
   X7.487        Y3.424
   X8.103        Y3.897
   X8.576        Y4.513
   X8.873        Y5.230
   X8.974        Y6.000
   X8.873        Y6.770
   X8.576        Y7.487
   X8.103        Y8.103
G0   Z15.0
G53
G10 P2 L20 X-300 Y-800
G55
G0   Z15.000
   X7.800        Y4.488
G1   Z-3.000     F150
   Y7.512
G0   Z4.0 X8.103 Y8.103
G1   Z-3.000     F150
   X7.487        Y8.576
   X6.770        Y8.873
   X6.000        Y8.974
   X5.230        Y8.873
   X4.513        Y8.576
   X3.897        Y8.103
   X3.424        Y7.487
   X3.127        Y6.770
   X3.026        Y6.000
   X3.127        Y5.230
   X3.424        Y4.513
   X3.897        Y3.897
   X4.513        Y3.424
   X5.230        Y3.127
   X6.000        Y3.026
   X6.770        Y3.127
   X7.487        Y3.424
   X8.103        Y3.897
   X8.576        Y4.513
   X8.873        Y5.230
   X8.974        Y6.000
   X8.873        Y6.770
   X8.576        Y7.487
   X8.103        Y8.103
G0   Z15.0
G53
G10 P2 L20 X-400 Y-800
G55
G0   Z15.000
   X7.800        Y4.488
G1   Z-3.000     F150
   Y7.512
G0   Z4.0 X8.103 Y8.103
G1   Z-3.000     F150
   X7.487        Y8.576
   X6.770        Y8.873
   X6.000        Y8.974
   X5.230        Y8.873
   X4.513        Y8.576
   X3.897        Y8.103
   X3.424        Y7.487
   X3.127        Y6.770
   X3.026        Y6.000
   X3.127        Y5.230
   X3.424        Y4.513
   X3.897        Y3.897
   X4.513        Y3.424
   X5.230        Y3.127
   X6.000        Y3.026
   X6.770        Y3.127
   X7.487        Y3.424
   X8.103        Y3.897
   X8.576        Y4.513
   X8.873        Y5.230
   X8.974        Y6.000
   X8.873        Y6.770
   X8.576        Y7.487
   X8.103        Y8.103
G0   Z15.0
G53
G10 P2 L20 X-500 Y-800
G55
G0   Z15.000
   X7.800        Y4.488
G1   Z-3.000     F150
   Y7.512
G0   Z4.0 X8.103 Y8.103
G1   Z-3.000     F150
   X7.487        Y8.576
   X6.770        Y8.873
   X6.000        Y8.974
   X5.230        Y8.873
   X4.513        Y8.576
   X3.897        Y8.103
   X3.424        Y7.487
   X3.127        Y6.770
   X3.026        Y6.000
   X3.127        Y5.230
   X3.424        Y4.513
   X3.897        Y3.897
   X4.513        Y3.424
   X5.230        Y3.127
   X6.000        Y3.026
   X6.770        Y3.127
   X7.487        Y3.424
   X8.103        Y3.897
   X8.576        Y4.513
   X8.873        Y5.230
   X8.974        Y6.000
   X8.873        Y6.770
   X8.576        Y7.487
   X8.103        Y8.103
G0   Z15.0
G53
G10 P2 L20 X-600 Y-800
G55
G0   Z15.000
   X7.800        Y4.488
G1   Z-3.000     F150
   Y7.512
G0   Z4.0 X8.103 Y8.103
G1   Z-3.000     F150
   X7.487        Y8.576
   X6.770        Y8.873
   X6.000        Y8.974
   X5.230        Y8.873
   X4.513        Y8.576
   X3.897        Y8.103
   X3.424        Y7.487
   X3.127        Y6.770
   X3.026        Y6.000
   X3.127        Y5.230
   X3.424        Y4.513
   X3.897        Y3.897
   X4.513        Y3.424
   X5.230        Y3.127
   X6.000        Y3.026
   X6.770        Y3.127
   X7.487        Y3.424
   X8.103        Y3.897
   X8.576        Y4.513
   X8.873        Y5.230
   X8.974        Y6.000
   X8.873        Y6.770
   X8.576        Y7.487
   X8.103        Y8.103
G0   Z15.0
G53
G10 P2 L20 X-700 Y-800
G55
G0   Z15.000
   X7.800        Y4.488
G1   Z-3.000     F150
   Y7.512
G0   Z4.0 X8.103 Y8.103
G1   Z-3.000     F150
   X7.487        Y8.576
   X6.770        Y8.873
   X6.000        Y8.974
   X5.230        Y8.873
   X4.513        Y8.576
   X3.897        Y8.103
   X3.424        Y7.487
   X3.127        Y6.770
   X3.026        Y6.000
   X3.127        Y5.230
   X3.424        Y4.513
   X3.897        Y3.897
   X4.513        Y3.424
   X5.230        Y3.127
   X6.000        Y3.026
   X6.770        Y3.127
   X7.487        Y3.424
   X8.103        Y3.897
   X8.576        Y4.513
   X8.873        Y5.230
   X8.974        Y6.000
   X8.873        Y6.770
   X8.576        Y7.487
   X8.103        Y8.103
G0   Z15.0
G53
G10 P2 L20 X-800 Y-800
G55
G0   Z15.000
   X7.800        Y4.488
G1   Z-3.000     F150
   Y7.512
G0   Z4.0 X8.103 Y8.103
G1   Z-3.000     F150
   X7.487        Y8.576
   X6.770        Y8.873
   X6.000        Y8.974
   X5.230        Y8.873
   X4.513        Y8.576
   X3.897        Y8.103
   X3.424        Y7.487
   X3.127        Y6.770
   X3.026        Y6.000
   X3.127        Y5.230
   X3.424        Y4.513
   X3.897        Y3.897
   X4.513        Y3.424
   X5.230        Y3.127
   X6.000        Y3.026
   X6.770        Y3.127
   X7.487        Y3.424
   X8.103        Y3.897
   X8.576        Y4.513
   X8.873        Y5.230
   X8.974        Y6.000
   X8.873        Y6.770
   X8.576        Y7.487
   X8.103        Y8.103
G0   Z15.0
G53
G10 P2 L20 X-900 Y-800
G55
G0   Z15.000
   X7.800        Y4.488
G1   Z-3.000     F150
   Y7.512
G0   Z4.0 X8.103 Y8.103
G1   Z-3.000     F150
   X7.487        Y8.576
   X6.770        Y8.873
   X6.000        Y8.974
   X5.230        Y8.873
   X4.513        Y8.576
   X3.897        Y8.103
   X3.424        Y7.487
   X3.127        Y6.770
   X3.026        Y6.000
   X3.127        Y5.230
   X3.424        Y4.513
   X3.897        Y3.897
   X4.513        Y3.424
   X5.230        Y3.127
   X6.000        Y3.026
   X6.770        Y3.127
   X7.487        Y3.424
   X8.103        Y3.897
   X8.576        Y4.513
   X8.873        Y5.230
   X8.974        Y6.000
   X8.873        Y6.770
   X8.576        Y7.487
   X8.103        Y8.103
G0   Z15.0
G53
G10 P2 L20 X-1000 Y-800
G55
G0   Z15.000
   X7.800        Y4.488
G1   Z-3.000     F150
   Y7.512
G0   Z4.0 X8.103 Y8.103
G1   Z-3.000     F150
   X7.487        Y8.576
   X6.770        Y8.873
   X6.000        Y8.974
   X5.230        Y8.873
   X4.513        Y8.576
   X3.897        Y8.103
   X3.424        Y7.487
   X3.127        Y6.770
   X3.026        Y6.000
   X3.127        Y5.230
   X3.424        Y4.513
   X3.897        Y3.897
   X4.513        Y3.424
   X5.230        Y3.127
   X6.000        Y3.026
   X6.770        Y3.127
   X7.487        Y3.424
   X8.103        Y3.897
   X8.576        Y4.513
   X8.873        Y5.230
   X8.974        Y6.000
   X8.873        Y6.770
   X8.576        Y7.487
   X8.103        Y8.103
G0   Z15.0
G53
G10 P2 L20 X-1100 Y-800
G55
G0   Z15.000
   X7.800        Y4.488
G1   Z-3.000     F150
   Y7.512
G0   Z4.0 X8.103 Y8.103
G1   Z-3.000     F150
   X7.487        Y8.576
   X6.770        Y8.873
   X6.000        Y8.974
   X5.230        Y8.873
   X4.513        Y8.576
   X3.897        Y8.103
   X3.424        Y7.487
   X3.127        Y6.770
   X3.026        Y6.000
   X3.127        Y5.230
   X3.424        Y4.513
   X3.897        Y3.897
   X4.513        Y3.424
   X5.230        Y3.127
   X6.000        Y3.026
   X6.770        Y3.127
   X7.487        Y3.424
   X8.103        Y3.897
   X8.576        Y4.513
   X8.873        Y5.230
   X8.974        Y6.000
   X8.873        Y6.770
   X8.576        Y7.487
   X8.103        Y8.103
G0   Z15.0
G53
G10 P2 L20 X-100 Y-900
G55
G0   Z15.000
   X7.800        Y4.488
G1   Z-3.000     F150
   Y7.512
G0   Z4.0 X8.103 Y8.103
G1   Z-3.000     F150
   X7.487        Y8.576
   X6.770        Y8.873
   X6.000        Y8.974
   X5.230        Y8.873
   X4.513        Y8.576
   X3.897        Y8.103
   X3.424        Y7.487
   X3.127        Y6.770
   X3.026        Y6.000
   X3.127        Y5.230
   X3.424        Y4.513
   X3.897        Y3.897
   X4.513        Y3.424
   X5.230        Y3.127
   X6.000        Y3.026
   X6.770        Y3.127
   X7.487        Y3.424
   X8.103        Y3.897
   X8.576        Y4.513
   X8.873        Y5.230
   X8.974        Y6.000
   X8.873        Y6.770
   X8.576        Y7.487
   X8.103        Y8.103
G0   Z15.0
G53
G10 P2 L20 X-200 Y-900
G55
G0   Z15.000
   X7.800        Y4.488
G1   Z-3.000     F150
   Y7.512
G0   Z4.0 X8.103 Y8.103
G1   Z-3.000     F150
   X7.487        Y8.576
   X6.770        Y8.873
   X6.000        Y8.974
   X5.230        Y8.873
   X4.513        Y8.576
   X3.897        Y8.103
   X3.424        Y7.487
   X3.127        Y6.770
   X3.026        Y6.000
   X3.127        Y5.230
   X3.424        Y4.513
   X3.897        Y3.897
   X4.513        Y3.424
   X5.230        Y3.127
   X6.000        Y3.026
   X6.770        Y3.127
   X7.487        Y3.424
   X8.103        Y3.897
   X8.576        Y4.513
   X8.873        Y5.230
   X8.974        Y6.000
   X8.873        Y6.770
   X8.576        Y7.487
   X8.103        Y8.103
G0   Z15.0
G53
G10 P2 L20 X-300 Y-900
G55
G0   Z15.000
   X7.800        Y4.488
G1   Z-3.000     F150
   Y7.512
G0   Z4.0 X8.103 Y8.103
G1   Z-3.000     F150
   X7.487        Y8.576
   X6.770        Y8.873
   X6.000        Y8.974
   X5.230        Y8.873
   X4.513        Y8.576
   X3.897        Y8.103
   X3.424        Y7.487
   X3.127        Y6.770
   X3.026        Y6.000
   X3.127        Y5.230
   X3.424        Y4.513
   X3.897        Y3.897
   X4.513        Y3.424
   X5.230        Y3.127
   X6.000        Y3.026
   X6.770        Y3.127
   X7.487        Y3.424
   X8.103        Y3.897
   X8.576        Y4.513
   X8.873        Y5.230
   X8.974        Y6.000
   X8.873        Y6.770
   X8.576        Y7.487
   X8.103        Y8.103
G0   Z15.0
G53
G10 P2 L20 X-400 Y-900
G55
G0   Z15.000
   X7.800        Y4.488
G1   Z-3.000     F150
   Y7.512
G0   Z4.0 X8.103 Y8.103
G1   Z-3.000     F150
   X7.487        Y8.576
   X6.770        Y8.873
   X6.000        Y8.974
   X5.230        Y8.873
   X4.513        Y8.576
   X3.897        Y8.103
   X3.424        Y7.487
   X3.127        Y6.770
   X3.026        Y6.000
   X3.127        Y5.230
   X3.424        Y4.513
   X3.897        Y3.897
   X4.513        Y3.424
   X5.230        Y3.127
   X6.000        Y3.026
   X6.770        Y3.127
   X7.487        Y3.424
   X8.103        Y3.897
   X8.576        Y4.513
   X8.873        Y5.230
   X8.974        Y6.000
   X8.873        Y6.770
   X8.576        Y7.487
   X8.103        Y8.103
G0   Z15.0
G53
G10 P2 L20 X-500 Y-900
G55
G0   Z15.000
   X7.800        Y4.488
G1   Z-3.000     F150
   Y7.512
G0   Z4.0 X8.103 Y8.103
G1   Z-3.000     F150
   X7.487        Y8.576
   X6.770        Y8.873
   X6.000        Y8.974
   X5.230        Y8.873
   X4.513        Y8.576
   X3.897        Y8.103
   X3.424        Y7.487
   X3.127        Y6.770
   X3.026        Y6.000
   X3.127        Y5.230
   X3.424        Y4.513
   X3.897        Y3.897
   X4.513        Y3.424
   X5.230        Y3.127
   X6.000        Y3.026
   X6.770        Y3.127
   X7.487        Y3.424
   X8.103        Y3.897
   X8.576        Y4.513
   X8.873        Y5.230
   X8.974        Y6.000
   X8.873        Y6.770
   X8.576        Y7.487
   X8.103        Y8.103
G0   Z15.0
G53
G10 P2 L20 X-600 Y-900
G55
G0   Z15.000
   X7.800        Y4.488
G1   Z-3.000     F150
   Y7.512
G0   Z4.0 X8.103 Y8.103
G1   Z-3.000     F150
   X7.487        Y8.576
   X6.770        Y8.873
   X6.000        Y8.974
   X5.230        Y8.873
   X4.513        Y8.576
   X3.897        Y8.103
   X3.424        Y7.487
   X3.127        Y6.770
   X3.026        Y6.000
   X3.127        Y5.230
   X3.424        Y4.513
   X3.897        Y3.897
   X4.513        Y3.424
   X5.230        Y3.127
   X6.000        Y3.026
   X6.770        Y3.127
   X7.487        Y3.424
   X8.103        Y3.897
   X8.576        Y4.513
   X8.873        Y5.230
   X8.974        Y6.000
   X8.873        Y6.770
   X8.576        Y7.487
   X8.103        Y8.103
G0   Z15.0
G53
G10 P2 L20 X-700 Y-900
G55
G0   Z15.000
   X7.800        Y4.488
G1   Z-3.000     F150
   Y7.512
G0   Z4.0 X8.103 Y8.103
G1   Z-3.000     F150
   X7.487        Y8.576
   X6.770        Y8.873
   X6.000        Y8.974
   X5.230        Y8.873
   X4.513        Y8.576
   X3.897        Y8.103
   X3.424        Y7.487
   X3.127        Y6.770
   X3.026        Y6.000
   X3.127        Y5.230
   X3.424        Y4.513
   X3.897        Y3.897
   X4.513        Y3.424
   X5.230        Y3.127
   X6.000        Y3.026
   X6.770        Y3.127
   X7.487        Y3.424
   X8.103        Y3.897
   X8.576        Y4.513
   X8.873        Y5.230
   X8.974        Y6.000
   X8.873        Y6.770
   X8.576        Y7.487
   X8.103        Y8.103
G0   Z15.0
G53
G10 P2 L20 X-800 Y-900
G55
G0   Z15.000
   X7.800        Y4.488
G1   Z-3.000     F150
   Y7.512
G0   Z4.0 X8.103 Y8.103
G1   Z-3.000     F150
   X7.487        Y8.576
   X6.770        Y8.873
   X6.000        Y8.974
   X5.230        Y8.873
   X4.513        Y8.576
   X3.897        Y8.103
   X3.424        Y7.487
   X3.127        Y6.770
   X3.026        Y6.000
   X3.127        Y5.230
   X3.424        Y4.513
   X3.897        Y3.897
   X4.513        Y3.424
   X5.230        Y3.127
   X6.000        Y3.026
   X6.770        Y3.127
   X7.487        Y3.424
   X8.103        Y3.897
   X8.576        Y4.513
   X8.873        Y5.230
   X8.974        Y6.000
   X8.873        Y6.770
   X8.576        Y7.487
   X8.103        Y8.103
G0   Z15.0
G53
G10 P2 L20 X-900 Y-900
G55
G0   Z15.000
   X7.800        Y4.488
G1   Z-3.000     F150
   Y7.512
G0   Z4.0 X8.103 Y8.103
G1   Z-3.000     F150
   X7.487        Y8.576
   X6.770        Y8.873
   X6.000        Y8.974
   X5.230        Y8.873
   X4.513        Y8.576
   X3.897        Y8.103
   X3.424        Y7.487
   X3.127        Y6.770
   X3.026        Y6.000
   X3.127        Y5.230
   X3.424        Y4.513
   X3.897        Y3.897
   X4.513        Y3.424
   X5.230        Y3.127
   X6.000        Y3.026
   X6.770        Y3.127
   X7.487        Y3.424
   X8.103        Y3.897
   X8.576        Y4.513
   X8.873        Y5.230
   X8.974        Y6.000
   X8.873        Y6.770
   X8.576        Y7.487
   X8.103        Y8.103
G0   Z15.0
G53
G10 P2 L20 X-1000 Y-900
G55
G0   Z15.000
   X7.800        Y4.488
G1   Z-3.000     F150
   Y7.512
G0   Z4.0 X8.103 Y8.103
G1   Z-3.000     F150
   X7.487        Y8.576
   X6.770        Y8.873
   X6.000        Y8.974
   X5.230        Y8.873
   X4.513        Y8.576
   X3.897        Y8.103
   X3.424        Y7.487
   X3.127        Y6.770
   X3.026        Y6.000
   X3.127        Y5.230
   X3.424        Y4.513
   X3.897        Y3.897
   X4.513        Y3.424
   X5.230        Y3.127
   X6.000        Y3.026
   X6.770        Y3.127
   X7.487        Y3.424
   X8.103        Y3.897
   X8.576        Y4.513
   X8.873        Y5.230
   X8.974        Y6.000
   X8.873        Y6.770
   X8.576        Y7.487
   X8.103        Y8.103
G0   Z15.0
G53
G10 P2 L20 X-1100 Y-900
G55
G0   Z15.000
   X7.800        Y4.488
G1   Z-3.000     F150
   Y7.512
G0   Z4.0 X8.103 Y8.103
G1   Z-3.000     F150
   X7.487        Y8.576
   X6.770        Y8.873
   X6.000        Y8.974
   X5.230        Y8.873
   X4.513        Y8.576
   X3.897        Y8.103
   X3.424        Y7.487
   X3.127        Y6.770
   X3.026        Y6.000
   X3.127        Y5.230
   X3.424        Y4.513
   X3.897        Y3.897
   X4.513        Y3.424
   X5.230        Y3.127
   X6.000        Y3.026
   X6.770        Y3.127
   X7.487        Y3.424
   X8.103        Y3.897
   X8.576        Y4.513
   X8.873        Y5.230
   X8.974        Y6.000
   X8.873        Y6.770
   X8.576        Y7.487
   X8.103        Y8.103
G0   Z15.0
G53
G10 P2 L20 X-100 Y-1000
G55
G0   Z15.000
   X7.800        Y4.488
G1   Z-3.000     F150
   Y7.512
G0   Z4.0 X8.103 Y8.103
G1   Z-3.000     F150
   X7.487        Y8.576
   X6.770        Y8.873
   X6.000        Y8.974
   X5.230        Y8.873
   X4.513        Y8.576
   X3.897        Y8.103
   X3.424        Y7.487
   X3.127        Y6.770
   X3.026        Y6.000
   X3.127        Y5.230
   X3.424        Y4.513
   X3.897        Y3.897
   X4.513        Y3.424
   X5.230        Y3.127
   X6.000        Y3.026
   X6.770        Y3.127
   X7.487        Y3.424
   X8.103        Y3.897
   X8.576        Y4.513
   X8.873        Y5.230
   X8.974        Y6.000
   X8.873        Y6.770
   X8.576        Y7.487
   X8.103        Y8.103
G0   Z15.0
G53
G10 P2 L20 X-200 Y-1000
G55
G0   Z15.000
   X7.800        Y4.488
G1   Z-3.000     F150
   Y7.512
G0   Z4.0 X8.103 Y8.103
G1   Z-3.000     F150
   X7.487        Y8.576
   X6.770        Y8.873
   X6.000        Y8.974
   X5.230        Y8.873
   X4.513        Y8.576
   X3.897        Y8.103
   X3.424        Y7.487
   X3.127        Y6.770
   X3.026        Y6.000
   X3.127        Y5.230
   X3.424        Y4.513
   X3.897        Y3.897
   X4.513        Y3.424
   X5.230        Y3.127
   X6.000        Y3.026
   X6.770        Y3.127
   X7.487        Y3.424
   X8.103        Y3.897
   X8.576        Y4.513
   X8.873        Y5.230
   X8.974        Y6.000
   X8.873        Y6.770
   X8.576        Y7.487
   X8.103        Y8.103
G0   Z15.0
G53
G10 P2 L20 X-300 Y-1000
G55
G0   Z15.000
   X7.800        Y4.488
G1   Z-3.000     F150
   Y7.512
G0   Z4.0 X8.103 Y8.103
G1   Z-3.000     F150
   X7.487        Y8.576
   X6.770        Y8.873
   X6.000        Y8.974
   X5.230        Y8.873
   X4.513        Y8.576
   X3.897        Y8.103
   X3.424        Y7.487
   X3.127        Y6.770
   X3.026        Y6.000
   X3.127        Y5.230
   X3.424        Y4.513
   X3.897        Y3.897
   X4.513        Y3.424
   X5.230        Y3.127
   X6.000        Y3.026
   X6.770        Y3.127
   X7.487        Y3.424
   X8.103        Y3.897
   X8.576        Y4.513
   X8.873        Y5.230
   X8.974        Y6.000
   X8.873        Y6.770
   X8.576        Y7.487
   X8.103        Y8.103
G0   Z15.0
G53
G10 P2 L20 X-400 Y-1000
G55
G0   Z15.000
   X7.800        Y4.488
G1   Z-3.000     F150
   Y7.512
G0   Z4.0 X8.103 Y8.103
G1   Z-3.000     F150
   X7.487        Y8.576
   X6.770        Y8.873
   X6.000        Y8.974
   X5.230        Y8.873
   X4.513        Y8.576
   X3.897        Y8.103
   X3.424        Y7.487
   X3.127        Y6.770
   X3.026        Y6.000
   X3.127        Y5.230
   X3.424        Y4.513
   X3.897        Y3.897
   X4.513        Y3.424
   X5.230        Y3.127
   X6.000        Y3.026
   X6.770        Y3.127
   X7.487        Y3.424
   X8.103        Y3.897
   X8.576        Y4.513
   X8.873        Y5.230
   X8.974        Y6.000
   X8.873        Y6.770
   X8.576        Y7.487
   X8.103        Y8.103
G0   Z15.0
G53
G10 P2 L20 X-500 Y-1000
G55
G0   Z15.000
   X7.800        Y4.488
G1   Z-3.000     F150
   Y7.512
G0   Z4.0 X8.103 Y8.103
G1   Z-3.000     F150
   X7.487        Y8.576
   X6.770        Y8.873
   X6.000        Y8.974
   X5.230        Y8.873
   X4.513        Y8.576
   X3.897        Y8.103
   X3.424        Y7.487
   X3.127        Y6.770
   X3.026        Y6.000
   X3.127        Y5.230
   X3.424        Y4.513
   X3.897        Y3.897
   X4.513        Y3.424
   X5.230        Y3.127
   X6.000        Y3.026
   X6.770        Y3.127
   X7.487        Y3.424
   X8.103        Y3.897
   X8.576        Y4.513
   X8.873        Y5.230
   X8.974        Y6.000
   X8.873        Y6.770
   X8.576        Y7.487
   X8.103        Y8.103
G0   Z15.0
G53
G10 P2 L20 X-600 Y-1000
G55
G0   Z15.000
   X7.800        Y4.488
G1   Z-3.000     F150
   Y7.512
G0   Z4.0 X8.103 Y8.103
G1   Z-3.000     F150
   X7.487        Y8.576
   X6.770        Y8.873
   X6.000        Y8.974
   X5.230        Y8.873
   X4.513        Y8.576
   X3.897        Y8.103
   X3.424        Y7.487
   X3.127        Y6.770
   X3.026        Y6.000
   X3.127        Y5.230
   X3.424        Y4.513
   X3.897        Y3.897
   X4.513        Y3.424
   X5.230        Y3.127
   X6.000        Y3.026
   X6.770        Y3.127
   X7.487        Y3.424
   X8.103        Y3.897
   X8.576        Y4.513
   X8.873        Y5.230
   X8.974        Y6.000
   X8.873        Y6.770
   X8.576        Y7.487
   X8.103        Y8.103
G0   Z15.0
G53
G10 P2 L20 X-700 Y-1000
G55
G0   Z15.000
   X7.800        Y4.488
G1   Z-3.000     F150
   Y7.512
G0   Z4.0 X8.103 Y8.103
G1   Z-3.000     F150
   X7.487        Y8.576
   X6.770        Y8.873
   X6.000        Y8.974
   X5.230        Y8.873
   X4.513        Y8.576
   X3.897        Y8.103
   X3.424        Y7.487
   X3.127        Y6.770
   X3.026        Y6.000
   X3.127        Y5.230
   X3.424        Y4.513
   X3.897        Y3.897
   X4.513        Y3.424
   X5.230        Y3.127
   X6.000        Y3.026
   X6.770        Y3.127
   X7.487        Y3.424
   X8.103        Y3.897
   X8.576        Y4.513
   X8.873        Y5.230
   X8.974        Y6.000
   X8.873        Y6.770
   X8.576        Y7.487
   X8.103        Y8.103
G0   Z15.0
G53
G10 P2 L20 X-800 Y-1000
G55
G0   Z15.000
   X7.800        Y4.488
G1   Z-3.000     F150
   Y7.512
G0   Z4.0 X8.103 Y8.103
G1   Z-3.000     F150
   X7.487        Y8.576
   X6.770        Y8.873
   X6.000        Y8.974
   X5.230        Y8.873
   X4.513        Y8.576
   X3.897        Y8.103
   X3.424        Y7.487
   X3.127        Y6.770
   X3.026        Y6.000
   X3.127        Y5.230
   X3.424        Y4.513
   X3.897        Y3.897
   X4.513        Y3.424
   X5.230        Y3.127
   X6.000        Y3.026
   X6.770        Y3.127
   X7.487        Y3.424
   X8.103        Y3.897
   X8.576        Y4.513
   X8.873        Y5.230
   X8.974        Y6.000
   X8.873        Y6.770
   X8.576        Y7.487
   X8.103        Y8.103
G0   Z15.0
G53
G10 P2 L20 X-900 Y-1000
G55
G0   Z15.000
   X7.800        Y4.488
G1   Z-3.000     F150
   Y7.512
G0   Z4.0 X8.103 Y8.103
G1   Z-3.000     F150
   X7.487        Y8.576
   X6.770        Y8.873
   X6.000        Y8.974
   X5.230        Y8.873
   X4.513        Y8.576
   X3.897        Y8.103
   X3.424        Y7.487
   X3.127        Y6.770
   X3.026        Y6.000
   X3.127        Y5.230
   X3.424        Y4.513
   X3.897        Y3.897
   X4.513        Y3.424
   X5.230        Y3.127
   X6.000        Y3.026
   X6.770        Y3.127
   X7.487        Y3.424
   X8.103        Y3.897
   X8.576        Y4.513
   X8.873        Y5.230
   X8.974        Y6.000
   X8.873        Y6.770
   X8.576        Y7.487
   X8.103        Y8.103
G0   Z15.0
G53
G10 P2 L20 X-1000 Y-1000
G55
G0   Z15.000
   X7.800        Y4.488
G1   Z-3.000     F150
   Y7.512
G0   Z4.0 X8.103 Y8.103
G1   Z-3.000     F150
   X7.487        Y8.576
   X6.770        Y8.873
   X6.000        Y8.974
   X5.230        Y8.873
   X4.513        Y8.576
   X3.897        Y8.103
   X3.424        Y7.487
   X3.127        Y6.770
   X3.026        Y6.000
   X3.127        Y5.230
   X3.424        Y4.513
   X3.897        Y3.897
   X4.513        Y3.424
   X5.230        Y3.127
   X6.000        Y3.026
   X6.770        Y3.127
   X7.487        Y3.424
   X8.103        Y3.897
   X8.576        Y4.513
   X8.873        Y5.230
   X8.974        Y6.000
   X8.873        Y6.770
   X8.576        Y7.487
   X8.103        Y8.103
G0   Z15.0
G53
G10 P2 L20 X-1100 Y-1000
G55
G0   Z15.000
   X7.800        Y4.488
G1   Z-3.000     F150
   Y7.512
G0   Z4.0 X8.103 Y8.103
G1   Z-3.000     F150
   X7.487        Y8.576
   X6.770        Y8.873
   X6.000        Y8.974
   X5.230        Y8.873
   X4.513        Y8.576
   X3.897        Y8.103
   X3.424        Y7.487
   X3.127        Y6.770
   X3.026        Y6.000
   X3.127        Y5.230
   X3.424        Y4.513
   X3.897        Y3.897
   X4.513        Y3.424
   X5.230        Y3.127
   X6.000        Y3.026
   X6.770        Y3.127
   X7.487        Y3.424
   X8.103        Y3.897
   X8.576        Y4.513
   X8.873        Y5.230
   X8.974        Y6.000
   X8.873        Y6.770
   X8.576        Y7.487
   X8.103        Y8.103
G0   Z15.0
G53
G10 P2 L20 X-100 Y-1100
G55
G0   Z15.000
   X7.800        Y4.488
G1   Z-3.000     F150
   Y7.512
G0   Z4.0 X8.103 Y8.103
G1   Z-3.000     F150
   X7.487        Y8.576
   X6.770        Y8.873
   X6.000        Y8.974
   X5.230        Y8.873
   X4.513        Y8.576
   X3.897        Y8.103
   X3.424        Y7.487
   X3.127        Y6.770
   X3.026        Y6.000
   X3.127        Y5.230
   X3.424        Y4.513
   X3.897        Y3.897
   X4.513        Y3.424
   X5.230        Y3.127
   X6.000        Y3.026
   X6.770        Y3.127
   X7.487        Y3.424
   X8.103        Y3.897
   X8.576        Y4.513
   X8.873        Y5.230
   X8.974        Y6.000
   X8.873        Y6.770
   X8.576        Y7.487
   X8.103        Y8.103
G0   Z15.0
G53
G10 P2 L20 X-200 Y-1100
G55
G0   Z15.000
   X7.800        Y4.488
G1   Z-3.000     F150
   Y7.512
G0   Z4.0 X8.103 Y8.103
G1   Z-3.000     F150
   X7.487        Y8.576
   X6.770        Y8.873
   X6.000        Y8.974
   X5.230        Y8.873
   X4.513        Y8.576
   X3.897        Y8.103
   X3.424        Y7.487
   X3.127        Y6.770
   X3.026        Y6.000
   X3.127        Y5.230
   X3.424        Y4.513
   X3.897        Y3.897
   X4.513        Y3.424
   X5.230        Y3.127
   X6.000        Y3.026
   X6.770        Y3.127
   X7.487        Y3.424
   X8.103        Y3.897
   X8.576        Y4.513
   X8.873        Y5.230
   X8.974        Y6.000
   X8.873        Y6.770
   X8.576        Y7.487
   X8.103        Y8.103
G0   Z15.0
G53
G10 P2 L20 X-300 Y-1100
G55
G0   Z15.000
   X7.800        Y4.488
G1   Z-3.000     F150
   Y7.512
G0   Z4.0 X8.103 Y8.103
G1   Z-3.000     F150
   X7.487        Y8.576
   X6.770        Y8.873
   X6.000        Y8.974
   X5.230        Y8.873
   X4.513        Y8.576
   X3.897        Y8.103
   X3.424        Y7.487
   X3.127        Y6.770
   X3.026        Y6.000
   X3.127        Y5.230
   X3.424        Y4.513
   X3.897        Y3.897
   X4.513        Y3.424
   X5.230        Y3.127
   X6.000        Y3.026
   X6.770        Y3.127
   X7.487        Y3.424
   X8.103        Y3.897
   X8.576        Y4.513
   X8.873        Y5.230
   X8.974        Y6.000
   X8.873        Y6.770
   X8.576        Y7.487
   X8.103        Y8.103
G0   Z15.0
G53
G10 P2 L20 X-400 Y-1100
G55
G0   Z15.000
   X7.800        Y4.488
G1   Z-3.000     F150
   Y7.512
G0   Z4.0 X8.103 Y8.103
G1   Z-3.000     F150
   X7.487        Y8.576
   X6.770        Y8.873
   X6.000        Y8.974
   X5.230        Y8.873
   X4.513        Y8.576
   X3.897        Y8.103
   X3.424        Y7.487
   X3.127        Y6.770
   X3.026        Y6.000
   X3.127        Y5.230
   X3.424        Y4.513
   X3.897        Y3.897
   X4.513        Y3.424
   X5.230        Y3.127
   X6.000        Y3.026
   X6.770        Y3.127
   X7.487        Y3.424
   X8.103        Y3.897
   X8.576        Y4.513
   X8.873        Y5.230
   X8.974        Y6.000
   X8.873        Y6.770
   X8.576        Y7.487
   X8.103        Y8.103
G0   Z15.0
G53
G10 P2 L20 X-500 Y-1100
G55
G0   Z15.000
   X7.800        Y4.488
G1   Z-3.000     F150
   Y7.512
G0   Z4.0 X8.103 Y8.103
G1   Z-3.000     F150
   X7.487        Y8.576
   X6.770        Y8.873
   X6.000        Y8.974
   X5.230        Y8.873
   X4.513        Y8.576
   X3.897        Y8.103
   X3.424        Y7.487
   X3.127        Y6.770
   X3.026        Y6.000
   X3.127        Y5.230
   X3.424        Y4.513
   X3.897        Y3.897
   X4.513        Y3.424
   X5.230        Y3.127
   X6.000        Y3.026
   X6.770        Y3.127
   X7.487        Y3.424
   X8.103        Y3.897
   X8.576        Y4.513
   X8.873        Y5.230
   X8.974        Y6.000
   X8.873        Y6.770
   X8.576        Y7.487
   X8.103        Y8.103
G0   Z15.0
G53
G10 P2 L20 X-600 Y-1100
G55
G0   Z15.000
   X7.800        Y4.488
G1   Z-3.000     F150
   Y7.512
G0   Z4.0 X8.103 Y8.103
G1   Z-3.000     F150
   X7.487        Y8.576
   X6.770        Y8.873
   X6.000        Y8.974
   X5.230        Y8.873
   X4.513        Y8.576
   X3.897        Y8.103
   X3.424        Y7.487
   X3.127        Y6.770
   X3.026        Y6.000
   X3.127        Y5.230
   X3.424        Y4.513
   X3.897        Y3.897
   X4.513        Y3.424
   X5.230        Y3.127
   X6.000        Y3.026
   X6.770        Y3.127
   X7.487        Y3.424
   X8.103        Y3.897
   X8.576        Y4.513
   X8.873        Y5.230
   X8.974        Y6.000
   X8.873        Y6.770
   X8.576        Y7.487
   X8.103        Y8.103
G0   Z15.0
G53
G10 P2 L20 X-700 Y-1100
G55
G0   Z15.000
   X7.800        Y4.488
G1   Z-3.000     F150
   Y7.512
G0   Z4.0 X8.103 Y8.103
G1   Z-3.000     F150
   X7.487        Y8.576
   X6.770        Y8.873
   X6.000        Y8.974
   X5.230        Y8.873
   X4.513        Y8.576
   X3.897        Y8.103
   X3.424        Y7.487
   X3.127        Y6.770
   X3.026        Y6.000
   X3.127        Y5.230
   X3.424        Y4.513
   X3.897        Y3.897
   X4.513        Y3.424
   X5.230        Y3.127
   X6.000        Y3.026
   X6.770        Y3.127
   X7.487        Y3.424
   X8.103        Y3.897
   X8.576        Y4.513
   X8.873        Y5.230
   X8.974        Y6.000
   X8.873        Y6.770
   X8.576        Y7.487
   X8.103        Y8.103
G0   Z15.0
G53
G10 P2 L20 X-800 Y-1100
G55
G0   Z15.000
   X7.800        Y4.488
G1   Z-3.000     F150
   Y7.512
G0   Z4.0 X8.103 Y8.103
G1   Z-3.000     F150
   X7.487        Y8.576
   X6.770        Y8.873
   X6.000        Y8.974
   X5.230        Y8.873
   X4.513        Y8.576
   X3.897        Y8.103
   X3.424        Y7.487
   X3.127        Y6.770
   X3.026        Y6.000
   X3.127        Y5.230
   X3.424        Y4.513
   X3.897        Y3.897
   X4.513        Y3.424
   X5.230        Y3.127
   X6.000        Y3.026
   X6.770        Y3.127
   X7.487        Y3.424
   X8.103        Y3.897
   X8.576        Y4.513
   X8.873        Y5.230
   X8.974        Y6.000
   X8.873        Y6.770
   X8.576        Y7.487
   X8.103        Y8.103
G0   Z15.0
G53
G10 P2 L20 X-900 Y-1100
G55
G0   Z15.000
   X7.800        Y4.488
G1   Z-3.000     F150
   Y7.512
G0   Z4.0 X8.103 Y8.103
G1   Z-3.000     F150
   X7.487        Y8.576
   X6.770        Y8.873
   X6.000        Y8.974
   X5.230        Y8.873
   X4.513        Y8.576
   X3.897        Y8.103
   X3.424        Y7.487
   X3.127        Y6.770
   X3.026        Y6.000
   X3.127        Y5.230
   X3.424        Y4.513
   X3.897        Y3.897
   X4.513        Y3.424
   X5.230        Y3.127
   X6.000        Y3.026
   X6.770        Y3.127
   X7.487        Y3.424
   X8.103        Y3.897
   X8.576        Y4.513
   X8.873        Y5.230
   X8.974        Y6.000
   X8.873        Y6.770
   X8.576        Y7.487
   X8.103        Y8.103
G0   Z15.0
G53
G10 P2 L20 X-1000 Y-1100
G55
G0   Z15.000
   X7.800        Y4.488
G1   Z-3.000     F150
   Y7.512
G0   Z4.0 X8.103 Y8.103
G1   Z-3.000     F150
   X7.487        Y8.576
   X6.770        Y8.873
   X6.000        Y8.974
   X5.230        Y8.873
   X4.513        Y8.576
   X3.897        Y8.103
   X3.424        Y7.487
   X3.127        Y6.770
   X3.026        Y6.000
   X3.127        Y5.230
   X3.424        Y4.513
   X3.897        Y3.897
   X4.513        Y3.424
   X5.230        Y3.127
   X6.000        Y3.026
   X6.770        Y3.127
   X7.487        Y3.424
   X8.103        Y3.897
   X8.576        Y4.513
   X8.873        Y5.230
   X8.974        Y6.000
   X8.873        Y6.770
   X8.576        Y7.487
   X8.103        Y8.103
G0   Z15.0
G53
G10 P2 L20 X-1100 Y-1100
G55
G0   Z15.000
   X7.800        Y4.488
G1   Z-3.000     F150
   Y7.512
G0   Z4.0 X8.103 Y8.103
G1   Z-3.000     F150
   X7.487        Y8.576
   X6.770        Y8.873
   X6.000        Y8.974
   X5.230        Y8.873
   X4.513        Y8.576
   X3.897        Y8.103
   X3.424        Y7.487
   X3.127        Y6.770
   X3.026        Y6.000
   X3.127        Y5.230
   X3.424        Y4.513
   X3.897        Y3.897
   X4.513        Y3.424
   X5.230        Y3.127
   X6.000        Y3.026
   X6.770        Y3.127
   X7.487        Y3.424
   X8.103        Y3.897
   X8.576        Y4.513
   X8.873        Y5.230
   X8.974        Y6.000
   X8.873        Y6.770
   X8.576        Y7.487
   X8.103        Y8.103
G0   Z15.0
G53
G10 P2 L20 X-100 Y-1200
G55
G0   Z15.000
   X7.800        Y4.488
G1   Z-3.000     F150
   Y7.512
G0   Z4.0 X8.103 Y8.103
G1   Z-3.000     F150
   X7.487        Y8.576
   X6.770        Y8.873
   X6.000        Y8.974
   X5.230        Y8.873
   X4.513        Y8.576
   X3.897        Y8.103
   X3.424        Y7.487
   X3.127        Y6.770
   X3.026        Y6.000
   X3.127        Y5.230
   X3.424        Y4.513
   X3.897        Y3.897
   X4.513        Y3.424
   X5.230        Y3.127
   X6.000        Y3.026
   X6.770        Y3.127
   X7.487        Y3.424
   X8.103        Y3.897
   X8.576        Y4.513
   X8.873        Y5.230
   X8.974        Y6.000
   X8.873        Y6.770
   X8.576        Y7.487
   X8.103        Y8.103
G0   Z15.0
G53
G10 P2 L20 X-200 Y-1200
G55
G0   Z15.000
   X7.800        Y4.488
G1   Z-3.000     F150
   Y7.512
G0   Z4.0 X8.103 Y8.103
G1   Z-3.000     F150
   X7.487        Y8.576
   X6.770        Y8.873
   X6.000        Y8.974
   X5.230        Y8.873
   X4.513        Y8.576
   X3.897        Y8.103
   X3.424        Y7.487
   X3.127        Y6.770
   X3.026        Y6.000
   X3.127        Y5.230
   X3.424        Y4.513
   X3.897        Y3.897
   X4.513        Y3.424
   X5.230        Y3.127
   X6.000        Y3.026
   X6.770        Y3.127
   X7.487        Y3.424
   X8.103        Y3.897
   X8.576        Y4.513
   X8.873        Y5.230
   X8.974        Y6.000
   X8.873        Y6.770
   X8.576        Y7.487
   X8.103        Y8.103
G0   Z15.0
G53
G10 P2 L20 X-300 Y-1200
G55
G0   Z15.000
   X7.800        Y4.488
G1   Z-3.000     F150
   Y7.512
G0   Z4.0 X8.103 Y8.103
G1   Z-3.000     F150
   X7.487        Y8.576
   X6.770        Y8.873
   X6.000        Y8.974
   X5.230        Y8.873
   X4.513        Y8.576
   X3.897        Y8.103
   X3.424        Y7.487
   X3.127        Y6.770
   X3.026        Y6.000
   X3.127        Y5.230
   X3.424        Y4.513
   X3.897        Y3.897
   X4.513        Y3.424
   X5.230        Y3.127
   X6.000        Y3.026
   X6.770        Y3.127
   X7.487        Y3.424
   X8.103        Y3.897
   X8.576        Y4.513
   X8.873        Y5.230
   X8.974        Y6.000
   X8.873        Y6.770
   X8.576        Y7.487
   X8.103        Y8.103
G0   Z15.0
G53
G10 P2 L20 X-400 Y-1200
G55
G0   Z15.000
   X7.800        Y4.488
G1   Z-3.000     F150
   Y7.512
G0   Z4.0 X8.103 Y8.103
G1   Z-3.000     F150
   X7.487        Y8.576
   X6.770        Y8.873
   X6.000        Y8.974
   X5.230        Y8.873
   X4.513        Y8.576
   X3.897        Y8.103
   X3.424        Y7.487
   X3.127        Y6.770
   X3.026        Y6.000
   X3.127        Y5.230
   X3.424        Y4.513
   X3.897        Y3.897
   X4.513        Y3.424
   X5.230        Y3.127
   X6.000        Y3.026
   X6.770        Y3.127
   X7.487        Y3.424
   X8.103        Y3.897
   X8.576        Y4.513
   X8.873        Y5.230
   X8.974        Y6.000
   X8.873        Y6.770
   X8.576        Y7.487
   X8.103        Y8.103
G0   Z15.0
G53
G10 P2 L20 X-500 Y-1200
G55
G0   Z15.000
   X7.800        Y4.488
G1   Z-3.000     F150
   Y7.512
G0   Z4.0 X8.103 Y8.103
G1   Z-3.000     F150
   X7.487        Y8.576
   X6.770        Y8.873
   X6.000        Y8.974
   X5.230        Y8.873
   X4.513        Y8.576
   X3.897        Y8.103
   X3.424        Y7.487
   X3.127        Y6.770
   X3.026        Y6.000
   X3.127        Y5.230
   X3.424        Y4.513
   X3.897        Y3.897
   X4.513        Y3.424
   X5.230        Y3.127
   X6.000        Y3.026
   X6.770        Y3.127
   X7.487        Y3.424
   X8.103        Y3.897
   X8.576        Y4.513
   X8.873        Y5.230
   X8.974        Y6.000
   X8.873        Y6.770
   X8.576        Y7.487
   X8.103        Y8.103
G0   Z15.0
G53
G10 P2 L20 X-600 Y-1200
G55
G0   Z15.000
   X7.800        Y4.488
G1   Z-3.000     F150
   Y7.512
G0   Z4.0 X8.103 Y8.103
G1   Z-3.000     F150
   X7.487        Y8.576
   X6.770        Y8.873
   X6.000        Y8.974
   X5.230        Y8.873
   X4.513        Y8.576
   X3.897        Y8.103
   X3.424        Y7.487
   X3.127        Y6.770
   X3.026        Y6.000
   X3.127        Y5.230
   X3.424        Y4.513
   X3.897        Y3.897
   X4.513        Y3.424
   X5.230        Y3.127
   X6.000        Y3.026
   X6.770        Y3.127
   X7.487        Y3.424
   X8.103        Y3.897
   X8.576        Y4.513
   X8.873        Y5.230
   X8.974        Y6.000
   X8.873        Y6.770
   X8.576        Y7.487
   X8.103        Y8.103
G0   Z15.0
G53
G10 P2 L20 X-700 Y-1200
G55
G0   Z15.000
   X7.800        Y4.488
G1   Z-3.000     F150
   Y7.512
G0   Z4.0 X8.103 Y8.103
G1   Z-3.000     F150
   X7.487        Y8.576
   X6.770        Y8.873
   X6.000        Y8.974
   X5.230        Y8.873
   X4.513        Y8.576
   X3.897        Y8.103
   X3.424        Y7.487
   X3.127        Y6.770
   X3.026        Y6.000
   X3.127        Y5.230
   X3.424        Y4.513
   X3.897        Y3.897
   X4.513        Y3.424
   X5.230        Y3.127
   X6.000        Y3.026
   X6.770        Y3.127
   X7.487        Y3.424
   X8.103        Y3.897
   X8.576        Y4.513
   X8.873        Y5.230
   X8.974        Y6.000
   X8.873        Y6.770
   X8.576        Y7.487
   X8.103        Y8.103
G0   Z15.0
G53
G10 P2 L20 X-800 Y-1200
G55
G0   Z15.000
   X7.800        Y4.488
G1   Z-3.000     F150
   Y7.512
G0   Z4.0 X8.103 Y8.103
G1   Z-3.000     F150
   X7.487        Y8.576
   X6.770        Y8.873
   X6.000        Y8.974
   X5.230        Y8.873
   X4.513        Y8.576
   X3.897        Y8.103
   X3.424        Y7.487
   X3.127        Y6.770
   X3.026        Y6.000
   X3.127        Y5.230
   X3.424        Y4.513
   X3.897        Y3.897
   X4.513        Y3.424
   X5.230        Y3.127
   X6.000        Y3.026
   X6.770        Y3.127
   X7.487        Y3.424
   X8.103        Y3.897
   X8.576        Y4.513
   X8.873        Y5.230
   X8.974        Y6.000
   X8.873        Y6.770
   X8.576        Y7.487
   X8.103        Y8.103
G0   Z15.0
G53
G10 P2 L20 X-900 Y-1200
G55
G0   Z15.000
   X7.800        Y4.488
G1   Z-3.000     F150
   Y7.512
G0   Z4.0 X8.103 Y8.103
G1   Z-3.000     F150
   X7.487        Y8.576
   X6.770        Y8.873
   X6.000        Y8.974
   X5.230        Y8.873
   X4.513        Y8.576
   X3.897        Y8.103
   X3.424        Y7.487
   X3.127        Y6.770
   X3.026        Y6.000
   X3.127        Y5.230
   X3.424        Y4.513
   X3.897        Y3.897
   X4.513        Y3.424
   X5.230        Y3.127
   X6.000        Y3.026
   X6.770        Y3.127
   X7.487        Y3.424
   X8.103        Y3.897
   X8.576        Y4.513
   X8.873        Y5.230
   X8.974        Y6.000
   X8.873        Y6.770
   X8.576        Y7.487
   X8.103        Y8.103
G0   Z15.0
G53
G10 P2 L20 X-1000 Y-1200
G55
G0   Z15.000
   X7.800        Y4.488
G1   Z-3.000     F150
   Y7.512
G0   Z4.0 X8.103 Y8.103
G1   Z-3.000     F150
   X7.487        Y8.576
   X6.770        Y8.873
   X6.000        Y8.974
   X5.230        Y8.873
   X4.513        Y8.576
   X3.897        Y8.103
   X3.424        Y7.487
   X3.127        Y6.770
   X3.026        Y6.000
   X3.127        Y5.230
   X3.424        Y4.513
   X3.897        Y3.897
   X4.513        Y3.424
   X5.230        Y3.127
   X6.000        Y3.026
   X6.770        Y3.127
   X7.487        Y3.424
   X8.103        Y3.897
   X8.576        Y4.513
   X8.873        Y5.230
   X8.974        Y6.000
   X8.873        Y6.770
   X8.576        Y7.487
   X8.103        Y8.103
G0   Z15.0
G53
G10 P2 L20 X-1100 Y-1200
G55
G0   Z15.000
   X7.800        Y4.488
G1   Z-3.000     F150
   Y7.512
G0   Z4.0 X8.103 Y8.103
G1   Z-3.000     F150
   X7.487        Y8.576
   X6.770        Y8.873
   X6.000        Y8.974
   X5.230        Y8.873
   X4.513        Y8.576
   X3.897        Y8.103
   X3.424        Y7.487
   X3.127        Y6.770
   X3.026        Y6.000
   X3.127        Y5.230
   X3.424        Y4.513
   X3.897        Y3.897
   X4.513        Y3.424
   X5.230        Y3.127
   X6.000        Y3.026
   X6.770        Y3.127
   X7.487        Y3.424
   X8.103        Y3.897
   X8.576        Y4.513
   X8.873        Y5.230
   X8.974        Y6.000
   X8.873        Y6.770
   X8.576        Y7.487
   X8.103        Y8.103
G0   Z15.0
G53
G10 P2 L20 X-100 Y-1300
G55
G0   Z15.000
   X7.800        Y4.488
G1   Z-3.000     F150
   Y7.512
G0   Z4.0 X8.103 Y8.103
G1   Z-3.000     F150
   X7.487        Y8.576
   X6.770        Y8.873
   X6.000        Y8.974
   X5.230        Y8.873
   X4.513        Y8.576
   X3.897        Y8.103
   X3.424        Y7.487
   X3.127        Y6.770
   X3.026        Y6.000
   X3.127        Y5.230
   X3.424        Y4.513
   X3.897        Y3.897
   X4.513        Y3.424
   X5.230        Y3.127
   X6.000        Y3.026
   X6.770        Y3.127
   X7.487        Y3.424
   X8.103        Y3.897
   X8.576        Y4.513
   X8.873        Y5.230
   X8.974        Y6.000
   X8.873        Y6.770
   X8.576        Y7.487
   X8.103        Y8.103
G0   Z15.0
G53
G10 P2 L20 X-200 Y-1300
G55
G0   Z15.000
   X7.800        Y4.488
G1   Z-3.000     F150
   Y7.512
G0   Z4.0 X8.103 Y8.103
G1   Z-3.000     F150
   X7.487        Y8.576
   X6.770        Y8.873
   X6.000        Y8.974
   X5.230        Y8.873
   X4.513        Y8.576
   X3.897        Y8.103
   X3.424        Y7.487
   X3.127        Y6.770
   X3.026        Y6.000
   X3.127        Y5.230
   X3.424        Y4.513
   X3.897        Y3.897
   X4.513        Y3.424
   X5.230        Y3.127
   X6.000        Y3.026
   X6.770        Y3.127
   X7.487        Y3.424
   X8.103        Y3.897
   X8.576        Y4.513
   X8.873        Y5.230
   X8.974        Y6.000
   X8.873        Y6.770
   X8.576        Y7.487
   X8.103        Y8.103
G0   Z15.0
G53
G10 P2 L20 X-300 Y-1300
G55
G0   Z15.000
   X7.800        Y4.488
G1   Z-3.000     F150
   Y7.512
G0   Z4.0 X8.103 Y8.103
G1   Z-3.000     F150
   X7.487        Y8.576
   X6.770        Y8.873
   X6.000        Y8.974
   X5.230        Y8.873
   X4.513        Y8.576
   X3.897        Y8.103
   X3.424        Y7.487
   X3.127        Y6.770
   X3.026        Y6.000
   X3.127        Y5.230
   X3.424        Y4.513
   X3.897        Y3.897
   X4.513        Y3.424
   X5.230        Y3.127
   X6.000        Y3.026
   X6.770        Y3.127
   X7.487        Y3.424
   X8.103        Y3.897
   X8.576        Y4.513
   X8.873        Y5.230
   X8.974        Y6.000
   X8.873        Y6.770
   X8.576        Y7.487
   X8.103        Y8.103
G0   Z15.0
G53
G10 P2 L20 X-400 Y-1300
G55
G0   Z15.000
   X7.800        Y4.488
G1   Z-3.000     F150
   Y7.512
G0   Z4.0 X8.103 Y8.103
G1   Z-3.000     F150
   X7.487        Y8.576
   X6.770        Y8.873
   X6.000        Y8.974
   X5.230        Y8.873
   X4.513        Y8.576
   X3.897        Y8.103
   X3.424        Y7.487
   X3.127        Y6.770
   X3.026        Y6.000
   X3.127        Y5.230
   X3.424        Y4.513
   X3.897        Y3.897
   X4.513        Y3.424
   X5.230        Y3.127
   X6.000        Y3.026
   X6.770        Y3.127
   X7.487        Y3.424
   X8.103        Y3.897
   X8.576        Y4.513
   X8.873        Y5.230
   X8.974        Y6.000
