%
(Generated by SketchUcam {1.2a})
(File: WasherHole.skp)
(Bit diameter: 6.0mm)
(Feed rate: 150.0mm/min)
(Material Thickness: 4.0mm)
(Material length: 558.8mm X width: 1066.8mm)
(Overhead Gantry: true)
(Retract feed rate NOT limited to plunge feed rate)
(Optimization is ON)
(www.PhlatBoyz.com)
G90 G21 G49
M3 S12000

G10 P2 L20 X100 Y100
G55
G0   Z4.000
   X7.800        Y4.488
G1   Z-3.000     F150
   Y7.512
G0   Z10.0 X8.103 Y8.103
G1   Z-3.000     F150
   X7.487        Y8.576
   X6.770        Y8.873
   X6.000        Y8.974
   X5.230        Y8.873
   X4.513        Y8.576
   X3.897        Y8.103
   X3.424        Y7.487
   X3.127        Y6.770
   X3.026        Y6.000
   X3.127        Y5.230
   X3.424        Y4.513
   X3.897        Y3.897
   X4.513        Y3.424
   X5.230        Y3.127
   X6.000        Y3.026
   X6.770        Y3.127
   X7.487        Y3.424
   X8.103        Y3.897
   X8.576        Y4.513
   X8.873        Y5.230
   X8.974        Y6.000
   X8.873        Y6.770
   X8.576        Y7.487
   X8.103        Y8.103
G0   Z10.0

G10 P2 L20 X200 Y100
G55
G0   Z4.000
   X7.800        Y4.488
G1   Z-3.000     F150
   Y7.512
G0   Z10.0 X8.103 Y8.103
G1   Z-3.000     F150
   X7.487        Y8.576
   X6.770        Y8.873
   X6.000        Y8.974
   X5.230        Y8.873
   X4.513        Y8.576
   X3.897        Y8.103
   X3.424        Y7.487
   X3.127        Y6.770
   X3.026        Y6.000
   X3.127        Y5.230
   X3.424        Y4.513
   X3.897        Y3.897
   X4.513        Y3.424
   X5.230        Y3.127
   X6.000        Y3.026
   X6.770        Y3.127
   X7.487        Y3.424
   X8.103        Y3.897
   X8.576        Y4.513
   X8.873        Y5.230
   X8.974        Y6.000
   X8.873        Y6.770
   X8.576        Y7.487
   X8.103        Y8.103
G0   Z10.0

G10 P2 L20 X300 Y100
G55
G0   Z4.000
   X7.800        Y4.488
G1   Z-3.000     F150
   Y7.512
G0   Z10.0 X8.103 Y8.103
G1   Z-3.000     F150
   X7.487        Y8.576
   X6.770        Y8.873
   X6.000        Y8.974
   X5.230        Y8.873
   X4.513        Y8.576
   X3.897        Y8.103
   X3.424        Y7.487
   X3.127        Y6.770
   X3.026        Y6.000
   X3.127        Y5.230
   X3.424        Y4.513
   X3.897        Y3.897
   X4.513        Y3.424
   X5.230        Y3.127
   X6.000        Y3.026
   X6.770        Y3.127
   X7.487        Y3.424
   X8.103        Y3.897
   X8.576        Y4.513
   X8.873        Y5.230
   X8.974        Y6.000
   X8.873        Y6.770
   X8.576        Y7.487
   X8.103        Y8.103
G0   Z10.0

G10 P2 L20 X400 Y100
G55
G0   Z4.000
   X7.800        Y4.488
G1   Z-3.000     F150
   Y7.512
G0   Z10.0 X8.103 Y8.103
G1   Z-3.000     F150
   X7.487        Y8.576
   X6.770        Y8.873
   X6.000        Y8.974
   X5.230        Y8.873
   X4.513        Y8.576
   X3.897        Y8.103
   X3.424        Y7.487
   X3.127        Y6.770
   X3.026        Y6.000
   X3.127        Y5.230
   X3.424        Y4.513
   X3.897        Y3.897
   X4.513        Y3.424
   X5.230        Y3.127
   X6.000        Y3.026
   X6.770        Y3.127
   X7.487        Y3.424
   X8.103        Y3.897
   X8.576        Y4.513
   X8.873        Y5.230
   X8.974        Y6.000
   X8.873        Y6.770
   X8.576        Y7.487
   X8.103        Y8.103
G0   Z10.0

G10 P2 L20 X500 Y100
G55
G0   Z4.000
   X7.800        Y4.488
G1   Z-3.000     F150
   Y7.512
G0   Z10.0 X8.103 Y8.103
G1   Z-3.000     F150
   X7.487        Y8.576
   X6.770        Y8.873
   X6.000        Y8.974
   X5.230        Y8.873
   X4.513        Y8.576
   X3.897        Y8.103
   X3.424        Y7.487
   X3.127        Y6.770
   X3.026        Y6.000
   X3.127        Y5.230
   X3.424        Y4.513
   X3.897        Y3.897
   X4.513        Y3.424
   X5.230        Y3.127
   X6.000        Y3.026
   X6.770        Y3.127
   X7.487        Y3.424
   X8.103        Y3.897
   X8.576        Y4.513
   X8.873        Y5.230
   X8.974        Y6.000
   X8.873        Y6.770
   X8.576        Y7.487
   X8.103        Y8.103
G0   Z10.0

G10 P2 L20 X600 Y100
G55
G0   Z4.000
   X7.800        Y4.488
G1   Z-3.000     F150
   Y7.512
G0   Z10.0 X8.103 Y8.103
G1   Z-3.000     F150
   X7.487        Y8.576
   X6.770        Y8.873
   X6.000        Y8.974
   X5.230        Y8.873
   X4.513        Y8.576
   X3.897        Y8.103
   X3.424        Y7.487
   X3.127        Y6.770
   X3.026        Y6.000
   X3.127        Y5.230
   X3.424        Y4.513
   X3.897        Y3.897
   X4.513        Y3.424
   X5.230        Y3.127
   X6.000        Y3.026
   X6.770        Y3.127
   X7.487        Y3.424
   X8.103        Y3.897
   X8.576        Y4.513
   X8.873        Y5.230
   X8.974        Y6.000
   X8.873        Y6.770
   X8.576        Y7.487
   X8.103        Y8.103
G0   Z10.0

G10 P2 L20 X700 Y100
G55
G0   Z4.000
   X7.800        Y4.488
G1   Z-3.000     F150
   Y7.512
G0   Z10.0 X8.103 Y8.103
G1   Z-3.000     F150
   X7.487        Y8.576
   X6.770        Y8.873
   X6.000        Y8.974
   X5.230        Y8.873
   X4.513        Y8.576
   X3.897        Y8.103
   X3.424        Y7.487
   X3.127        Y6.770
   X3.026        Y6.000
   X3.127        Y5.230
   X3.424        Y4.513
   X3.897        Y3.897
   X4.513        Y3.424
   X5.230        Y3.127
   X6.000        Y3.026
   X6.770        Y3.127
   X7.487        Y3.424
   X8.103        Y3.897
   X8.576        Y4.513
   X8.873        Y5.230
   X8.974        Y6.000
   X8.873        Y6.770
   X8.576        Y7.487
   X8.103        Y8.103
G0   Z10.0

G10 P2 L20 X800 Y100
G55
G0   Z4.000
   X7.800        Y4.488
G1   Z-3.000     F150
   Y7.512
G0   Z10.0 X8.103 Y8.103
G1   Z-3.000     F150
   X7.487        Y8.576
   X6.770        Y8.873
   X6.000        Y8.974
   X5.230        Y8.873
   X4.513        Y8.576
   X3.897        Y8.103
   X3.424        Y7.487
   X3.127        Y6.770
   X3.026        Y6.000
   X3.127        Y5.230
   X3.424        Y4.513
   X3.897        Y3.897
   X4.513        Y3.424
   X5.230        Y3.127
   X6.000        Y3.026
   X6.770        Y3.127
   X7.487        Y3.424
   X8.103        Y3.897
   X8.576        Y4.513
   X8.873        Y5.230
   X8.974        Y6.000
   X8.873        Y6.770
   X8.576        Y7.487
   X8.103        Y8.103
G0   Z10.0

G10 P2 L20 X900 Y100
G55
G0   Z4.000
   X7.800        Y4.488
G1   Z-3.000     F150
   Y7.512
G0   Z10.0 X8.103 Y8.103
G1   Z-3.000     F150
   X7.487        Y8.576
   X6.770        Y8.873
   X6.000        Y8.974
   X5.230        Y8.873
   X4.513        Y8.576
   X3.897        Y8.103
   X3.424        Y7.487
   X3.127        Y6.770
   X3.026        Y6.000
   X3.127        Y5.230
   X3.424        Y4.513
   X3.897        Y3.897
   X4.513        Y3.424
   X5.230        Y3.127
   X6.000        Y3.026
   X6.770        Y3.127
   X7.487        Y3.424
   X8.103        Y3.897
   X8.576        Y4.513
   X8.873        Y5.230
   X8.974        Y6.000
   X8.873        Y6.770
   X8.576        Y7.487
   X8.103        Y8.103
G0   Z10.0

G10 P2 L20 X1000 Y100
G55
G0   Z4.000
   X7.800        Y4.488
G1   Z-3.000     F150
   Y7.512
G0   Z10.0 X8.103 Y8.103
G1   Z-3.000     F150
   X7.487        Y8.576
   X6.770        Y8.873
   X6.000        Y8.974
   X5.230        Y8.873
   X4.513        Y8.576
   X3.897        Y8.103
   X3.424        Y7.487
   X3.127        Y6.770
   X3.026        Y6.000
   X3.127        Y5.230
   X3.424        Y4.513
   X3.897        Y3.897
   X4.513        Y3.424
   X5.230        Y3.127
   X6.000        Y3.026
   X6.770        Y3.127
   X7.487        Y3.424
   X8.103        Y3.897
   X8.576        Y4.513
   X8.873        Y5.230
   X8.974        Y6.000
   X8.873        Y6.770
   X8.576        Y7.487
   X8.103        Y8.103
G0   Z10.0

G10 P2 L20 X1100 Y100
G55
G0   Z4.000
   X7.800        Y4.488
G1   Z-3.000     F150
   Y7.512
G0   Z10.0 X8.103 Y8.103
G1   Z-3.000     F150
   X7.487        Y8.576
   X6.770        Y8.873
   X6.000        Y8.974
   X5.230        Y8.873
   X4.513        Y8.576
   X3.897        Y8.103
   X3.424        Y7.487
   X3.127        Y6.770
   X3.026        Y6.000
   X3.127        Y5.230
   X3.424        Y4.513
   X3.897        Y3.897
   X4.513        Y3.424
   X5.230        Y3.127
   X6.000        Y3.026
   X6.770        Y3.127
   X7.487        Y3.424
   X8.103        Y3.897
   X8.576        Y4.513
   X8.873        Y5.230
   X8.974        Y6.000
   X8.873        Y6.770
   X8.576        Y7.487
   X8.103        Y8.103
G0   Z10.0

G10 P2 L20 X100 Y200
G55
G0   Z4.000
   X7.800        Y4.488
G1   Z-3.000     F150
   Y7.512
G0   Z10.0 X8.103 Y8.103
G1   Z-3.000     F150
   X7.487        Y8.576
   X6.770        Y8.873
   X6.000        Y8.974
   X5.230        Y8.873
   X4.513        Y8.576
   X3.897        Y8.103
   X3.424        Y7.487
   X3.127        Y6.770
   X3.026        Y6.000
   X3.127        Y5.230
   X3.424        Y4.513
   X3.897        Y3.897
   X4.513        Y3.424
   X5.230        Y3.127
   X6.000        Y3.026
   X6.770        Y3.127
   X7.487        Y3.424
   X8.103        Y3.897
   X8.576        Y4.513
   X8.873        Y5.230
   X8.974        Y6.000
   X8.873        Y6.770
   X8.576        Y7.487
   X8.103        Y8.103
G0   Z10.0

G10 P2 L20 X200 Y200
G55
G0   Z4.000
   X7.800        Y4.488
G1   Z-3.000     F150
   Y7.512
G0   Z10.0 X8.103 Y8.103
G1   Z-3.000     F150
   X7.487        Y8.576
   X6.770        Y8.873
   X6.000        Y8.974
   X5.230        Y8.873
   X4.513        Y8.576
   X3.897        Y8.103
   X3.424        Y7.487
   X3.127        Y6.770
   X3.026        Y6.000
   X3.127        Y5.230
   X3.424        Y4.513
   X3.897        Y3.897
   X4.513        Y3.424
   X5.230        Y3.127
   X6.000        Y3.026
   X6.770        Y3.127
   X7.487        Y3.424
   X8.103        Y3.897
   X8.576        Y4.513
   X8.873        Y5.230
   X8.974        Y6.000
   X8.873        Y6.770
   X8.576        Y7.487
   X8.103        Y8.103
G0   Z10.0

G10 P2 L20 X300 Y200
G55
G0   Z4.000
   X7.800        Y4.488
G1   Z-3.000     F150
   Y7.512
G0   Z10.0 X8.103 Y8.103
G1   Z-3.000     F150
   X7.487        Y8.576
   X6.770        Y8.873
   X6.000        Y8.974
   X5.230        Y8.873
   X4.513        Y8.576
   X3.897        Y8.103
   X3.424        Y7.487
   X3.127        Y6.770
   X3.026        Y6.000
   X3.127        Y5.230
   X3.424        Y4.513
   X3.897        Y3.897
   X4.513        Y3.424
   X5.230        Y3.127
   X6.000        Y3.026
   X6.770        Y3.127
   X7.487        Y3.424
   X8.103        Y3.897
   X8.576        Y4.513
   X8.873        Y5.230
   X8.974        Y6.000
   X8.873        Y6.770
   X8.576        Y7.487
   X8.103        Y8.103
G0   Z10.0

G10 P2 L20 X400 Y200
G55
G0   Z4.000
   X7.800        Y4.488
G1   Z-3.000     F150
   Y7.512
G0   Z10.0 X8.103 Y8.103
G1   Z-3.000     F150
   X7.487        Y8.576
   X6.770        Y8.873
   X6.000        Y8.974
   X5.230        Y8.873
   X4.513        Y8.576
   X3.897        Y8.103
   X3.424        Y7.487
   X3.127        Y6.770
   X3.026        Y6.000
   X3.127        Y5.230
   X3.424        Y4.513
   X3.897        Y3.897
   X4.513        Y3.424
   X5.230        Y3.127
   X6.000        Y3.026
   X6.770        Y3.127
   X7.487        Y3.424
   X8.103        Y3.897
   X8.576        Y4.513
   X8.873        Y5.230
   X8.974        Y6.000
   X8.873        Y6.770
   X8.576        Y7.487
   X8.103        Y8.103
G0   Z10.0

G10 P2 L20 X500 Y200
G55
G0   Z4.000
   X7.800        Y4.488
G1   Z-3.000     F150
   Y7.512
G0   Z10.0 X8.103 Y8.103
G1   Z-3.000     F150
   X7.487        Y8.576
   X6.770        Y8.873
   X6.000        Y8.974
   X5.230        Y8.873
   X4.513        Y8.576
   X3.897        Y8.103
   X3.424        Y7.487
   X3.127        Y6.770
   X3.026        Y6.000
   X3.127        Y5.230
   X3.424        Y4.513
   X3.897        Y3.897
   X4.513        Y3.424
   X5.230        Y3.127
   X6.000        Y3.026
   X6.770        Y3.127
   X7.487        Y3.424
   X8.103        Y3.897
   X8.576        Y4.513
   X8.873        Y5.230
   X8.974        Y6.000
   X8.873        Y6.770
   X8.576        Y7.487
   X8.103        Y8.103
G0   Z10.0

G10 P2 L20 X600 Y200
G55
G0   Z4.000
   X7.800        Y4.488
G1   Z-3.000     F150
   Y7.512
G0   Z10.0 X8.103 Y8.103
G1   Z-3.000     F150
   X7.487        Y8.576
   X6.770        Y8.873
   X6.000        Y8.974
   X5.230        Y8.873
   X4.513        Y8.576
   X3.897        Y8.103
   X3.424        Y7.487
   X3.127        Y6.770
   X3.026        Y6.000
   X3.127        Y5.230
   X3.424        Y4.513
   X3.897        Y3.897
   X4.513        Y3.424
   X5.230        Y3.127
   X6.000        Y3.026
   X6.770        Y3.127
   X7.487        Y3.424
   X8.103        Y3.897
   X8.576        Y4.513
   X8.873        Y5.230
   X8.974        Y6.000
   X8.873        Y6.770
   X8.576        Y7.487
   X8.103        Y8.103
G0   Z10.0

G10 P2 L20 X700 Y200
G55
G0   Z4.000
   X7.800        Y4.488
G1   Z-3.000     F150
   Y7.512
G0   Z10.0 X8.103 Y8.103
G1   Z-3.000     F150
   X7.487        Y8.576
   X6.770        Y8.873
   X6.000        Y8.974
   X5.230        Y8.873
   X4.513        Y8.576
   X3.897        Y8.103
   X3.424        Y7.487
   X3.127        Y6.770
   X3.026        Y6.000
   X3.127        Y5.230
   X3.424        Y4.513
   X3.897        Y3.897
   X4.513        Y3.424
   X5.230        Y3.127
   X6.000        Y3.026
   X6.770        Y3.127
   X7.487        Y3.424
   X8.103        Y3.897
   X8.576        Y4.513
   X8.873        Y5.230
   X8.974        Y6.000
   X8.873        Y6.770
   X8.576        Y7.487
   X8.103        Y8.103
G0   Z10.0

G10 P2 L20 X800 Y200
G55
G0   Z4.000
   X7.800        Y4.488
G1   Z-3.000     F150
   Y7.512
G0   Z10.0 X8.103 Y8.103
G1   Z-3.000     F150
   X7.487        Y8.576
   X6.770        Y8.873
   X6.000        Y8.974
   X5.230        Y8.873
   X4.513        Y8.576
   X3.897        Y8.103
   X3.424        Y7.487
   X3.127        Y6.770
   X3.026        Y6.000
   X3.127        Y5.230
   X3.424        Y4.513
   X3.897        Y3.897
   X4.513        Y3.424
   X5.230        Y3.127
   X6.000        Y3.026
   X6.770        Y3.127
   X7.487        Y3.424
   X8.103        Y3.897
   X8.576        Y4.513
   X8.873        Y5.230
   X8.974        Y6.000
   X8.873        Y6.770
   X8.576        Y7.487
   X8.103        Y8.103
G0   Z10.0

G10 P2 L20 X900 Y200
G55
G0   Z4.000
   X7.800        Y4.488
G1   Z-3.000     F150
   Y7.512
G0   Z10.0 X8.103 Y8.103
G1   Z-3.000     F150
   X7.487        Y8.576
   X6.770        Y8.873
   X6.000        Y8.974
   X5.230        Y8.873
   X4.513        Y8.576
   X3.897        Y8.103
   X3.424        Y7.487
   X3.127        Y6.770
   X3.026        Y6.000
   X3.127        Y5.230
   X3.424        Y4.513
   X3.897        Y3.897
   X4.513        Y3.424
   X5.230        Y3.127
   X6.000        Y3.026
   X6.770        Y3.127
   X7.487        Y3.424
   X8.103        Y3.897
   X8.576        Y4.513
   X8.873        Y5.230
   X8.974        Y6.000
   X8.873        Y6.770
   X8.576        Y7.487
   X8.103        Y8.103
G0   Z10.0

G10 P2 L20 X1000 Y200
G55
G0   Z4.000
   X7.800        Y4.488
G1   Z-3.000     F150
   Y7.512
G0   Z10.0 X8.103 Y8.103
G1   Z-3.000     F150
   X7.487        Y8.576
   X6.770        Y8.873
   X6.000        Y8.974
   X5.230        Y8.873
   X4.513        Y8.576
   X3.897        Y8.103
   X3.424        Y7.487
   X3.127        Y6.770
   X3.026        Y6.000
   X3.127        Y5.230
   X3.424        Y4.513
   X3.897        Y3.897
   X4.513        Y3.424
   X5.230        Y3.127
   X6.000        Y3.026
   X6.770        Y3.127
   X7.487        Y3.424
   X8.103        Y3.897
   X8.576        Y4.513
   X8.873        Y5.230
   X8.974        Y6.000
   X8.873        Y6.770
   X8.576        Y7.487
   X8.103        Y8.103
G0   Z10.0

G10 P2 L20 X1100 Y200
G55
G0   Z4.000
   X7.800        Y4.488
G1   Z-3.000     F150
   Y7.512
G0   Z10.0 X8.103 Y8.103
G1   Z-3.000     F150
   X7.487        Y8.576
   X6.770        Y8.873
   X6.000        Y8.974
   X5.230        Y8.873
   X4.513        Y8.576
   X3.897        Y8.103
   X3.424        Y7.487
   X3.127        Y6.770
   X3.026        Y6.000
   X3.127        Y5.230
   X3.424        Y4.513
   X3.897        Y3.897
   X4.513        Y3.424
   X5.230        Y3.127
   X6.000        Y3.026
   X6.770        Y3.127
   X7.487        Y3.424
   X8.103        Y3.897
   X8.576        Y4.513
   X8.873        Y5.230
   X8.974        Y6.000
   X8.873        Y6.770
   X8.576        Y7.487
   X8.103        Y8.103
G0   Z10.0

G10 P2 L20 X100 Y300
G55
G0   Z4.000
   X7.800        Y4.488
G1   Z-3.000     F150
   Y7.512
G0   Z10.0 X8.103 Y8.103
G1   Z-3.000     F150
   X7.487        Y8.576
   X6.770        Y8.873
   X6.000        Y8.974
   X5.230        Y8.873
   X4.513        Y8.576
   X3.897        Y8.103
   X3.424        Y7.487
   X3.127        Y6.770
   X3.026        Y6.000
   X3.127        Y5.230
   X3.424        Y4.513
   X3.897        Y3.897
   X4.513        Y3.424
   X5.230        Y3.127
   X6.000        Y3.026
   X6.770        Y3.127
   X7.487        Y3.424
   X8.103        Y3.897
   X8.576        Y4.513
   X8.873        Y5.230
   X8.974        Y6.000
   X8.873        Y6.770
   X8.576        Y7.487
   X8.103        Y8.103
G0   Z10.0

G10 P2 L20 X200 Y300
G55
G0   Z4.000
   X7.800        Y4.488
G1   Z-3.000     F150
   Y7.512
G0   Z10.0 X8.103 Y8.103
G1   Z-3.000     F150
   X7.487        Y8.576
   X6.770        Y8.873
   X6.000        Y8.974
   X5.230        Y8.873
   X4.513        Y8.576
   X3.897        Y8.103
   X3.424        Y7.487
   X3.127        Y6.770
   X3.026        Y6.000
   X3.127        Y5.230
   X3.424        Y4.513
   X3.897        Y3.897
   X4.513        Y3.424
   X5.230        Y3.127
   X6.000        Y3.026
   X6.770        Y3.127
   X7.487        Y3.424
   X8.103        Y3.897
   X8.576        Y4.513
   X8.873        Y5.230
   X8.974        Y6.000
   X8.873        Y6.770
   X8.576        Y7.487
   X8.103        Y8.103
G0   Z10.0

G10 P2 L20 X300 Y300
G55
G0   Z4.000
   X7.800        Y4.488
G1   Z-3.000     F150
   Y7.512
G0   Z10.0 X8.103 Y8.103
G1   Z-3.000     F150
   X7.487        Y8.576
   X6.770        Y8.873
   X6.000        Y8.974
   X5.230        Y8.873
   X4.513        Y8.576
   X3.897        Y8.103
   X3.424        Y7.487
   X3.127        Y6.770
   X3.026        Y6.000
   X3.127        Y5.230
   X3.424        Y4.513
   X3.897        Y3.897
   X4.513        Y3.424
   X5.230        Y3.127
   X6.000        Y3.026
   X6.770        Y3.127
   X7.487        Y3.424
   X8.103        Y3.897
   X8.576        Y4.513
   X8.873        Y5.230
   X8.974        Y6.000
   X8.873        Y6.770
   X8.576        Y7.487
   X8.103        Y8.103
G0   Z10.0

G10 P2 L20 X400 Y300
G55
G0   Z4.000
   X7.800        Y4.488
G1   Z-3.000     F150
   Y7.512
G0   Z10.0 X8.103 Y8.103
G1   Z-3.000     F150
   X7.487        Y8.576
   X6.770        Y8.873
   X6.000        Y8.974
   X5.230        Y8.873
   X4.513        Y8.576
   X3.897        Y8.103
   X3.424        Y7.487
   X3.127        Y6.770
   X3.026        Y6.000
   X3.127        Y5.230
   X3.424        Y4.513
   X3.897        Y3.897
   X4.513        Y3.424
   X5.230        Y3.127
   X6.000        Y3.026
   X6.770        Y3.127
   X7.487        Y3.424
   X8.103        Y3.897
   X8.576        Y4.513
   X8.873        Y5.230
   X8.974        Y6.000
   X8.873        Y6.770
   X8.576        Y7.487
   X8.103        Y8.103
G0   Z10.0

G10 P2 L20 X500 Y300
G55
G0   Z4.000
   X7.800        Y4.488
G1   Z-3.000     F150
   Y7.512
G0   Z10.0 X8.103 Y8.103
G1   Z-3.000     F150
   X7.487        Y8.576
   X6.770        Y8.873
   X6.000        Y8.974
   X5.230        Y8.873
   X4.513        Y8.576
   X3.897        Y8.103
   X3.424        Y7.487
   X3.127        Y6.770
   X3.026        Y6.000
   X3.127        Y5.230
   X3.424        Y4.513
   X3.897        Y3.897
   X4.513        Y3.424
   X5.230        Y3.127
   X6.000        Y3.026
   X6.770        Y3.127
   X7.487        Y3.424
   X8.103        Y3.897
   X8.576        Y4.513
   X8.873        Y5.230
   X8.974        Y6.000
   X8.873        Y6.770
   X8.576        Y7.487
   X8.103        Y8.103
G0   Z10.0

G10 P2 L20 X600 Y300
G55
G0   Z4.000
   X7.800        Y4.488
G1   Z-3.000     F150
   Y7.512
G0   Z10.0 X8.103 Y8.103
G1   Z-3.000     F150
   X7.487        Y8.576
   X6.770        Y8.873
   X6.000        Y8.974
   X5.230        Y8.873
   X4.513        Y8.576
   X3.897        Y8.103
   X3.424        Y7.487
   X3.127        Y6.770
   X3.026        Y6.000
   X3.127        Y5.230
   X3.424        Y4.513
   X3.897        Y3.897
   X4.513        Y3.424
   X5.230        Y3.127
   X6.000        Y3.026
   X6.770        Y3.127
   X7.487        Y3.424
   X8.103        Y3.897
   X8.576        Y4.513
   X8.873        Y5.230
   X8.974        Y6.000
   X8.873        Y6.770
   X8.576        Y7.487
   X8.103        Y8.103
G0   Z10.0

G10 P2 L20 X700 Y300
G55
G0   Z4.000
   X7.800        Y4.488
G1   Z-3.000     F150
   Y7.512
G0   Z10.0 X8.103 Y8.103
G1   Z-3.000     F150
   X7.487        Y8.576
   X6.770        Y8.873
   X6.000        Y8.974
   X5.230        Y8.873
   X4.513        Y8.576
   X3.897        Y8.103
   X3.424        Y7.487
   X3.127        Y6.770
   X3.026        Y6.000
   X3.127        Y5.230
   X3.424        Y4.513
   X3.897        Y3.897
   X4.513        Y3.424
   X5.230        Y3.127
   X6.000        Y3.026
   X6.770        Y3.127
   X7.487        Y3.424
   X8.103        Y3.897
   X8.576        Y4.513
   X8.873        Y5.230
   X8.974        Y6.000
   X8.873        Y6.770
   X8.576        Y7.487
   X8.103        Y8.103
G0   Z10.0

G10 P2 L20 X800 Y300
G55
G0   Z4.000
   X7.800        Y4.488
G1   Z-3.000     F150
   Y7.512
G0   Z10.0 X8.103 Y8.103
G1   Z-3.000     F150
   X7.487        Y8.576
   X6.770        Y8.873
   X6.000        Y8.974
   X5.230        Y8.873
   X4.513        Y8.576
   X3.897        Y8.103
   X3.424        Y7.487
   X3.127        Y6.770
   X3.026        Y6.000
   X3.127        Y5.230
   X3.424        Y4.513
   X3.897        Y3.897
   X4.513        Y3.424
   X5.230        Y3.127
   X6.000        Y3.026
   X6.770        Y3.127
   X7.487        Y3.424
   X8.103        Y3.897
   X8.576        Y4.513
   X8.873        Y5.230
   X8.974        Y6.000
   X8.873        Y6.770
   X8.576        Y7.487
   X8.103        Y8.103
G0   Z10.0

G10 P2 L20 X900 Y300
G55
G0   Z4.000
   X7.800        Y4.488
G1   Z-3.000     F150
   Y7.512
G0   Z10.0 X8.103 Y8.103
G1   Z-3.000     F150
   X7.487        Y8.576
   X6.770        Y8.873
   X6.000        Y8.974
   X5.230        Y8.873
   X4.513        Y8.576
   X3.897        Y8.103
   X3.424        Y7.487
   X3.127        Y6.770
   X3.026        Y6.000
   X3.127        Y5.230
   X3.424        Y4.513
   X3.897        Y3.897
   X4.513        Y3.424
   X5.230        Y3.127
   X6.000        Y3.026
   X6.770        Y3.127
   X7.487        Y3.424
   X8.103        Y3.897
   X8.576        Y4.513
   X8.873        Y5.230
   X8.974        Y6.000
   X8.873        Y6.770
   X8.576        Y7.487
   X8.103        Y8.103
G0   Z10.0

G10 P2 L20 X1000 Y300
G55
G0   Z4.000
   X7.800        Y4.488
G1   Z-3.000     F150
   Y7.512
G0   Z10.0 X8.103 Y8.103
G1   Z-3.000     F150
   X7.487        Y8.576
   X6.770        Y8.873
   X6.000        Y8.974
   X5.230        Y8.873
   X4.513        Y8.576
   X3.897        Y8.103
   X3.424        Y7.487
   X3.127        Y6.770
   X3.026        Y6.000
   X3.127        Y5.230
   X3.424        Y4.513
   X3.897        Y3.897
   X4.513        Y3.424
   X5.230        Y3.127
   X6.000        Y3.026
   X6.770        Y3.127
   X7.487        Y3.424
   X8.103        Y3.897
   X8.576        Y4.513
   X8.873        Y5.230
   X8.974        Y6.000
   X8.873        Y6.770
   X8.576        Y7.487
   X8.103        Y8.103
G0   Z10.0

G10 P2 L20 X1100 Y300
G55
G0   Z4.000
   X7.800        Y4.488
G1   Z-3.000     F150
   Y7.512
G0   Z10.0 X8.103 Y8.103
G1   Z-3.000     F150
   X7.487        Y8.576
   X6.770        Y8.873
   X6.000        Y8.974
   X5.230        Y8.873
   X4.513        Y8.576
   X3.897        Y8.103
   X3.424        Y7.487
   X3.127        Y6.770
   X3.026        Y6.000
   X3.127        Y5.230
   X3.424        Y4.513
   X3.897        Y3.897
   X4.513        Y3.424
   X5.230        Y3.127
   X6.000        Y3.026
   X6.770        Y3.127
   X7.487        Y3.424
   X8.103        Y3.897
   X8.576        Y4.513
   X8.873        Y5.230
   X8.974        Y6.000
   X8.873        Y6.770
   X8.576        Y7.487
   X8.103        Y8.103
G0   Z10.0

G10 P2 L20 X100 Y400
G55
G0   Z4.000
   X7.800        Y4.488
G1   Z-3.000     F150
   Y7.512
G0   Z10.0 X8.103 Y8.103
G1   Z-3.000     F150
   X7.487        Y8.576
   X6.770        Y8.873
   X6.000        Y8.974
   X5.230        Y8.873
   X4.513        Y8.576
   X3.897        Y8.103
   X3.424        Y7.487
   X3.127        Y6.770
   X3.026        Y6.000
   X3.127        Y5.230
   X3.424        Y4.513
   X3.897        Y3.897
   X4.513        Y3.424
   X5.230        Y3.127
   X6.000        Y3.026
   X6.770        Y3.127
   X7.487        Y3.424
   X8.103        Y3.897
   X8.576        Y4.513
   X8.873        Y5.230
   X8.974        Y6.000
   X8.873        Y6.770
   X8.576        Y7.487
   X8.103        Y8.103
G0   Z10.0

G10 P2 L20 X200 Y400
G55
G0   Z4.000
   X7.800        Y4.488
G1   Z-3.000     F150
   Y7.512
G0   Z10.0 X8.103 Y8.103
G1   Z-3.000     F150
   X7.487        Y8.576
   X6.770        Y8.873
   X6.000        Y8.974
   X5.230        Y8.873
   X4.513        Y8.576
   X3.897        Y8.103
   X3.424        Y7.487
   X3.127        Y6.770
   X3.026        Y6.000
   X3.127        Y5.230
   X3.424        Y4.513
   X3.897        Y3.897
   X4.513        Y3.424
   X5.230        Y3.127
   X6.000        Y3.026
   X6.770        Y3.127
   X7.487        Y3.424
   X8.103        Y3.897
   X8.576        Y4.513
   X8.873        Y5.230
   X8.974        Y6.000
   X8.873        Y6.770
   X8.576        Y7.487
   X8.103        Y8.103
G0   Z10.0

G10 P2 L20 X300 Y400
G55
G0   Z4.000
   X7.800        Y4.488
G1   Z-3.000     F150
   Y7.512
G0   Z10.0 X8.103 Y8.103
G1   Z-3.000     F150
   X7.487        Y8.576
   X6.770        Y8.873
   X6.000        Y8.974
   X5.230        Y8.873
   X4.513        Y8.576
   X3.897        Y8.103
   X3.424        Y7.487
   X3.127        Y6.770
   X3.026        Y6.000
   X3.127        Y5.230
   X3.424        Y4.513
   X3.897        Y3.897
   X4.513        Y3.424
   X5.230        Y3.127
   X6.000        Y3.026
   X6.770        Y3.127
   X7.487        Y3.424
   X8.103        Y3.897
   X8.576        Y4.513
   X8.873        Y5.230
   X8.974        Y6.000
   X8.873        Y6.770
   X8.576        Y7.487
   X8.103        Y8.103
G0   Z10.0

G10 P2 L20 X400 Y400
G55
G0   Z4.000
   X7.800        Y4.488
G1   Z-3.000     F150
   Y7.512
G0   Z10.0 X8.103 Y8.103
G1   Z-3.000     F150
   X7.487        Y8.576
   X6.770        Y8.873
   X6.000        Y8.974
   X5.230        Y8.873
   X4.513        Y8.576
   X3.897        Y8.103
   X3.424        Y7.487
   X3.127        Y6.770
   X3.026        Y6.000
   X3.127        Y5.230
   X3.424        Y4.513
   X3.897        Y3.897
   X4.513        Y3.424
   X5.230        Y3.127
   X6.000        Y3.026
   X6.770        Y3.127
   X7.487        Y3.424
   X8.103        Y3.897
   X8.576        Y4.513
   X8.873        Y5.230
   X8.974        Y6.000
   X8.873        Y6.770
   X8.576        Y7.487
   X8.103        Y8.103
G0   Z10.0

G10 P2 L20 X500 Y400
G55
G0   Z4.000
   X7.800        Y4.488
G1   Z-3.000     F150
   Y7.512
G0   Z10.0 X8.103 Y8.103
G1   Z-3.000     F150
   X7.487        Y8.576
   X6.770        Y8.873
   X6.000        Y8.974
   X5.230        Y8.873
   X4.513        Y8.576
   X3.897        Y8.103
   X3.424        Y7.487
   X3.127        Y6.770
   X3.026        Y6.000
   X3.127        Y5.230
   X3.424        Y4.513
   X3.897        Y3.897
   X4.513        Y3.424
   X5.230        Y3.127
   X6.000        Y3.026
   X6.770        Y3.127
   X7.487        Y3.424
   X8.103        Y3.897
   X8.576        Y4.513
   X8.873        Y5.230
   X8.974        Y6.000
   X8.873        Y6.770
   X8.576        Y7.487
   X8.103        Y8.103
G0   Z10.0

G10 P2 L20 X600 Y400
G55
G0   Z4.000
   X7.800        Y4.488
G1   Z-3.000     F150
   Y7.512
G0   Z10.0 X8.103 Y8.103
G1   Z-3.000     F150
   X7.487        Y8.576
   X6.770        Y8.873
   X6.000        Y8.974
   X5.230        Y8.873
   X4.513        Y8.576
   X3.897        Y8.103
   X3.424        Y7.487
   X3.127        Y6.770
   X3.026        Y6.000
   X3.127        Y5.230
   X3.424        Y4.513
   X3.897        Y3.897
   X4.513        Y3.424
   X5.230        Y3.127
   X6.000        Y3.026
   X6.770        Y3.127
   X7.487        Y3.424
   X8.103        Y3.897
   X8.576        Y4.513
   X8.873        Y5.230
   X8.974        Y6.000
   X8.873        Y6.770
   X8.576        Y7.487
   X8.103        Y8.103
G0   Z10.0

G10 P2 L20 X700 Y400
G55
G0   Z4.000
   X7.800        Y4.488
G1   Z-3.000     F150
   Y7.512
G0   Z10.0 X8.103 Y8.103
G1   Z-3.000     F150
   X7.487        Y8.576
   X6.770        Y8.873
   X6.000        Y8.974
   X5.230        Y8.873
   X4.513        Y8.576
   X3.897        Y8.103
   X3.424        Y7.487
   X3.127        Y6.770
   X3.026        Y6.000
   X3.127        Y5.230
   X3.424        Y4.513
   X3.897        Y3.897
   X4.513        Y3.424
   X5.230        Y3.127
   X6.000        Y3.026
   X6.770        Y3.127
   X7.487        Y3.424
   X8.103        Y3.897
   X8.576        Y4.513
   X8.873        Y5.230
   X8.974        Y6.000
   X8.873        Y6.770
   X8.576        Y7.487
   X8.103        Y8.103
G0   Z10.0

G10 P2 L20 X800 Y400
G55
G0   Z4.000
   X7.800        Y4.488
G1   Z-3.000     F150
   Y7.512
G0   Z10.0 X8.103 Y8.103
G1   Z-3.000     F150
   X7.487        Y8.576
   X6.770        Y8.873
   X6.000        Y8.974
   X5.230        Y8.873
   X4.513        Y8.576
   X3.897        Y8.103
   X3.424        Y7.487
   X3.127        Y6.770
   X3.026        Y6.000
   X3.127        Y5.230
   X3.424        Y4.513
   X3.897        Y3.897
   X4.513        Y3.424
   X5.230        Y3.127
   X6.000        Y3.026
   X6.770        Y3.127
   X7.487        Y3.424
   X8.103        Y3.897
   X8.576        Y4.513
   X8.873        Y5.230
   X8.974        Y6.000
   X8.873        Y6.770
   X8.576        Y7.487
   X8.103        Y8.103
G0   Z10.0

G10 P2 L20 X900 Y400
G55
G0   Z4.000
   X7.800        Y4.488
G1   Z-3.000     F150
   Y7.512
G0   Z10.0 X8.103 Y8.103
G1   Z-3.000     F150
   X7.487        Y8.576
   X6.770        Y8.873
   X6.000        Y8.974
   X5.230        Y8.873
   X4.513        Y8.576
   X3.897        Y8.103
   X3.424        Y7.487
   X3.127        Y6.770
   X3.026        Y6.000
   X3.127        Y5.230
   X3.424        Y4.513
   X3.897        Y3.897
   X4.513        Y3.424
   X5.230        Y3.127
   X6.000        Y3.026
   X6.770        Y3.127
   X7.487        Y3.424
   X8.103        Y3.897
   X8.576        Y4.513
   X8.873        Y5.230
   X8.974        Y6.000
   X8.873        Y6.770
   X8.576        Y7.487
   X8.103        Y8.103
G0   Z10.0

G10 P2 L20 X1000 Y400
G55
G0   Z4.000
   X7.800        Y4.488
G1   Z-3.000     F150
   Y7.512
G0   Z10.0 X8.103 Y8.103
G1   Z-3.000     F150
   X7.487        Y8.576
   X6.770        Y8.873
   X6.000        Y8.974
   X5.230        Y8.873
   X4.513        Y8.576
   X3.897        Y8.103
   X3.424        Y7.487
   X3.127        Y6.770
   X3.026        Y6.000
   X3.127        Y5.230
   X3.424        Y4.513
   X3.897        Y3.897
   X4.513        Y3.424
   X5.230        Y3.127
   X6.000        Y3.026
   X6.770        Y3.127
   X7.487        Y3.424
   X8.103        Y3.897
   X8.576        Y4.513
   X8.873        Y5.230
   X8.974        Y6.000
   X8.873        Y6.770
   X8.576        Y7.487
   X8.103        Y8.103
G0   Z10.0

G10 P2 L20 X1100 Y400
G55
G0   Z4.000
   X7.800        Y4.488
G1   Z-3.000     F150
   Y7.512
G0   Z10.0 X8.103 Y8.103
G1   Z-3.000     F150
   X7.487        Y8.576
   X6.770        Y8.873
   X6.000        Y8.974
   X5.230        Y8.873
   X4.513        Y8.576
   X3.897        Y8.103
   X3.424        Y7.487
   X3.127        Y6.770
   X3.026        Y6.000
   X3.127        Y5.230
   X3.424        Y4.513
   X3.897        Y3.897
   X4.513        Y3.424
   X5.230        Y3.127
   X6.000        Y3.026
   X6.770        Y3.127
   X7.487        Y3.424
   X8.103        Y3.897
   X8.576        Y4.513
   X8.873        Y5.230
   X8.974        Y6.000
   X8.873        Y6.770
   X8.576        Y7.487
   X8.103        Y8.103
G0   Z10.0

G10 P2 L20 X100 Y500
G55
G0   Z4.000
   X7.800        Y4.488
G1   Z-3.000     F150
   Y7.512
G0   Z10.0 X8.103 Y8.103
G1   Z-3.000     F150
   X7.487        Y8.576
   X6.770        Y8.873
   X6.000        Y8.974
   X5.230        Y8.873
   X4.513        Y8.576
   X3.897        Y8.103
   X3.424        Y7.487
   X3.127        Y6.770
   X3.026        Y6.000
   X3.127        Y5.230
   X3.424        Y4.513
   X3.897        Y3.897
   X4.513        Y3.424
   X5.230        Y3.127
   X6.000        Y3.026
   X6.770        Y3.127
   X7.487        Y3.424
   X8.103        Y3.897
   X8.576        Y4.513
   X8.873        Y5.230
   X8.974        Y6.000
   X8.873        Y6.770
   X8.576        Y7.487
   X8.103        Y8.103
G0   Z10.0

G10 P2 L20 X200 Y500
G55
G0   Z4.000
   X7.800        Y4.488
G1   Z-3.000     F150
   Y7.512
G0   Z10.0 X8.103 Y8.103
G1   Z-3.000     F150
   X7.487        Y8.576
   X6.770        Y8.873
   X6.000        Y8.974
   X5.230        Y8.873
   X4.513        Y8.576
   X3.897        Y8.103
   X3.424        Y7.487
   X3.127        Y6.770
   X3.026        Y6.000
   X3.127        Y5.230
   X3.424        Y4.513
   X3.897        Y3.897
   X4.513        Y3.424
   X5.230        Y3.127
   X6.000        Y3.026
   X6.770        Y3.127
   X7.487        Y3.424
   X8.103        Y3.897
   X8.576        Y4.513
   X8.873        Y5.230
   X8.974        Y6.000
   X8.873        Y6.770
   X8.576        Y7.487
   X8.103        Y8.103
G0   Z10.0

G10 P2 L20 X300 Y500
G55
G0   Z4.000
   X7.800        Y4.488
G1   Z-3.000     F150
   Y7.512
G0   Z10.0 X8.103 Y8.103
G1   Z-3.000     F150
   X7.487        Y8.576
   X6.770        Y8.873
   X6.000        Y8.974
   X5.230        Y8.873
   X4.513        Y8.576
   X3.897        Y8.103
   X3.424        Y7.487
   X3.127        Y6.770
   X3.026        Y6.000
   X3.127        Y5.230
   X3.424        Y4.513
   X3.897        Y3.897
   X4.513        Y3.424
   X5.230        Y3.127
   X6.000        Y3.026
   X6.770        Y3.127
   X7.487        Y3.424
   X8.103        Y3.897
   X8.576        Y4.513
   X8.873        Y5.230
   X8.974        Y6.000
   X8.873        Y6.770
   X8.576        Y7.487
   X8.103        Y8.103
G0   Z10.0

G10 P2 L20 X400 Y500
G55
G0   Z4.000
   X7.800        Y4.488
G1   Z-3.000     F150
   Y7.512
G0   Z10.0 X8.103 Y8.103
G1   Z-3.000     F150
   X7.487        Y8.576
   X6.770        Y8.873
   X6.000        Y8.974
   X5.230        Y8.873
   X4.513        Y8.576
   X3.897        Y8.103
   X3.424        Y7.487
   X3.127        Y6.770
   X3.026        Y6.000
   X3.127        Y5.230
   X3.424        Y4.513
   X3.897        Y3.897
   X4.513        Y3.424
   X5.230        Y3.127
   X6.000        Y3.026
   X6.770        Y3.127
   X7.487        Y3.424
   X8.103        Y3.897
   X8.576        Y4.513
   X8.873        Y5.230
   X8.974        Y6.000
   X8.873        Y6.770
   X8.576        Y7.487
   X8.103        Y8.103
G0   Z10.0

G10 P2 L20 X500 Y500
G55
G0   Z4.000
   X7.800        Y4.488
G1   Z-3.000     F150
   Y7.512
G0   Z10.0 X8.103 Y8.103
G1   Z-3.000     F150
   X7.487        Y8.576
   X6.770        Y8.873
   X6.000        Y8.974
   X5.230        Y8.873
   X4.513        Y8.576
   X3.897        Y8.103
   X3.424        Y7.487
   X3.127        Y6.770
   X3.026        Y6.000
   X3.127        Y5.230
   X3.424        Y4.513
   X3.897        Y3.897
   X4.513        Y3.424
   X5.230        Y3.127
   X6.000        Y3.026
   X6.770        Y3.127
   X7.487        Y3.424
   X8.103        Y3.897
   X8.576        Y4.513
   X8.873        Y5.230
   X8.974        Y6.000
   X8.873        Y6.770
   X8.576        Y7.487
   X8.103        Y8.103
G0   Z10.0

G10 P2 L20 X600 Y500
G55
G0   Z4.000
   X7.800        Y4.488
G1   Z-3.000     F150
   Y7.512
G0   Z10.0 X8.103 Y8.103
G1   Z-3.000     F150
   X7.487        Y8.576
   X6.770        Y8.873
   X6.000        Y8.974
   X5.230        Y8.873
   X4.513        Y8.576
   X3.897        Y8.103
   X3.424        Y7.487
   X3.127        Y6.770
   X3.026        Y6.000
   X3.127        Y5.230
   X3.424        Y4.513
   X3.897        Y3.897
   X4.513        Y3.424
   X5.230        Y3.127
   X6.000        Y3.026
   X6.770        Y3.127
   X7.487        Y3.424
   X8.103        Y3.897
   X8.576        Y4.513
   X8.873        Y5.230
   X8.974        Y6.000
   X8.873        Y6.770
   X8.576        Y7.487
   X8.103        Y8.103
G0   Z10.0

G10 P2 L20 X700 Y500
G55
G0   Z4.000
   X7.800        Y4.488
G1   Z-3.000     F150
   Y7.512
G0   Z10.0 X8.103 Y8.103
G1   Z-3.000     F150
   X7.487        Y8.576
   X6.770        Y8.873
   X6.000        Y8.974
   X5.230        Y8.873
   X4.513        Y8.576
   X3.897        Y8.103
   X3.424        Y7.487
   X3.127        Y6.770
   X3.026        Y6.000
   X3.127        Y5.230
   X3.424        Y4.513
   X3.897        Y3.897
   X4.513        Y3.424
   X5.230        Y3.127
   X6.000        Y3.026
   X6.770        Y3.127
   X7.487        Y3.424
   X8.103        Y3.897
   X8.576        Y4.513
   X8.873        Y5.230
   X8.974        Y6.000
   X8.873        Y6.770
   X8.576        Y7.487
   X8.103        Y8.103
G0   Z10.0

G10 P2 L20 X800 Y500
G55
G0   Z4.000
   X7.800        Y4.488
G1   Z-3.000     F150
   Y7.512
G0   Z10.0 X8.103 Y8.103
G1   Z-3.000     F150
   X7.487        Y8.576
   X6.770        Y8.873
   X6.000        Y8.974
   X5.230        Y8.873
   X4.513        Y8.576
   X3.897        Y8.103
   X3.424        Y7.487
   X3.127        Y6.770
   X3.026        Y6.000
   X3.127        Y5.230
   X3.424        Y4.513
   X3.897        Y3.897
   X4.513        Y3.424
   X5.230        Y3.127
   X6.000        Y3.026
   X6.770        Y3.127
   X7.487        Y3.424
   X8.103        Y3.897
   X8.576        Y4.513
   X8.873        Y5.230
   X8.974        Y6.000
   X8.873        Y6.770
   X8.576        Y7.487
   X8.103        Y8.103
G0   Z10.0

G10 P2 L20 X900 Y500
G55
G0   Z4.000
   X7.800        Y4.488
G1   Z-3.000     F150
   Y7.512
G0   Z10.0 X8.103 Y8.103
G1   Z-3.000     F150
   X7.487        Y8.576
   X6.770        Y8.873
   X6.000        Y8.974
   X5.230        Y8.873
   X4.513        Y8.576
   X3.897        Y8.103
   X3.424        Y7.487
   X3.127        Y6.770
   X3.026        Y6.000
   X3.127        Y5.230
   X3.424        Y4.513
   X3.897        Y3.897
   X4.513        Y3.424
   X5.230        Y3.127
   X6.000        Y3.026
   X6.770        Y3.127
   X7.487        Y3.424
   X8.103        Y3.897
   X8.576        Y4.513
   X8.873        Y5.230
   X8.974        Y6.000
   X8.873        Y6.770
   X8.576        Y7.487
   X8.103        Y8.103
G0   Z10.0

G10 P2 L20 X1000 Y500
G55
G0   Z4.000
   X7.800        Y4.488
G1   Z-3.000     F150
   Y7.512
G0   Z10.0 X8.103 Y8.103
G1   Z-3.000     F150
   X7.487        Y8.576
   X6.770        Y8.873
   X6.000        Y8.974
   X5.230        Y8.873
   X4.513        Y8.576
   X3.897        Y8.103
   X3.424        Y7.487
   X3.127        Y6.770
   X3.026        Y6.000
   X3.127        Y5.230
   X3.424        Y4.513
   X3.897        Y3.897
   X4.513        Y3.424
   X5.230        Y3.127
   X6.000        Y3.026
   X6.770        Y3.127
   X7.487        Y3.424
   X8.103        Y3.897
   X8.576        Y4.513
   X8.873        Y5.230
   X8.974        Y6.000
   X8.873        Y6.770
   X8.576        Y7.487
   X8.103        Y8.103
G0   Z10.0

G10 P2 L20 X1100 Y500
G55
G0   Z4.000
   X7.800        Y4.488
G1   Z-3.000     F150
   Y7.512
G0   Z10.0 X8.103 Y8.103
G1   Z-3.000     F150
   X7.487        Y8.576
   X6.770        Y8.873
   X6.000        Y8.974
   X5.230        Y8.873
   X4.513        Y8.576
   X3.897        Y8.103
   X3.424        Y7.487
   X3.127        Y6.770
   X3.026        Y6.000
   X3.127        Y5.230
   X3.424        Y4.513
   X3.897        Y3.897
   X4.513        Y3.424
   X5.230        Y3.127
   X6.000        Y3.026
   X6.770        Y3.127
   X7.487        Y3.424
   X8.103        Y3.897
   X8.576        Y4.513
   X8.873        Y5.230
   X8.974        Y6.000
   X8.873        Y6.770
   X8.576        Y7.487
   X8.103        Y8.103
G0   Z10.0

G10 P2 L20 X100 Y600
G55
G0   Z4.000
   X7.800        Y4.488
G1   Z-3.000     F150
   Y7.512
G0   Z10.0 X8.103 Y8.103
G1   Z-3.000     F150
   X7.487        Y8.576
   X6.770        Y8.873
   X6.000        Y8.974
   X5.230        Y8.873
   X4.513        Y8.576
   X3.897        Y8.103
   X3.424        Y7.487
   X3.127        Y6.770
   X3.026        Y6.000
   X3.127        Y5.230
   X3.424        Y4.513
   X3.897        Y3.897
   X4.513        Y3.424
   X5.230        Y3.127
   X6.000        Y3.026
   X6.770        Y3.127
   X7.487        Y3.424
   X8.103        Y3.897
   X8.576        Y4.513
   X8.873        Y5.230
   X8.974        Y6.000
   X8.873        Y6.770
   X8.576        Y7.487
   X8.103        Y8.103
G0   Z10.0

G10 P2 L20 X200 Y600
G55
G0   Z4.000
   X7.800        Y4.488
G1   Z-3.000     F150
   Y7.512
G0   Z10.0 X8.103 Y8.103
G1   Z-3.000     F150
   X7.487        Y8.576
   X6.770        Y8.873
   X6.000        Y8.974
   X5.230        Y8.873
   X4.513        Y8.576
   X3.897        Y8.103
   X3.424        Y7.487
   X3.127        Y6.770
   X3.026        Y6.000
   X3.127        Y5.230
   X3.424        Y4.513
   X3.897        Y3.897
   X4.513        Y3.424
   X5.230        Y3.127
   X6.000        Y3.026
   X6.770        Y3.127
   X7.487        Y3.424
   X8.103        Y3.897
   X8.576        Y4.513
   X8.873        Y5.230
   X8.974        Y6.000
   X8.873        Y6.770
   X8.576        Y7.487
   X8.103        Y8.103
G0   Z10.0

G10 P2 L20 X300 Y600
G55
G0   Z4.000
   X7.800        Y4.488
G1   Z-3.000     F150
   Y7.512
G0   Z10.0 X8.103 Y8.103
G1   Z-3.000     F150
   X7.487        Y8.576
   X6.770        Y8.873
   X6.000        Y8.974
   X5.230        Y8.873
   X4.513        Y8.576
   X3.897        Y8.103
   X3.424        Y7.487
   X3.127        Y6.770
   X3.026        Y6.000
   X3.127        Y5.230
   X3.424        Y4.513
   X3.897        Y3.897
   X4.513        Y3.424
   X5.230        Y3.127
   X6.000        Y3.026
   X6.770        Y3.127
   X7.487        Y3.424
   X8.103        Y3.897
   X8.576        Y4.513
   X8.873        Y5.230
   X8.974        Y6.000
   X8.873        Y6.770
   X8.576        Y7.487
   X8.103        Y8.103
G0   Z10.0

G10 P2 L20 X400 Y600
G55
G0   Z4.000
   X7.800        Y4.488
G1   Z-3.000     F150
   Y7.512
G0   Z10.0 X8.103 Y8.103
G1   Z-3.000     F150
   X7.487        Y8.576
   X6.770        Y8.873
   X6.000        Y8.974
   X5.230        Y8.873
   X4.513        Y8.576
   X3.897        Y8.103
   X3.424        Y7.487
   X3.127        Y6.770
   X3.026        Y6.000
   X3.127        Y5.230
   X3.424        Y4.513
   X3.897        Y3.897
   X4.513        Y3.424
   X5.230        Y3.127
   X6.000        Y3.026
   X6.770        Y3.127
   X7.487        Y3.424
   X8.103        Y3.897
   X8.576        Y4.513
   X8.873        Y5.230
   X8.974        Y6.000
   X8.873        Y6.770
   X8.576        Y7.487
   X8.103        Y8.103
G0   Z10.0

G10 P2 L20 X500 Y600
G55
G0   Z4.000
   X7.800        Y4.488
G1   Z-3.000     F150
   Y7.512
G0   Z10.0 X8.103 Y8.103
G1   Z-3.000     F150
   X7.487        Y8.576
   X6.770        Y8.873
   X6.000        Y8.974
   X5.230        Y8.873
   X4.513        Y8.576
   X3.897        Y8.103
   X3.424        Y7.487
   X3.127        Y6.770
   X3.026        Y6.000
   X3.127        Y5.230
   X3.424        Y4.513
   X3.897        Y3.897
   X4.513        Y3.424
   X5.230        Y3.127
   X6.000        Y3.026
   X6.770        Y3.127
   X7.487        Y3.424
   X8.103        Y3.897
   X8.576        Y4.513
   X8.873        Y5.230
   X8.974        Y6.000
   X8.873        Y6.770
   X8.576        Y7.487
   X8.103        Y8.103
G0   Z10.0

G10 P2 L20 X600 Y600
G55
G0   Z4.000
   X7.800        Y4.488
G1   Z-3.000     F150
   Y7.512
G0   Z10.0 X8.103 Y8.103
G1   Z-3.000     F150
   X7.487        Y8.576
   X6.770        Y8.873
   X6.000        Y8.974
   X5.230        Y8.873
   X4.513        Y8.576
   X3.897        Y8.103
   X3.424        Y7.487
   X3.127        Y6.770
   X3.026        Y6.000
   X3.127        Y5.230
   X3.424        Y4.513
   X3.897        Y3.897
   X4.513        Y3.424
   X5.230        Y3.127
   X6.000        Y3.026
   X6.770        Y3.127
   X7.487        Y3.424
   X8.103        Y3.897
   X8.576        Y4.513
   X8.873        Y5.230
   X8.974        Y6.000
   X8.873        Y6.770
   X8.576        Y7.487
   X8.103        Y8.103
G0   Z10.0

G10 P2 L20 X700 Y600
G55
G0   Z4.000
   X7.800        Y4.488
G1   Z-3.000     F150
   Y7.512
G0   Z10.0 X8.103 Y8.103
G1   Z-3.000     F150
   X7.487        Y8.576
   X6.770        Y8.873
   X6.000        Y8.974
   X5.230        Y8.873
   X4.513        Y8.576
   X3.897        Y8.103
   X3.424        Y7.487
   X3.127        Y6.770
   X3.026        Y6.000
   X3.127        Y5.230
   X3.424        Y4.513
   X3.897        Y3.897
   X4.513        Y3.424
   X5.230        Y3.127
   X6.000        Y3.026
   X6.770        Y3.127
   X7.487        Y3.424
   X8.103        Y3.897
   X8.576        Y4.513
   X8.873        Y5.230
   X8.974        Y6.000
   X8.873        Y6.770
   X8.576        Y7.487
   X8.103        Y8.103
G0   Z10.0

G10 P2 L20 X800 Y600
G55
G0   Z4.000
   X7.800        Y4.488
G1   Z-3.000     F150
   Y7.512
G0   Z10.0 X8.103 Y8.103
G1   Z-3.000     F150
   X7.487        Y8.576
   X6.770        Y8.873
   X6.000        Y8.974
   X5.230        Y8.873
   X4.513        Y8.576
   X3.897        Y8.103
   X3.424        Y7.487
   X3.127        Y6.770
   X3.026        Y6.000
   X3.127        Y5.230
   X3.424        Y4.513
   X3.897        Y3.897
   X4.513        Y3.424
   X5.230        Y3.127
   X6.000        Y3.026
   X6.770        Y3.127
   X7.487        Y3.424
   X8.103        Y3.897
   X8.576        Y4.513
   X8.873        Y5.230
   X8.974        Y6.000
   X8.873        Y6.770
   X8.576        Y7.487
   X8.103        Y8.103
G0   Z10.0

G10 P2 L20 X900 Y600
G55
G0   Z4.000
   X7.800        Y4.488
G1   Z-3.000     F150
   Y7.512
G0   Z10.0 X8.103 Y8.103
G1   Z-3.000     F150
   X7.487        Y8.576
   X6.770        Y8.873
   X6.000        Y8.974
   X5.230        Y8.873
   X4.513        Y8.576
   X3.897        Y8.103
   X3.424        Y7.487
   X3.127        Y6.770
   X3.026        Y6.000
   X3.127        Y5.230
   X3.424        Y4.513
   X3.897        Y3.897
   X4.513        Y3.424
   X5.230        Y3.127
   X6.000        Y3.026
   X6.770        Y3.127
   X7.487        Y3.424
   X8.103        Y3.897
   X8.576        Y4.513
   X8.873        Y5.230
   X8.974        Y6.000
   X8.873        Y6.770
   X8.576        Y7.487
   X8.103        Y8.103
G0   Z10.0

G10 P2 L20 X1000 Y600
G55
G0   Z4.000
   X7.800        Y4.488
G1   Z-3.000     F150
   Y7.512
G0   Z10.0 X8.103 Y8.103
G1   Z-3.000     F150
   X7.487        Y8.576
   X6.770        Y8.873
   X6.000        Y8.974
   X5.230        Y8.873
   X4.513        Y8.576
   X3.897        Y8.103
   X3.424        Y7.487
   X3.127        Y6.770
   X3.026        Y6.000
   X3.127        Y5.230
   X3.424        Y4.513
   X3.897        Y3.897
   X4.513        Y3.424
   X5.230        Y3.127
   X6.000        Y3.026
   X6.770        Y3.127
   X7.487        Y3.424
   X8.103        Y3.897
   X8.576        Y4.513
   X8.873        Y5.230
   X8.974        Y6.000
   X8.873        Y6.770
   X8.576        Y7.487
   X8.103        Y8.103
G0   Z10.0

G10 P2 L20 X1100 Y600
G55
G0   Z4.000
   X7.800        Y4.488
G1   Z-3.000     F150
   Y7.512
G0   Z10.0 X8.103 Y8.103
G1   Z-3.000     F150
   X7.487        Y8.576
   X6.770        Y8.873
   X6.000        Y8.974
   X5.230        Y8.873
   X4.513        Y8.576
   X3.897        Y8.103
   X3.424        Y7.487
   X3.127        Y6.770
   X3.026        Y6.000
   X3.127        Y5.230
   X3.424        Y4.513
   X3.897        Y3.897
   X4.513        Y3.424
   X5.230        Y3.127
   X6.000        Y3.026
   X6.770        Y3.127
   X7.487        Y3.424
   X8.103        Y3.897
   X8.576        Y4.513
   X8.873        Y5.230
   X8.974        Y6.000
   X8.873        Y6.770
   X8.576        Y7.487
   X8.103        Y8.103
G0   Z10.0

G10 P2 L20 X100 Y700
G55
G0   Z4.000
   X7.800        Y4.488
G1   Z-3.000     F150
   Y7.512
G0   Z10.0 X8.103 Y8.103
G1   Z-3.000     F150
   X7.487        Y8.576
   X6.770        Y8.873
   X6.000        Y8.974
   X5.230        Y8.873
   X4.513        Y8.576
   X3.897        Y8.103
   X3.424        Y7.487
   X3.127        Y6.770
   X3.026        Y6.000
   X3.127        Y5.230
   X3.424        Y4.513
   X3.897        Y3.897
   X4.513        Y3.424
   X5.230        Y3.127
   X6.000        Y3.026
   X6.770        Y3.127
   X7.487        Y3.424
   X8.103        Y3.897
   X8.576        Y4.513
   X8.873        Y5.230
   X8.974        Y6.000
   X8.873        Y6.770
   X8.576        Y7.487
   X8.103        Y8.103
G0   Z10.0

G10 P2 L20 X200 Y700
G55
G0   Z4.000
   X7.800        Y4.488
G1   Z-3.000     F150
   Y7.512
G0   Z10.0 X8.103 Y8.103
G1   Z-3.000     F150
   X7.487        Y8.576
   X6.770        Y8.873
   X6.000        Y8.974
   X5.230        Y8.873
   X4.513        Y8.576
   X3.897        Y8.103
   X3.424        Y7.487
   X3.127        Y6.770
   X3.026        Y6.000
   X3.127        Y5.230
   X3.424        Y4.513
   X3.897        Y3.897
   X4.513        Y3.424
   X5.230        Y3.127
   X6.000        Y3.026
   X6.770        Y3.127
   X7.487        Y3.424
   X8.103        Y3.897
   X8.576        Y4.513
   X8.873        Y5.230
   X8.974        Y6.000
   X8.873        Y6.770
   X8.576        Y7.487
   X8.103        Y8.103
G0   Z10.0

G10 P2 L20 X300 Y700
G55
G0   Z4.000
   X7.800        Y4.488
G1   Z-3.000     F150
   Y7.512
G0   Z10.0 X8.103 Y8.103
G1   Z-3.000     F150
   X7.487        Y8.576
   X6.770        Y8.873
   X6.000        Y8.974
   X5.230        Y8.873
   X4.513        Y8.576
   X3.897        Y8.103
   X3.424        Y7.487
   X3.127        Y6.770
   X3.026        Y6.000
   X3.127        Y5.230
   X3.424        Y4.513
   X3.897        Y3.897
   X4.513        Y3.424
   X5.230        Y3.127
   X6.000        Y3.026
   X6.770        Y3.127
   X7.487        Y3.424
   X8.103        Y3.897
   X8.576        Y4.513
   X8.873        Y5.230
   X8.974        Y6.000
   X8.873        Y6.770
   X8.576        Y7.487
   X8.103        Y8.103
G0   Z10.0

G10 P2 L20 X400 Y700
G55
G0   Z4.000
   X7.800        Y4.488
G1   Z-3.000     F150
   Y7.512
G0   Z10.0 X8.103 Y8.103
G1   Z-3.000     F150
   X7.487        Y8.576
   X6.770        Y8.873
   X6.000        Y8.974
   X5.230        Y8.873
   X4.513        Y8.576
   X3.897        Y8.103
   X3.424        Y7.487
   X3.127        Y6.770
   X3.026        Y6.000
   X3.127        Y5.230
   X3.424        Y4.513
   X3.897        Y3.897
   X4.513        Y3.424
   X5.230        Y3.127
   X6.000        Y3.026
   X6.770        Y3.127
   X7.487        Y3.424
   X8.103        Y3.897
   X8.576        Y4.513
   X8.873        Y5.230
   X8.974        Y6.000
   X8.873        Y6.770
   X8.576        Y7.487
   X8.103        Y8.103
G0   Z10.0

G10 P2 L20 X500 Y700
G55
G0   Z4.000
   X7.800        Y4.488
G1   Z-3.000     F150
   Y7.512
G0   Z10.0 X8.103 Y8.103
G1   Z-3.000     F150
   X7.487        Y8.576
   X6.770        Y8.873
   X6.000        Y8.974
   X5.230        Y8.873
   X4.513        Y8.576
   X3.897        Y8.103
   X3.424        Y7.487
   X3.127        Y6.770
   X3.026        Y6.000
   X3.127        Y5.230
   X3.424        Y4.513
   X3.897        Y3.897
   X4.513        Y3.424
   X5.230        Y3.127
   X6.000        Y3.026
   X6.770        Y3.127
   X7.487        Y3.424
   X8.103        Y3.897
   X8.576        Y4.513
   X8.873        Y5.230
   X8.974        Y6.000
   X8.873        Y6.770
   X8.576        Y7.487
   X8.103        Y8.103
G0   Z10.0

G10 P2 L20 X600 Y700
G55
G0   Z4.000
   X7.800        Y4.488
G1   Z-3.000     F150
   Y7.512
G0   Z10.0 X8.103 Y8.103
G1   Z-3.000     F150
   X7.487        Y8.576
   X6.770        Y8.873
   X6.000        Y8.974
   X5.230        Y8.873
   X4.513        Y8.576
   X3.897        Y8.103
   X3.424        Y7.487
   X3.127        Y6.770
   X3.026        Y6.000
   X3.127        Y5.230
   X3.424        Y4.513
   X3.897        Y3.897
   X4.513        Y3.424
   X5.230        Y3.127
   X6.000        Y3.026
   X6.770        Y3.127
   X7.487        Y3.424
   X8.103        Y3.897
   X8.576        Y4.513
   X8.873        Y5.230
   X8.974        Y6.000
   X8.873        Y6.770
   X8.576        Y7.487
   X8.103        Y8.103
G0   Z10.0

G10 P2 L20 X700 Y700
G55
G0   Z4.000
   X7.800        Y4.488
G1   Z-3.000     F150
   Y7.512
G0   Z10.0 X8.103 Y8.103
G1   Z-3.000     F150
   X7.487        Y8.576
   X6.770        Y8.873
   X6.000        Y8.974
   X5.230        Y8.873
   X4.513        Y8.576
   X3.897        Y8.103
   X3.424        Y7.487
   X3.127        Y6.770
   X3.026        Y6.000
   X3.127        Y5.230
   X3.424        Y4.513
   X3.897        Y3.897
   X4.513        Y3.424
   X5.230        Y3.127
   X6.000        Y3.026
   X6.770        Y3.127
   X7.487        Y3.424
   X8.103        Y3.897
   X8.576        Y4.513
   X8.873        Y5.230
   X8.974        Y6.000
   X8.873        Y6.770
   X8.576        Y7.487
   X8.103        Y8.103
G0   Z10.0

G10 P2 L20 X800 Y700
G55
G0   Z4.000
   X7.800        Y4.488
G1   Z-3.000     F150
   Y7.512
G0   Z10.0 X8.103 Y8.103
G1   Z-3.000     F150
   X7.487        Y8.576
   X6.770        Y8.873
   X6.000        Y8.974
   X5.230        Y8.873
   X4.513        Y8.576
   X3.897        Y8.103
   X3.424        Y7.487
   X3.127        Y6.770
   X3.026        Y6.000
   X3.127        Y5.230
   X3.424        Y4.513
   X3.897        Y3.897
   X4.513        Y3.424
   X5.230        Y3.127
   X6.000        Y3.026
   X6.770        Y3.127
   X7.487        Y3.424
   X8.103        Y3.897
   X8.576        Y4.513
   X8.873        Y5.230
   X8.974        Y6.000
   X8.873        Y6.770
   X8.576        Y7.487
   X8.103        Y8.103
G0   Z10.0

G10 P2 L20 X900 Y700
G55
G0   Z4.000
   X7.800        Y4.488
G1   Z-3.000     F150
   Y7.512
G0   Z10.0 X8.103 Y8.103
G1   Z-3.000     F150
   X7.487        Y8.576
   X6.770        Y8.873
   X6.000        Y8.974
   X5.230        Y8.873
   X4.513        Y8.576
   X3.897        Y8.103
   X3.424        Y7.487
   X3.127        Y6.770
   X3.026        Y6.000
   X3.127        Y5.230
   X3.424        Y4.513
   X3.897        Y3.897
   X4.513        Y3.424
   X5.230        Y3.127
   X6.000        Y3.026
   X6.770        Y3.127
   X7.487        Y3.424
   X8.103        Y3.897
   X8.576        Y4.513
   X8.873        Y5.230
   X8.974        Y6.000
   X8.873        Y6.770
   X8.576        Y7.487
   X8.103        Y8.103
G0   Z10.0

G10 P2 L20 X1000 Y700
G55
G0   Z4.000
   X7.800        Y4.488
G1   Z-3.000     F150
   Y7.512
G0   Z10.0 X8.103 Y8.103
G1   Z-3.000     F150
   X7.487        Y8.576
   X6.770        Y8.873
   X6.000        Y8.974
   X5.230        Y8.873
   X4.513        Y8.576
   X3.897        Y8.103
   X3.424        Y7.487
   X3.127        Y6.770
   X3.026        Y6.000
   X3.127        Y5.230
   X3.424        Y4.513
   X3.897        Y3.897
   X4.513        Y3.424
   X5.230        Y3.127
   X6.000        Y3.026
   X6.770        Y3.127
   X7.487        Y3.424
   X8.103        Y3.897
   X8.576        Y4.513
   X8.873        Y5.230
   X8.974        Y6.000
   X8.873        Y6.770
   X8.576        Y7.487
   X8.103        Y8.103
G0   Z10.0

G10 P2 L20 X1100 Y700
G55
G0   Z4.000
   X7.800        Y4.488
G1   Z-3.000     F150
   Y7.512
G0   Z10.0 X8.103 Y8.103
G1   Z-3.000     F150
   X7.487        Y8.576
   X6.770        Y8.873
   X6.000        Y8.974
   X5.230        Y8.873
   X4.513        Y8.576
   X3.897        Y8.103
   X3.424        Y7.487
   X3.127        Y6.770
   X3.026        Y6.000
   X3.127        Y5.230
   X3.424        Y4.513
   X3.897        Y3.897
   X4.513        Y3.424
   X5.230        Y3.127
   X6.000        Y3.026
   X6.770        Y3.127
   X7.487        Y3.424
   X8.103        Y3.897
   X8.576        Y4.513
   X8.873        Y5.230
   X8.974        Y6.000
   X8.873        Y6.770
   X8.576        Y7.487
   X8.103        Y8.103
G0   Z10.0

G10 P2 L20 X100 Y800
G55
G0   Z4.000
   X7.800        Y4.488
G1   Z-3.000     F150
   Y7.512
G0   Z10.0 X8.103 Y8.103
G1   Z-3.000     F150
   X7.487        Y8.576
   X6.770        Y8.873
   X6.000        Y8.974
   X5.230        Y8.873
   X4.513        Y8.576
   X3.897        Y8.103
   X3.424        Y7.487
   X3.127        Y6.770
   X3.026        Y6.000
   X3.127        Y5.230
   X3.424        Y4.513
   X3.897        Y3.897
   X4.513        Y3.424
   X5.230        Y3.127
   X6.000        Y3.026
   X6.770        Y3.127
   X7.487        Y3.424
   X8.103        Y3.897
   X8.576        Y4.513
   X8.873        Y5.230
   X8.974        Y6.000
   X8.873        Y6.770
   X8.576        Y7.487
   X8.103        Y8.103
G0   Z10.0

G10 P2 L20 X200 Y800
G55
G0   Z4.000
   X7.800        Y4.488
G1   Z-3.000     F150
   Y7.512
G0   Z10.0 X8.103 Y8.103
G1   Z-3.000     F150
   X7.487        Y8.576
   X6.770        Y8.873
   X6.000        Y8.974
   X5.230        Y8.873
   X4.513        Y8.576
   X3.897        Y8.103
   X3.424        Y7.487
   X3.127        Y6.770
   X3.026        Y6.000
   X3.127        Y5.230
   X3.424        Y4.513
   X3.897        Y3.897
   X4.513        Y3.424
   X5.230        Y3.127
   X6.000        Y3.026
   X6.770        Y3.127
   X7.487        Y3.424
   X8.103        Y3.897
   X8.576        Y4.513
   X8.873        Y5.230
   X8.974        Y6.000
   X8.873        Y6.770
   X8.576        Y7.487
   X8.103        Y8.103
G0   Z10.0

G10 P2 L20 X300 Y800
G55
G0   Z4.000
   X7.800        Y4.488
G1   Z-3.000     F150
   Y7.512
G0   Z10.0 X8.103 Y8.103
G1   Z-3.000     F150
   X7.487        Y8.576
   X6.770        Y8.873
   X6.000        Y8.974
   X5.230        Y8.873
   X4.513        Y8.576
   X3.897        Y8.103
   X3.424        Y7.487
   X3.127        Y6.770
   X3.026        Y6.000
   X3.127        Y5.230
   X3.424        Y4.513
   X3.897        Y3.897
   X4.513        Y3.424
   X5.230        Y3.127
   X6.000        Y3.026
   X6.770        Y3.127
   X7.487        Y3.424
   X8.103        Y3.897
   X8.576        Y4.513
   X8.873        Y5.230
   X8.974        Y6.000
   X8.873        Y6.770
   X8.576        Y7.487
   X8.103        Y8.103
G0   Z10.0

G10 P2 L20 X400 Y800
G55
G0   Z4.000
   X7.800        Y4.488
G1   Z-3.000     F150
   Y7.512
G0   Z10.0 X8.103 Y8.103
G1   Z-3.000     F150
   X7.487        Y8.576
   X6.770        Y8.873
   X6.000        Y8.974
   X5.230        Y8.873
   X4.513        Y8.576
   X3.897        Y8.103
   X3.424        Y7.487
   X3.127        Y6.770
   X3.026        Y6.000
   X3.127        Y5.230
   X3.424        Y4.513
   X3.897        Y3.897
   X4.513        Y3.424
   X5.230        Y3.127
   X6.000        Y3.026
   X6.770        Y3.127
   X7.487        Y3.424
   X8.103        Y3.897
   X8.576        Y4.513
   X8.873        Y5.230
   X8.974        Y6.000
   X8.873        Y6.770
   X8.576        Y7.487
   X8.103        Y8.103
G0   Z10.0

G10 P2 L20 X500 Y800
G55
G0   Z4.000
   X7.800        Y4.488
G1   Z-3.000     F150
   Y7.512
G0   Z10.0 X8.103 Y8.103
G1   Z-3.000     F150
   X7.487        Y8.576
   X6.770        Y8.873
   X6.000        Y8.974
   X5.230        Y8.873
   X4.513        Y8.576
   X3.897        Y8.103
   X3.424        Y7.487
   X3.127        Y6.770
   X3.026        Y6.000
   X3.127        Y5.230
   X3.424        Y4.513
   X3.897        Y3.897
   X4.513        Y3.424
   X5.230        Y3.127
   X6.000        Y3.026
   X6.770        Y3.127
   X7.487        Y3.424
   X8.103        Y3.897
   X8.576        Y4.513
   X8.873        Y5.230
   X8.974        Y6.000
   X8.873        Y6.770
   X8.576        Y7.487
   X8.103        Y8.103
G0   Z10.0

G10 P2 L20 X600 Y800
G55
G0   Z4.000
   X7.800        Y4.488
G1   Z-3.000     F150
   Y7.512
G0   Z10.0 X8.103 Y8.103
G1   Z-3.000     F150
   X7.487        Y8.576
   X6.770        Y8.873
   X6.000        Y8.974
   X5.230        Y8.873
   X4.513        Y8.576
   X3.897        Y8.103
   X3.424        Y7.487
   X3.127        Y6.770
   X3.026        Y6.000
   X3.127        Y5.230
   X3.424        Y4.513
   X3.897        Y3.897
   X4.513        Y3.424
   X5.230        Y3.127
   X6.000        Y3.026
   X6.770        Y3.127
   X7.487        Y3.424
   X8.103        Y3.897
   X8.576        Y4.513
   X8.873        Y5.230
   X8.974        Y6.000
   X8.873        Y6.770
   X8.576        Y7.487
   X8.103        Y8.103
G0   Z10.0

G10 P2 L20 X700 Y800
G55
G0   Z4.000
   X7.800        Y4.488
G1   Z-3.000     F150
   Y7.512
G0   Z10.0 X8.103 Y8.103
G1   Z-3.000     F150
   X7.487        Y8.576
   X6.770        Y8.873
   X6.000        Y8.974
   X5.230        Y8.873
   X4.513        Y8.576
   X3.897        Y8.103
   X3.424        Y7.487
   X3.127        Y6.770
   X3.026        Y6.000
   X3.127        Y5.230
   X3.424        Y4.513
   X3.897        Y3.897
   X4.513        Y3.424
   X5.230        Y3.127
   X6.000        Y3.026
   X6.770        Y3.127
   X7.487        Y3.424
   X8.103        Y3.897
   X8.576        Y4.513
   X8.873        Y5.230
   X8.974        Y6.000
   X8.873        Y6.770
   X8.576        Y7.487
   X8.103        Y8.103
G0   Z10.0

G10 P2 L20 X800 Y800
G55
G0   Z4.000
   X7.800        Y4.488
G1   Z-3.000     F150
   Y7.512
G0   Z10.0 X8.103 Y8.103
G1   Z-3.000     F150
   X7.487        Y8.576
   X6.770        Y8.873
   X6.000        Y8.974
   X5.230        Y8.873
   X4.513        Y8.576
   X3.897        Y8.103
   X3.424        Y7.487
   X3.127        Y6.770
   X3.026        Y6.000
   X3.127        Y5.230
   X3.424        Y4.513
   X3.897        Y3.897
   X4.513        Y3.424
   X5.230        Y3.127
   X6.000        Y3.026
   X6.770        Y3.127
   X7.487        Y3.424
   X8.103        Y3.897
   X8.576        Y4.513
   X8.873        Y5.230
   X8.974        Y6.000
   X8.873        Y6.770
   X8.576        Y7.487
   X8.103        Y8.103
G0   Z10.0

G10 P2 L20 X900 Y800
G55
G0   Z4.000
   X7.800        Y4.488
G1   Z-3.000     F150
   Y7.512
G0   Z10.0 X8.103 Y8.103
G1   Z-3.000     F150
   X7.487        Y8.576
   X6.770        Y8.873
   X6.000        Y8.974
   X5.230        Y8.873
   X4.513        Y8.576
   X3.897        Y8.103
   X3.424        Y7.487
   X3.127        Y6.770
   X3.026        Y6.000
   X3.127        Y5.230
   X3.424        Y4.513
   X3.897        Y3.897
   X4.513        Y3.424
   X5.230        Y3.127
   X6.000        Y3.026
   X6.770        Y3.127
   X7.487        Y3.424
   X8.103        Y3.897
   X8.576        Y4.513
   X8.873        Y5.230
   X8.974        Y6.000
   X8.873        Y6.770
   X8.576        Y7.487
   X8.103        Y8.103
G0   Z10.0

G10 P2 L20 X1000 Y800
G55
G0   Z4.000
   X7.800        Y4.488
G1   Z-3.000     F150
   Y7.512
G0   Z10.0 X8.103 Y8.103
G1   Z-3.000     F150
   X7.487        Y8.576
   X6.770        Y8.873
   X6.000        Y8.974
   X5.230        Y8.873
   X4.513        Y8.576
   X3.897        Y8.103
   X3.424        Y7.487
   X3.127        Y6.770
   X3.026        Y6.000
   X3.127        Y5.230
   X3.424        Y4.513
   X3.897        Y3.897
   X4.513        Y3.424
   X5.230        Y3.127
   X6.000        Y3.026
   X6.770        Y3.127
   X7.487        Y3.424
   X8.103        Y3.897
   X8.576        Y4.513
   X8.873        Y5.230
   X8.974        Y6.000
   X8.873        Y6.770
   X8.576        Y7.487
   X8.103        Y8.103
G0   Z10.0

G10 P2 L20 X1100 Y800
G55
G0   Z4.000
   X7.800        Y4.488
G1   Z-3.000     F150
   Y7.512
G0   Z10.0 X8.103 Y8.103
G1   Z-3.000     F150
   X7.487        Y8.576
   X6.770        Y8.873
   X6.000        Y8.974
   X5.230        Y8.873
   X4.513        Y8.576
   X3.897        Y8.103
   X3.424        Y7.487
   X3.127        Y6.770
   X3.026        Y6.000
   X3.127        Y5.230
   X3.424        Y4.513
   X3.897        Y3.897
   X4.513        Y3.424
   X5.230        Y3.127
   X6.000        Y3.026
   X6.770        Y3.127
   X7.487        Y3.424
   X8.103        Y3.897
   X8.576        Y4.513
   X8.873        Y5.230
   X8.974        Y6.000
   X8.873        Y6.770
   X8.576        Y7.487
   X8.103        Y8.103
G0   Z10.0

G10 P2 L20 X100 Y900
G55
G0   Z4.000
   X7.800        Y4.488
G1   Z-3.000     F150
   Y7.512
G0   Z10.0 X8.103 Y8.103
G1   Z-3.000     F150
   X7.487        Y8.576
   X6.770        Y8.873
   X6.000        Y8.974
   X5.230        Y8.873
   X4.513        Y8.576
   X3.897        Y8.103
   X3.424        Y7.487
   X3.127        Y6.770
   X3.026        Y6.000
   X3.127        Y5.230
   X3.424        Y4.513
   X3.897        Y3.897
   X4.513        Y3.424
   X5.230        Y3.127
   X6.000        Y3.026
   X6.770        Y3.127
   X7.487        Y3.424
   X8.103        Y3.897
   X8.576        Y4.513
   X8.873        Y5.230
   X8.974        Y6.000
   X8.873        Y6.770
   X8.576        Y7.487
   X8.103        Y8.103
G0   Z10.0

G10 P2 L20 X200 Y900
G55
G0   Z4.000
   X7.800        Y4.488
G1   Z-3.000     F150
   Y7.512
G0   Z10.0 X8.103 Y8.103
G1   Z-3.000     F150
   X7.487        Y8.576
   X6.770        Y8.873
   X6.000        Y8.974
   X5.230        Y8.873
   X4.513        Y8.576
   X3.897        Y8.103
   X3.424        Y7.487
   X3.127        Y6.770
   X3.026        Y6.000
   X3.127        Y5.230
   X3.424        Y4.513
   X3.897        Y3.897
   X4.513        Y3.424
   X5.230        Y3.127
   X6.000        Y3.026
   X6.770        Y3.127
   X7.487        Y3.424
   X8.103        Y3.897
   X8.576        Y4.513
   X8.873        Y5.230
   X8.974        Y6.000
   X8.873        Y6.770
   X8.576        Y7.487
   X8.103        Y8.103
G0   Z10.0

G10 P2 L20 X300 Y900
G55
G0   Z4.000
   X7.800        Y4.488
G1   Z-3.000     F150
   Y7.512
G0   Z10.0 X8.103 Y8.103
G1   Z-3.000     F150
   X7.487        Y8.576
   X6.770        Y8.873
   X6.000        Y8.974
   X5.230        Y8.873
   X4.513        Y8.576
   X3.897        Y8.103
   X3.424        Y7.487
   X3.127        Y6.770
   X3.026        Y6.000
   X3.127        Y5.230
   X3.424        Y4.513
   X3.897        Y3.897
   X4.513        Y3.424
   X5.230        Y3.127
   X6.000        Y3.026
   X6.770        Y3.127
   X7.487        Y3.424
   X8.103        Y3.897
   X8.576        Y4.513
   X8.873        Y5.230
   X8.974        Y6.000
   X8.873        Y6.770
   X8.576        Y7.487
   X8.103        Y8.103
G0   Z10.0

G10 P2 L20 X400 Y900
G55
G0   Z4.000
   X7.800        Y4.488
G1   Z-3.000     F150
   Y7.512
G0   Z10.0 X8.103 Y8.103
G1   Z-3.000     F150
   X7.487        Y8.576
   X6.770        Y8.873
   X6.000        Y8.974
   X5.230        Y8.873
   X4.513        Y8.576
   X3.897        Y8.103
   X3.424        Y7.487
   X3.127        Y6.770
   X3.026        Y6.000
   X3.127        Y5.230
   X3.424        Y4.513
   X3.897        Y3.897
   X4.513        Y3.424
   X5.230        Y3.127
   X6.000        Y3.026
   X6.770        Y3.127
   X7.487        Y3.424
   X8.103        Y3.897
   X8.576        Y4.513
   X8.873        Y5.230
   X8.974        Y6.000
   X8.873        Y6.770
   X8.576        Y7.487
   X8.103        Y8.103
G0   Z10.0

G10 P2 L20 X500 Y900
G55
G0   Z4.000
   X7.800        Y4.488
G1   Z-3.000     F150
   Y7.512
G0   Z10.0 X8.103 Y8.103
G1   Z-3.000     F150
   X7.487        Y8.576
   X6.770        Y8.873
   X6.000        Y8.974
   X5.230        Y8.873
   X4.513        Y8.576
   X3.897        Y8.103
   X3.424        Y7.487
   X3.127        Y6.770
   X3.026        Y6.000
   X3.127        Y5.230
   X3.424        Y4.513
   X3.897        Y3.897
   X4.513        Y3.424
   X5.230        Y3.127
   X6.000        Y3.026
   X6.770        Y3.127
   X7.487        Y3.424
   X8.103        Y3.897
   X8.576        Y4.513
   X8.873        Y5.230
   X8.974        Y6.000
   X8.873        Y6.770
   X8.576        Y7.487
   X8.103        Y8.103
G0   Z10.0

G10 P2 L20 X600 Y900
G55
G0   Z4.000
   X7.800        Y4.488
G1   Z-3.000     F150
   Y7.512
G0   Z10.0 X8.103 Y8.103
G1   Z-3.000     F150
   X7.487        Y8.576
   X6.770        Y8.873
   X6.000        Y8.974
   X5.230        Y8.873
   X4.513        Y8.576
   X3.897        Y8.103
   X3.424        Y7.487
   X3.127        Y6.770
   X3.026        Y6.000
   X3.127        Y5.230
   X3.424        Y4.513
   X3.897        Y3.897
   X4.513        Y3.424
   X5.230        Y3.127
   X6.000        Y3.026
   X6.770        Y3.127
   X7.487        Y3.424
   X8.103        Y3.897
   X8.576        Y4.513
   X8.873        Y5.230
   X8.974        Y6.000
   X8.873        Y6.770
   X8.576        Y7.487
   X8.103        Y8.103
G0   Z10.0

G10 P2 L20 X700 Y900
G55
G0   Z4.000
   X7.800        Y4.488
G1   Z-3.000     F150
   Y7.512
G0   Z10.0 X8.103 Y8.103
G1   Z-3.000     F150
   X7.487        Y8.576
   X6.770        Y8.873
   X6.000        Y8.974
   X5.230        Y8.873
   X4.513        Y8.576
   X3.897        Y8.103
   X3.424        Y7.487
   X3.127        Y6.770
   X3.026        Y6.000
   X3.127        Y5.230
   X3.424        Y4.513
   X3.897        Y3.897
   X4.513        Y3.424
   X5.230        Y3.127
   X6.000        Y3.026
   X6.770        Y3.127
   X7.487        Y3.424
   X8.103        Y3.897
   X8.576        Y4.513
   X8.873        Y5.230
   X8.974        Y6.000
   X8.873        Y6.770
   X8.576        Y7.487
   X8.103        Y8.103
G0   Z10.0

G10 P2 L20 X800 Y900
G55
G0   Z4.000
   X7.800        Y4.488
G1   Z-3.000     F150
   Y7.512
G0   Z10.0 X8.103 Y8.103
G1   Z-3.000     F150
   X7.487        Y8.576
   X6.770        Y8.873
   X6.000        Y8.974
   X5.230        Y8.873
   X4.513        Y8.576
   X3.897        Y8.103
   X3.424        Y7.487
   X3.127        Y6.770
   X3.026        Y6.000
   X3.127        Y5.230
   X3.424        Y4.513
   X3.897        Y3.897
   X4.513        Y3.424
   X5.230        Y3.127
   X6.000        Y3.026
   X6.770        Y3.127
   X7.487        Y3.424
   X8.103        Y3.897
   X8.576        Y4.513
   X8.873        Y5.230
   X8.974        Y6.000
   X8.873        Y6.770
   X8.576        Y7.487
   X8.103        Y8.103
G0   Z10.0

G10 P2 L20 X900 Y900
G55
G0   Z4.000
   X7.800        Y4.488
G1   Z-3.000     F150
   Y7.512
G0   Z10.0 X8.103 Y8.103
G1   Z-3.000     F150
   X7.487        Y8.576
   X6.770        Y8.873
   X6.000        Y8.974
   X5.230        Y8.873
   X4.513        Y8.576
   X3.897        Y8.103
   X3.424        Y7.487
   X3.127        Y6.770
   X3.026        Y6.000
   X3.127        Y5.230
   X3.424        Y4.513
   X3.897        Y3.897
   X4.513        Y3.424
   X5.230        Y3.127
   X6.000        Y3.026
   X6.770        Y3.127
   X7.487        Y3.424
   X8.103        Y3.897
   X8.576        Y4.513
   X8.873        Y5.230
   X8.974        Y6.000
   X8.873        Y6.770
   X8.576        Y7.487
   X8.103        Y8.103
G0   Z10.0

G10 P2 L20 X1000 Y900
G55
G0   Z4.000
   X7.800        Y4.488
G1   Z-3.000     F150
   Y7.512
G0   Z10.0 X8.103 Y8.103
G1   Z-3.000     F150
   X7.487        Y8.576
   X6.770        Y8.873
   X6.000        Y8.974
   X5.230        Y8.873
   X4.513        Y8.576
   X3.897        Y8.103
   X3.424        Y7.487
   X3.127        Y6.770
   X3.026        Y6.000
   X3.127        Y5.230
   X3.424        Y4.513
   X3.897        Y3.897
   X4.513        Y3.424
   X5.230        Y3.127
   X6.000        Y3.026
   X6.770        Y3.127
   X7.487        Y3.424
   X8.103        Y3.897
   X8.576        Y4.513
   X8.873        Y5.230
   X8.974        Y6.000
   X8.873        Y6.770
   X8.576        Y7.487
   X8.103        Y8.103
G0   Z10.0

G10 P2 L20 X1100 Y900
G55
G0   Z4.000
   X7.800        Y4.488
G1   Z-3.000     F150
   Y7.512
G0   Z10.0 X8.103 Y8.103
G1   Z-3.000     F150
   X7.487        Y8.576
   X6.770        Y8.873
   X6.000        Y8.974
   X5.230        Y8.873
   X4.513        Y8.576
   X3.897        Y8.103
   X3.424        Y7.487
   X3.127        Y6.770
   X3.026        Y6.000
   X3.127        Y5.230
   X3.424        Y4.513
   X3.897        Y3.897
   X4.513        Y3.424
   X5.230        Y3.127
   X6.000        Y3.026
   X6.770        Y3.127
   X7.487        Y3.424
   X8.103        Y3.897
   X8.576        Y4.513
   X8.873        Y5.230
   X8.974        Y6.000
   X8.873        Y6.770
   X8.576        Y7.487
   X8.103        Y8.103
G0   Z10.0

G10 P2 L20 X100 Y1000
G55
G0   Z4.000
   X7.800        Y4.488
G1   Z-3.000     F150
   Y7.512
G0   Z10.0 X8.103 Y8.103
G1   Z-3.000     F150
   X7.487        Y8.576
   X6.770        Y8.873
   X6.000        Y8.974
   X5.230        Y8.873
   X4.513        Y8.576
   X3.897        Y8.103
   X3.424        Y7.487
   X3.127        Y6.770
   X3.026        Y6.000
   X3.127        Y5.230
   X3.424        Y4.513
   X3.897        Y3.897
   X4.513        Y3.424
   X5.230        Y3.127
   X6.000        Y3.026
   X6.770        Y3.127
   X7.487        Y3.424
   X8.103        Y3.897
   X8.576        Y4.513
   X8.873        Y5.230
   X8.974        Y6.000
   X8.873        Y6.770
   X8.576        Y7.487
   X8.103        Y8.103
G0   Z10.0

G10 P2 L20 X200 Y1000
G55
G0   Z4.000
   X7.800        Y4.488
G1   Z-3.000     F150
   Y7.512
G0   Z10.0 X8.103 Y8.103
G1   Z-3.000     F150
   X7.487        Y8.576
   X6.770        Y8.873
   X6.000        Y8.974
   X5.230        Y8.873
   X4.513        Y8.576
   X3.897        Y8.103
   X3.424        Y7.487
   X3.127        Y6.770
   X3.026        Y6.000
   X3.127        Y5.230
   X3.424        Y4.513
   X3.897        Y3.897
   X4.513        Y3.424
   X5.230        Y3.127
   X6.000        Y3.026
   X6.770        Y3.127
   X7.487        Y3.424
   X8.103        Y3.897
   X8.576        Y4.513
   X8.873        Y5.230
   X8.974        Y6.000
   X8.873        Y6.770
   X8.576        Y7.487
   X8.103        Y8.103
G0   Z10.0

G10 P2 L20 X300 Y1000
G55
G0   Z4.000
   X7.800        Y4.488
G1   Z-3.000     F150
   Y7.512
G0   Z10.0 X8.103 Y8.103
G1   Z-3.000     F150
   X7.487        Y8.576
   X6.770        Y8.873
   X6.000        Y8.974
   X5.230        Y8.873
   X4.513        Y8.576
   X3.897        Y8.103
   X3.424        Y7.487
   X3.127        Y6.770
   X3.026        Y6.000
   X3.127        Y5.230
   X3.424        Y4.513
   X3.897        Y3.897
   X4.513        Y3.424
   X5.230        Y3.127
   X6.000        Y3.026
   X6.770        Y3.127
   X7.487        Y3.424
   X8.103        Y3.897
   X8.576        Y4.513
   X8.873        Y5.230
   X8.974        Y6.000
   X8.873        Y6.770
   X8.576        Y7.487
   X8.103        Y8.103
G0   Z10.0

G10 P2 L20 X400 Y1000
G55
G0   Z4.000
   X7.800        Y4.488
G1   Z-3.000     F150
   Y7.512
G0   Z10.0 X8.103 Y8.103
G1   Z-3.000     F150
   X7.487        Y8.576
   X6.770        Y8.873
   X6.000        Y8.974
   X5.230        Y8.873
   X4.513        Y8.576
   X3.897        Y8.103
   X3.424        Y7.487
   X3.127        Y6.770
   X3.026        Y6.000
   X3.127        Y5.230
   X3.424        Y4.513
   X3.897        Y3.897
   X4.513        Y3.424
   X5.230        Y3.127
   X6.000        Y3.026
   X6.770        Y3.127
   X7.487        Y3.424
   X8.103        Y3.897
   X8.576        Y4.513
   X8.873        Y5.230
   X8.974        Y6.000
   X8.873        Y6.770
   X8.576        Y7.487
   X8.103        Y8.103
G0   Z10.0

G10 P2 L20 X500 Y1000
G55
G0   Z4.000
   X7.800        Y4.488
G1   Z-3.000     F150
   Y7.512
G0   Z10.0 X8.103 Y8.103
G1   Z-3.000     F150
   X7.487        Y8.576
   X6.770        Y8.873
   X6.000        Y8.974
   X5.230        Y8.873
   X4.513        Y8.576
   X3.897        Y8.103
   X3.424        Y7.487
   X3.127        Y6.770
   X3.026        Y6.000
   X3.127        Y5.230
   X3.424        Y4.513
   X3.897        Y3.897
   X4.513        Y3.424
   X5.230        Y3.127
   X6.000        Y3.026
   X6.770        Y3.127
   X7.487        Y3.424
   X8.103        Y3.897
   X8.576        Y4.513
   X8.873        Y5.230
   X8.974        Y6.000
   X8.873        Y6.770
   X8.576        Y7.487
   X8.103        Y8.103
G0   Z10.0

G10 P2 L20 X600 Y1000
G55
G0   Z4.000
   X7.800        Y4.488
G1   Z-3.000     F150
   Y7.512
G0   Z10.0 X8.103 Y8.103
G1   Z-3.000     F150
   X7.487        Y8.576
   X6.770        Y8.873
   X6.000        Y8.974
   X5.230        Y8.873
   X4.513        Y8.576
   X3.897        Y8.103
   X3.424        Y7.487
   X3.127        Y6.770
   X3.026        Y6.000
   X3.127        Y5.230
   X3.424        Y4.513
   X3.897        Y3.897
   X4.513        Y3.424
   X5.230        Y3.127
   X6.000        Y3.026
   X6.770        Y3.127
   X7.487        Y3.424
   X8.103        Y3.897
   X8.576        Y4.513
   X8.873        Y5.230
   X8.974        Y6.000
   X8.873        Y6.770
   X8.576        Y7.487
   X8.103        Y8.103
G0   Z10.0

G10 P2 L20 X700 Y1000
G55
G0   Z4.000
   X7.800        Y4.488
G1   Z-3.000     F150
   Y7.512
G0   Z10.0 X8.103 Y8.103
G1   Z-3.000     F150
   X7.487        Y8.576
   X6.770        Y8.873
   X6.000        Y8.974
   X5.230        Y8.873
   X4.513        Y8.576
   X3.897        Y8.103
   X3.424        Y7.487
   X3.127        Y6.770
   X3.026        Y6.000
   X3.127        Y5.230
   X3.424        Y4.513
   X3.897        Y3.897
   X4.513        Y3.424
   X5.230        Y3.127
   X6.000        Y3.026
   X6.770        Y3.127
   X7.487        Y3.424
   X8.103        Y3.897
   X8.576        Y4.513
   X8.873        Y5.230
   X8.974        Y6.000
   X8.873        Y6.770
   X8.576        Y7.487
   X8.103        Y8.103
G0   Z10.0

G10 P2 L20 X800 Y1000
G55
G0   Z4.000
   X7.800        Y4.488
G1   Z-3.000     F150
   Y7.512
G0   Z10.0 X8.103 Y8.103
G1   Z-3.000     F150
   X7.487        Y8.576
   X6.770        Y8.873
   X6.000        Y8.974
   X5.230        Y8.873
   X4.513        Y8.576
   X3.897        Y8.103
   X3.424        Y7.487
   X3.127        Y6.770
   X3.026        Y6.000
   X3.127        Y5.230
   X3.424        Y4.513
   X3.897        Y3.897
   X4.513        Y3.424
   X5.230        Y3.127
   X6.000        Y3.026
   X6.770        Y3.127
   X7.487        Y3.424
   X8.103        Y3.897
   X8.576        Y4.513
   X8.873        Y5.230
   X8.974        Y6.000
   X8.873        Y6.770
   X8.576        Y7.487
   X8.103        Y8.103
G0   Z10.0

G10 P2 L20 X900 Y1000
G55
G0   Z4.000
   X7.800        Y4.488
G1   Z-3.000     F150
   Y7.512
G0   Z10.0 X8.103 Y8.103
G1   Z-3.000     F150
   X7.487        Y8.576
   X6.770        Y8.873
   X6.000        Y8.974
   X5.230        Y8.873
   X4.513        Y8.576
   X3.897        Y8.103
   X3.424        Y7.487
   X3.127        Y6.770
   X3.026        Y6.000
   X3.127        Y5.230
   X3.424        Y4.513
   X3.897        Y3.897
   X4.513        Y3.424
   X5.230        Y3.127
   X6.000        Y3.026
   X6.770        Y3.127
   X7.487        Y3.424
   X8.103        Y3.897
   X8.576        Y4.513
   X8.873        Y5.230
   X8.974        Y6.000
   X8.873        Y6.770
   X8.576        Y7.487
   X8.103        Y8.103
G0   Z10.0

G10 P2 L20 X1000 Y1000
G55
G0   Z4.000
   X7.800        Y4.488
G1   Z-3.000     F150
   Y7.512
G0   Z10.0 X8.103 Y8.103
G1   Z-3.000     F150
   X7.487        Y8.576
   X6.770        Y8.873
   X6.000        Y8.974
   X5.230        Y8.873
   X4.513        Y8.576
   X3.897        Y8.103
   X3.424        Y7.487
   X3.127        Y6.770
   X3.026        Y6.000
   X3.127        Y5.230
   X3.424        Y4.513
   X3.897        Y3.897
   X4.513        Y3.424
   X5.230        Y3.127
   X6.000        Y3.026
   X6.770        Y3.127
   X7.487        Y3.424
   X8.103        Y3.897
   X8.576        Y4.513
   X8.873        Y5.230
   X8.974        Y6.000
   X8.873        Y6.770
   X8.576        Y7.487
   X8.103        Y8.103
G0   Z10.0

G10 P2 L20 X1100 Y1000
G55
G0   Z4.000
   X7.800        Y4.488
G1   Z-3.000     F150
   Y7.512
G0   Z10.0 X8.103 Y8.103
G1   Z-3.000     F150
   X7.487        Y8.576
   X6.770        Y8.873
   X6.000        Y8.974
   X5.230        Y8.873
   X4.513        Y8.576
   X3.897        Y8.103
   X3.424        Y7.487
   X3.127        Y6.770
   X3.026        Y6.000
   X3.127        Y5.230
   X3.424        Y4.513
   X3.897        Y3.897
   X4.513        Y3.424
   X5.230        Y3.127
   X6.000        Y3.026
   X6.770        Y3.127
   X7.487        Y3.424
   X8.103        Y3.897
   X8.576        Y4.513
   X8.873        Y5.230
   X8.974        Y6.000
   X8.873        Y6.770
   X8.576        Y7.487
   X8.103        Y8.103
G0   Z10.0

G10 P2 L20 X100 Y1100
G55
G0   Z4.000
   X7.800        Y4.488
G1   Z-3.000     F150
   Y7.512
G0   Z10.0 X8.103 Y8.103
G1   Z-3.000     F150
   X7.487        Y8.576
   X6.770        Y8.873
   X6.000        Y8.974
   X5.230        Y8.873
   X4.513        Y8.576
   X3.897        Y8.103
   X3.424        Y7.487
   X3.127        Y6.770
   X3.026        Y6.000
   X3.127        Y5.230
   X3.424        Y4.513
   X3.897        Y3.897
   X4.513        Y3.424
   X5.230        Y3.127
   X6.000        Y3.026
   X6.770        Y3.127
   X7.487        Y3.424
   X8.103        Y3.897
   X8.576        Y4.513
   X8.873        Y5.230
   X8.974        Y6.000
   X8.873        Y6.770
   X8.576        Y7.487
   X8.103        Y8.103
G0   Z10.0

G10 P2 L20 X200 Y1100
G55
G0   Z4.000
   X7.800        Y4.488
G1   Z-3.000     F150
   Y7.512
G0   Z10.0 X8.103 Y8.103
G1   Z-3.000     F150
   X7.487        Y8.576
   X6.770        Y8.873
   X6.000        Y8.974
   X5.230        Y8.873
   X4.513        Y8.576
   X3.897        Y8.103
   X3.424        Y7.487
   X3.127        Y6.770
   X3.026        Y6.000
   X3.127        Y5.230
   X3.424        Y4.513
   X3.897        Y3.897
   X4.513        Y3.424
   X5.230        Y3.127
   X6.000        Y3.026
   X6.770        Y3.127
   X7.487        Y3.424
   X8.103        Y3.897
   X8.576        Y4.513
   X8.873        Y5.230
   X8.974        Y6.000
   X8.873        Y6.770
   X8.576        Y7.487
   X8.103        Y8.103
G0   Z10.0

G10 P2 L20 X300 Y1100
G55
G0   Z4.000
   X7.800        Y4.488
G1   Z-3.000     F150
   Y7.512
G0   Z10.0 X8.103 Y8.103
G1   Z-3.000     F150
   X7.487        Y8.576
   X6.770        Y8.873
   X6.000        Y8.974
   X5.230        Y8.873
   X4.513        Y8.576
   X3.897        Y8.103
   X3.424        Y7.487
   X3.127        Y6.770
   X3.026        Y6.000
   X3.127        Y5.230
   X3.424        Y4.513
   X3.897        Y3.897
   X4.513        Y3.424
   X5.230        Y3.127
   X6.000        Y3.026
   X6.770        Y3.127
   X7.487        Y3.424
   X8.103        Y3.897
   X8.576        Y4.513
   X8.873        Y5.230
   X8.974        Y6.000
   X8.873        Y6.770
   X8.576        Y7.487
   X8.103        Y8.103
G0   Z10.0

G10 P2 L20 X400 Y1100
G55
G0   Z4.000
   X7.800        Y4.488
G1   Z-3.000     F150
   Y7.512
G0   Z10.0 X8.103 Y8.103
G1   Z-3.000     F150
   X7.487        Y8.576
   X6.770        Y8.873
   X6.000        Y8.974
   X5.230        Y8.873
   X4.513        Y8.576
   X3.897        Y8.103
   X3.424        Y7.487
   X3.127        Y6.770
   X3.026        Y6.000
   X3.127        Y5.230
   X3.424        Y4.513
   X3.897        Y3.897
   X4.513        Y3.424
   X5.230        Y3.127
   X6.000        Y3.026
   X6.770        Y3.127
   X7.487        Y3.424
   X8.103        Y3.897
   X8.576        Y4.513
   X8.873        Y5.230
   X8.974        Y6.000
   X8.873        Y6.770
   X8.576        Y7.487
   X8.103        Y8.103
G0   Z10.0

G10 P2 L20 X500 Y1100
G55
G0   Z4.000
   X7.800        Y4.488
G1   Z-3.000     F150
   Y7.512
G0   Z10.0 X8.103 Y8.103
G1   Z-3.000     F150
   X7.487        Y8.576
   X6.770        Y8.873
   X6.000        Y8.974
   X5.230        Y8.873
   X4.513        Y8.576
   X3.897        Y8.103
   X3.424        Y7.487
   X3.127        Y6.770
   X3.026        Y6.000
   X3.127        Y5.230
   X3.424        Y4.513
   X3.897        Y3.897
   X4.513        Y3.424
   X5.230        Y3.127
   X6.000        Y3.026
   X6.770        Y3.127
   X7.487        Y3.424
   X8.103        Y3.897
   X8.576        Y4.513
   X8.873        Y5.230
   X8.974        Y6.000
   X8.873        Y6.770
   X8.576        Y7.487
   X8.103        Y8.103
G0   Z10.0

G10 P2 L20 X600 Y1100
G55
G0   Z4.000
   X7.800        Y4.488
G1   Z-3.000     F150
   Y7.512
G0   Z10.0 X8.103 Y8.103
G1   Z-3.000     F150
   X7.487        Y8.576
   X6.770        Y8.873
   X6.000        Y8.974
   X5.230        Y8.873
   X4.513        Y8.576
   X3.897        Y8.103
   X3.424        Y7.487
   X3.127        Y6.770
   X3.026        Y6.000
   X3.127        Y5.230
   X3.424        Y4.513
   X3.897        Y3.897
   X4.513        Y3.424
   X5.230        Y3.127
   X6.000        Y3.026
   X6.770        Y3.127
   X7.487        Y3.424
   X8.103        Y3.897
   X8.576        Y4.513
   X8.873        Y5.230
   X8.974        Y6.000
   X8.873        Y6.770
   X8.576        Y7.487
   X8.103        Y8.103
G0   Z10.0

G10 P2 L20 X700 Y1100
G55
G0   Z4.000
   X7.800        Y4.488
G1   Z-3.000     F150
   Y7.512
G0   Z10.0 X8.103 Y8.103
G1   Z-3.000     F150
   X7.487        Y8.576
   X6.770        Y8.873
   X6.000        Y8.974
   X5.230        Y8.873
   X4.513        Y8.576
   X3.897        Y8.103
   X3.424        Y7.487
   X3.127        Y6.770
   X3.026        Y6.000
   X3.127        Y5.230
   X3.424        Y4.513
   X3.897        Y3.897
   X4.513        Y3.424
   X5.230        Y3.127
   X6.000        Y3.026
   X6.770        Y3.127
   X7.487        Y3.424
   X8.103        Y3.897
   X8.576        Y4.513
   X8.873        Y5.230
   X8.974        Y6.000
   X8.873        Y6.770
   X8.576        Y7.487
   X8.103        Y8.103
G0   Z10.0

G10 P2 L20 X800 Y1100
G55
G0   Z4.000
   X7.800        Y4.488
G1   Z-3.000     F150
   Y7.512
G0   Z10.0 X8.103 Y8.103
G1   Z-3.000     F150
   X7.487        Y8.576
   X6.770        Y8.873
   X6.000        Y8.974
   X5.230        Y8.873
   X4.513        Y8.576
   X3.897        Y8.103
   X3.424        Y7.487
   X3.127        Y6.770
   X3.026        Y6.000
   X3.127        Y5.230
   X3.424        Y4.513
   X3.897        Y3.897
   X4.513        Y3.424
   X5.230        Y3.127
   X6.000        Y3.026
   X6.770        Y3.127
   X7.487        Y3.424
   X8.103        Y3.897
   X8.576        Y4.513
   X8.873        Y5.230
   X8.974        Y6.000
   X8.873        Y6.770
   X8.576        Y7.487
   X8.103        Y8.103
G0   Z10.0

G10 P2 L20 X900 Y1100
G55
G0   Z4.000
   X7.800        Y4.488
G1   Z-3.000     F150
   Y7.512
G0   Z10.0 X8.103 Y8.103
G1   Z-3.000     F150
   X7.487        Y8.576
   X6.770        Y8.873
   X6.000        Y8.974
   X5.230        Y8.873
   X4.513        Y8.576
   X3.897        Y8.103
   X3.424        Y7.487
   X3.127        Y6.770
   X3.026        Y6.000
   X3.127        Y5.230
   X3.424        Y4.513
   X3.897        Y3.897
   X4.513        Y3.424
   X5.230        Y3.127
   X6.000        Y3.026
   X6.770        Y3.127
   X7.487        Y3.424
   X8.103        Y3.897
   X8.576        Y4.513
   X8.873        Y5.230
   X8.974        Y6.000
   X8.873        Y6.770
   X8.576        Y7.487
   X8.103        Y8.103
G0   Z10.0

G10 P2 L20 X1000 Y1100
G55
G0   Z4.000
   X7.800        Y4.488
G1   Z-3.000     F150
   Y7.512
G0   Z10.0 X8.103 Y8.103
G1   Z-3.000     F150
   X7.487        Y8.576
   X6.770        Y8.873
   X6.000        Y8.974
   X5.230        Y8.873
   X4.513        Y8.576
   X3.897        Y8.103
   X3.424        Y7.487
   X3.127        Y6.770
   X3.026        Y6.000
   X3.127        Y5.230
   X3.424        Y4.513
   X3.897        Y3.897
   X4.513        Y3.424
   X5.230        Y3.127
   X6.000        Y3.026
   X6.770        Y3.127
   X7.487        Y3.424
   X8.103        Y3.897
   X8.576        Y4.513
   X8.873        Y5.230
   X8.974        Y6.000
   X8.873        Y6.770
   X8.576        Y7.487
   X8.103        Y8.103
G0   Z10.0

G10 P2 L20 X1100 Y1100
G55
G0   Z4.000
   X7.800        Y4.488
G1   Z-3.000     F150
   Y7.512
G0   Z10.0 X8.103 Y8.103
G1   Z-3.000     F150
   X7.487        Y8.576
   X6.770        Y8.873
   X6.000        Y8.974
   X5.230        Y8.873
   X4.513        Y8.576
   X3.897        Y8.103
   X3.424        Y7.487
   X3.127        Y6.770
   X3.026        Y6.000
   X3.127        Y5.230
   X3.424        Y4.513
   X3.897        Y3.897
   X4.513        Y3.424
   X5.230        Y3.127
   X6.000        Y3.026
   X6.770        Y3.127
   X7.487        Y3.424
   X8.103        Y3.897
   X8.576        Y4.513
   X8.873        Y5.230
   X8.974        Y6.000
   X8.873        Y6.770
   X8.576        Y7.487
   X8.103        Y8.103
G0   Z10.0

G10 P2 L20 X100 Y1200
G55
G0   Z4.000
   X7.800        Y4.488
G1   Z-3.000     F150
   Y7.512
G0   Z10.0 X8.103 Y8.103
G1   Z-3.000     F150
   X7.487        Y8.576
   X6.770        Y8.873
   X6.000        Y8.974
   X5.230        Y8.873
   X4.513        Y8.576
   X3.897        Y8.103
   X3.424        Y7.487
   X3.127        Y6.770
   X3.026        Y6.000
   X3.127        Y5.230
   X3.424        Y4.513
   X3.897        Y3.897
   X4.513        Y3.424
   X5.230        Y3.127
   X6.000        Y3.026
   X6.770        Y3.127
   X7.487        Y3.424
   X8.103        Y3.897
   X8.576        Y4.513
   X8.873        Y5.230
   X8.974        Y6.000
   X8.873        Y6.770
   X8.576        Y7.487
   X8.103        Y8.103
G0   Z10.0

G10 P2 L20 X200 Y1200
G55
G0   Z4.000
   X7.800        Y4.488
G1   Z-3.000     F150
   Y7.512
G0   Z10.0 X8.103 Y8.103
G1   Z-3.000     F150
   X7.487        Y8.576
   X6.770        Y8.873
   X6.000        Y8.974
   X5.230        Y8.873
   X4.513        Y8.576
   X3.897        Y8.103
   X3.424        Y7.487
   X3.127        Y6.770
   X3.026        Y6.000
   X3.127        Y5.230
   X3.424        Y4.513
   X3.897        Y3.897
   X4.513        Y3.424
   X5.230        Y3.127
   X6.000        Y3.026
   X6.770        Y3.127
   X7.487        Y3.424
   X8.103        Y3.897
   X8.576        Y4.513
   X8.873        Y5.230
   X8.974        Y6.000
   X8.873        Y6.770
   X8.576        Y7.487
   X8.103        Y8.103
G0   Z10.0

G10 P2 L20 X300 Y1200
G55
G0   Z4.000
   X7.800        Y4.488
G1   Z-3.000     F150
   Y7.512
G0   Z10.0 X8.103 Y8.103
G1   Z-3.000     F150
   X7.487        Y8.576
   X6.770        Y8.873
   X6.000        Y8.974
   X5.230        Y8.873
   X4.513        Y8.576
   X3.897        Y8.103
   X3.424        Y7.487
   X3.127        Y6.770
   X3.026        Y6.000
   X3.127        Y5.230
   X3.424        Y4.513
   X3.897        Y3.897
   X4.513        Y3.424
   X5.230        Y3.127
   X6.000        Y3.026
   X6.770        Y3.127
   X7.487        Y3.424
   X8.103        Y3.897
   X8.576        Y4.513
   X8.873        Y5.230
   X8.974        Y6.000
   X8.873        Y6.770
   X8.576        Y7.487
   X8.103        Y8.103
G0   Z10.0

G10 P2 L20 X400 Y1200
G55
G0   Z4.000
   X7.800        Y4.488
G1   Z-3.000     F150
   Y7.512
G0   Z10.0 X8.103 Y8.103
G1   Z-3.000     F150
   X7.487        Y8.576
   X6.770        Y8.873
   X6.000        Y8.974
   X5.230        Y8.873
   X4.513        Y8.576
   X3.897        Y8.103
   X3.424        Y7.487
   X3.127        Y6.770
   X3.026        Y6.000
   X3.127        Y5.230
   X3.424        Y4.513
   X3.897        Y3.897
   X4.513        Y3.424
   X5.230        Y3.127
   X6.000        Y3.026
   X6.770        Y3.127
   X7.487        Y3.424
   X8.103        Y3.897
   X8.576        Y4.513
   X8.873        Y5.230
   X8.974        Y6.000
   X8.873        Y6.770
   X8.576        Y7.487
   X8.103        Y8.103
G0   Z10.0

G10 P2 L20 X500 Y1200
G55
G0   Z4.000
   X7.800        Y4.488
G1   Z-3.000     F150
   Y7.512
G0   Z10.0 X8.103 Y8.103
G1   Z-3.000     F150
   X7.487        Y8.576
   X6.770        Y8.873
   X6.000        Y8.974
   X5.230        Y8.873
   X4.513        Y8.576
   X3.897        Y8.103
   X3.424        Y7.487
   X3.127        Y6.770
   X3.026        Y6.000
   X3.127        Y5.230
   X3.424        Y4.513
   X3.897        Y3.897
   X4.513        Y3.424
   X5.230        Y3.127
   X6.000        Y3.026
   X6.770        Y3.127
   X7.487        Y3.424
   X8.103        Y3.897
   X8.576        Y4.513
   X8.873        Y5.230
   X8.974        Y6.000
   X8.873        Y6.770
   X8.576        Y7.487
   X8.103        Y8.103
G0   Z10.0

G10 P2 L20 X600 Y1200
G55
G0   Z4.000
   X7.800        Y4.488
G1   Z-3.000     F150
   Y7.512
G0   Z10.0 X8.103 Y8.103
G1   Z-3.000     F150
   X7.487        Y8.576
   X6.770        Y8.873
   X6.000        Y8.974
   X5.230        Y8.873
   X4.513        Y8.576
   X3.897        Y8.103
   X3.424        Y7.487
   X3.127        Y6.770
   X3.026        Y6.000
   X3.127        Y5.230
   X3.424        Y4.513
   X3.897        Y3.897
   X4.513        Y3.424
   X5.230        Y3.127
   X6.000        Y3.026
   X6.770        Y3.127
   X7.487        Y3.424
   X8.103        Y3.897
   X8.576        Y4.513
   X8.873        Y5.230
   X8.974        Y6.000
   X8.873        Y6.770
   X8.576        Y7.487
   X8.103        Y8.103
G0   Z10.0

G10 P2 L20 X700 Y1200
G55
G0   Z4.000
   X7.800        Y4.488
G1   Z-3.000     F150
   Y7.512
G0   Z10.0 X8.103 Y8.103
G1   Z-3.000     F150
   X7.487        Y8.576
   X6.770        Y8.873
   X6.000        Y8.974
   X5.230        Y8.873
   X4.513        Y8.576
   X3.897        Y8.103
   X3.424        Y7.487
   X3.127        Y6.770
   X3.026        Y6.000
   X3.127        Y5.230
   X3.424        Y4.513
   X3.897        Y3.897
   X4.513        Y3.424
   X5.230        Y3.127
   X6.000        Y3.026
   X6.770        Y3.127
   X7.487        Y3.424
   X8.103        Y3.897
   X8.576        Y4.513
   X8.873        Y5.230
   X8.974        Y6.000
   X8.873        Y6.770
   X8.576        Y7.487
   X8.103        Y8.103
G0   Z10.0

G10 P2 L20 X800 Y1200
G55
G0   Z4.000
   X7.800        Y4.488
G1   Z-3.000     F150
   Y7.512
G0   Z10.0 X8.103 Y8.103
G1   Z-3.000     F150
   X7.487        Y8.576
   X6.770        Y8.873
   X6.000        Y8.974
   X5.230        Y8.873
   X4.513        Y8.576
   X3.897        Y8.103
   X3.424        Y7.487
   X3.127        Y6.770
   X3.026        Y6.000
   X3.127        Y5.230
   X3.424        Y4.513
   X3.897        Y3.897
   X4.513        Y3.424
   X5.230        Y3.127
   X6.000        Y3.026
   X6.770        Y3.127
   X7.487        Y3.424
   X8.103        Y3.897
   X8.576        Y4.513
   X8.873        Y5.230
   X8.974        Y6.000
   X8.873        Y6.770
   X8.576        Y7.487
   X8.103        Y8.103
G0   Z10.0

G10 P2 L20 X900 Y1200
G55
G0   Z4.000
   X7.800        Y4.488
G1   Z-3.000     F150
   Y7.512
G0   Z10.0 X8.103 Y8.103
G1   Z-3.000     F150
   X7.487        Y8.576
   X6.770        Y8.873
   X6.000        Y8.974
   X5.230        Y8.873
   X4.513        Y8.576
   X3.897        Y8.103
   X3.424        Y7.487
   X3.127        Y6.770
   X3.026        Y6.000
   X3.127        Y5.230
   X3.424        Y4.513
   X3.897        Y3.897
   X4.513        Y3.424
   X5.230        Y3.127
   X6.000        Y3.026
   X6.770        Y3.127
   X7.487        Y3.424
   X8.103        Y3.897
   X8.576        Y4.513
   X8.873        Y5.230
   X8.974        Y6.000
   X8.873        Y6.770
   X8.576        Y7.487
   X8.103        Y8.103
G0   Z10.0

G10 P2 L20 X1000 Y1200
G55
G0   Z4.000
   X7.800        Y4.488
G1   Z-3.000     F150
   Y7.512
G0   Z10.0 X8.103 Y8.103
G1   Z-3.000     F150
   X7.487        Y8.576
   X6.770        Y8.873
   X6.000        Y8.974
   X5.230        Y8.873
   X4.513        Y8.576
   X3.897        Y8.103
   X3.424        Y7.487
   X3.127        Y6.770
   X3.026        Y6.000
   X3.127        Y5.230
   X3.424        Y4.513
   X3.897        Y3.897
   X4.513        Y3.424
   X5.230        Y3.127
   X6.000        Y3.026
   X6.770        Y3.127
   X7.487        Y3.424
   X8.103        Y3.897
   X8.576        Y4.513
   X8.873        Y5.230
   X8.974        Y6.000
   X8.873        Y6.770
   X8.576        Y7.487
   X8.103        Y8.103
G0   Z10.0

G10 P2 L20 X1100 Y1200
G55
G0   Z4.000
   X7.800        Y4.488
G1   Z-3.000     F150
   Y7.512
G0   Z10.0 X8.103 Y8.103
G1   Z-3.000     F150
   X7.487        Y8.576
   X6.770        Y8.873
   X6.000        Y8.974
   X5.230        Y8.873
   X4.513        Y8.576
   X3.897        Y8.103
   X3.424        Y7.487
   X3.127        Y6.770
   X3.026        Y6.000
   X3.127        Y5.230
   X3.424        Y4.513
   X3.897        Y3.897
   X4.513        Y3.424
   X5.230        Y3.127
   X6.000        Y3.026
   X6.770        Y3.127
   X7.487        Y3.424
   X8.103        Y3.897
   X8.576        Y4.513
   X8.873        Y5.230
   X8.974        Y6.000
   X8.873        Y6.770
   X8.576        Y7.487
   X8.103        Y8.103
G0   Z10.0

G10 P2 L20 X100 Y1300
G55
G0   Z4.000
   X7.800        Y4.488
G1   Z-3.000     F150
   Y7.512
G0   Z10.0 X8.103 Y8.103
G1   Z-3.000     F150
   X7.487        Y8.576
   X6.770        Y8.873
   X6.000        Y8.974
   X5.230        Y8.873
   X4.513        Y8.576
   X3.897        Y8.103
   X3.424        Y7.487
   X3.127        Y6.770
   X3.026        Y6.000
   X3.127        Y5.230
   X3.424        Y4.513
   X3.897        Y3.897
   X4.513        Y3.424
   X5.230        Y3.127
   X6.000        Y3.026
   X6.770        Y3.127
   X7.487        Y3.424
   X8.103        Y3.897
   X8.576        Y4.513
   X8.873        Y5.230
   X8.974        Y6.000
   X8.873        Y6.770
   X8.576        Y7.487
   X8.103        Y8.103
G0   Z10.0

G10 P2 L20 X200 Y1300
G55
G0   Z4.000
   X7.800        Y4.488
G1   Z-3.000     F150
   Y7.512
G0   Z10.0 X8.103 Y8.103
G1   Z-3.000     F150
   X7.487        Y8.576
   X6.770        Y8.873
   X6.000        Y8.974
   X5.230        Y8.873
   X4.513        Y8.576
   X3.897        Y8.103
   X3.424        Y7.487
   X3.127        Y6.770
   X3.026        Y6.000
   X3.127        Y5.230
   X3.424        Y4.513
   X3.897        Y3.897
   X4.513        Y3.424
   X5.230        Y3.127
   X6.000        Y3.026
   X6.770        Y3.127
   X7.487        Y3.424
   X8.103        Y3.897
   X8.576        Y4.513
   X8.873        Y5.230
   X8.974        Y6.000
   X8.873        Y6.770
   X8.576        Y7.487
   X8.103        Y8.103
G0   Z10.0

G10 P2 L20 X300 Y1300
G55
G0   Z4.000
   X7.800        Y4.488
G1   Z-3.000     F150
   Y7.512
G0   Z10.0 X8.103 Y8.103
G1   Z-3.000     F150
   X7.487        Y8.576
   X6.770        Y8.873
   X6.000        Y8.974
   X5.230        Y8.873
   X4.513        Y8.576
   X3.897        Y8.103
   X3.424        Y7.487
   X3.127        Y6.770
   X3.026        Y6.000
   X3.127        Y5.230
   X3.424        Y4.513
   X3.897        Y3.897
   X4.513        Y3.424
   X5.230        Y3.127
   X6.000        Y3.026
   X6.770        Y3.127
   X7.487        Y3.424
   X8.103        Y3.897
   X8.576        Y4.513
   X8.873        Y5.230
   X8.974        Y6.000
   X8.873        Y6.770
   X8.576        Y7.487
   X8.103        Y8.103
G0   Z10.0

G10 P2 L20 X400 Y1300
G55
G0   Z4.000
   X7.800        Y4.488
G1   Z-3.000     F150
   Y7.512
G0   Z10.0 X8.103 Y8.103
G1   Z-3.000     F150
   X7.487        Y8.576
   X6.770        Y8.873
   X6.000        Y8.974
   X5.230        Y8.873
   X4.513        Y8.576
   X3.897        Y8.103
   X3.424        Y7.487
   X3.127        Y6.770
   X3.026        Y6.000
   X3.127        Y5.230
   X3.424        Y4.513
   X3.897        Y3.897
   X4.513        Y3.424
   X5.230        Y3.127
   X6.000        Y3.026
   X6.770        Y3.127
   X7.487        Y3.424
   X8.103        Y3.897
   X8.576        Y4.513
   X8.873        Y5.230
   X8.974        Y6.000
   X8.873        Y6.770
   X8.576        Y7.487
   X8.103        Y8.103
G0   Z10.0

G10 P2 L20 X500 Y1300
G55
G0   Z4.000
   X7.800        Y4.488
G1   Z-3.000     F150
   Y7.512
G0   Z10.0 X8.103 Y8.103
G1   Z-3.000     F150
   X7.487        Y8.576
   X6.770        Y8.873
   X6.000        Y8.974
   X5.230        Y8.873
   X4.513        Y8.576
   X3.897        Y8.103
   X3.424        Y7.487
   X3.127        Y6.770
   X3.026        Y6.000
   X3.127        Y5.230
   X3.424        Y4.513
   X3.897        Y3.897
   X4.513        Y3.424
   X5.230        Y3.127
   X6.000        Y3.026
   X6.770        Y3.127
   X7.487        Y3.424
   X8.103        Y3.897
   X8.576        Y4.513
