%
(Generated by SketchUcam V1.3a)
(File: Y Drive Mount.skp)
(Bit diameter: 4.0mm)
(Feed rate: 200.0mm/min)
(Plunge Feed rate: 40.0mm/min)
(Material Thickness: 9.0mm)
(Material length: 2200.0mm X width: 1200.0mm)
(Overhead Gantry: true)
(Optimization is ON)
(www.PhlatBoyz.com)
G90 G21 G49  G17
M3 S8000
G00 Z10.000
 X15.700 Y20.000
(plungebore  DEPTH=9.900  DIAM=4.000)
G00 Z3.333
G01 Z-9.900 F40  
G00 Z3.333
G00 Y20.000 Z10.000
(plungebore end)
G00 Y132.500
(plungebore  DEPTH=9.900  DIAM=4.000)
G00 Z3.333
G01 Z-9.900 F40  
G00 Z3.333
G00 Y132.500 Z10.000
(plungebore end)
G00 X436.400 Y52.650
(plungebore  DEPTH=9.900  DIAM=4.000)
G00 Z3.333
G01 Z-9.900 F40  
G00 Z3.333
G00 Y52.650 Z10.000
(plungebore end)
G00 Y99.850
(plungebore  DEPTH=9.900  DIAM=4.000)
G00 Z3.333
G01 Z-9.900 F40  
G00 Z3.333
G00 Y99.850 Z10.000
(plungebore end)
G00 X460.000 Y52.650
(plungebore  DEPTH=9.900  DIAM=4.000)
G00 Z3.333
G01 Z-9.900 F40  
G00 Z3.333
G00 Y52.650 Z10.000
(plungebore end)
G00 Y76.250
(plungebore  DEPTH=9.900  DIAM=4.000)
G00 Z3.333
G01 Z-9.900 F40  
G00 Z3.333
G00 Y76.250 Z10.000
(plungebore end)
G00 Y99.850
(plungebore  DEPTH=9.900  DIAM=4.000)
G00 Z3.333
G01 Z-9.900 F40  
G00 Z3.333
G00 Y99.850 Z10.000
(plungebore end)
G00 X483.600 Y52.650
(plungebore  DEPTH=9.900  DIAM=4.000)
G00 Z3.333
G01 Z-9.900 F40  
G00 Z3.333
G00 Y52.650 Z10.000
(plungebore end)
G00 Y99.850
(plungebore  DEPTH=9.900  DIAM=4.000)
G00 Z3.333
G01 Z-9.900 F40  
G00 Z3.333
G00 Y99.850 Z10.000
(plungebore end)
G00 X634.300 Y20.000
(plungebore  DEPTH=9.900  DIAM=4.000)
G00 Z3.333
G01 Z-9.900 F40  
G00 Z3.333
G00 Y20.000 Z10.000
(plungebore end)
G00 Y132.500
(plungebore  DEPTH=9.900  DIAM=4.000)
G00 Z3.333
G01 Z-9.900 F40  
G00 Z3.333
G00 Y132.500 Z10.000
(plungebore end)
G00 X0 Y0 (home)
M05
M30
%
