%
(Generated by SketchUcam {1.2a})
(File: ZAxis4mmDrills.skp)
(Bit diameter: 4.0mm)
(Feed rate: 100.0mm/min)
(Plunge Feed rate: 25.0mm/min)
(Material Thickness: 6.3mm)
(Material length: 558.8mm X width: 1066.8mm)
(Overhead Gantry: true)
(Retract feed rate NOT limited to plunge feed rate)
(Optimization is ON)
(www.PhlatBoyz.com)
G90 G21 G49 
M3 S10000
G0   Z5.000     
   X77.057       Y9.992     
G1   Z-7.560     F25  
G0   Z5.000     
   X123.000   
G1   Z-7.560     F25  
G0   Z5.000     
   X195.000      Y50.000    
G1   Z-7.560     F25  
G0   Z5.000     
   X165.000   
G1   Z-7.560     F25  
G0   Z5.000     
   X35.000    
G1   Z-7.560     F25  
G0   Z5.000     
   X5.000     
G1   Z-7.560     F25  
G0   Z5.000     
   Y200.000   
G1   Z-7.560     F25  
G0   Z5.000     
   X35.000    
G1   Z-7.560     F25  
G0   Z5.000     
   X165.000   
G1   Z-7.560     F25  
G0   Z5.000     
   X195.000   
G1   Z-7.560     F25  
G0   Z5.000     
   Y350.000   
G1   Z-7.560     F25  
G0   Z5.000     
   X165.000   
G1   Z-7.560     F25  
G0   Z5.000     
   X122.952      Y361.006   
G1   Z-7.560     F25  
G0   Z5.000     
   Y373.978   
G1   Z-7.560     F25  
G0   Z5.000     
   X76.951       Y374.028   
G1   Z-7.560     F25  
G0   Z5.000     
   Y360.995   
G1   Z-7.560     F25  
G0   Z5.000     
   X35.000       Y350.000   
G1   Z-7.560     F25  
G0   Z5.000     
   X5.000     
G1   Z-7.560     F25  
G0   Z5.000     
G0 X0 Y0 (home)
M05
M30
%
