%
(Generated by SketchUcam V1.3a)
(File: ZAxisPlate.skp)
(Bit diameter: 4.0mm)
(Feed rate: 40.0mm/min)
(Material Thickness: 12.7mm)
(Material length: 2200.0mm X width: 1200.0mm)
(Overhead Gantry: true)
(Multipass enabled, Depth = 5.0mm)
(Optimization is ON)
(www.PhlatBoyz.com)
G90 G21 G49  G17
M3 S8000
G00 Z10.000
(Pass: 1)
 X57.000 Y142.500
(plungebore  DEPTH=14.605  DIAM=4.000)
G00 Z3.333
G01 Z-5.000 F40  
G00 Z3.333
G01 Z-10.000
G00 Z3.333
G01 Z-14.605
G00 Z3.333
G00 Y142.500 Z10.000
(plungebore end)
(Pass: 1)
G00 Y112.500
(plungebore  DEPTH=14.605  DIAM=4.000)
G00 Z3.333
G01 Z-5.000 F40  
G00 Z3.333
G01 Z-10.000
G00 Z3.333
G01 Z-14.605
G00 Z3.333
G00 Y112.500 Z10.000
(plungebore end)
(Pass: 1)
G00 Y87.500
(plungebore  DEPTH=14.605  DIAM=4.000)
G00 Z3.333
G01 Z-5.000 F40  
G00 Z3.333
G01 Z-10.000
G00 Z3.333
G01 Z-14.605
G00 Z3.333
G00 Y87.500 Z10.000
(plungebore end)
(Pass: 1)
G00 Y57.500
(plungebore  DEPTH=14.605  DIAM=4.000)
G00 Z3.333
G01 Z-5.000 F40  
G00 Z3.333
G01 Z-10.000
G00 Z3.333
G01 Z-14.605
G00 Z3.333
G00 Y57.500 Z10.000
(plungebore end)
(Pass: 1)
G00 X74.700 Y112.500
(plungebore  DEPTH=14.605  DIAM=4.000)
G00 Z3.333
G01 Z-5.000 F40  
G00 Z3.333
G01 Z-10.000
G00 Z3.333
G01 Z-14.605
G00 Z3.333
G00 Y112.500 Z10.000
(plungebore end)
(Pass: 1)
G00 Y87.500
(plungebore  DEPTH=14.605  DIAM=4.000)
G00 Z3.333
G01 Z-5.000 F40  
G00 Z3.333
G01 Z-10.000
G00 Z3.333
G01 Z-14.605
G00 Z3.333
G00 Y87.500 Z10.000
(plungebore end)
(Pass: 1)
G00 X119.700 Y112.500
(plungebore  DEPTH=14.605  DIAM=4.000)
G00 Z3.333
G01 Z-5.000 F40  
G00 Z3.333
G01 Z-10.000
G00 Z3.333
G01 Z-14.605
G00 Z3.333
G00 Y112.500 Z10.000
(plungebore end)
(Pass: 1)
G00 Y87.500
(plungebore  DEPTH=14.605  DIAM=4.000)
G00 Z3.333
G01 Z-5.000 F40  
G00 Z3.333
G01 Z-10.000
G00 Z3.333
G01 Z-14.605
G00 Z3.333
G00 Y87.500 Z10.000
(plungebore end)
(Pass: 1)
G00 X137.400 Y142.500
(plungebore  DEPTH=14.605  DIAM=4.000)
G00 Z3.333
G01 Z-5.000 F40  
G00 Z3.333
G01 Z-10.000
G00 Z3.333
G01 Z-14.605
G00 Z3.333
G00 Y142.500 Z10.000
(plungebore end)
(Pass: 1)
G00 Y112.500
(plungebore  DEPTH=14.605  DIAM=4.000)
G00 Z3.333
G01 Z-5.000 F40  
G00 Z3.333
G01 Z-10.000
G00 Z3.333
G01 Z-14.605
G00 Z3.333
G00 Y112.500 Z10.000
(plungebore end)
(Pass: 1)
G00 Y87.500
(plungebore  DEPTH=14.605  DIAM=4.000)
G00 Z3.333
G01 Z-5.000 F40  
G00 Z3.333
G01 Z-10.000
G00 Z3.333
G01 Z-14.605
G00 Z3.333
G00 Y87.500 Z10.000
(plungebore end)
(Pass: 1)
G00 Y57.500
(plungebore  DEPTH=14.605  DIAM=4.000)
G00 Z3.333
G01 Z-5.000 F40  
G00 Z3.333
G01 Z-10.000
G00 Z3.333
G01 Z-14.605
G00 Z3.333
G00 Y57.500 Z10.000
(plungebore end)
(Pass: 1)
G00 X169.400 Y142.500
(plungebore  DEPTH=14.605  DIAM=4.000)
G00 Z3.333
G01 Z-5.000 F40  
G00 Z3.333
G01 Z-10.000
G00 Z3.333
G01 Z-14.605
G00 Z3.333
G00 Y142.500 Z10.000
(plungebore end)
(Pass: 1)
G00 Y112.500
(plungebore  DEPTH=14.605  DIAM=4.000)
G00 Z3.333
G01 Z-5.000 F40  
G00 Z3.333
G01 Z-10.000
G00 Z3.333
G01 Z-14.605
G00 Z3.333
G00 Y112.500 Z10.000
(plungebore end)
(Pass: 1)
G00 Y87.500
(plungebore  DEPTH=14.605  DIAM=4.000)
G00 Z3.333
G01 Z-5.000 F40  
G00 Z3.333
G01 Z-10.000
G00 Z3.333
G01 Z-14.605
G00 Z3.333
G00 Y87.500 Z10.000
(plungebore end)
(Pass: 1)
G00 Y57.500
(plungebore  DEPTH=14.605  DIAM=4.000)
G00 Z3.333
G01 Z-5.000 F40  
G00 Z3.333
G01 Z-10.000
G00 Z3.333
G01 Z-14.605
G00 Z3.333
G00 Y57.500 Z10.000
(plungebore end)
(Pass: 1)
G00 X200.000 Y195.000
(plungebore  DEPTH=14.605  DIAM=4.000)
G00 Z3.333
G01 Z-5.000 F40  
G00 Z3.333
G01 Z-10.000
G00 Z3.333
G01 Z-14.605
G00 Z3.333
G00 Y195.000 Z10.000
(plungebore end)
(Pass: 1)
G00 Y165.000
(plungebore  DEPTH=14.605  DIAM=4.000)
G00 Z3.333
G01 Z-5.000 F40  
G00 Z3.333
G01 Z-10.000
G00 Z3.333
G01 Z-14.605
G00 Z3.333
G00 Y165.000 Z10.000
(plungebore end)
(Pass: 1)
G00 Y35.000
(plungebore  DEPTH=14.605  DIAM=4.000)
G00 Z3.333
G01 Z-5.000 F40  
G00 Z3.333
G01 Z-10.000
G00 Z3.333
G01 Z-14.605
G00 Z3.333
G00 Y35.000 Z10.000
(plungebore end)
(Pass: 1)
G00 Y5.000
(plungebore  DEPTH=14.605  DIAM=4.000)
G00 Z3.333
G01 Z-5.000 F40  
G00 Z3.333
G01 Z-10.000
G00 Z3.333
G01 Z-14.605
G00 Z3.333
G00 Y5.000 Z10.000
(plungebore end)
(Pass: 1)
G00 X350.000 Y195.000
(plungebore  DEPTH=14.605  DIAM=4.000)
G00 Z3.333
G01 Z-5.000 F40  
G00 Z3.333
G01 Z-10.000
G00 Z3.333
G01 Z-14.605
G00 Z3.333
G00 Y195.000 Z10.000
(plungebore end)
(Pass: 1)
G00 Y165.000
(plungebore  DEPTH=14.605  DIAM=4.000)
G00 Z3.333
G01 Z-5.000 F40  
G00 Z3.333
G01 Z-10.000
G00 Z3.333
G01 Z-14.605
G00 Z3.333
G00 Y165.000 Z10.000
(plungebore end)
(Pass: 1)
G00 Y35.000
(plungebore  DEPTH=14.605  DIAM=4.000)
G00 Z3.333
G01 Z-5.000 F40  
G00 Z3.333
G01 Z-10.000
G00 Z3.333
G01 Z-14.605
G00 Z3.333
G00 Y35.000 Z10.000
(plungebore end)
(Pass: 1)
G00 Y5.000
(plungebore  DEPTH=14.605  DIAM=4.000)
G00 Z3.333
G01 Z-5.000 F40  
G00 Z3.333
G01 Z-10.000
G00 Z3.333
G01 Z-14.605
G00 Z3.333
G00 Y5.000 Z10.000
(plungebore end)
(Pass: 1)
G00 X360.995 Y123.058
(plungebore  DEPTH=14.605  DIAM=4.000)
G00 Z3.333
G01 Z-5.000 F40  
G00 Z3.333
G01 Z-10.000
G00 Z3.333
G01 Z-14.605
G00 Z3.333
G00 Y123.058 Z10.000
(plungebore end)
(Pass: 1)
G00 Y77.048
(plungebore  DEPTH=14.605  DIAM=4.000)
G00 Z3.333
G01 Z-5.000 F40  
G00 Z3.333
G01 Z-10.000
G00 Z3.333
G01 Z-14.605
G00 Z3.333
G00 Y77.048 Z10.000
(plungebore end)
(Pass: 1)
G00 X374.028 Y123.049
(plungebore  DEPTH=14.605  DIAM=4.000)
G00 Z3.333
G01 Z-5.000 F40  
G00 Z3.333
G01 Z-10.000
G00 Z3.333
G01 Z-14.605
G00 Z3.333
G00 Y123.049 Z10.000
(plungebore end)
(Pass: 1)
G00 X373.978 Y77.073
(plungebore  DEPTH=14.605  DIAM=4.000)
G00 Z3.333
G01 Z-5.000 F40  
G00 Z3.333
G01 Z-10.000
G00 Z3.333
G01 Z-14.605
G00 Z3.333
G00 Y77.073 Z10.000
(plungebore end)
(Pass: 1)
G00 X412.000 Y180.000
(plungebore  DEPTH=14.605  DIAM=4.000)
G00 Z3.333
G01 Z-5.000 F40  
G00 Z3.333
G01 Z-10.000
G00 Z3.333
G01 Z-14.605
G00 Z3.333
G00 Y180.000 Z10.000
(plungebore end)
(Pass: 1)
G00 Y20.000
(plungebore  DEPTH=14.605  DIAM=4.000)
G00 Z3.333
G01 Z-5.000 F40  
G00 Z3.333
G01 Z-10.000
G00 Z3.333
G01 Z-14.605
G00 Z3.333
G00 Y20.000 Z10.000
(plungebore end)
(Pass: 1)
G00 X10.000 Y77.000
(plungebore  DEPTH=14.605  DIAM=4.000)
G00 Z3.333
G01 Z-5.000 F40  
G00 Z3.333
G01 Z-10.000
G00 Z3.333
G01 Z-14.605
G00 Z3.333
G00 Y77.000 Z10.000
(plungebore end)
(Pass: 1)
G00 Y122.943
(plungebore  DEPTH=14.605  DIAM=4.000)
G00 Z3.333
G01 Z-5.000 F40  
G00 Z3.333
G01 Z-10.000
G00 Z3.333
G01 Z-14.605
G00 Z3.333
G00 Y122.943 Z10.000
(plungebore end)
(Pass: 1)
G00 X25.000 Y142.500
(plungebore  DEPTH=14.605  DIAM=4.000)
G00 Z3.333
G01 Z-5.000 F40  
G00 Z3.333
G01 Z-10.000
G00 Z3.333
G01 Z-14.605
G00 Z3.333
G00 Y142.500 Z10.000
(plungebore end)
(Pass: 1)
G00 Y112.500
(plungebore  DEPTH=14.605  DIAM=4.000)
G00 Z3.333
G01 Z-5.000 F40  
G00 Z3.333
G01 Z-10.000
G00 Z3.333
G01 Z-14.605
G00 Z3.333
G00 Y112.500 Z10.000
(plungebore end)
(Pass: 1)
G00 Y87.500
(plungebore  DEPTH=14.605  DIAM=4.000)
G00 Z3.333
G01 Z-5.000 F40  
G00 Z3.333
G01 Z-10.000
G00 Z3.333
G01 Z-14.605
G00 Z3.333
G00 Y87.500 Z10.000
(plungebore end)
(Pass: 1)
G00 Y57.500
(plungebore  DEPTH=14.605  DIAM=4.000)
G00 Z3.333
G01 Z-5.000 F40  
G00 Z3.333
G01 Z-10.000
G00 Z3.333
G01 Z-14.605
G00 Z3.333
G00 Y57.500 Z10.000
(plungebore end)
(Pass: 1)
G00 X50.000 Y195.000
(plungebore  DEPTH=14.605  DIAM=4.000)
G00 Z3.333
G01 Z-5.000 F40  
G00 Z3.333
G01 Z-10.000
G00 Z3.333
G01 Z-14.605
G00 Z3.333
G00 Y195.000 Z10.000
(plungebore end)
(Pass: 1)
G00 Y165.000
(plungebore  DEPTH=14.605  DIAM=4.000)
G00 Z3.333
G01 Z-5.000 F40  
G00 Z3.333
G01 Z-10.000
G00 Z3.333
G01 Z-14.605
G00 Z3.333
G00 Y165.000 Z10.000
(plungebore end)
(Pass: 1)
G00 Y35.000
(plungebore  DEPTH=14.605  DIAM=4.000)
G00 Z3.333
G01 Z-5.000 F40  
G00 Z3.333
G01 Z-10.000
G00 Z3.333
G01 Z-14.605
G00 Z3.333
G00 Y35.000 Z10.000
(plungebore end)
(Pass: 1)
G00 Y5.000
(plungebore  DEPTH=14.605  DIAM=4.000)
G00 Z3.333
G01 Z-5.000 F40  
G00 Z3.333
G01 Z-10.000
G00 Z3.333
G01 Z-14.605
G00 Z3.333
G00 Y5.000 Z10.000
(plungebore end)
G00 X0 Y0 (home)
M05
M30
%
