%
(Generated by SketchUcam {1.2a})
(File: ZAxis6mmDrills.skp)
(Bit diameter: 6.0mm)
(Feed rate: 100.0mm/min)
(Plunge Feed rate: 25.0mm/min)
(Material Thickness: 6.3mm)
(Material length: 558.8mm X width: 1066.8mm)
(Overhead Gantry: true)
(Retract feed rate NOT limited to plunge feed rate)
(Optimization is ON)
(www.PhlatBoyz.com)
G90 G21 G49 
M3 S10000
G0   Z5.000     
   X57.500       Y25.000    
G1   Z-7.560     F25  
G0   Z5.000     
   X87.500    
G1   Z-7.560     F25  
G0   Z5.000     
   X112.500   
G1   Z-7.560     F25  
G0   Z5.000     
   X142.500   
G1   Z-7.560     F25  
G0   Z5.000     
   Y57.000    
G1   Z-7.560     F25  
G0   Z5.000     
   X112.500   
G1   Z-7.560     F25  
G0   Z5.000     
   X87.500    
G1   Z-7.560     F25  
G0   Z5.000     
   X57.500    
G1   Z-7.560     F25  
G0   Z5.000     
   X87.500       Y74.700    
G1   Z-7.560     F25  
G0   Z5.000     
   X112.500   
G1   Z-7.560     F25  
G0   Z5.000     
   Y119.700   
G1   Z-7.560     F25  
G0   Z5.000     
   X87.500    
G1   Z-7.560     F25  
G0   Z5.000     
   X57.500       Y137.400   
G1   Z-7.560     F25  
G0   Z5.000     
   X87.500    
G1   Z-7.560     F25  
G0   Z5.000     
   X112.500   
G1   Z-7.560     F25  
G0   Z5.000     
   X142.500   
G1   Z-7.560     F25  
G0   Z5.000     
   Y169.400   
G1   Z-7.560     F25  
G0   Z5.000     
   X112.500   
G1   Z-7.560     F25  
G0   Z5.000     
   X87.500    
G1   Z-7.560     F25  
G0   Z5.000     
   X57.500    
G1   Z-7.560     F25  
G0   Z5.000     
G0 X0 Y0 (home)
M05
M30
%
