%
(Generated by SketchUcam V1.3a)
(File: ZAxisPlate.skp)
(Bit diameter: 4.0mm)
(Feed rate: 400.0mm/min)
(Plunge Feed rate: 40.0mm/min)
(Material Thickness: 12.7mm)
(Material length: 2200.0mm X width: 1200.0mm)
(Overhead Gantry: true)
(Optimization is ON)
(www.PhlatBoyz.com)
G90 G21 G49  G17
M3 S8000
G00 Z10.000
 X77.057 Y9.992
(plungebore  DEPTH=14.605  DIAM=4.000)
G00 Z3.333
G01 Z-14.605 F40  
G00 Z3.333
G00 Y9.992 Z10.000
(plungebore end)
G00 X123.000
(plungebore  DEPTH=14.605  DIAM=4.000)
G00 Z3.333
G01 Z-14.605 F40  
G00 Z3.333
G00 Y10.000 Z10.000
(plungebore end)
(Group: _diam_6.499999999999999mm)
G00 X57.500 Y25.000
(plungebore  DEPTH=14.605  DIAM=6.500)
G00 Z3.333
G01 Z-14.605 F40  
G00 Z3.333
G00 Y23.7500
G01 Z0.0000 F400 
G03 X58.7500 Y25.0000 Z-0.4564 I0.0000 J1.2500
G03 X57.5000 Y26.2500 Z-0.9128 I-1.2500 J0.0000
G03 X56.2500 Y25.0000 Z-1.3692 I0.0000 J-1.2500
G03 X57.5000 Y23.7500 Z-1.8256 I1.2500 J0.0000
G03 X58.7500 Y25.0000 Z-2.2820 I0.0000 J1.2500
G03 X57.5000 Y26.2500 Z-2.7384 I-1.2500 J0.0000
G03 X56.2500 Y25.0000 Z-3.1948 I0.0000 J-1.2500
G03 X57.5000 Y23.7500 Z-3.6512 I1.2500 J0.0000
G03 X58.7500 Y25.0000 Z-4.1077 I0.0000 J1.2500
G03 X57.5000 Y26.2500 Z-4.5641 I-1.2500 J0.0000
G03 X56.2500 Y25.0000 Z-5.0205 I0.0000 J-1.2500
G03 X57.5000 Y23.7500 Z-5.4769 I1.2500 J0.0000
G03 X58.7500 Y25.0000 Z-5.9333 I0.0000 J1.2500
G03 X57.5000 Y26.2500 Z-6.3897 I-1.2500 J0.0000
G03 X56.2500 Y25.0000 Z-6.8461 I0.0000 J-1.2500
G03 X57.5000 Y23.7500 Z-7.3025 I1.2500 J0.0000
G03 X58.7500 Y25.0000 Z-7.7589 I0.0000 J1.2500
G03 X57.5000 Y26.2500 Z-8.2153 I-1.2500 J0.0000
G03 X56.2500 Y25.0000 Z-8.6717 I0.0000 J-1.2500
G03 X57.5000 Y23.7500 Z-9.1281 I1.2500 J0.0000
G03 X58.7500 Y25.0000 Z-9.5845 I0.0000 J1.2500
G03 X57.5000 Y26.2500 Z-10.0409 I-1.2500 J0.0000
G03 X56.2500 Y25.0000 Z-10.4973 I0.0000 J-1.2500
G03 X57.5000 Y23.7500 Z-10.9537 I1.2500 J0.0000
G03 X58.7500 Y25.0000 Z-11.4102 I0.0000 J1.2500
G03 X57.5000 Y26.2500 Z-11.8666 I-1.2500 J0.0000
G03 X56.2500 Y25.0000 Z-12.3230 I0.0000 J-1.2500
G03 X57.5000 Y23.7500 Z-12.7794 I1.2500 J0.0000
G03 X58.7500 Y25.0000 Z-13.2358 I0.0000 J1.2500
G03 X57.5000 Y26.2500 Z-13.6922 I-1.2500 J0.0000
G03 X56.2500 Y25.0000 Z-14.1486 I0.0000 J-1.2500
G03 X57.5000 Y23.7500 Z-14.6050 I1.2500 J0.0000
G03 X58.7500 Y25.0000 I0.0000 J1.2500
G03 X57.5000 Y26.2500 I-1.2500 J0.0000
G03 X56.2500 Y25.0000 I0.0000 J-1.2500
G03 X57.5000 Y23.7500 I1.2500 J0.0000
G00 Y25.000 Z10.000
(plungebore end)
(Group complete: _diam_6.499999999999999mm)
(Group: _diam_6.499999999999999mm)
G00 X87.500
(plungebore  DEPTH=14.605  DIAM=6.500)
G00 Z3.333
G01 Z-14.605 F40  
G00 Z3.333
G00 Y23.7500
G01 Z0.0000 F400 
G03 X88.7500 Y25.0000 Z-0.4564 I0.0000 J1.2500
G03 X87.5000 Y26.2500 Z-0.9128 I-1.2500 J0.0000
G03 X86.2500 Y25.0000 Z-1.3692 I0.0000 J-1.2500
G03 X87.5000 Y23.7500 Z-1.8256 I1.2500 J0.0000
G03 X88.7500 Y25.0000 Z-2.2820 I0.0000 J1.2500
G03 X87.5000 Y26.2500 Z-2.7384 I-1.2500 J0.0000
G03 X86.2500 Y25.0000 Z-3.1948 I0.0000 J-1.2500
G03 X87.5000 Y23.7500 Z-3.6512 I1.2500 J0.0000
G03 X88.7500 Y25.0000 Z-4.1077 I0.0000 J1.2500
G03 X87.5000 Y26.2500 Z-4.5641 I-1.2500 J0.0000
G03 X86.2500 Y25.0000 Z-5.0205 I0.0000 J-1.2500
G03 X87.5000 Y23.7500 Z-5.4769 I1.2500 J0.0000
G03 X88.7500 Y25.0000 Z-5.9333 I0.0000 J1.2500
G03 X87.5000 Y26.2500 Z-6.3897 I-1.2500 J0.0000
G03 X86.2500 Y25.0000 Z-6.8461 I0.0000 J-1.2500
G03 X87.5000 Y23.7500 Z-7.3025 I1.2500 J0.0000
G03 X88.7500 Y25.0000 Z-7.7589 I0.0000 J1.2500
G03 X87.5000 Y26.2500 Z-8.2153 I-1.2500 J0.0000
G03 X86.2500 Y25.0000 Z-8.6717 I0.0000 J-1.2500
G03 X87.5000 Y23.7500 Z-9.1281 I1.2500 J0.0000
G03 X88.7500 Y25.0000 Z-9.5845 I0.0000 J1.2500
G03 X87.5000 Y26.2500 Z-10.0409 I-1.2500 J0.0000
G03 X86.2500 Y25.0000 Z-10.4973 I0.0000 J-1.2500
G03 X87.5000 Y23.7500 Z-10.9537 I1.2500 J0.0000
G03 X88.7500 Y25.0000 Z-11.4102 I0.0000 J1.2500
G03 X87.5000 Y26.2500 Z-11.8666 I-1.2500 J0.0000
G03 X86.2500 Y25.0000 Z-12.3230 I0.0000 J-1.2500
G03 X87.5000 Y23.7500 Z-12.7794 I1.2500 J0.0000
G03 X88.7500 Y25.0000 Z-13.2358 I0.0000 J1.2500
G03 X87.5000 Y26.2500 Z-13.6922 I-1.2500 J0.0000
G03 X86.2500 Y25.0000 Z-14.1486 I0.0000 J-1.2500
G03 X87.5000 Y23.7500 Z-14.6050 I1.2500 J0.0000
G03 X88.7500 Y25.0000 I0.0000 J1.2500
G03 X87.5000 Y26.2500 I-1.2500 J0.0000
G03 X86.2500 Y25.0000 I0.0000 J-1.2500
G03 X87.5000 Y23.7500 I1.2500 J0.0000
G00 Y25.000 Z10.000
(plungebore end)
(Group complete: _diam_6.499999999999999mm)
(Group: _diam_6.499999999999999mm)
G00 X112.500
(plungebore  DEPTH=14.605  DIAM=6.500)
G00 Z3.333
G01 Z-14.605 F40  
G00 Z3.333
G00 Y23.7500
G01 Z0.0000 F400 
G03 X113.7500 Y25.0000 Z-0.4564 I0.0000 J1.2500
G03 X112.5000 Y26.2500 Z-0.9128 I-1.2500 J0.0000
G03 X111.2500 Y25.0000 Z-1.3692 I0.0000 J-1.2500
G03 X112.5000 Y23.7500 Z-1.8256 I1.2500 J0.0000
G03 X113.7500 Y25.0000 Z-2.2820 I0.0000 J1.2500
G03 X112.5000 Y26.2500 Z-2.7384 I-1.2500 J0.0000
G03 X111.2500 Y25.0000 Z-3.1948 I0.0000 J-1.2500
G03 X112.5000 Y23.7500 Z-3.6512 I1.2500 J0.0000
G03 X113.7500 Y25.0000 Z-4.1077 I0.0000 J1.2500
G03 X112.5000 Y26.2500 Z-4.5641 I-1.2500 J0.0000
G03 X111.2500 Y25.0000 Z-5.0205 I0.0000 J-1.2500
G03 X112.5000 Y23.7500 Z-5.4769 I1.2500 J0.0000
G03 X113.7500 Y25.0000 Z-5.9333 I0.0000 J1.2500
G03 X112.5000 Y26.2500 Z-6.3897 I-1.2500 J0.0000
G03 X111.2500 Y25.0000 Z-6.8461 I0.0000 J-1.2500
G03 X112.5000 Y23.7500 Z-7.3025 I1.2500 J0.0000
G03 X113.7500 Y25.0000 Z-7.7589 I0.0000 J1.2500
G03 X112.5000 Y26.2500 Z-8.2153 I-1.2500 J0.0000
G03 X111.2500 Y25.0000 Z-8.6717 I0.0000 J-1.2500
G03 X112.5000 Y23.7500 Z-9.1281 I1.2500 J0.0000
G03 X113.7500 Y25.0000 Z-9.5845 I0.0000 J1.2500
G03 X112.5000 Y26.2500 Z-10.0409 I-1.2500 J0.0000
G03 X111.2500 Y25.0000 Z-10.4973 I0.0000 J-1.2500
G03 X112.5000 Y23.7500 Z-10.9537 I1.2500 J0.0000
G03 X113.7500 Y25.0000 Z-11.4102 I0.0000 J1.2500
G03 X112.5000 Y26.2500 Z-11.8666 I-1.2500 J0.0000
G03 X111.2500 Y25.0000 Z-12.3230 I0.0000 J-1.2500
G03 X112.5000 Y23.7500 Z-12.7794 I1.2500 J0.0000
G03 X113.7500 Y25.0000 Z-13.2358 I0.0000 J1.2500
G03 X112.5000 Y26.2500 Z-13.6922 I-1.2500 J0.0000
G03 X111.2500 Y25.0000 Z-14.1486 I0.0000 J-1.2500
G03 X112.5000 Y23.7500 Z-14.6050 I1.2500 J0.0000
G03 X113.7500 Y25.0000 I0.0000 J1.2500
G03 X112.5000 Y26.2500 I-1.2500 J0.0000
G03 X111.2500 Y25.0000 I0.0000 J-1.2500
G03 X112.5000 Y23.7500 I1.2500 J0.0000
G00 Y25.000 Z10.000
(plungebore end)
(Group complete: _diam_6.499999999999999mm)
(Group: _diam_6.499999999999999mm)
G00 X142.500
(plungebore  DEPTH=14.605  DIAM=6.500)
G00 Z3.333
G01 Z-14.605 F40  
G00 Z3.333
G00 Y23.7500
G01 Z0.0000 F400 
G03 X143.7500 Y25.0000 Z-0.4564 I0.0000 J1.2500
G03 X142.5000 Y26.2500 Z-0.9128 I-1.2500 J0.0000
G03 X141.2500 Y25.0000 Z-1.3692 I0.0000 J-1.2500
G03 X142.5000 Y23.7500 Z-1.8256 I1.2500 J0.0000
G03 X143.7500 Y25.0000 Z-2.2820 I0.0000 J1.2500
G03 X142.5000 Y26.2500 Z-2.7384 I-1.2500 J0.0000
G03 X141.2500 Y25.0000 Z-3.1948 I0.0000 J-1.2500
G03 X142.5000 Y23.7500 Z-3.6512 I1.2500 J0.0000
G03 X143.7500 Y25.0000 Z-4.1077 I0.0000 J1.2500
G03 X142.5000 Y26.2500 Z-4.5641 I-1.2500 J0.0000
G03 X141.2500 Y25.0000 Z-5.0205 I0.0000 J-1.2500
G03 X142.5000 Y23.7500 Z-5.4769 I1.2500 J0.0000
G03 X143.7500 Y25.0000 Z-5.9333 I0.0000 J1.2500
G03 X142.5000 Y26.2500 Z-6.3897 I-1.2500 J0.0000
G03 X141.2500 Y25.0000 Z-6.8461 I0.0000 J-1.2500
G03 X142.5000 Y23.7500 Z-7.3025 I1.2500 J0.0000
G03 X143.7500 Y25.0000 Z-7.7589 I0.0000 J1.2500
G03 X142.5000 Y26.2500 Z-8.2153 I-1.2500 J0.0000
G03 X141.2500 Y25.0000 Z-8.6717 I0.0000 J-1.2500
G03 X142.5000 Y23.7500 Z-9.1281 I1.2500 J0.0000
G03 X143.7500 Y25.0000 Z-9.5845 I0.0000 J1.2500
G03 X142.5000 Y26.2500 Z-10.0409 I-1.2500 J0.0000
G03 X141.2500 Y25.0000 Z-10.4973 I0.0000 J-1.2500
G03 X142.5000 Y23.7500 Z-10.9537 I1.2500 J0.0000
G03 X143.7500 Y25.0000 Z-11.4102 I0.0000 J1.2500
G03 X142.5000 Y26.2500 Z-11.8666 I-1.2500 J0.0000
G03 X141.2500 Y25.0000 Z-12.3230 I0.0000 J-1.2500
G03 X142.5000 Y23.7500 Z-12.7794 I1.2500 J0.0000
G03 X143.7500 Y25.0000 Z-13.2358 I0.0000 J1.2500
G03 X142.5000 Y26.2500 Z-13.6922 I-1.2500 J0.0000
G03 X141.2500 Y25.0000 Z-14.1486 I0.0000 J-1.2500
G03 X142.5000 Y23.7500 Z-14.6050 I1.2500 J0.0000
G03 X143.7500 Y25.0000 I0.0000 J1.2500
G03 X142.5000 Y26.2500 I-1.2500 J0.0000
G03 X141.2500 Y25.0000 I0.0000 J-1.2500
G03 X142.5000 Y23.7500 I1.2500 J0.0000
G00 Y25.000 Z10.000
(plungebore end)
(Group complete: _diam_6.499999999999999mm)
G00 X5.000 Y50.000
(plungebore  DEPTH=14.605  DIAM=4.000)
G00 Z3.333
G01 Z-14.605 F40  
G00 Z3.333
G00 Y50.000 Z10.000
(plungebore end)
G00 X35.000
(plungebore  DEPTH=14.605  DIAM=4.000)
G00 Z3.333
G01 Z-14.605 F40  
G00 Z3.333
G00 Y50.000 Z10.000
(plungebore end)
(Group: _diam_6.499999999999999mm)
G00 X57.500 Y57.000
(plungebore  DEPTH=14.605  DIAM=6.500)
G00 Z3.333
G01 Z-14.605 F40  
G00 Z3.333
G00 Y55.7500
G01 Z0.0000 F400 
G03 X58.7500 Y57.0000 Z-0.4564 I0.0000 J1.2500
G03 X57.5000 Y58.2500 Z-0.9128 I-1.2500 J0.0000
G03 X56.2500 Y57.0000 Z-1.3692 I0.0000 J-1.2500
G03 X57.5000 Y55.7500 Z-1.8256 I1.2500 J0.0000
G03 X58.7500 Y57.0000 Z-2.2820 I0.0000 J1.2500
G03 X57.5000 Y58.2500 Z-2.7384 I-1.2500 J0.0000
G03 X56.2500 Y57.0000 Z-3.1948 I0.0000 J-1.2500
G03 X57.5000 Y55.7500 Z-3.6512 I1.2500 J0.0000
G03 X58.7500 Y57.0000 Z-4.1077 I0.0000 J1.2500
G03 X57.5000 Y58.2500 Z-4.5641 I-1.2500 J0.0000
G03 X56.2500 Y57.0000 Z-5.0205 I0.0000 J-1.2500
G03 X57.5000 Y55.7500 Z-5.4769 I1.2500 J0.0000
G03 X58.7500 Y57.0000 Z-5.9333 I0.0000 J1.2500
G03 X57.5000 Y58.2500 Z-6.3897 I-1.2500 J0.0000
G03 X56.2500 Y57.0000 Z-6.8461 I0.0000 J-1.2500
G03 X57.5000 Y55.7500 Z-7.3025 I1.2500 J0.0000
G03 X58.7500 Y57.0000 Z-7.7589 I0.0000 J1.2500
G03 X57.5000 Y58.2500 Z-8.2153 I-1.2500 J0.0000
G03 X56.2500 Y57.0000 Z-8.6717 I0.0000 J-1.2500
G03 X57.5000 Y55.7500 Z-9.1281 I1.2500 J0.0000
G03 X58.7500 Y57.0000 Z-9.5845 I0.0000 J1.2500
G03 X57.5000 Y58.2500 Z-10.0409 I-1.2500 J0.0000
G03 X56.2500 Y57.0000 Z-10.4973 I0.0000 J-1.2500
G03 X57.5000 Y55.7500 Z-10.9537 I1.2500 J0.0000
G03 X58.7500 Y57.0000 Z-11.4102 I0.0000 J1.2500
G03 X57.5000 Y58.2500 Z-11.8666 I-1.2500 J0.0000
G03 X56.2500 Y57.0000 Z-12.3230 I0.0000 J-1.2500
G03 X57.5000 Y55.7500 Z-12.7794 I1.2500 J0.0000
G03 X58.7500 Y57.0000 Z-13.2358 I0.0000 J1.2500
G03 X57.5000 Y58.2500 Z-13.6922 I-1.2500 J0.0000
G03 X56.2500 Y57.0000 Z-14.1486 I0.0000 J-1.2500
G03 X57.5000 Y55.7500 Z-14.6050 I1.2500 J0.0000
G03 X58.7500 Y57.0000 I0.0000 J1.2500
G03 X57.5000 Y58.2500 I-1.2500 J0.0000
G03 X56.2500 Y57.0000 I0.0000 J-1.2500
G03 X57.5000 Y55.7500 I1.2500 J0.0000
G00 Y57.000 Z10.000
(plungebore end)
(Group complete: _diam_6.499999999999999mm)
(Group: _diam_6.499999999999999mm)
G00 X87.500
(plungebore  DEPTH=14.605  DIAM=6.500)
G00 Z3.333
G01 Z-14.605 F40  
G00 Z3.333
G00 Y55.7500
G01 Z0.0000 F400 
G03 X88.7500 Y57.0000 Z-0.4564 I0.0000 J1.2500
G03 X87.5000 Y58.2500 Z-0.9128 I-1.2500 J0.0000
G03 X86.2500 Y57.0000 Z-1.3692 I0.0000 J-1.2500
G03 X87.5000 Y55.7500 Z-1.8256 I1.2500 J0.0000
G03 X88.7500 Y57.0000 Z-2.2820 I0.0000 J1.2500
G03 X87.5000 Y58.2500 Z-2.7384 I-1.2500 J0.0000
G03 X86.2500 Y57.0000 Z-3.1948 I0.0000 J-1.2500
G03 X87.5000 Y55.7500 Z-3.6512 I1.2500 J0.0000
G03 X88.7500 Y57.0000 Z-4.1077 I0.0000 J1.2500
G03 X87.5000 Y58.2500 Z-4.5641 I-1.2500 J0.0000
G03 X86.2500 Y57.0000 Z-5.0205 I0.0000 J-1.2500
G03 X87.5000 Y55.7500 Z-5.4769 I1.2500 J0.0000
G03 X88.7500 Y57.0000 Z-5.9333 I0.0000 J1.2500
G03 X87.5000 Y58.2500 Z-6.3897 I-1.2500 J0.0000
G03 X86.2500 Y57.0000 Z-6.8461 I0.0000 J-1.2500
G03 X87.5000 Y55.7500 Z-7.3025 I1.2500 J0.0000
G03 X88.7500 Y57.0000 Z-7.7589 I0.0000 J1.2500
G03 X87.5000 Y58.2500 Z-8.2153 I-1.2500 J0.0000
G03 X86.2500 Y57.0000 Z-8.6717 I0.0000 J-1.2500
G03 X87.5000 Y55.7500 Z-9.1281 I1.2500 J0.0000
G03 X88.7500 Y57.0000 Z-9.5845 I0.0000 J1.2500
G03 X87.5000 Y58.2500 Z-10.0409 I-1.2500 J0.0000
G03 X86.2500 Y57.0000 Z-10.4973 I0.0000 J-1.2500
G03 X87.5000 Y55.7500 Z-10.9537 I1.2500 J0.0000
G03 X88.7500 Y57.0000 Z-11.4102 I0.0000 J1.2500
G03 X87.5000 Y58.2500 Z-11.8666 I-1.2500 J0.0000
G03 X86.2500 Y57.0000 Z-12.3230 I0.0000 J-1.2500
G03 X87.5000 Y55.7500 Z-12.7794 I1.2500 J0.0000
G03 X88.7500 Y57.0000 Z-13.2358 I0.0000 J1.2500
G03 X87.5000 Y58.2500 Z-13.6922 I-1.2500 J0.0000
G03 X86.2500 Y57.0000 Z-14.1486 I0.0000 J-1.2500
G03 X87.5000 Y55.7500 Z-14.6050 I1.2500 J0.0000
G03 X88.7500 Y57.0000 I0.0000 J1.2500
G03 X87.5000 Y58.2500 I-1.2500 J0.0000
G03 X86.2500 Y57.0000 I0.0000 J-1.2500
G03 X87.5000 Y55.7500 I1.2500 J0.0000
G00 Y57.000 Z10.000
(plungebore end)
(Group complete: _diam_6.499999999999999mm)
(Group: _diam_6.499999999999999mm)
G00 X112.500
(plungebore  DEPTH=14.605  DIAM=6.500)
G00 Z3.333
G01 Z-14.605 F40  
G00 Z3.333
G00 Y55.7500
G01 Z0.0000 F400 
G03 X113.7500 Y57.0000 Z-0.4564 I0.0000 J1.2500
G03 X112.5000 Y58.2500 Z-0.9128 I-1.2500 J0.0000
G03 X111.2500 Y57.0000 Z-1.3692 I0.0000 J-1.2500
G03 X112.5000 Y55.7500 Z-1.8256 I1.2500 J0.0000
G03 X113.7500 Y57.0000 Z-2.2820 I0.0000 J1.2500
G03 X112.5000 Y58.2500 Z-2.7384 I-1.2500 J0.0000
G03 X111.2500 Y57.0000 Z-3.1948 I0.0000 J-1.2500
G03 X112.5000 Y55.7500 Z-3.6512 I1.2500 J0.0000
G03 X113.7500 Y57.0000 Z-4.1077 I0.0000 J1.2500
G03 X112.5000 Y58.2500 Z-4.5641 I-1.2500 J0.0000
G03 X111.2500 Y57.0000 Z-5.0205 I0.0000 J-1.2500
G03 X112.5000 Y55.7500 Z-5.4769 I1.2500 J0.0000
G03 X113.7500 Y57.0000 Z-5.9333 I0.0000 J1.2500
G03 X112.5000 Y58.2500 Z-6.3897 I-1.2500 J0.0000
G03 X111.2500 Y57.0000 Z-6.8461 I0.0000 J-1.2500
G03 X112.5000 Y55.7500 Z-7.3025 I1.2500 J0.0000
G03 X113.7500 Y57.0000 Z-7.7589 I0.0000 J1.2500
G03 X112.5000 Y58.2500 Z-8.2153 I-1.2500 J0.0000
G03 X111.2500 Y57.0000 Z-8.6717 I0.0000 J-1.2500
G03 X112.5000 Y55.7500 Z-9.1281 I1.2500 J0.0000
G03 X113.7500 Y57.0000 Z-9.5845 I0.0000 J1.2500
G03 X112.5000 Y58.2500 Z-10.0409 I-1.2500 J0.0000
G03 X111.2500 Y57.0000 Z-10.4973 I0.0000 J-1.2500
G03 X112.5000 Y55.7500 Z-10.9537 I1.2500 J0.0000
G03 X113.7500 Y57.0000 Z-11.4102 I0.0000 J1.2500
G03 X112.5000 Y58.2500 Z-11.8666 I-1.2500 J0.0000
G03 X111.2500 Y57.0000 Z-12.3230 I0.0000 J-1.2500
G03 X112.5000 Y55.7500 Z-12.7794 I1.2500 J0.0000
G03 X113.7500 Y57.0000 Z-13.2358 I0.0000 J1.2500
G03 X112.5000 Y58.2500 Z-13.6922 I-1.2500 J0.0000
G03 X111.2500 Y57.0000 Z-14.1486 I0.0000 J-1.2500
G03 X112.5000 Y55.7500 Z-14.6050 I1.2500 J0.0000
G03 X113.7500 Y57.0000 I0.0000 J1.2500
G03 X112.5000 Y58.2500 I-1.2500 J0.0000
G03 X111.2500 Y57.0000 I0.0000 J-1.2500
G03 X112.5000 Y55.7500 I1.2500 J0.0000
G00 Y57.000 Z10.000
(plungebore end)
(Group complete: _diam_6.499999999999999mm)
(Group: _diam_6.499999999999999mm)
G00 X142.500
(plungebore  DEPTH=14.605  DIAM=6.500)
G00 Z3.333
G01 Z-14.605 F40  
G00 Z3.333
G00 Y55.7500
G01 Z0.0000 F400 
G03 X143.7500 Y57.0000 Z-0.4564 I0.0000 J1.2500
G03 X142.5000 Y58.2500 Z-0.9128 I-1.2500 J0.0000
G03 X141.2500 Y57.0000 Z-1.3692 I0.0000 J-1.2500
G03 X142.5000 Y55.7500 Z-1.8256 I1.2500 J0.0000
G03 X143.7500 Y57.0000 Z-2.2820 I0.0000 J1.2500
G03 X142.5000 Y58.2500 Z-2.7384 I-1.2500 J0.0000
G03 X141.2500 Y57.0000 Z-3.1948 I0.0000 J-1.2500
G03 X142.5000 Y55.7500 Z-3.6512 I1.2500 J0.0000
G03 X143.7500 Y57.0000 Z-4.1077 I0.0000 J1.2500
G03 X142.5000 Y58.2500 Z-4.5641 I-1.2500 J0.0000
G03 X141.2500 Y57.0000 Z-5.0205 I0.0000 J-1.2500
G03 X142.5000 Y55.7500 Z-5.4769 I1.2500 J0.0000
G03 X143.7500 Y57.0000 Z-5.9333 I0.0000 J1.2500
G03 X142.5000 Y58.2500 Z-6.3897 I-1.2500 J0.0000
G03 X141.2500 Y57.0000 Z-6.8461 I0.0000 J-1.2500
G03 X142.5000 Y55.7500 Z-7.3025 I1.2500 J0.0000
G03 X143.7500 Y57.0000 Z-7.7589 I0.0000 J1.2500
G03 X142.5000 Y58.2500 Z-8.2153 I-1.2500 J0.0000
G03 X141.2500 Y57.0000 Z-8.6717 I0.0000 J-1.2500
G03 X142.5000 Y55.7500 Z-9.1281 I1.2500 J0.0000
G03 X143.7500 Y57.0000 Z-9.5845 I0.0000 J1.2500
G03 X142.5000 Y58.2500 Z-10.0409 I-1.2500 J0.0000
G03 X141.2500 Y57.0000 Z-10.4973 I0.0000 J-1.2500
G03 X142.5000 Y55.7500 Z-10.9537 I1.2500 J0.0000
G03 X143.7500 Y57.0000 Z-11.4102 I0.0000 J1.2500
G03 X142.5000 Y58.2500 Z-11.8666 I-1.2500 J0.0000
G03 X141.2500 Y57.0000 Z-12.3230 I0.0000 J-1.2500
G03 X142.5000 Y55.7500 Z-12.7794 I1.2500 J0.0000
G03 X143.7500 Y57.0000 Z-13.2358 I0.0000 J1.2500
G03 X142.5000 Y58.2500 Z-13.6922 I-1.2500 J0.0000
G03 X141.2500 Y57.0000 Z-14.1486 I0.0000 J-1.2500
G03 X142.5000 Y55.7500 Z-14.6050 I1.2500 J0.0000
G03 X143.7500 Y57.0000 I0.0000 J1.2500
G03 X142.5000 Y58.2500 I-1.2500 J0.0000
G03 X141.2500 Y57.0000 I0.0000 J-1.2500
G03 X142.5000 Y55.7500 I1.2500 J0.0000
G00 Y57.000 Z10.000
(plungebore end)
(Group complete: _diam_6.499999999999999mm)
G00 X165.000 Y50.000
(plungebore  DEPTH=14.605  DIAM=4.000)
G00 Z3.333
G01 Z-14.605 F40  
G00 Z3.333
G00 Y50.000 Z10.000
(plungebore end)
G00 X195.000
(plungebore  DEPTH=14.605  DIAM=4.000)
G00 Z3.333
G01 Z-14.605 F40  
G00 Z3.333
G00 Y50.000 Z10.000
(plungebore end)
(Group: _diam_6.499999999999999mm)
G00 X87.500 Y74.700
(plungebore  DEPTH=14.605  DIAM=6.500)
G00 Z3.333
G01 Z-14.605 F40  
G00 Z3.333
G00 Y73.4500
G01 Z0.0000 F400 
G03 X88.7500 Y74.7000 Z-0.4564 I0.0000 J1.2500
G03 X87.5000 Y75.9500 Z-0.9128 I-1.2500 J0.0000
G03 X86.2500 Y74.7000 Z-1.3692 I0.0000 J-1.2500
G03 X87.5000 Y73.4500 Z-1.8256 I1.2500 J0.0000
G03 X88.7500 Y74.7000 Z-2.2820 I0.0000 J1.2500
G03 X87.5000 Y75.9500 Z-2.7384 I-1.2500 J0.0000
G03 X86.2500 Y74.7000 Z-3.1948 I0.0000 J-1.2500
G03 X87.5000 Y73.4500 Z-3.6512 I1.2500 J0.0000
G03 X88.7500 Y74.7000 Z-4.1077 I0.0000 J1.2500
G03 X87.5000 Y75.9500 Z-4.5641 I-1.2500 J0.0000
G03 X86.2500 Y74.7000 Z-5.0205 I0.0000 J-1.2500
G03 X87.5000 Y73.4500 Z-5.4769 I1.2500 J0.0000
G03 X88.7500 Y74.7000 Z-5.9333 I0.0000 J1.2500
G03 X87.5000 Y75.9500 Z-6.3897 I-1.2500 J0.0000
G03 X86.2500 Y74.7000 Z-6.8461 I0.0000 J-1.2500
G03 X87.5000 Y73.4500 Z-7.3025 I1.2500 J0.0000
G03 X88.7500 Y74.7000 Z-7.7589 I0.0000 J1.2500
G03 X87.5000 Y75.9500 Z-8.2153 I-1.2500 J0.0000
G03 X86.2500 Y74.7000 Z-8.6717 I0.0000 J-1.2500
G03 X87.5000 Y73.4500 Z-9.1281 I1.2500 J0.0000
G03 X88.7500 Y74.7000 Z-9.5845 I0.0000 J1.2500
G03 X87.5000 Y75.9500 Z-10.0409 I-1.2500 J0.0000
G03 X86.2500 Y74.7000 Z-10.4973 I0.0000 J-1.2500
G03 X87.5000 Y73.4500 Z-10.9537 I1.2500 J0.0000
G03 X88.7500 Y74.7000 Z-11.4102 I0.0000 J1.2500
G03 X87.5000 Y75.9500 Z-11.8666 I-1.2500 J0.0000
G03 X86.2500 Y74.7000 Z-12.3230 I0.0000 J-1.2500
G03 X87.5000 Y73.4500 Z-12.7794 I1.2500 J0.0000
G03 X88.7500 Y74.7000 Z-13.2358 I0.0000 J1.2500
G03 X87.5000 Y75.9500 Z-13.6922 I-1.2500 J0.0000
G03 X86.2500 Y74.7000 Z-14.1486 I0.0000 J-1.2500
G03 X87.5000 Y73.4500 Z-14.6050 I1.2500 J0.0000
G03 X88.7500 Y74.7000 I0.0000 J1.2500
G03 X87.5000 Y75.9500 I-1.2500 J0.0000
G03 X86.2500 Y74.7000 I0.0000 J-1.2500
G03 X87.5000 Y73.4500 I1.2500 J0.0000
G00 Y74.700 Z10.000
(plungebore end)
(Group complete: _diam_6.499999999999999mm)
(Group: _diam_6.499999999999999mm)
G00 X112.500
(plungebore  DEPTH=14.605  DIAM=6.500)
G00 Z3.333
G01 Z-14.605 F40  
G00 Z3.333
G00 Y73.4500
G01 Z0.0000 F400 
G03 X113.7500 Y74.7000 Z-0.4564 I0.0000 J1.2500
G03 X112.5000 Y75.9500 Z-0.9128 I-1.2500 J0.0000
G03 X111.2500 Y74.7000 Z-1.3692 I0.0000 J-1.2500
G03 X112.5000 Y73.4500 Z-1.8256 I1.2500 J0.0000
G03 X113.7500 Y74.7000 Z-2.2820 I0.0000 J1.2500
G03 X112.5000 Y75.9500 Z-2.7384 I-1.2500 J0.0000
G03 X111.2500 Y74.7000 Z-3.1948 I0.0000 J-1.2500
G03 X112.5000 Y73.4500 Z-3.6512 I1.2500 J0.0000
G03 X113.7500 Y74.7000 Z-4.1077 I0.0000 J1.2500
G03 X112.5000 Y75.9500 Z-4.5641 I-1.2500 J0.0000
G03 X111.2500 Y74.7000 Z-5.0205 I0.0000 J-1.2500
G03 X112.5000 Y73.4500 Z-5.4769 I1.2500 J0.0000
G03 X113.7500 Y74.7000 Z-5.9333 I0.0000 J1.2500
G03 X112.5000 Y75.9500 Z-6.3897 I-1.2500 J0.0000
G03 X111.2500 Y74.7000 Z-6.8461 I0.0000 J-1.2500
G03 X112.5000 Y73.4500 Z-7.3025 I1.2500 J0.0000
G03 X113.7500 Y74.7000 Z-7.7589 I0.0000 J1.2500
G03 X112.5000 Y75.9500 Z-8.2153 I-1.2500 J0.0000
G03 X111.2500 Y74.7000 Z-8.6717 I0.0000 J-1.2500
G03 X112.5000 Y73.4500 Z-9.1281 I1.2500 J0.0000
G03 X113.7500 Y74.7000 Z-9.5845 I0.0000 J1.2500
G03 X112.5000 Y75.9500 Z-10.0409 I-1.2500 J0.0000
G03 X111.2500 Y74.7000 Z-10.4973 I0.0000 J-1.2500
G03 X112.5000 Y73.4500 Z-10.9537 I1.2500 J0.0000
G03 X113.7500 Y74.7000 Z-11.4102 I0.0000 J1.2500
G03 X112.5000 Y75.9500 Z-11.8666 I-1.2500 J0.0000
G03 X111.2500 Y74.7000 Z-12.3230 I0.0000 J-1.2500
G03 X112.5000 Y73.4500 Z-12.7794 I1.2500 J0.0000
G03 X113.7500 Y74.7000 Z-13.2358 I0.0000 J1.2500
G03 X112.5000 Y75.9500 Z-13.6922 I-1.2500 J0.0000
G03 X111.2500 Y74.7000 Z-14.1486 I0.0000 J-1.2500
G03 X112.5000 Y73.4500 Z-14.6050 I1.2500 J0.0000
G03 X113.7500 Y74.7000 I0.0000 J1.2500
G03 X112.5000 Y75.9500 I-1.2500 J0.0000
G03 X111.2500 Y74.7000 I0.0000 J-1.2500
G03 X112.5000 Y73.4500 I1.2500 J0.0000
G00 Y74.700 Z10.000
(plungebore end)
(Group complete: _diam_6.499999999999999mm)
(Group: _diam_6.499999999999999mm)
G00 X87.500 Y119.700
(plungebore  DEPTH=14.605  DIAM=6.500)
G00 Z3.333
G01 Z-14.605 F40  
G00 Z3.333
G00 Y118.4500
G01 Z0.0000 F400 
G03 X88.7500 Y119.7000 Z-0.4564 I0.0000 J1.2500
G03 X87.5000 Y120.9500 Z-0.9128 I-1.2500 J0.0000
G03 X86.2500 Y119.7000 Z-1.3692 I0.0000 J-1.2500
G03 X87.5000 Y118.4500 Z-1.8256 I1.2500 J0.0000
G03 X88.7500 Y119.7000 Z-2.2820 I0.0000 J1.2500
G03 X87.5000 Y120.9500 Z-2.7384 I-1.2500 J0.0000
G03 X86.2500 Y119.7000 Z-3.1948 I0.0000 J-1.2500
G03 X87.5000 Y118.4500 Z-3.6512 I1.2500 J0.0000
G03 X88.7500 Y119.7000 Z-4.1077 I0.0000 J1.2500
G03 X87.5000 Y120.9500 Z-4.5641 I-1.2500 J0.0000
G03 X86.2500 Y119.7000 Z-5.0205 I0.0000 J-1.2500
G03 X87.5000 Y118.4500 Z-5.4769 I1.2500 J0.0000
G03 X88.7500 Y119.7000 Z-5.9333 I0.0000 J1.2500
G03 X87.5000 Y120.9500 Z-6.3897 I-1.2500 J0.0000
G03 X86.2500 Y119.7000 Z-6.8461 I0.0000 J-1.2500
G03 X87.5000 Y118.4500 Z-7.3025 I1.2500 J0.0000
G03 X88.7500 Y119.7000 Z-7.7589 I0.0000 J1.2500
G03 X87.5000 Y120.9500 Z-8.2153 I-1.2500 J0.0000
G03 X86.2500 Y119.7000 Z-8.6717 I0.0000 J-1.2500
G03 X87.5000 Y118.4500 Z-9.1281 I1.2500 J0.0000
G03 X88.7500 Y119.7000 Z-9.5845 I0.0000 J1.2500
G03 X87.5000 Y120.9500 Z-10.0409 I-1.2500 J0.0000
G03 X86.2500 Y119.7000 Z-10.4973 I0.0000 J-1.2500
G03 X87.5000 Y118.4500 Z-10.9537 I1.2500 J0.0000
G03 X88.7500 Y119.7000 Z-11.4102 I0.0000 J1.2500
G03 X87.5000 Y120.9500 Z-11.8666 I-1.2500 J0.0000
G03 X86.2500 Y119.7000 Z-12.3230 I0.0000 J-1.2500
G03 X87.5000 Y118.4500 Z-12.7794 I1.2500 J0.0000
G03 X88.7500 Y119.7000 Z-13.2358 I0.0000 J1.2500
G03 X87.5000 Y120.9500 Z-13.6922 I-1.2500 J0.0000
G03 X86.2500 Y119.7000 Z-14.1486 I0.0000 J-1.2500
G03 X87.5000 Y118.4500 Z-14.6050 I1.2500 J0.0000
G03 X88.7500 Y119.7000 I0.0000 J1.2500
G03 X87.5000 Y120.9500 I-1.2500 J0.0000
G03 X86.2500 Y119.7000 I0.0000 J-1.2500
G03 X87.5000 Y118.4500 I1.2500 J0.0000
G00 Y119.700 Z10.000
(plungebore end)
(Group complete: _diam_6.499999999999999mm)
(Group: _diam_6.499999999999999mm)
G00 X113.665 Y119.769
(plungebore  DEPTH=14.605  DIAM=6.500)
G00 Z3.333
G01 Z-14.605 F40  
G00 Z3.333
G00 Y118.5191
G01 Z0.0000 F400 
G03 X114.9149 Y119.7691 Z-0.4564 I0.0000 J1.2500
G03 X113.6649 Y121.0191 Z-0.9128 I-1.2500 J0.0000
G03 X112.4149 Y119.7691 Z-1.3692 I0.0000 J-1.2500
G03 X113.6649 Y118.5191 Z-1.8256 I1.2500 J0.0000
G03 X114.9149 Y119.7691 Z-2.2820 I0.0000 J1.2500
G03 X113.6649 Y121.0191 Z-2.7384 I-1.2500 J0.0000
G03 X112.4149 Y119.7691 Z-3.1948 I0.0000 J-1.2500
G03 X113.6649 Y118.5191 Z-3.6512 I1.2500 J0.0000
G03 X114.9149 Y119.7691 Z-4.1077 I0.0000 J1.2500
G03 X113.6649 Y121.0191 Z-4.5641 I-1.2500 J0.0000
G03 X112.4149 Y119.7691 Z-5.0205 I0.0000 J-1.2500
G03 X113.6649 Y118.5191 Z-5.4769 I1.2500 J0.0000
G03 X114.9149 Y119.7691 Z-5.9333 I0.0000 J1.2500
G03 X113.6649 Y121.0191 Z-6.3897 I-1.2500 J0.0000
G03 X112.4149 Y119.7691 Z-6.8461 I0.0000 J-1.2500
G03 X113.6649 Y118.5191 Z-7.3025 I1.2500 J0.0000
G03 X114.9149 Y119.7691 Z-7.7589 I0.0000 J1.2500
G03 X113.6649 Y121.0191 Z-8.2153 I-1.2500 J0.0000
G03 X112.4149 Y119.7691 Z-8.6717 I0.0000 J-1.2500
G03 X113.6649 Y118.5191 Z-9.1281 I1.2500 J0.0000
G03 X114.9149 Y119.7691 Z-9.5845 I0.0000 J1.2500
G03 X113.6649 Y121.0191 Z-10.0409 I-1.2500 J0.0000
G03 X112.4149 Y119.7691 Z-10.4973 I0.0000 J-1.2500
G03 X113.6649 Y118.5191 Z-10.9537 I1.2500 J0.0000
G03 X114.9149 Y119.7691 Z-11.4102 I0.0000 J1.2500
G03 X113.6649 Y121.0191 Z-11.8666 I-1.2500 J0.0000
G03 X112.4149 Y119.7691 Z-12.3230 I0.0000 J-1.2500
G03 X113.6649 Y118.5191 Z-12.7794 I1.2500 J0.0000
G03 X114.9149 Y119.7691 Z-13.2358 I0.0000 J1.2500
G03 X113.6649 Y121.0191 Z-13.6922 I-1.2500 J0.0000
G03 X112.4149 Y119.7691 Z-14.1486 I0.0000 J-1.2500
G03 X113.6649 Y118.5191 Z-14.6050 I1.2500 J0.0000
G03 X114.9149 Y119.7691 I0.0000 J1.2500
G03 X113.6649 Y121.0191 I-1.2500 J0.0000
G03 X112.4149 Y119.7691 I0.0000 J-1.2500
G03 X113.6649 Y118.5191 I1.2500 J0.0000
G00 Y119.769 Z10.000
(plungebore end)
G00 X115.991
(plungebore  DEPTH=14.605  DIAM=6.500)
G00 Z3.333
G01 Z-14.605 F40  
G00 Z3.333
G00 Y118.5191
G01 Z0.0000 F400 
G03 X117.2411 Y119.7691 Z-0.4564 I0.0000 J1.2500
G03 X115.9911 Y121.0191 Z-0.9128 I-1.2500 J0.0000
G03 X114.7411 Y119.7691 Z-1.3692 I0.0000 J-1.2500
G03 X115.9911 Y118.5191 Z-1.8256 I1.2500 J0.0000
G03 X117.2411 Y119.7691 Z-2.2820 I0.0000 J1.2500
G03 X115.9911 Y121.0191 Z-2.7384 I-1.2500 J0.0000
G03 X114.7411 Y119.7691 Z-3.1948 I0.0000 J-1.2500
G03 X115.9911 Y118.5191 Z-3.6512 I1.2500 J0.0000
G03 X117.2411 Y119.7691 Z-4.1077 I0.0000 J1.2500
G03 X115.9911 Y121.0191 Z-4.5641 I-1.2500 J0.0000
G03 X114.7411 Y119.7691 Z-5.0205 I0.0000 J-1.2500
G03 X115.9911 Y118.5191 Z-5.4769 I1.2500 J0.0000
G03 X117.2411 Y119.7691 Z-5.9333 I0.0000 J1.2500
G03 X115.9911 Y121.0191 Z-6.3897 I-1.2500 J0.0000
G03 X114.7411 Y119.7691 Z-6.8461 I0.0000 J-1.2500
G03 X115.9911 Y118.5191 Z-7.3025 I1.2500 J0.0000
G03 X117.2411 Y119.7691 Z-7.7589 I0.0000 J1.2500
G03 X115.9911 Y121.0191 Z-8.2153 I-1.2500 J0.0000
G03 X114.7411 Y119.7691 Z-8.6717 I0.0000 J-1.2500
G03 X115.9911 Y118.5191 Z-9.1281 I1.2500 J0.0000
G03 X117.2411 Y119.7691 Z-9.5845 I0.0000 J1.2500
G03 X115.9911 Y121.0191 Z-10.0409 I-1.2500 J0.0000
G03 X114.7411 Y119.7691 Z-10.4973 I0.0000 J-1.2500
G03 X115.9911 Y118.5191 Z-10.9537 I1.2500 J0.0000
G03 X117.2411 Y119.7691 Z-11.4102 I0.0000 J1.2500
G03 X115.9911 Y121.0191 Z-11.8666 I-1.2500 J0.0000
G03 X114.7411 Y119.7691 Z-12.3230 I0.0000 J-1.2500
G03 X115.9911 Y118.5191 Z-12.7794 I1.2500 J0.0000
G03 X117.2411 Y119.7691 Z-13.2358 I0.0000 J1.2500
G03 X115.9911 Y121.0191 Z-13.6922 I-1.2500 J0.0000
G03 X114.7411 Y119.7691 Z-14.1486 I0.0000 J-1.2500
G03 X115.9911 Y118.5191 Z-14.6050 I1.2500 J0.0000
G03 X117.2411 Y119.7691 I0.0000 J1.2500
G03 X115.9911 Y121.0191 I-1.2500 J0.0000
G03 X114.7411 Y119.7691 I0.0000 J-1.2500
G03 X115.9911 Y118.5191 I1.2500 J0.0000
G00 Y119.769 Z10.000
(plungebore end)
(Group complete: _diam_6.499999999999999mm)
(Group: _diam_6.499999999999999mm)
G00 X57.500 Y137.400
(plungebore  DEPTH=14.605  DIAM=6.500)
G00 Z3.333
G01 Z-14.605 F40  
G00 Z3.333
G00 Y136.1500
G01 Z0.0000 F400 
G03 X58.7500 Y137.4000 Z-0.4564 I0.0000 J1.2500
G03 X57.5000 Y138.6500 Z-0.9128 I-1.2500 J0.0000
G03 X56.2500 Y137.4000 Z-1.3692 I0.0000 J-1.2500
G03 X57.5000 Y136.1500 Z-1.8256 I1.2500 J0.0000
G03 X58.7500 Y137.4000 Z-2.2820 I0.0000 J1.2500
G03 X57.5000 Y138.6500 Z-2.7384 I-1.2500 J0.0000
G03 X56.2500 Y137.4000 Z-3.1948 I0.0000 J-1.2500
G03 X57.5000 Y136.1500 Z-3.6512 I1.2500 J0.0000
G03 X58.7500 Y137.4000 Z-4.1077 I0.0000 J1.2500
G03 X57.5000 Y138.6500 Z-4.5641 I-1.2500 J0.0000
G03 X56.2500 Y137.4000 Z-5.0205 I0.0000 J-1.2500
G03 X57.5000 Y136.1500 Z-5.4769 I1.2500 J0.0000
G03 X58.7500 Y137.4000 Z-5.9333 I0.0000 J1.2500
G03 X57.5000 Y138.6500 Z-6.3897 I-1.2500 J0.0000
G03 X56.2500 Y137.4000 Z-6.8461 I0.0000 J-1.2500
G03 X57.5000 Y136.1500 Z-7.3025 I1.2500 J0.0000
G03 X58.7500 Y137.4000 Z-7.7589 I0.0000 J1.2500
G03 X57.5000 Y138.6500 Z-8.2153 I-1.2500 J0.0000
G03 X56.2500 Y137.4000 Z-8.6717 I0.0000 J-1.2500
G03 X57.5000 Y136.1500 Z-9.1281 I1.2500 J0.0000
G03 X58.7500 Y137.4000 Z-9.5845 I0.0000 J1.2500
G03 X57.5000 Y138.6500 Z-10.0409 I-1.2500 J0.0000
G03 X56.2500 Y137.4000 Z-10.4973 I0.0000 J-1.2500
G03 X57.5000 Y136.1500 Z-10.9537 I1.2500 J0.0000
G03 X58.7500 Y137.4000 Z-11.4102 I0.0000 J1.2500
G03 X57.5000 Y138.6500 Z-11.8666 I-1.2500 J0.0000
G03 X56.2500 Y137.4000 Z-12.3230 I0.0000 J-1.2500
G03 X57.5000 Y136.1500 Z-12.7794 I1.2500 J0.0000
G03 X58.7500 Y137.4000 Z-13.2358 I0.0000 J1.2500
G03 X57.5000 Y138.6500 Z-13.6922 I-1.2500 J0.0000
G03 X56.2500 Y137.4000 Z-14.1486 I0.0000 J-1.2500
G03 X57.5000 Y136.1500 Z-14.6050 I1.2500 J0.0000
G03 X58.7500 Y137.4000 I0.0000 J1.2500
G03 X57.5000 Y138.6500 I-1.2500 J0.0000
G03 X56.2500 Y137.4000 I0.0000 J-1.2500
G03 X57.5000 Y136.1500 I1.2500 J0.0000
G00 Y137.400 Z10.000
(plungebore end)
(Group complete: _diam_6.499999999999999mm)
(Group: _diam_6.499999999999999mm)
G00 X87.500
(plungebore  DEPTH=14.605  DIAM=6.500)
G00 Z3.333
G01 Z-14.605 F40  
G00 Z3.333
G00 Y136.1500
G01 Z0.0000 F400 
G03 X88.7500 Y137.4000 Z-0.4564 I0.0000 J1.2500
G03 X87.5000 Y138.6500 Z-0.9128 I-1.2500 J0.0000
G03 X86.2500 Y137.4000 Z-1.3692 I0.0000 J-1.2500
G03 X87.5000 Y136.1500 Z-1.8256 I1.2500 J0.0000
G03 X88.7500 Y137.4000 Z-2.2820 I0.0000 J1.2500
G03 X87.5000 Y138.6500 Z-2.7384 I-1.2500 J0.0000
G03 X86.2500 Y137.4000 Z-3.1948 I0.0000 J-1.2500
G03 X87.5000 Y136.1500 Z-3.6512 I1.2500 J0.0000
G03 X88.7500 Y137.4000 Z-4.1077 I0.0000 J1.2500
G03 X87.5000 Y138.6500 Z-4.5641 I-1.2500 J0.0000
G03 X86.2500 Y137.4000 Z-5.0205 I0.0000 J-1.2500
G03 X87.5000 Y136.1500 Z-5.4769 I1.2500 J0.0000
G03 X88.7500 Y137.4000 Z-5.9333 I0.0000 J1.2500
G03 X87.5000 Y138.6500 Z-6.3897 I-1.2500 J0.0000
G03 X86.2500 Y137.4000 Z-6.8461 I0.0000 J-1.2500
G03 X87.5000 Y136.1500 Z-7.3025 I1.2500 J0.0000
G03 X88.7500 Y137.4000 Z-7.7589 I0.0000 J1.2500
G03 X87.5000 Y138.6500 Z-8.2153 I-1.2500 J0.0000
G03 X86.2500 Y137.4000 Z-8.6717 I0.0000 J-1.2500
G03 X87.5000 Y136.1500 Z-9.1281 I1.2500 J0.0000
G03 X88.7500 Y137.4000 Z-9.5845 I0.0000 J1.2500
G03 X87.5000 Y138.6500 Z-10.0409 I-1.2500 J0.0000
G03 X86.2500 Y137.4000 Z-10.4973 I0.0000 J-1.2500
G03 X87.5000 Y136.1500 Z-10.9537 I1.2500 J0.0000
G03 X88.7500 Y137.4000 Z-11.4102 I0.0000 J1.2500
G03 X87.5000 Y138.6500 Z-11.8666 I-1.2500 J0.0000
G03 X86.2500 Y137.4000 Z-12.3230 I0.0000 J-1.2500
G03 X87.5000 Y136.1500 Z-12.7794 I1.2500 J0.0000
G03 X88.7500 Y137.4000 Z-13.2358 I0.0000 J1.2500
G03 X87.5000 Y138.6500 Z-13.6922 I-1.2500 J0.0000
G03 X86.2500 Y137.4000 Z-14.1486 I0.0000 J-1.2500
G03 X87.5000 Y136.1500 Z-14.6050 I1.2500 J0.0000
G03 X88.7500 Y137.4000 I0.0000 J1.2500
G03 X87.5000 Y138.6500 I-1.2500 J0.0000
G03 X86.2500 Y137.4000 I0.0000 J-1.2500
G03 X87.5000 Y136.1500 I1.2500 J0.0000
G00 Y137.400 Z10.000
(plungebore end)
(Group complete: _diam_6.499999999999999mm)
(Group: _diam_6.499999999999999mm)
G00 X112.500
(plungebore  DEPTH=14.605  DIAM=6.500)
G00 Z3.333
G01 Z-14.605 F40  
G00 Z3.333
G00 Y136.1500
G01 Z0.0000 F400 
G03 X113.7500 Y137.4000 Z-0.4564 I0.0000 J1.2500
G03 X112.5000 Y138.6500 Z-0.9128 I-1.2500 J0.0000
G03 X111.2500 Y137.4000 Z-1.3692 I0.0000 J-1.2500
G03 X112.5000 Y136.1500 Z-1.8256 I1.2500 J0.0000
G03 X113.7500 Y137.4000 Z-2.2820 I0.0000 J1.2500
G03 X112.5000 Y138.6500 Z-2.7384 I-1.2500 J0.0000
G03 X111.2500 Y137.4000 Z-3.1948 I0.0000 J-1.2500
G03 X112.5000 Y136.1500 Z-3.6512 I1.2500 J0.0000
G03 X113.7500 Y137.4000 Z-4.1077 I0.0000 J1.2500
G03 X112.5000 Y138.6500 Z-4.5641 I-1.2500 J0.0000
G03 X111.2500 Y137.4000 Z-5.0205 I0.0000 J-1.2500
G03 X112.5000 Y136.1500 Z-5.4769 I1.2500 J0.0000
G03 X113.7500 Y137.4000 Z-5.9333 I0.0000 J1.2500
G03 X112.5000 Y138.6500 Z-6.3897 I-1.2500 J0.0000
G03 X111.2500 Y137.4000 Z-6.8461 I0.0000 J-1.2500
G03 X112.5000 Y136.1500 Z-7.3025 I1.2500 J0.0000
G03 X113.7500 Y137.4000 Z-7.7589 I0.0000 J1.2500
G03 X112.5000 Y138.6500 Z-8.2153 I-1.2500 J0.0000
G03 X111.2500 Y137.4000 Z-8.6717 I0.0000 J-1.2500
G03 X112.5000 Y136.1500 Z-9.1281 I1.2500 J0.0000
G03 X113.7500 Y137.4000 Z-9.5845 I0.0000 J1.2500
G03 X112.5000 Y138.6500 Z-10.0409 I-1.2500 J0.0000
G03 X111.2500 Y137.4000 Z-10.4973 I0.0000 J-1.2500
G03 X112.5000 Y136.1500 Z-10.9537 I1.2500 J0.0000
G03 X113.7500 Y137.4000 Z-11.4102 I0.0000 J1.2500
G03 X112.5000 Y138.6500 Z-11.8666 I-1.2500 J0.0000
G03 X111.2500 Y137.4000 Z-12.3230 I0.0000 J-1.2500
G03 X112.5000 Y136.1500 Z-12.7794 I1.2500 J0.0000
G03 X113.7500 Y137.4000 Z-13.2358 I0.0000 J1.2500
G03 X112.5000 Y138.6500 Z-13.6922 I-1.2500 J0.0000
G03 X111.2500 Y137.4000 Z-14.1486 I0.0000 J-1.2500
G03 X112.5000 Y136.1500 Z-14.6050 I1.2500 J0.0000
G03 X113.7500 Y137.4000 I0.0000 J1.2500
G03 X112.5000 Y138.6500 I-1.2500 J0.0000
G03 X111.2500 Y137.4000 I0.0000 J-1.2500
G03 X112.5000 Y136.1500 I1.2500 J0.0000
G00 Y137.400 Z10.000
(plungebore end)
(Group complete: _diam_6.499999999999999mm)
(Group: _diam_6.499999999999999mm)
G00 X142.500
(plungebore  DEPTH=14.605  DIAM=6.500)
G00 Z3.333
G01 Z-14.605 F40  
G00 Z3.333
G00 Y136.1500
G01 Z0.0000 F400 
G03 X143.7500 Y137.4000 Z-0.4564 I0.0000 J1.2500
G03 X142.5000 Y138.6500 Z-0.9128 I-1.2500 J0.0000
G03 X141.2500 Y137.4000 Z-1.3692 I0.0000 J-1.2500
G03 X142.5000 Y136.1500 Z-1.8256 I1.2500 J0.0000
G03 X143.7500 Y137.4000 Z-2.2820 I0.0000 J1.2500
G03 X142.5000 Y138.6500 Z-2.7384 I-1.2500 J0.0000
G03 X141.2500 Y137.4000 Z-3.1948 I0.0000 J-1.2500
G03 X142.5000 Y136.1500 Z-3.6512 I1.2500 J0.0000
G03 X143.7500 Y137.4000 Z-4.1077 I0.0000 J1.2500
G03 X142.5000 Y138.6500 Z-4.5641 I-1.2500 J0.0000
G03 X141.2500 Y137.4000 Z-5.0205 I0.0000 J-1.2500
G03 X142.5000 Y136.1500 Z-5.4769 I1.2500 J0.0000
G03 X143.7500 Y137.4000 Z-5.9333 I0.0000 J1.2500
G03 X142.5000 Y138.6500 Z-6.3897 I-1.2500 J0.0000
G03 X141.2500 Y137.4000 Z-6.8461 I0.0000 J-1.2500
G03 X142.5000 Y136.1500 Z-7.3025 I1.2500 J0.0000
G03 X143.7500 Y137.4000 Z-7.7589 I0.0000 J1.2500
G03 X142.5000 Y138.6500 Z-8.2153 I-1.2500 J0.0000
G03 X141.2500 Y137.4000 Z-8.6717 I0.0000 J-1.2500
G03 X142.5000 Y136.1500 Z-9.1281 I1.2500 J0.0000
G03 X143.7500 Y137.4000 Z-9.5845 I0.0000 J1.2500
G03 X142.5000 Y138.6500 Z-10.0409 I-1.2500 J0.0000
G03 X141.2500 Y137.4000 Z-10.4973 I0.0000 J-1.2500
G03 X142.5000 Y136.1500 Z-10.9537 I1.2500 J0.0000
G03 X143.7500 Y137.4000 Z-11.4102 I0.0000 J1.2500
G03 X142.5000 Y138.6500 Z-11.8666 I-1.2500 J0.0000
G03 X141.2500 Y137.4000 Z-12.3230 I0.0000 J-1.2500
G03 X142.5000 Y136.1500 Z-12.7794 I1.2500 J0.0000
G03 X143.7500 Y137.4000 Z-13.2358 I0.0000 J1.2500
G03 X142.5000 Y138.6500 Z-13.6922 I-1.2500 J0.0000
G03 X141.2500 Y137.4000 Z-14.1486 I0.0000 J-1.2500
G03 X142.5000 Y136.1500 Z-14.6050 I1.2500 J0.0000
G03 X143.7500 Y137.4000 I0.0000 J1.2500
G03 X142.5000 Y138.6500 I-1.2500 J0.0000
G03 X141.2500 Y137.4000 I0.0000 J-1.2500
G03 X142.5000 Y136.1500 I1.2500 J0.0000
G00 Y137.400 Z10.000
(plungebore end)
(Group complete: _diam_6.499999999999999mm)
(Group: _diam_6.499999999999999mm)
G00 X57.500 Y169.400
(plungebore  DEPTH=14.605  DIAM=6.500)
G00 Z3.333
G01 Z-14.605 F40  
G00 Z3.333
G00 Y168.1500
G01 Z0.0000 F400 
G03 X58.7500 Y169.4000 Z-0.4564 I0.0000 J1.2500
G03 X57.5000 Y170.6500 Z-0.9128 I-1.2500 J0.0000
G03 X56.2500 Y169.4000 Z-1.3692 I0.0000 J-1.2500
G03 X57.5000 Y168.1500 Z-1.8256 I1.2500 J0.0000
G03 X58.7500 Y169.4000 Z-2.2820 I0.0000 J1.2500
G03 X57.5000 Y170.6500 Z-2.7384 I-1.2500 J0.0000
G03 X56.2500 Y169.4000 Z-3.1948 I0.0000 J-1.2500
G03 X57.5000 Y168.1500 Z-3.6512 I1.2500 J0.0000
G03 X58.7500 Y169.4000 Z-4.1077 I0.0000 J1.2500
G03 X57.5000 Y170.6500 Z-4.5641 I-1.2500 J0.0000
G03 X56.2500 Y169.4000 Z-5.0205 I0.0000 J-1.2500
G03 X57.5000 Y168.1500 Z-5.4769 I1.2500 J0.0000
G03 X58.7500 Y169.4000 Z-5.9333 I0.0000 J1.2500
G03 X57.5000 Y170.6500 Z-6.3897 I-1.2500 J0.0000
G03 X56.2500 Y169.4000 Z-6.8461 I0.0000 J-1.2500
G03 X57.5000 Y168.1500 Z-7.3025 I1.2500 J0.0000
G03 X58.7500 Y169.4000 Z-7.7589 I0.0000 J1.2500
G03 X57.5000 Y170.6500 Z-8.2153 I-1.2500 J0.0000
G03 X56.2500 Y169.4000 Z-8.6717 I0.0000 J-1.2500
G03 X57.5000 Y168.1500 Z-9.1281 I1.2500 J0.0000
G03 X58.7500 Y169.4000 Z-9.5845 I0.0000 J1.2500
G03 X57.5000 Y170.6500 Z-10.0409 I-1.2500 J0.0000
G03 X56.2500 Y169.4000 Z-10.4973 I0.0000 J-1.2500
G03 X57.5000 Y168.1500 Z-10.9537 I1.2500 J0.0000
G03 X58.7500 Y169.4000 Z-11.4102 I0.0000 J1.2500
G03 X57.5000 Y170.6500 Z-11.8666 I-1.2500 J0.0000
G03 X56.2500 Y169.4000 Z-12.3230 I0.0000 J-1.2500
G03 X57.5000 Y168.1500 Z-12.7794 I1.2500 J0.0000
G03 X58.7500 Y169.4000 Z-13.2358 I0.0000 J1.2500
G03 X57.5000 Y170.6500 Z-13.6922 I-1.2500 J0.0000
G03 X56.2500 Y169.4000 Z-14.1486 I0.0000 J-1.2500
G03 X57.5000 Y168.1500 Z-14.6050 I1.2500 J0.0000
G03 X58.7500 Y169.4000 I0.0000 J1.2500
G03 X57.5000 Y170.6500 I-1.2500 J0.0000
G03 X56.2500 Y169.4000 I0.0000 J-1.2500
G03 X57.5000 Y168.1500 I1.2500 J0.0000
G00 Y169.400 Z10.000
(plungebore end)
(Group complete: _diam_6.499999999999999mm)
(Group: _diam_6.499999999999999mm)
G00 X87.500
(plungebore  DEPTH=14.605  DIAM=6.500)
G00 Z3.333
G01 Z-14.605 F40  
G00 Z3.333
G00 Y168.1500
G01 Z0.0000 F400 
G03 X88.7500 Y169.4000 Z-0.4564 I0.0000 J1.2500
G03 X87.5000 Y170.6500 Z-0.9128 I-1.2500 J0.0000
G03 X86.2500 Y169.4000 Z-1.3692 I0.0000 J-1.2500
G03 X87.5000 Y168.1500 Z-1.8256 I1.2500 J0.0000
G03 X88.7500 Y169.4000 Z-2.2820 I0.0000 J1.2500
G03 X87.5000 Y170.6500 Z-2.7384 I-1.2500 J0.0000
G03 X86.2500 Y169.4000 Z-3.1948 I0.0000 J-1.2500
G03 X87.5000 Y168.1500 Z-3.6512 I1.2500 J0.0000
G03 X88.7500 Y169.4000 Z-4.1077 I0.0000 J1.2500
G03 X87.5000 Y170.6500 Z-4.5641 I-1.2500 J0.0000
G03 X86.2500 Y169.4000 Z-5.0205 I0.0000 J-1.2500
G03 X87.5000 Y168.1500 Z-5.4769 I1.2500 J0.0000
G03 X88.7500 Y169.4000 Z-5.9333 I0.0000 J1.2500
G03 X87.5000 Y170.6500 Z-6.3897 I-1.2500 J0.0000
G03 X86.2500 Y169.4000 Z-6.8461 I0.0000 J-1.2500
G03 X87.5000 Y168.1500 Z-7.3025 I1.2500 J0.0000
G03 X88.7500 Y169.4000 Z-7.7589 I0.0000 J1.2500
G03 X87.5000 Y170.6500 Z-8.2153 I-1.2500 J0.0000
G03 X86.2500 Y169.4000 Z-8.6717 I0.0000 J-1.2500
G03 X87.5000 Y168.1500 Z-9.1281 I1.2500 J0.0000
G03 X88.7500 Y169.4000 Z-9.5845 I0.0000 J1.2500
G03 X87.5000 Y170.6500 Z-10.0409 I-1.2500 J0.0000
G03 X86.2500 Y169.4000 Z-10.4973 I0.0000 J-1.2500
G03 X87.5000 Y168.1500 Z-10.9537 I1.2500 J0.0000
G03 X88.7500 Y169.4000 Z-11.4102 I0.0000 J1.2500
G03 X87.5000 Y170.6500 Z-11.8666 I-1.2500 J0.0000
G03 X86.2500 Y169.4000 Z-12.3230 I0.0000 J-1.2500
G03 X87.5000 Y168.1500 Z-12.7794 I1.2500 J0.0000
G03 X88.7500 Y169.4000 Z-13.2358 I0.0000 J1.2500
G03 X87.5000 Y170.6500 Z-13.6922 I-1.2500 J0.0000
G03 X86.2500 Y169.4000 Z-14.1486 I0.0000 J-1.2500
G03 X87.5000 Y168.1500 Z-14.6050 I1.2500 J0.0000
G03 X88.7500 Y169.4000 I0.0000 J1.2500
G03 X87.5000 Y170.6500 I-1.2500 J0.0000
G03 X86.2500 Y169.4000 I0.0000 J-1.2500
G03 X87.5000 Y168.1500 I1.2500 J0.0000
G00 Y169.400 Z10.000
(plungebore end)
(Group complete: _diam_6.499999999999999mm)
(Group: _diam_6.499999999999999mm)
G00 X112.500
(plungebore  DEPTH=14.605  DIAM=6.500)
G00 Z3.333
G01 Z-14.605 F40  
G00 Z3.333
G00 Y168.1500
G01 Z0.0000 F400 
G03 X113.7500 Y169.4000 Z-0.4564 I0.0000 J1.2500
G03 X112.5000 Y170.6500 Z-0.9128 I-1.2500 J0.0000
G03 X111.2500 Y169.4000 Z-1.3692 I0.0000 J-1.2500
G03 X112.5000 Y168.1500 Z-1.8256 I1.2500 J0.0000
G03 X113.7500 Y169.4000 Z-2.2820 I0.0000 J1.2500
G03 X112.5000 Y170.6500 Z-2.7384 I-1.2500 J0.0000
G03 X111.2500 Y169.4000 Z-3.1948 I0.0000 J-1.2500
G03 X112.5000 Y168.1500 Z-3.6512 I1.2500 J0.0000
G03 X113.7500 Y169.4000 Z-4.1077 I0.0000 J1.2500
G03 X112.5000 Y170.6500 Z-4.5641 I-1.2500 J0.0000
G03 X111.2500 Y169.4000 Z-5.0205 I0.0000 J-1.2500
G03 X112.5000 Y168.1500 Z-5.4769 I1.2500 J0.0000
G03 X113.7500 Y169.4000 Z-5.9333 I0.0000 J1.2500
G03 X112.5000 Y170.6500 Z-6.3897 I-1.2500 J0.0000
G03 X111.2500 Y169.4000 Z-6.8461 I0.0000 J-1.2500
G03 X112.5000 Y168.1500 Z-7.3025 I1.2500 J0.0000
G03 X113.7500 Y169.4000 Z-7.7589 I0.0000 J1.2500
G03 X112.5000 Y170.6500 Z-8.2153 I-1.2500 J0.0000
G03 X111.2500 Y169.4000 Z-8.6717 I0.0000 J-1.2500
G03 X112.5000 Y168.1500 Z-9.1281 I1.2500 J0.0000
G03 X113.7500 Y169.4000 Z-9.5845 I0.0000 J1.2500
G03 X112.5000 Y170.6500 Z-10.0409 I-1.2500 J0.0000
G03 X111.2500 Y169.4000 Z-10.4973 I0.0000 J-1.2500
G03 X112.5000 Y168.1500 Z-10.9537 I1.2500 J0.0000
G03 X113.7500 Y169.4000 Z-11.4102 I0.0000 J1.2500
G03 X112.5000 Y170.6500 Z-11.8666 I-1.2500 J0.0000
G03 X111.2500 Y169.4000 Z-12.3230 I0.0000 J-1.2500
G03 X112.5000 Y168.1500 Z-12.7794 I1.2500 J0.0000
G03 X113.7500 Y169.4000 Z-13.2358 I0.0000 J1.2500
G03 X112.5000 Y170.6500 Z-13.6922 I-1.2500 J0.0000
G03 X111.2500 Y169.4000 Z-14.1486 I0.0000 J-1.2500
G03 X112.5000 Y168.1500 Z-14.6050 I1.2500 J0.0000
G03 X113.7500 Y169.4000 I0.0000 J1.2500
G03 X112.5000 Y170.6500 I-1.2500 J0.0000
G03 X111.2500 Y169.4000 I0.0000 J-1.2500
G03 X112.5000 Y168.1500 I1.2500 J0.0000
G00 Y169.400 Z10.000
(plungebore end)
(Group complete: _diam_6.499999999999999mm)
(Group: _diam_6.499999999999999mm)
G00 X142.500
(plungebore  DEPTH=14.605  DIAM=6.500)
G00 Z3.333
G01 Z-14.605 F40  
G00 Z3.333
G00 Y168.1500
G01 Z0.0000 F400 
G03 X143.7500 Y169.4000 Z-0.4564 I0.0000 J1.2500
G03 X142.5000 Y170.6500 Z-0.9128 I-1.2500 J0.0000
G03 X141.2500 Y169.4000 Z-1.3692 I0.0000 J-1.2500
G03 X142.5000 Y168.1500 Z-1.8256 I1.2500 J0.0000
G03 X143.7500 Y169.4000 Z-2.2820 I0.0000 J1.2500
G03 X142.5000 Y170.6500 Z-2.7384 I-1.2500 J0.0000
G03 X141.2500 Y169.4000 Z-3.1948 I0.0000 J-1.2500
G03 X142.5000 Y168.1500 Z-3.6512 I1.2500 J0.0000
G03 X143.7500 Y169.4000 Z-4.1077 I0.0000 J1.2500
G03 X142.5000 Y170.6500 Z-4.5641 I-1.2500 J0.0000
G03 X141.2500 Y169.4000 Z-5.0205 I0.0000 J-1.2500
G03 X142.5000 Y168.1500 Z-5.4769 I1.2500 J0.0000
G03 X143.7500 Y169.4000 Z-5.9333 I0.0000 J1.2500
G03 X142.5000 Y170.6500 Z-6.3897 I-1.2500 J0.0000
G03 X141.2500 Y169.4000 Z-6.8461 I0.0000 J-1.2500
G03 X142.5000 Y168.1500 Z-7.3025 I1.2500 J0.0000
G03 X143.7500 Y169.4000 Z-7.7589 I0.0000 J1.2500
G03 X142.5000 Y170.6500 Z-8.2153 I-1.2500 J0.0000
G03 X141.2500 Y169.4000 Z-8.6717 I0.0000 J-1.2500
G03 X142.5000 Y168.1500 Z-9.1281 I1.2500 J0.0000
G03 X143.7500 Y169.4000 Z-9.5845 I0.0000 J1.2500
G03 X142.5000 Y170.6500 Z-10.0409 I-1.2500 J0.0000
G03 X141.2500 Y169.4000 Z-10.4973 I0.0000 J-1.2500
G03 X142.5000 Y168.1500 Z-10.9537 I1.2500 J0.0000
G03 X143.7500 Y169.4000 Z-11.4102 I0.0000 J1.2500
G03 X142.5000 Y170.6500 Z-11.8666 I-1.2500 J0.0000
G03 X141.2500 Y169.4000 Z-12.3230 I0.0000 J-1.2500
G03 X142.5000 Y168.1500 Z-12.7794 I1.2500 J0.0000
G03 X143.7500 Y169.4000 Z-13.2358 I0.0000 J1.2500
G03 X142.5000 Y170.6500 Z-13.6922 I-1.2500 J0.0000
G03 X141.2500 Y169.4000 Z-14.1486 I0.0000 J-1.2500
G03 X142.5000 Y168.1500 Z-14.6050 I1.2500 J0.0000
G03 X143.7500 Y169.4000 I0.0000 J1.2500
G03 X142.5000 Y170.6500 I-1.2500 J0.0000
G03 X141.2500 Y169.4000 I0.0000 J-1.2500
G03 X142.5000 Y168.1500 I1.2500 J0.0000
G00 Y169.400 Z10.000
(plungebore end)
(Group complete: _diam_6.499999999999999mm)
G00 X5.000 Y200.000
(plungebore  DEPTH=14.605  DIAM=4.000)
G00 Z3.333
G01 Z-14.605 F40  
G00 Z3.333
G00 Y200.000 Z10.000
(plungebore end)
G00 X35.000
(plungebore  DEPTH=14.605  DIAM=4.000)
G00 Z3.333
G01 Z-14.605 F40  
G00 Z3.333
G00 Y200.000 Z10.000
(plungebore end)
G00 X165.000
(plungebore  DEPTH=14.605  DIAM=4.000)
G00 Z3.333
G01 Z-14.605 F40  
G00 Z3.333
G00 Y200.000 Z10.000
(plungebore end)
G00 X195.000
(plungebore  DEPTH=14.605  DIAM=4.000)
G00 Z3.333
G01 Z-14.605 F40  
G00 Z3.333
G00 Y200.000 Z10.000
(plungebore end)
G00 X5.000 Y350.000
(plungebore  DEPTH=14.605  DIAM=4.000)
G00 Z3.333
G01 Z-14.605 F40  
G00 Z3.333
G00 Y350.000 Z10.000
(plungebore end)
G00 X35.000
(plungebore  DEPTH=14.605  DIAM=4.000)
G00 Z3.333
G01 Z-14.605 F40  
G00 Z3.333
G00 Y350.000 Z10.000
(plungebore end)
G00 X76.942 Y360.995
(plungebore  DEPTH=14.605  DIAM=4.000)
G00 Z3.333
G01 Z-14.605 F40  
G00 Z3.333
G00 Y360.995 Z10.000
(plungebore end)
G00 X122.952
(plungebore  DEPTH=14.605  DIAM=4.000)
G00 Z3.333
G01 Z-14.605 F40  
G00 Z3.333
G00 Y361.006 Z10.000
(plungebore end)
G00 X165.000 Y350.000
(plungebore  DEPTH=14.605  DIAM=4.000)
G00 Z3.333
G01 Z-14.605 F40  
G00 Z3.333
G00 Y350.000 Z10.000
(plungebore end)
G00 X195.000
(plungebore  DEPTH=14.605  DIAM=4.000)
G00 Z3.333
G01 Z-14.605 F40  
G00 Z3.333
G00 Y350.000 Z10.000
(plungebore end)
G00 X76.951 Y374.028
(plungebore  DEPTH=14.605  DIAM=4.000)
G00 Z3.333
G01 Z-14.605 F40  
G00 Z3.333
G00 Y374.028 Z10.000
(plungebore end)
G00 X122.927 Y373.978
(plungebore  DEPTH=14.605  DIAM=4.000)
G00 Z3.333
G01 Z-14.605 F40  
G00 Z3.333
G00 Y373.978 Z10.000
(plungebore end)
(Group: _diam_6.499999999999999mm)
G00 X20.000 Y412.000
(plungebore  DEPTH=14.605  DIAM=6.500)
G00 Z3.333
G01 Z-14.605 F40  
G00 Z3.333
G00 Y410.7500
G01 Z0.0000 F400 
G03 X21.2500 Y412.0000 Z-0.4564 I0.0000 J1.2500
G03 X20.0000 Y413.2500 Z-0.9128 I-1.2500 J0.0000
G03 X18.7500 Y412.0000 Z-1.3692 I0.0000 J-1.2500
G03 X20.0000 Y410.7500 Z-1.8256 I1.2500 J0.0000
G03 X21.2500 Y412.0000 Z-2.2820 I0.0000 J1.2500
G03 X20.0000 Y413.2500 Z-2.7384 I-1.2500 J0.0000
G03 X18.7500 Y412.0000 Z-3.1948 I0.0000 J-1.2500
G03 X20.0000 Y410.7500 Z-3.6512 I1.2500 J0.0000
G03 X21.2500 Y412.0000 Z-4.1077 I0.0000 J1.2500
G03 X20.0000 Y413.2500 Z-4.5641 I-1.2500 J0.0000
G03 X18.7500 Y412.0000 Z-5.0205 I0.0000 J-1.2500
G03 X20.0000 Y410.7500 Z-5.4769 I1.2500 J0.0000
G03 X21.2500 Y412.0000 Z-5.9333 I0.0000 J1.2500
G03 X20.0000 Y413.2500 Z-6.3897 I-1.2500 J0.0000
G03 X18.7500 Y412.0000 Z-6.8461 I0.0000 J-1.2500
G03 X20.0000 Y410.7500 Z-7.3025 I1.2500 J0.0000
G03 X21.2500 Y412.0000 Z-7.7589 I0.0000 J1.2500
G03 X20.0000 Y413.2500 Z-8.2153 I-1.2500 J0.0000
G03 X18.7500 Y412.0000 Z-8.6717 I0.0000 J-1.2500
G03 X20.0000 Y410.7500 Z-9.1281 I1.2500 J0.0000
G03 X21.2500 Y412.0000 Z-9.5845 I0.0000 J1.2500
G03 X20.0000 Y413.2500 Z-10.0409 I-1.2500 J0.0000
G03 X18.7500 Y412.0000 Z-10.4973 I0.0000 J-1.2500
G03 X20.0000 Y410.7500 Z-10.9537 I1.2500 J0.0000
G03 X21.2500 Y412.0000 Z-11.4102 I0.0000 J1.2500
G03 X20.0000 Y413.2500 Z-11.8666 I-1.2500 J0.0000
G03 X18.7500 Y412.0000 Z-12.3230 I0.0000 J-1.2500
G03 X20.0000 Y410.7500 Z-12.7794 I1.2500 J0.0000
G03 X21.2500 Y412.0000 Z-13.2358 I0.0000 J1.2500
G03 X20.0000 Y413.2500 Z-13.6922 I-1.2500 J0.0000
G03 X18.7500 Y412.0000 Z-14.1486 I0.0000 J-1.2500
G03 X20.0000 Y410.7500 Z-14.6050 I1.2500 J0.0000
G03 X21.2500 Y412.0000 I0.0000 J1.2500
G03 X20.0000 Y413.2500 I-1.2500 J0.0000
G03 X18.7500 Y412.0000 I0.0000 J-1.2500
G03 X20.0000 Y410.7500 I1.2500 J0.0000
G00 Y412.000 Z10.000
(plungebore end)
(Group complete: _diam_6.499999999999999mm)
(Group: _diam_6.499999999999999mm)
G00 X180.417 Y411.800
(plungebore  DEPTH=14.605  DIAM=6.500)
G00 Z3.333
G01 Z-14.605 F40  
G00 Z3.333
G00 Y410.5498
G01 Z0.0000 F400 
G03 X181.6667 Y411.7998 Z-0.4564 I0.0000 J1.2500
G03 X180.4167 Y413.0498 Z-0.9128 I-1.2500 J0.0000
G03 X179.1667 Y411.7998 Z-1.3692 I0.0000 J-1.2500
G03 X180.4167 Y410.5498 Z-1.8256 I1.2500 J0.0000
G03 X181.6667 Y411.7998 Z-2.2820 I0.0000 J1.2500
G03 X180.4167 Y413.0498 Z-2.7384 I-1.2500 J0.0000
G03 X179.1667 Y411.7998 Z-3.1948 I0.0000 J-1.2500
G03 X180.4167 Y410.5498 Z-3.6512 I1.2500 J0.0000
G03 X181.6667 Y411.7998 Z-4.1077 I0.0000 J1.2500
G03 X180.4167 Y413.0498 Z-4.5641 I-1.2500 J0.0000
G03 X179.1667 Y411.7998 Z-5.0205 I0.0000 J-1.2500
G03 X180.4167 Y410.5498 Z-5.4769 I1.2500 J0.0000
G03 X181.6667 Y411.7998 Z-5.9333 I0.0000 J1.2500
G03 X180.4167 Y413.0498 Z-6.3897 I-1.2500 J0.0000
G03 X179.1667 Y411.7998 Z-6.8461 I0.0000 J-1.2500
G03 X180.4167 Y410.5498 Z-7.3025 I1.2500 J0.0000
G03 X181.6667 Y411.7998 Z-7.7589 I0.0000 J1.2500
G03 X180.4167 Y413.0498 Z-8.2153 I-1.2500 J0.0000
G03 X179.1667 Y411.7998 Z-8.6717 I0.0000 J-1.2500
G03 X180.4167 Y410.5498 Z-9.1281 I1.2500 J0.0000
G03 X181.6667 Y411.7998 Z-9.5845 I0.0000 J1.2500
G03 X180.4167 Y413.0498 Z-10.0409 I-1.2500 J0.0000
G03 X179.1667 Y411.7998 Z-10.4973 I0.0000 J-1.2500
G03 X180.4167 Y410.5498 Z-10.9537 I1.2500 J0.0000
G03 X181.6667 Y411.7998 Z-11.4102 I0.0000 J1.2500
G03 X180.4167 Y413.0498 Z-11.8666 I-1.2500 J0.0000
G03 X179.1667 Y411.7998 Z-12.3230 I0.0000 J-1.2500
G03 X180.4167 Y410.5498 Z-12.7794 I1.2500 J0.0000
G03 X181.6667 Y411.7998 Z-13.2358 I0.0000 J1.2500
G03 X180.4167 Y413.0498 Z-13.6922 I-1.2500 J0.0000
G03 X179.1667 Y411.7998 Z-14.1486 I0.0000 J-1.2500
G03 X180.4167 Y410.5498 Z-14.6050 I1.2500 J0.0000
G03 X181.6667 Y411.7998 I0.0000 J1.2500
G03 X180.4167 Y413.0498 I-1.2500 J0.0000
G03 X179.1667 Y411.7998 I0.0000 J-1.2500
G03 X180.4167 Y410.5498 I1.2500 J0.0000
G00 Y411.800 Z10.000
(plungebore end)
G00 X183.474
(plungebore  DEPTH=14.605  DIAM=6.500)
G00 Z3.333
G01 Z-14.605 F40  
G00 Z3.333
G00 Y410.5498
G01 Z0.0000 F400 
G03 X184.7236 Y411.7998 Z-0.4564 I0.0000 J1.2500
G03 X183.4736 Y413.0498 Z-0.9128 I-1.2500 J0.0000
G03 X182.2236 Y411.7998 Z-1.3692 I0.0000 J-1.2500
G03 X183.4736 Y410.5498 Z-1.8256 I1.2500 J0.0000
G03 X184.7236 Y411.7998 Z-2.2820 I0.0000 J1.2500
G03 X183.4736 Y413.0498 Z-2.7384 I-1.2500 J0.0000
G03 X182.2236 Y411.7998 Z-3.1948 I0.0000 J-1.2500
G03 X183.4736 Y410.5498 Z-3.6512 I1.2500 J0.0000
G03 X184.7236 Y411.7998 Z-4.1077 I0.0000 J1.2500
G03 X183.4736 Y413.0498 Z-4.5641 I-1.2500 J0.0000
G03 X182.2236 Y411.7998 Z-5.0205 I0.0000 J-1.2500
G03 X183.4736 Y410.5498 Z-5.4769 I1.2500 J0.0000
G03 X184.7236 Y411.7998 Z-5.9333 I0.0000 J1.2500
G03 X183.4736 Y413.0498 Z-6.3897 I-1.2500 J0.0000
G03 X182.2236 Y411.7998 Z-6.8461 I0.0000 J-1.2500
G03 X183.4736 Y410.5498 Z-7.3025 I1.2500 J0.0000
G03 X184.7236 Y411.7998 Z-7.7589 I0.0000 J1.2500
G03 X183.4736 Y413.0498 Z-8.2153 I-1.2500 J0.0000
G03 X182.2236 Y411.7998 Z-8.6717 I0.0000 J-1.2500
G03 X183.4736 Y410.5498 Z-9.1281 I1.2500 J0.0000
G03 X184.7236 Y411.7998 Z-9.5845 I0.0000 J1.2500
G03 X183.4736 Y413.0498 Z-10.0409 I-1.2500 J0.0000
G03 X182.2236 Y411.7998 Z-10.4973 I0.0000 J-1.2500
G03 X183.4736 Y410.5498 Z-10.9537 I1.2500 J0.0000
G03 X184.7236 Y411.7998 Z-11.4102 I0.0000 J1.2500
G03 X183.4736 Y413.0498 Z-11.8666 I-1.2500 J0.0000
G03 X182.2236 Y411.7998 Z-12.3230 I0.0000 J-1.2500
G03 X183.4736 Y410.5498 Z-12.7794 I1.2500 J0.0000
G03 X184.7236 Y411.7998 Z-13.2358 I0.0000 J1.2500
G03 X183.4736 Y413.0498 Z-13.6922 I-1.2500 J0.0000
G03 X182.2236 Y411.7998 Z-14.1486 I0.0000 J-1.2500
G03 X183.4736 Y410.5498 Z-14.6050 I1.2500 J0.0000
G03 X184.7236 Y411.7998 I0.0000 J1.2500
G03 X183.4736 Y413.0498 I-1.2500 J0.0000
G03 X182.2236 Y411.7998 I0.0000 J-1.2500
G03 X183.4736 Y410.5498 I1.2500 J0.0000
G00 Y411.800 Z10.000
(plungebore end)
(Group complete: _diam_6.499999999999999mm)
G00 X0 Y0 (home)
M05
M30
%
