%
(Generated by SketchUcam {1.2})
(File: BedSurround.skp)
(Bit diameter: 6.3mm)
(Feed rate: 1000.0mm/min)
(Plunge Feed rate: 500.0mm/min)
(Material Thickness: 18.0mm)
(Material length: 2400.0mm X width: 1200.0mm)
(Overhead Gantry: true)
(Retract feed rate NOT limited to plunge feed rate)
(Multipass enabled, Depth = 0.8mm)
(Optimization is ON)
(www.PhlatBoyz.com)
G90 G21 G49 
M3 S11000
G0   Z6.000     
(Pass: 1)
   X4.850        Y22.850    
G1   Z-0.800     F500 
   X8.000      F1000
   X258.000   
   X261.150   
   Y197.935   
   Y204.235   
   Y854.198   
   Y860.498   
   Y1001.150  
   X4.850     
   Y857.509   
   Y854.359   
   Y851.209   
   Y848.059   
   Y203.363   
   Y197.063   
   Y22.850    
(Pass: 2)
   Z-1.600     F500 
   X8.000      F1000
   X258.000   
   X261.150   
   Y197.935   
   Y204.235   
   Y854.198   
   Y860.498   
   Y1001.150  
   X4.850     
   Y857.509   
   Y854.359   
   Y851.209   
   Y848.059   
   Y203.363   
   Y197.063   
   Y22.850    
(Pass: 3)
   Z-2.400     F500 
   X8.000      F1000
   X258.000   
   X261.150   
   Y197.935   
   Y204.235   
   Y854.198   
   Y860.498   
   Y1001.150  
   X4.850     
   Y857.509   
   Y854.359   
   Y851.209   
   Y848.059   
   Y203.363   
   Y197.063   
   Y22.850    
(Pass: 4)
   Z-3.200     F500 
   X8.000      F1000
   X258.000   
   X261.150   
   Y197.935   
   Y204.235   
   Y854.198   
   Y860.498   
   Y1001.150  
   X4.850     
   Y857.509   
   Y854.359   
   Y851.209   
   Y848.059   
   Y203.363   
   Y197.063   
   Y22.850    
(Pass: 5)
   Z-4.000     F500 
   X8.000      F1000
   X258.000   
   X261.150   
   Y197.935   
   Y204.235   
   Y854.198   
   Y860.498   
   Y1001.150  
   X4.850     
   Y857.509   
   Y854.359   
   Y851.209   
   Y848.059   
   Y203.363   
   Y197.063   
   Y22.850    
(Pass: 6)
   Z-4.800     F500 
   X8.000      F1000
   X258.000   
   X261.150   
   Y197.935   
   Y204.235   
   Y854.198   
   Y860.498   
   Y1001.150  
   X4.850     
   Y857.509   
   Y854.359   
   Y851.209   
   Y848.059   
   Y203.363   
   Y197.063   
   Y22.850    
(Pass: 7)
   Z-5.600     F500 
   X8.000      F1000
   X258.000   
   X261.150   
   Y197.935   
   Y204.235   
   Y854.198   
   Y860.498   
   Y1001.150  
   X4.850     
   Y857.509   
   Y854.359   
   Y851.209   
   Y848.059   
   Y203.363   
   Y197.063   
   Y22.850    
(Pass: 8)
   Z-6.400     F500 
   X8.000      F1000
   X258.000   
   X261.150   
   Y197.935   
   Y204.235   
   Y854.198   
   Y860.498   
   Y1001.150  
   X4.850     
   Y857.509   
   Y854.359   
   Y851.209   
   Y848.059   
   Y203.363   
   Y197.063   
   Y22.850    
(Pass: 9)
   Z-7.200     F500 
   X8.000      F1000
   X258.000   
   X261.150   
   Y197.935   
   Y204.235   
   Y854.198   
   Y860.498   
   Y1001.150  
   X4.850     
   Y857.509   
   Y854.359   
   Y851.209   
   Y848.059   
   Y203.363   
   Y197.063   
   Y22.850    
(Pass: 10)
   Z-8.000     F500 
   X8.000      F1000
   X258.000   
   X261.150   
   Y197.935   
   Y204.235   
   Y854.198   
   Y860.498   
   Y1001.150  
   X4.850     
   Y857.509   
   Y854.359   
   Y851.209   
   Y848.059   
   Y203.363   
   Y197.063   
   Y22.850    
(Pass: 11)
   Z-8.800     F500 
   X8.000      F1000
   X258.000   
   X261.150   
   Y197.935   
   Y204.235   
   Y854.198   
   Y860.498   
   Y1001.150  
   X4.850     
   Y857.509   
   Y854.359   
   Y851.209   
   Y848.059   
   Y203.363   
   Y197.063   
   Y22.850    
(Pass: 12)
   Z-9.600     F500 
   X8.000      F1000
   X258.000   
   X261.150   
   Y197.935   
   Y204.235   
   Y854.198   
   Y860.498   
   Y1001.150  
   X4.850     
   Y857.509   
   Y854.359   
   Y851.209   
   Y848.059   
   Y203.363   
   Y197.063   
   Y22.850    
(Pass: 13)
   Z-10.400    F500 
   X8.000      F1000
   X258.000   
   X261.150   
   Y197.935   
   Y204.235   
   Y854.198   
   Y860.498   
   Y1001.150  
   X4.850     
   Y857.509   
   Y854.359   
   Y851.209   
   Y848.059   
   Y203.363   
   Y197.063   
   Y22.850    
(Pass: 14)
   Z-11.200    F500 
   X8.000      F1000
   X258.000   
   X261.150   
   Y197.935   
   Y204.235   
   Y854.198   
   Y860.498   
   Y1001.150  
   X4.850     
   Y857.509   
   Y854.359   
   Y851.209   
   Y848.059   
   Y203.363   
   Y197.063   
   Y22.850    
(Pass: 15)
   Z-12.000    F500 
   X8.000      F1000
   X258.000   
   X261.150   
   Y197.935   
   Y204.235   
   Y854.198   
   Y860.498   
   Y1001.150  
   X4.850     
   Y857.509   
   Y854.359   
   Y851.209   
   Y848.059   
   Y203.363   
   Y197.063   
   Y22.850    
(Pass: 16)
   Z-12.800    F500 
   X8.000      F1000
   X258.000   
   X261.150   
   Y197.935   
   Y204.235   
   Y854.198   
   Y860.498   
   Y1001.150  
   X4.850     
   Y857.509   
   Y854.359   
   Y851.209   
   Y848.059   
   Y203.363   
   Y197.063   
   Y22.850    
(Pass: 17)
   Z-13.600    F500 
   X8.000      F1000
   X258.000   
   X261.150   
   Y197.935   
   Y204.235   
   Y854.198   
   Y860.498   
   Y1001.150  
   X4.850     
   Y857.509   
   Y854.359   
   Y851.209   
   Y848.059   
   Y203.363   
   Y197.063   
   Y22.850    
(Pass: 18)
   Z-14.400    F500 
   X8.000      F1000
   X258.000   
   X261.150   
   Y197.935   
   Y204.235   
   Y854.198   
   Y860.498   
   Y1001.150  
   X4.850     
   Y857.509   
   Y854.359   
   Y851.209   
   Y848.059   
   Y203.363   
   Y197.063   
   Y22.850    
(Pass: 19)
   Z-15.200    F500 
   X8.000      F1000
   X258.000   
   X261.150   
   Y197.935   
   Y204.235   
   Y854.198   
   Y860.498   
   Y1001.150  
   X4.850     
   Y857.509   
   Y854.359   
   Y851.209   
   Y848.059   
   Y203.363   
   Y197.063   
   Y22.850    
(Pass: 20)
   Z-16.000    F500 
   X8.000      F1000
   X258.000   
   X261.150   
   Y197.935   
   Y204.235   
   Y854.198   
   Y860.498   
   Y1001.150  
   X4.850     
   Y857.509   
   Y854.359   
   Y851.209   
   Y848.059   
   Y203.363   
   Y197.063   
   Y22.850    
(Pass: 21)
   Z-16.800    F500 
   X8.000      F1000
   X258.000   
   X261.150   
   Y197.935   
   Y204.235   
   Y854.198   
   Y860.498   
   Y1001.150  
   X4.850     
   Y857.509   
   Y854.359   
   Y851.209   
   Y848.059   
   Y203.363   
   Y197.063   
   Y22.850    
(Pass: 22)
   Z-17.600    F500 
   X8.000      F1000
   X258.000   
   X261.150   
   Y197.935   
   Y204.235   
   Y854.198   
   Y860.498   
   Y1001.150  
   X4.850     
   Y857.509   
   Y854.359   
   Y851.209   
   Y848.059   
   Y203.363   
   Y197.063   
   Y22.850    
(Pass: 23)
   Z-18.400    F500 
   X8.000      F1000
   X258.000   
   X261.150   
   Y197.935   
   Y204.235   
   Y854.198   
   Y860.498   
   Y1001.150  
   X4.850     
   Y857.509   
   Y854.359   
   Y851.209   
   Y848.059   
   Y203.363   
   Y197.063   
   Y22.850    
(Pass: 24)
   Z-19.200    F500 
   X8.000      F1000
   X258.000   
   X261.150   
   Y197.935   
   Y204.235   
   Y854.198   
   Y860.498   
   Y1001.150  
   X4.850     
   Y857.509   
   Y854.359   
   Y851.209   
   Y848.059   
   Y203.363   
   Y197.063   
   Y22.850    
(BREAK pass 24)
G0   Z6.000     
(Pass: 1)
   X536.850      Y4.850     
G1   Z-0.800     F500 
   X793.150    F1000
   Y196.719   
   Y203.019   
   Y987.958   
   Y991.108   
   Y994.258   
   Y997.408   
   Y2031.150  
   X536.850   
   Y998.746   
   Y992.446   
   Y203.681   
   Y197.381   
   Y4.850     
(Pass: 2)
   Z-1.600     F500 
   X793.150    F1000
   Y196.719   
   Y203.019   
   Y987.958   
   Y991.108   
   Y994.258   
   Y997.408   
   Y2031.150  
   X536.850   
   Y998.746   
   Y992.446   
   Y203.681   
   Y197.381   
   Y4.850     
(Pass: 3)
   Z-2.400     F500 
   X793.150    F1000
   Y196.719   
   Y203.019   
   Y987.958   
   Y991.108   
   Y994.258   
   Y997.408   
   Y2031.150  
   X536.850   
   Y998.746   
   Y992.446   
   Y203.681   
   Y197.381   
   Y4.850     
(Pass: 4)
   Z-3.200     F500 
   X793.150    F1000
   Y196.719   
   Y203.019   
   Y987.958   
   Y991.108   
   Y994.258   
   Y997.408   
   Y2031.150  
   X536.850   
   Y998.746   
   Y992.446   
   Y203.681   
   Y197.381   
   Y4.850     
(Pass: 5)
   Z-4.000     F500 
   X793.150    F10      Y196.719   
   Y203.019   
   Y987.958   
   Y991.108   
   Y994.258   
   Y997.408   
   Y2031.150  
   X536.850   
   Y998.746   
   Y992.446   
   Y203.681   
   Y197.381   
   Y4.850     
(Pass: 6)
   Z-4.800     F500 
   X793.150    F1000
   Y196.719   
   Y203.019   
   Y987.958   
   Y991.108   
   Y994.258   
   Y997.408   
   Y2031.150  
   X536.850   
   Y998.746   
   Y992.446   
   Y203.681   
   Y197.381   
   Y4.850     
(Pass: 7)
   Z-5.600     F500 
   X793.150    F1000
   Y196.719   
   Y203.019   
   Y987.958   
   Y991.108   
   Y994.258   
   Y997.408   
   Y2031.150  
   X536.850   
   Y998.746   
   Y992.446   
   Y203.681   
   Y197.381   
   Y4.850     
(Pass: 8)
   Z-6.400     F500 
   X793.150    F1000
   Y196.719   
   Y203.019   
   Y987.958   
   Y991.108   
   Y994.258   
   Y997.408   
   Y2031.150  
   X536.850   
   Y998.746   
   Y992.446   
   Y203.681   
   Y197.381   
   Y4.850     
(Pass: 9)
   Z-7.200     F500 
   X793.150    F1000
   Y196.719   
   Y203.019   
   Y987.958   
   Y991.108   
   Y994.258   
   Y997.408   
   Y2031.150  
   X536.850   
   Y998.746   
   Y992.446   
   Y203.681   
   Y197.381   
   Y4.850     
(Pass: 10)
   Z-8.000     F500 
   X793.150    F1000
   Y196.719   
   Y203.019   
   Y987.958   
   Y991.108   
   Y994.258   
   Y997.408   
   Y2031.150  
   X536.850   
   Y998.746   
   Y992.446   
   Y203.681   
   Y197.381   
   Y4.850     
(Pass: 11)
   Z-8.800     F500 
   X793.150    F1000
   Y196.719   
   Y203.019   
   Y987.958   
   Y991.108   
   Y994.258   
   Y997.408   
   Y2031.150  
   X536.850   
   Y998.746   
   Y992.446   
   Y203.681   
   Y197.381   
   Y4.850     
(Pass: 12)
   Z-9.600     F500 
   X793.150    F1000
   Y196.719   
   Y203.019   
   Y987.958   
   Y991.108   
   Y994.258   
   Y997.408   
   Y2031.150  
   X536.850   
   Y998.746   
   Y992.446   
   Y203.681   
   Y197.381   
   Y4.850     
(Pass: 13)
   Z-10.400    F500 
   X793.150    F1000
   Y196.719   
   Y203.019   
   Y987.958   
   Y991.108   
   Y994.258   
   Y997.408   
   Y2031.150  
   X536.850   
   Y998.746   
   Y992.446   
   Y203.681   
   Y197.381   
   Y4.850     
(Pass: 14)
   Z-11.200    F500 
   X793.150    F1000
   Y196.719   
   Y203.019   
   Y987.958   
   Y991.108   
   Y994.258   
   Y997.408   
   Y2031.150  
   X536.850   
   Y998.746   
   Y992.446   
   Y203.681   
   Y197.381   
   Y4.850     
(Pass: 15)
   Z-12.000    F500 
   X793.150    F1000
   Y196.719   
   Y203.019   
   Y987.958   
   Y991.108   
   Y994.258   
   Y997.408   
   Y2031.150  
   X536.850   
   Y998.746   
   Y992.446   
   Y203.681   
   Y197.381   
   Y4.850     
(Pass: 16)
   Z-12.800    F500 
   X793.150    F1000
   Y196.719   
   Y203.019   
   Y987.958   
   Y991.108   
   Y994.258   
   Y997.408   
   Y2031.150  
   X536.850   
   Y998.746   
   Y992.446   
   Y203.681   
   Y197.381   
   Y4.850     
(Pass: 17)
   Z-13.600    F500 
   X793.150    F1000
   Y196.719   
   Y203.019   
   Y987.958   
   Y991.108   
   Y994.258   
   Y997.408   
   Y2031.150  
   X536.850   
   Y998.746   
   Y992.446   
   Y203.681   
   Y197.381   
   Y4.850     
(Pass: 18)
   Z-14.400    F500 
   X793.150    F1000
   Y196.719   
   Y203.019   
   Y987.958   
   Y991.108   
   Y994.258   
   Y997.408   
   Y2031.150  
   X536.850   
   Y998.746   
   Y992.446   
   Y203.681   
   Y197.381   
   Y4.850     
(Pass: 19)
   Z-15.200    F500 
   X793.150    F1000
   Y196.719   
   Y203.019   
   Y987.958   
   Y991.108   
   Y994.258   
   Y997.408   
   Y2031.150  
   X536.850   
   Y998.746   
   Y992.446   
   Y203.681   
   Y197.381   
   Y4.850     
(Pass: 20)
   Z-16.000    F500 
   X793.150    F1000
   Y196.719   
   Y203.019   
   Y987.958   
   Y991.108   
   Y994.258   
   Y997.408   
   Y2031.150  
   X536.850   
   Y998.746   
   Y992.446   
   Y203.681   
   Y197.381   
   Y4.850     
(Pass: 21)
   Z-16.800    F500 
   X793.150    F1000
   Y196.719   
   Y203.019   
   Y987.958   
   Y991.108   
   Y994.258   
   Y997.408   
   Y2031.150  
   X536.850   
   Y998.746   
   Y992.446   
   Y203.681   
   Y197.381   
   Y4.850     
(Pass: 22)
   Z-17.600    F500 
   X793.150    F1000
   Y196.719   
   Y203.019   
   Y987.958   
   Y991.108   
   Y994.258   
   Y997.408   
   Y2031.150  
   X536.850   
   Y998.746   
   Y992.446   
   Y203.681   
   Y197.381   
   Y4.850     
(Pass: 23)
   Z-18.400    F500 
   X793.150    F1000
   Y196.719   
   Y203.019   
   Y987.958   
   Y991.108   
   Y994.258   
   Y997.408   
   Y2031.150  
   X536.850   
   Y998.746   
   Y992.446   
   Y203.681   
   Y197.381   
   Y4.850     
(Pass: 24)
   Z-19.200    F500 
   X793.150    F1000
   Y196.719   
   Y203.019   
   Y987.958   
   Y991.108   
   Y994.258   
   Y997.408   
   Y2031.150  
   X536.850   
   Y998.746   
   Y992.446   
   Y203.681   
   Y197.381   
   Y4.850     
(BREAK pass 24)
G0   Z6.000     
(Pass: 1)
   X802.850   
G1   Z-0.800     F500 
   X1059.150   F1000
   Y189.879   
   Y196.179   
   Y989.419   
   Y995.719   
   Y2031.150  
   X802.850   
   Y994.701   
   Y988.401   
   Y202.972   
   Y196.672   
   Y4.850     
(Pass: 2)
   Z-1.600     F500 
   X1059.150   F1000
   Y189.879   
   Y196.179   
   Y989.419   
   Y995.719   
   Y2031.150  
   X802.850   
   Y994.701   
   Y988.401   
   Y202.972   
   Y196.672   
   Y4.850     
(Pass: 3)
   Z-2.400     F500 
   X1059.150   F1000
   Y189.879   
   Y196.179   
   Y989.419   
   Y995.719   
   Y2031.150  
   X802.850   
   Y994.701   
   Y988.401   
   Y202.972   
   Y196.672   
   Y4.850     
(Pass: 4)
   Z-3.200     F500 
   X1059.150   F1000
   Y189.879   
   Y196.179   
   Y989.419   
   Y995.719   
   Y2031.150  
   X802.850   
   Y994.701   
   Y988.401   
   Y202.972   
   Y196.672   
   Y4.850     
(Pass: 5)
   Z-4.000     F500 
   X1059.150   F1000
   Y189.879   
   Y196.179   
   Y989.419   
   Y995.719   
   Y2031.150  
   X802.850   
   Y994.701   
   Y988.401   
   Y202.972   
   Y196.672   
   Y4.850     
(Pass: 6)
   Z-4.800     F500 
   X1059.150   F1000
   Y189.879   
   Y196.179   
   Y989.419   
   Y995.719   
   Y2031.150  
   X802.850   
   Y994.701   
   Y988.401   
   Y202.972   
   Y196.672   
   Y4.850     
(Pass: 7)
   Z-5.600     F500 
   X1059.150   F1000
   Y189.879   
   Y196.179   
   Y989.419   
   Y995.719   
   Y2031.150  
   X802.850   
   Y994.701   
   Y988.401   
   Y202.972   
   Y196.672   
   Y4.850     
(Pass: 8)
   Z-6.400     F500 
   X1059.150   F1000
   Y189.879   
   Y196.179   
   Y989.419   
   Y995.719   
   Y2031.150  
   X802.850   
   Y994.701   
   Y988.401   
   Y202.972   
   Y196.672   
   Y4.850     
(Pass: 9)
   Z-7.200     F500 
   X1059.150   F1000
   Y189.879   
   Y196.179   
   Y989.419   
   Y995.719   
   Y2031.150  
   X802.850   
   Y994.701   
   Y988.401   
   Y202.972   
   Y196.672   
   Y4.850     
(Pass: 10)
   Z-8.000     F500 
   X1059.150   F1000
   Y189.879   
   Y196.179   
   Y989.419   
   Y995.719   
   Y2031.150  
   X802.850   
   Y994.701   
   Y988.401   
   Y202.972   
   Y196.672   
   Y4.850     
(Pass: 11)
   Z-8.800     F500 
   X1059.150   F1000
   Y189.879   
   Y196.179   
   Y989.419   
   Y995.719   
   Y2031.150  
   X802.850   
   Y994.701   
   Y988.401   
   Y202.972   
   Y196.672   
   Y4.850     
(Pass: 12)
   Z-9.600     F500 
   X1059.150   F1000
   Y189.879   
   Y196.179   
   Y989.419   
   Y995.719   
   Y2031.150  
   X802.850   
   Y994.701   
   Y988.401   
   Y202.972   
   Y196.672   
   Y4.850     
(Pass: 13)
   Z-10.400    F500 
   X1059.150   F1000
   Y189.879   
   Y196.179   
   Y989.419   
   Y995.719   
   Y2031.150  
   X802.850   
   Y994.701   
   Y988.401   
   Y202.972   
   Y196.672   
   Y4.850     
(Pass: 14)
   Z-11.200    F500 
   X1059.150   F1000
   Y189.879   
   Y196.179   
   Y989.419   
   Y995.719   
   Y2031.150  
   X802.850   
   Y994.701   
   Y988.401   
   Y202.972   
   Y196.672   
   Y4.850     
(Pass: 15)
   Z-12.000    F500 
   X1059.150   F1000
   Y189.879   
   Y196.179   
   Y989.419   
   Y995.719   
   Y2031.150  
   X802.850   
   Y994.701   
   Y988.401   
   Y202.972   
   Y196.672   
