%
(Generated by SketchUcam {1.2})
(File: BedSurround.skp)
(Bit diameter: 6.3mm)
(Feed rate: 1500.0mm/min)
(Plunge Feed rate: 500.0mm/min)
(Material Thickness: 18.0mm)
(Material length: 2400.0mm X width: 1200.0mm)
(Overhead Gantry: true)
(Retract feed rate NOT limited to plunge feed rate)
(Multipass enabled, Depth = 0.8mm)
(Optimization is ON)
(www.PhlatBoyz.com)
G90 G21 G49 
M3 S11000
G0   Z6.000     
(Pass: 1)
   X8.000        Y22.850    
G1   Z-0.800     F500 
   X11.150     F1500
   X254.850   
   X258.000   
G0   Z6.000     
   X254.850      Y11.150    
G1   Z-0.800     F500 
   Y22.850     F1500
G0   Z6.000     
   X11.150       Y11.150    
G1   Z-0.800     F500 
   X254.850    F1500
G0   Z6.000     
   X11.150       Y22.850    
G1   Z-0.800     F500 
   Y11.150     F1500
(Pass: 2)
   X8.000        Y22.850    
   Z-1.600     F500 
   X11.150     F1500
   X254.850   
   X258.000   
G0   Z6.000     
   X254.850      Y11.150    
G1   Z-1.600     F500 
   Y22.850     F1500
G0   Z6.000     
   X11.150       Y11.150    
G1   Z-1.600     F500 
   X254.850    F1500
G0   Z6.000     
   X11.150       Y22.850    
G1   Z-1.600     F500 
   Y11.150     F1500
(Pass: 3)
   X8.000        Y22.850    
   Z-2.400     F500 
   X11.150     F1500
   X254.850   
   X258.000   
G0   Z6.000     
   X254.850      Y11.150    
G1   Z-2.400     F500 
   Y22.850     F1500
G0   Z6.000     
   X11.150       Y11.150    
G1   Z-2.400     F500 
   X254.850    F1500
G0   Z6.000     
   X11.150       Y22.850    
G1   Z-2.400     F500 
   Y11.150     F1500
(Pass: 4)
   X8.000        Y22.850    
   Z-3.200     F500 
   X11.150     F1500
   X254.850   
   X258.000   
G0   Z6.000     
   X254.850      Y11.150    
G1   Z-3.200     F500 
   Y22.850     F1500
G0   Z6.000     
   X11.150       Y11.150    
G1   Z-3.200     F500 
   X254.850    F1500
G0   Z6.000     
   X11.150       Y22.850    
G1   Z-3.200     F500 
   Y11.150     F1500
(Pass: 5)
   X8.000        Y22.850    
   Z-4.000     F500 
   X11.150     F1500
   X254.850   
   X258.000   
G0   Z6.000     
   X254.850      Y11.150    
G1   Z-4.000     F500 
   Y22.850     F1500
G0   Z6.000     
   X11.150       Y11.150    
G1   Z-4.000     F500 
   X254.850    F1500
G0   Z6.000     
   X11.150       Y22.850    
G1   Z-4.000     F500 
   Y11.150     F1500
(Pass: 6)
   X8.000        Y22.850    
   Z-4.800     F500 
   X11.150     F1500
   X254.850   
   X258.000   
G0   Z6.000     
   X254.850      Y11.150    
G1   Z-4.800     F500 
   Y22.850     F1500
G0   Z6.000     
   X11.150       Y11.150    
G1   Z-4.800     F500 
   X254.850    F1500
G0   Z6.000     
   X11.150       Y22.850    
G1   Z-4.800     F500 
   Y11.150     F1500
(Pass: 7)
   X8.000        Y22.850    
   Z-5.600     F500 
   X11.150     F1500
   X254.850   
   X258.000   
G0   Z6.000     
   X254.850      Y11.150    
G1   Z-5.600     F500 
   Y22.850     F1500
G0   Z6.000     
   X11.150       Y11.150    
G1   Z-5.600     F500 
   X254.850    F1500
G0   Z6.000     
   X11.150       Y22.850    
G1   Z-5.600     F500 
   Y11.150     F1500
(Pass: 8)
   X8.000        Y22.850    
   Z-6.400     F500 
   X11.150     F1500
   X254.850   
   X258.000   
G0   Z6.000     
   X254.850      Y11.150    
G1   Z-6.400     F500 
   Y22.850     F1500
G0   Z6.000     
   X11.150       Y11.150    
G1   Z-6.400     F500 
   X254.850    F1500
G0   Z6.000     
   X11.150       Y22.850    
G1   Z-6.400     F500 
   Y11.150     F1500
(Pass: 9)
   X8.000        Y22.850    
   Z-7.200     F500 
   X11.150     F1500
   X254.850   
   X258.000   
G0   Z6.000     
   X254.850      Y11.150    
G1   Z-7.200     F500 
   Y22.850     F1500
G0   Z6.000     
   X11.150       Y11.150    
G1   Z-7.200     F500 
   X254.850    F1500
G0   Z6.000     
   X11.150       Y22.850    
G1   Z-7.200     F500 
   Y11.150     F1500
(Pass: 10)
   X8.000        Y22.850    
   Z-8.000     F500 
   X11.150     F1500
   X254.850   
   X258.000   
G0   Z6.000     
   X254.850      Y11.150    
G1   Z-8.000     F500 
   Y22.850     F1500
G0   Z6.000     
   X11.150       Y11.150    
G1   Z-8.000     F500 
   X254.850    F1500
G0   Z6.000     
   X11.150       Y22.850    
G1   Z-8.000     F500 
   Y11.150     F1500
(Pass: 11)
   X8.000        Y22.850    
   Z-8.800     F500 
   X11.150     F1500
   X254.850   
   X258.000   
G0   Z6.000     
   X254.850      Y11.150    
G1   Z-8.800     F500 
   Y22.850     F1500
G0   Z6.000     
   X11.150       Y11.150    
G1   Z-8.800     F500 
   X254.850    F1500
G0   Z6.000     
   X11.150       Y22.850    
G1   Z-8.800     F500 
   Y11.150     F1500
(Pass: 12)
   X8.000        Y22.850    
   Z-9.600     F500 
   X11.150     F1500
   X254.850   
   X258.000   
G0   Z6.000     
   X254.850      Y11.150    
G1   Z-9.000     F500 
   Y22.850     F1500
G0   Z6.000     
   X11.150       Y11.150    
G1   Z-9.000     F500 
   X254.850    F1500
G0   Z6.000     
   X11.150       Y22.850    
G1   Z-9.000     F500 
   Y11.150     F1500
(Pass: 13)
   X8.000        Y22.850    
   Z-10.400    F500 
   X11.150     F1500
   X254.850   
   X258.000   
G0   Z6.000     
   X254.850      Y11.150    
G1   Z-9.000     F500 
   Y22.850     F1500
G0   Z6.000     
   X11.150       Y11.150    
G1   Z-9.000     F500 
   X254.850    F1500
G0   Z6.000     
   X11.150       Y22.850    
G1   Z-9.000     F500 
   Y11.150     F1500
(Pass: 14)
   X8.000        Y22.850    
   Z-11.200    F500 
   X11.150     F1500
   X254.850   
   X258.000   
G0   Z6.000     
   X254.850      Y11.150    
G1   Z-9.000     F500 
   Y22.850     F1500
G0   Z6.000     
   X11.150       Y11.150    
G1   Z-9.000     F500 
   X254.850    F1500
G0   Z6.000     
   X11.150       Y22.850    
G1   Z-9.000     F500 
   Y11.150     F1500
(Pass: 15)
   X8.000        Y22.850    
   Z-12.000    F500 
   X11.150     F1500
   X254.850   
   X258.000   
G0   Z6.000     
   X254.850      Y11.150    
G1   Z-9.000     F500 
   Y22.850     F1500
G0   Z6.000     
   X11.150       Y11.150    
G1   Z-9.000     F500 
   X254.850    F1500
G0   Z6.000     
   X11.150       Y22.850    
G1   Z-9.000     F500 
   Y11.150     F1500
(Pass: 16)
   X8.000        Y22.850    
   Z-12.800    F500 
   X11.150     F1500
   X254.850   
   X258.000   
G0   Z6.000     
   X254.850      Y11.150    
G1   Z-9.000     F500 
   Y22.850     F1500
G0   Z6.000     
   X11.150       Y11.150    
G1   Z-9.000     F500 
   X254.850    F1500
G0   Z6.000     
   X11.150       Y22.850    
G1   Z-9.000     F500 
   Y11.150     F1500
(Pass: 17)
   X8.000        Y22.850    
   Z-13.600    F500 
   X11.150     F1500
   X254.850   
   X258.000   
G0   Z6.000     
   X254.850      Y11.150    
G1   Z-9.000     F500 
   Y22.850     F1500
G0   Z6.000     
   X11.150       Y11.150    
G1   Z-9.000     F500 
   X254.850    F1500
G0   Z6.000     
   X11.150       Y22.850    
G1   Z-9.000     F500 
   Y11.150     F1500
(Pass: 18)
   X8.000        Y22.850    
   Z-14.400    F500 
   X11.150     F1500
   X254.850   
   X258.000   
G0   Z6.000     
   X254.850      Y11.150    
G1   Z-9.000     F500 
   Y22.850     F1500
G0   Z6.000     
   X11.150       Y11.150    
G1   Z-9.000     F500 
   X254.850    F1500
G0   Z6.000     
   X11.150       Y22.850    
G1   Z-9.000     F500 
   Y11.150     F1500
(Pass: 19)
   X8.000        Y22.850    
   Z-15.200    F500 
   X11.150     F1500
   X254.850   
   X258.000   
G0   Z6.000     
   X254.850      Y11.150    
G1   Z-9.000     F500 
   Y22.850     F1500
G0   Z6.000     
   X11.150       Y11.150    
G1   Z-9.000     F500 
   X254.850    F1500
G0   Z6.000     
   X11.150       Y22.850    
G1   Z-9.000     F500 
   Y11.150     F1500
(Pass: 20)
   X8.000        Y22.850    
   Z-16.000    F500 
   X11.150     F1500
   X254.850   
   X258.000   
G0   Z6.000     
   X254.850      Y11.150    
G1   Z-9.000     F500 
   Y22.850     F1500
G0   Z6.000     
   X11.150       Y11.150    
G1   Z-9.000     F500 
   X254.850    F1500
G0   Z6.000     
   X11.150       Y22.850    
G1   Z-9.000     F500 
   Y11.150     F1500
(Pass: 21)
   X8.000        Y22.850    
   Z-16.800    F500 
   X11.150     F1500
   X254.850   
   X258.000   
G0   Z6.000     
   X254.850      Y11.150    
G1   Z-9.000     F500 
   Y22.850     F1500
G0   Z6.000     
   X11.150       Y11.150    
G1   Z-9.000     F500 
   X254.850    F1500
G0   Z6.000     
   X11.150       Y22.850    
G1   Z-9.000     F500 
   Y11.150     F1500
(Pass: 22)
   X8.000        Y22.850    
   Z-17.600    F500 
   X11.150     F1500
   X254.850   
   X258.000   
G0   Z6.000     
   X254.850      Y11.150    
G1   Z-9.000     F500 
   Y22.850     F1500
G0   Z6.000     
   X11.150       Y11.150    
G1   Z-9.000     F500 
   X254.850    F1500
G0   Z6.000     
   X11.150       Y22.850    
G1   Z-9.000     F500 
   Y11.150     F1500
(Pass: 23)
   X8.000        Y22.850    
   Z-18.400    F500 
   X11.150     F1500
   X254.850   
   X258.000   
G0   Z6.000     
   X254.850      Y11.150    
G1   Z-9.000     F500 
   Y22.850     F1500
G0   Z6.000     
   X11.150       Y11.150    
G1   Z-9.000     F500 
   X254.850    F1500
G0   Z6.000     
   X11.150       Y22.850    
G1   Z-9.000     F500 
   Y11.150     F1500
(Pass: 24)
   X8.000        Y22.850    
   Z-19.200    F500 
   X11.150     F1500
   X254.850   
   X258.000   
G0   Z6.000     
   X254.850      Y11.150    
G1   Z-9.000     F500 
   Y22.850     F1500
G0   Z6.000     
   X11.150       Y11.150    
G1   Z-9.000     F500 
   X254.850    F1500
G0   Z6.000     
   X11.150       Y22.850    
G1   Z-9.000     F500 
   Y11.150     F1500
(BREAK pass 24)
G0   Z6.000     
(Pass: 1)
   X4.850        Y22.850    
G1   Z-0.800     F500 
   X261.150    F1500
   Y66.084    
   Y72.384    
   Y896.249   
   Y902.549   
   Y1001.150  
   X4.850     
   Y903.170   
   Y896.870   
   Y69.157    
   Y62.857    
   Y22.850    
(Pass: 2)
   Z-1.600     F500 
   X261.150    F1500
   Y66.084    
   Y72.384    
   Y896.249   
   Y902.549   
   Y1001.150  
   X4.850     
   Y903.170   
   Y896.870   
   Y69.157    
   Y62.857    
   Y22.850    
(Pass: 3)
   Z-2.400     F500 
   X261.150    F1500
   Y66.084    
   Y72.384    
   Y896.249   
   Y902.549   
   Y1001.150  
   X4.850     
   Y903.170   
   Y896.870   
   Y69.157    
   Y62.857    
   Y22.850    
(Pass: 4)
   Z-3.200     F500 
   X261.150    F1500
   Y66.084    
   Y72.384    
   Y896.249   
   Y902.549   
   Y1001.150  
   X4.850     
   Y903.170   
   Y896.870   
   Y69.157    
   Y62.857    
   Y22.850    
(Pass: 5)
   Z-4.000     F500 
   X261.150    F1500
   Y66.084    
   Y72.384    
   Y896.249   
   Y902.549   
   Y1001.150  
   X4.850     
   Y903.170   
   Y896.870   
   Y69.157    
   Y62.857    
   Y22.850    
(Pass: 6)
   Z-4.800     F500 
   X261.150    F1500
   Y66.084    
   Y72.384    
   Y896.249   
   Y902.549   
   Y1001.150  
   X4.850     
   Y903.170   
   Y896.870   
   Y69.157    
   Y62.857    
   Y22.850    
(Pass: 7)
   Z-5.600     F500 
   X261.150    F1500
   Y66.084    
   Y72.384    
   Y896.249   
   Y902.549   
   Y1001.150  
   X4.850     
   Y903.170   
   Y896.870   
   Y69.157    
   Y62.857    
   Y22.850    
(Pass: 8)
   Z-6.400     F500 
   X261.150    F1500
   Y66.084    
   Y72.384    
   Y896.249   
   Y902.549   
   Y1001.150  
   X4.850     
   Y903.170   
   Y896.870   
   Y69.157    
   Y62.857    
   Y22.850    
(Pass: 9)
   Z-7.200     F500 
   X261.150    F1500
   Y66.084    
   Y72.384    
   Y896.249   
   Y902.549   
   Y1001.150  
   X4.850     
   Y903.170   
   Y896.870   
   Y69.157    
   Y62.857    
   Y22.850    
(Pass: 10)
   Z-8.000     F500 
   X261.150    F1500
   Y66.084    
   Y72.384    
   Y896.249   
   Y902.549   
   Y1001.150  
   X4.850     
   Y903.170   
   Y896.870   
   Y69.157    
   Y62.857    
   Y22.850    
(Pass: 11)
   Z-8.800     F500 
   X261.150    F1500
   Y66.084    
   Y72.384    
   Y896.249   
   Y902.549   
   Y1001.150  
   X4.850     
   Y903.170   
   Y896.870   
   Y69.157    
   Y62.857    
   Y22.850    
(Pass: 12)
   Z-9.600     F500 
   X261.150    F1500
   Y66.084    
   Y72.384    
   Y896.249   
   Y902.549   
   Y1001.150  
   X4.850     
   Y903.170   
   Y896.870   
   Y69.157    
   Y62.857    
   Y22.850    
(Pass: 13)
   Z-10.400    F500 
   X261.150    F1500
   Y66.084    
   Y72.384    
   Y896.249   
   Y902.549   
   Y1001.150  
   X4.850     
   Y903.170   
   Y896.870   
   Y69.157    
   Y62.857    
   Y22.850    
(Pass: 14)
   Z-11.200    F500 
   X261.150    F1500
   Y66.084    
   Y72.384    
   Y896.249   
   Y902.549   
   Y1001.150  
   X4.850     
   Y903.170   
   Y896.870   
   Y69.157    
   Y62.857    
   Y22.850    
(Pass: 15)
   Z-12.000    F500 
   X261.150    F1500
   Y66.084    
   Y72.384    
   Y896.249   
   Y902.549   
   Y1001.150  
   X4.850     
   Y903.170   
   Y896.870   
   Y69.157    
   Y62.857    
   Y22.850    
(Pass: 16)
   Z-12.800    F500 
   X261.150    F1500
   Y66.084    
   Y72.384    
   Y896.249   
   Y902.549   
   Y1001.150  
   X4.850     
   Y903.170   
   Y896.870   
   Y69.157    
   Y62.857    
   Y22.850    
(Pass: 17)
   Z-13.600    F500 
   X261.150    F1500
   Y66.084    
   Z-13.500   
   Y72.384    
   Z-13.600    F500 
   Y896.249    F1500
   Z-13.500   
   Y902.549   
   Z-13.600    F500 
   Y1001.150   F1500
   X4.850     
   Y903.170   
   Z-13.500   
   Y896.870   
   Z-13.600    F500 
   Y69.157     F1500
   Z-13.500   
   Y62.857    
   Z-13.600    F500 
   Y22.850     F1500
(Pass: 18)
   Z-14.400    F500 
   X261.150    F1500
   Y66.084    
   Z-13.500   
   Y72.384    
   Z-14.400    F500 
   Y896.249    F1500
   Z-13.500   
   Y902.549   
   Z-14.400    F500 
   Y1001.150   F1500
   X4.850     
   Y903.170   
   Z-13.500   
   Y896.870   
   Z-14.400    F500 
   Y69.157     F1500
   Z-13.500   
   Y62.857    
   Z-14.400    F500 
   Y22.850     F1500
(Pass: 19)
   Z-15.200    F500 
   X261.150    F1500
   Y66.084    
   Z-13.500   
   Y72.384    
   Z-15.200    F500 
   Y896.249    F1500
   Z-13.500   
   Y902.549   
   Z-15.200    F500 
   Y1001.150   F1500
   X4.850     
   Y903.170   
   Z-13.500   
   Y896.870   
   Z-15.200    F500 
   Y69.157     F1500
   Z-13.500   
   Y62.857    
   Z-15.200    F500 
   Y22.850     F1500
(Pass: 20)
   Z-16.000    F500 
   X261.150    F1500
   Y66.084    
   Z-13.500   
   Y72.384    
   Z-16.000    F500 
   Y896.249    F1500
   Z-13.500   
   Y902.549   
   Z-16.000    F500 
   Y1001.150   F1500
   X4.850     
   Y903.170   
   Z-13.500   
   Y896.870   
   Z-16.000    F500 
   Y69.157     F1500
   Z-13.500   
   Y62.857    
   Z-16.000    F500 
   Y22.850     F1500
(Pass: 21)
   Z-16.800    F500 
   X261.150    F1500
   Y66.084    
   Z-13.500   
   Y72.384    
   Z-16.800    F500 
   Y896.249    F1500
   Z-13.500   
   Y902.549   
   Z-16.800    F500 
   Y1001.150   F1500
   X4.850     
   Y903.170   
   Z-13.500   
   Y896.870   
   Z-16.800    F500 
   Y69.157     F1500
   Z-13.500   
   Y62.857    
   Z-16.800    F500 
   Y22.850     F1500
(Pass: 22)
   Z-17.600    F500 
   X261.150    F1500
   Y66.084    
   Z-13.500   
   Y72.384    
   Z-17.600    F500 
   Y896.249    F1500
   Z-13.500   
   Y902.549   
   Z-17.600    F500 
   Y1001.150   F1500
   X4.850     
   Y903.170   
   Z-13.500   
   Y896.870   
   Z-17.600    F500 
   Y69.157     F1500
   Z-13.500   
   Y62.857    
   Z-17.600    F500 
   Y22.850     F1500
(Pass: 23)
   Z-18.400    F500 
   X261.150    F1500
   Y66.084    
   Z-13.500   
   Y72.384    
   Z-18.400    F500 
   Y896.249    F1500
   Z-13.500   
   Y902.549   
   Z-18.400    F500 
   Y1001.150   F1500
   X4.850     
   Y903.170   
   Z-13.500   
   Y896.870   
   Z-18.400    F500 
   Y69.157     F1500
   Z-13.500   
   Y62.857    
   Z-18.400    F500 
   Y22.850     F1500
(Pass: 24)
   Z-19.200    F500 
   X261.150    F1500
   Y66.084    
   Z-13.500   
   Y72.384    
   Z-19.200    F500 
   Y896.249    F1500
   Z-13.500   
   Y902.549   
   Z-19.200    F500 
   Y1001.150   F1500
   X4.850     
   Y903.170   
   Z-13.500   
   Y896.870   
   Z-19.200    F500 
   Y69.157     F1500
   Z-13.500   
   Y62.857    
   Z-19.200    F500 
   Y22.850     F1500
(BREAK pass 24)
G0   Z6.000     
(Pass: 1)
   X16.190       Y11.780    
G1   Z-0.800     F500 
   Y22.220     F1500
   X20.600    
   Y11.780    
   X25.010    
   Y22.220    
   X29.420    
   Y11.780    
   X33.830    
   Y22.220    
   X38.240    
   Y11.780    
   X42.650    
   Y22.220    
   X47.060    
   Y11.780    
   X51.470    
   Y22.220    
   X55.880    
   Y11.780    
   X60.290    
   Y22.220    
   X64.700    
   Y11.780    
   X69.110    
   Y22.220    
   X73.520    
   Y11.780    
   X77.930    
   Y22.220    
   X82.340    
   Y11.780    
   X86.750    
   Y22.220    
   X91.160    
   Y11.780    
   X95.570    
   Y22.220    
   X99.980    
   Y11.780    
   X104.390   
   Y22.220    
   X108.800   
   Y11.780    
   X113.210   
   Y22.220    
   X117.620   
   Y11.780    
   X122.030   
   Y22.220    
   X126.440   
   Y11.780    
   X130.850   
   Y22.220    
   X135.260   
   Y11.780    
   X139.670   
   Y22.220    
   X144.080   
   Y11.780    
   X148.490   
   Y22.220    
   X152.900   
   Y11.780    
   X157.310   
   Y22.220    
   X161.720   
   Y11.780    
   X166.130   
   Y22.220    
   X170.540   
   Y11.780    
   X174.950   
   Y22.220    
   X179.360   
   Y11.780    
   X183.770   
   Y22.220    
   X188.180   
   Y11.780    
   X192.590   
   Y22.220    
   X197.000   
   Y11.780    
   X201.410   
   Y22.220    
   X205.820   
   Y11.780    
   X210.230   
   Y22.220    
   X214.640   
   Y11.780    
   X219.050   
   Y22.220    
   X223.460   
   Y11.780    
   X227.870   
   Y22.220    
   X232.280   
   Y11.780    
   X236.690   
   Y22.220    
   X241.100   
   Y11.780    
   X245.510   
   Y22.220    
   X249.920   
   Y11.780    
(Pass: 2)
G0   Z6.000     
   X16.190    
G1   Z-1.600     F500 
   Y22.220     F1500
   X20.600    
   Y11.780    
   X25.010    
   Y22.220    
   X29.420    
   Y11.780    
   X33.830    
   Y22.220    
   X38.240    
   Y11.780    
   X42.650    
   Y22.220    
   X47.060    
   Y11.780    
   X51.470    
   Y22.220    
   X55.880    
   Y11.780    
   X60.290    
   Y22.220    
   X64.700    
   Y11.780    
   X69.110    
   Y22.220    
   X73.520    
   Y11.780    
   X77.930    
   Y22.220    
   X82.340    
   Y11.780    
   X86.750    
   Y22.220    
   X91.160    
   Y11.780    
   X95.570    
   Y22.220    
   X99.980    
   Y11.780    
   X104.390   
   Y22.220    
   X108.800   
   Y11.780    
   X113.210   
   Y22.220    
   X117.620   
   Y11.780    
   X122.030   
   Y22.220    
   X126.440   
   Y11.780    
   X130.850   
   Y22.220    
   X135.260   
   Y11.780    
   X139.670   
   Y22.220    
   X144.080   
   Y11.780    
   X148.490   
   Y22.220    
   X152.900   
   Y11.780    
   X157.310   
   Y22.220    
   X161.720   
   Y11.780    
   X166.130   
   Y22.220    
   X170.540   
   Y11.780    
   X174.950   
   Y22.220    
   X179.360   
   Y11.780    
   X183.770   
   Y22.220    
   X188.180   
   Y11.780    
   X192.590   
   Y22.220    
   X197.000   
   Y11.780    
   X201.410   
   Y22.220    
   X205.820   
   Y11.780    
   X210.230   
   Y22.220    
   X214.640   
   Y11.780    
   X219.050   
   Y22.220    
   X223.460   
   Y11.780    
   X227.870   
   Y22.220    
   X232.280   
   Y11.780    
   X236.690   
   Y22.220    
   X241.100   
   Y11.780    
   X245.510   
   Y22.220    
   X249.920   
   Y11.780    
(Pass: 3)
G0   Z6.000     
   X16.190    
G1   Z-2.400     F500 
   Y22.220     F1500
   X20.600    
   Y11.780    
   X25.010    
   Y22.220    
   X29.420    
   Y11.780    
   X33.830    
   Y22.220    
   X38.240    
   Y11.780    
   X42.650    
   Y22.220    
   X47.060    
   Y11.780    
   X51.470    
   Y22.220    
   X55.880    
   Y11.780    
   X60.290    
   Y22.220    
   X64.700    
   Y11.780    
   X69.110    
   Y22.220    
   X73.520    
   Y11.780    
   X77.930    
   Y22.220    
   X82.340    
   Y11.780    
   X86.750    
   Y22.220    
   X91.160    
   Y11.780    
   X95.570    
   Y22.220    
   X99.980    
   Y11.780    
   X104.390   
   Y22.220    
   X108.800   
   Y11.780    
   X113.210   
   Y22.220    
   X117.620   
   Y11.780    
   X122.030   
   Y22.220    
   X126.440   
   Y11.780    
   X130.850   
   Y22.220    
   X135.260   
   Y11.780    
   X139.670   
   Y22.220    
   X144.080   
   Y11.780    
   X148.490   
   Y22.220    
   X152.900   
   Y11.780    
   X157.310   
   Y22.220    
   X161.720   
   Y11.780    
   X166.130   
   Y22.220    
   X170.540   
   Y11.780    
   X174.950   
   Y22.220    
   X179.360   
   Y11.780    
   X183.770   
   Y22.220    
   X188.180   
   Y11.780    
   X192.590   
   Y22.220    
   X197.000   
   Y11.780    
   X201.410   
   Y22.220    
   X205.820   
   Y11.780    
   X210.230   
   Y22.220    
   X214.640   
   Y11.780    
   X219.050   
   Y22.220    
   X223.460   
   Y11.780    
   X227.870   
   Y22.220    
   X232.280   
   Y11.780    
   X236.690   
   Y22.220    
   X241.100   
   Y11.780    
   X245.510   
   Y22.220    
   X249.920   
   Y11.780    
(Pass: 4)
G0   Z6.000     
   X16.190    
G1   Z-3.200     F500 
   Y22.220     F1500
   X20.600    
   Y11.780    
   X25.010    
   Y22.220    
   X29.420    
   Y11.780    
   X33.830    
   Y22.220    
   X38.240    
   Y11.780    
   X42.650    
   Y22.220    
   X47.060    
   Y11.780    
   X51.470    
   Y22.220    
   X55.880    
   Y11.780    
   X60.290    
   Y22.220    
   X64.700    
   Y11.780    
   X69.110    
   Y22.220    
   X73.520    
   Y11.780    
   X77.930    
   Y22.220    
   X82.340    
   Y11.780    
   X86.750    
   Y22.220    
   X91.160    
   Y11.780    
   X95.570    
   Y22.220    
   X99.980    
   Y11.780    
   X104.390   
   Y22.220    
   X108.800   
   Y11.780    
   X113.210   
   Y22.220    
   X117.620   
   Y11.780    
   X122.030   
   Y22.220    
   X126.440   
   Y11.780    
   X130.850   
   Y22.220    
   X135.260   
   Y11.780    
   X139.670   
   Y22.220    
   X144.080   
   Y11.780    
   X148.490   
   Y22.220    
   X152.900   
   Y11.780    
   X157.310   
   Y22.220    
   X161.720   
   Y11.780    
   X166.130   
   Y22.220    
   X170.540   
   Y11.780    
   X174.950   
   Y22.220    
   X179.360   
   Y11.780    
   X183.770   
   Y22.220    
   X188.180   
   Y11.780    
   X192.590   
   Y22.220    
   X197.000   
   Y11.780    
   X201.410   
   Y22.220    
   X205.820   
   Y11.780    
   X210.230   
   Y22.220    
   X214.640   
   Y11.780    
   X219.050   
   Y22.220    
   X223.460   
   Y11.780    
   X227.870   
   Y22.220    
   X232.280   
   Y11.780    
   X236.690   
   Y22.220    
   X241.100   
   Y11.780    
   X245.510   
   Y22.220    
   X249.920   
   Y11.780    
(Pass: 5)
G0   Z6.000     
   X16.190    
G1   Z-4.000     F500 
   Y22.220     F1500
   X20.600    
   Y11.780    
   X25.010    
   Y22.220    
   X29.420    
   Y11.780    
   X33.830    
   Y22.220    
   X38.240    
   Y11.780    
   X42.650    
   Y22.220    
   X47.060    
   Y11.780    
   X51.470    
   Y22.220    
   X55.880    
   Y11.780    
   X60.290    
   Y22.220    
   X64.700    
   Y11.780    
   X69.110    
   Y22.220    
   X73.520    
   Y11.780    
   X77.930    
   Y22.220    
   X82.340    
   Y11.780    
   X86.750    
   Y22.220    
   X91.160    
   Y11.780    
   X95.570    
   Y22.220    
   X99.980    
   Y11.780    
   X104.390   
   Y22.220    
   X108.800   
   Y11.780    
   X113.210   
   Y22.220    
   X117.620   
   Y11.780    
   X122.030   
   Y22.220    
   X126.440   
   Y11.780    
   X130.850   
   Y22.220    
   X135.260   
   Y11.780    
   X139.670   
   Y22.220    
   X144.080   
   Y11.780    
   X148.490   
   Y22.220    
   X152.900   
   Y11.780    
   X157.310   
   Y22.220    
   X161.720   
   Y11.780    
   X166.130   
   Y22.220    
   X170.540   
   Y11.780    
   X174.950   
   Y22.220    
   X179.360   
   Y11.780    
   X183.770   
   Y22.220    
   X188.180   
   Y11.780    
   X192.590   
   Y22.220    
   X197.000   
   Y11.780    
   X201.410   
   Y22.220    
   X205.820   
   Y11.780    
   X210.230   
   Y22.220    
   X214.640   
   Y11.780    
   X219.050   
   Y22.220    
   X223.460   
   Y11.780    
   X227.870   
   Y22.220    
   X232.280   
   Y11.780    
   X236.690   
   Y22.220    
   X241.100   
   Y11.780    
   X245.510   
   Y22.220    
   X249.920   
   Y11.780    
(Pass: 6)
G0   Z6.000     
   X16.190    
G1   Z-4.800     F500 
   Y22.220     F1500
   X20.600    
   Y11.780    
   X25.010    
   Y22.220    
   X29.420    
   Y11.780    
   X33.830    
   Y22.220    
   X38.240    
   Y11.780    
   X42.650    
   Y22.220    
   X47.060    
   Y11.780    
   X51.470    
   Y22.220    
   X55.880    
   Y11.780    
   X60.290    
   Y22.220    
   X64.700    
   Y11.780    
   X69.110    
   Y22.220    
   X73.520    
   Y11.780    
   X77.930    
   Y22.220    
   X82.340    
   Y11.780    
   X86.750    
   Y22.220    
   X91.160    
   Y11.780    
   X95.570    
   Y22.220    
   X99.980    
   Y11.780    
   X104.390   
   Y22.220    
   X108.800   
   Y11.780    
   X113.210   
   Y22.220    
   X117.620   
   Y11.780    
   X122.030   
   Y22.220    
   X126.440   
   Y11.780    
   X130.850   
   Y22.220    
   X135.260   
   Y11.780    
   X139.670   
   Y22.220    
   X144.080   
   Y11.780    
   X148.490   
   Y22.220    
   X152.900   
   Y11.780    
   X157.310   
   Y22.220    
   X161.720   
   Y11.780    
   X166.130   
   Y22.220    
   X170.540   
   Y11.780    
   X174.950   
   Y22.220    
   X179.360   
   Y11.780    
   X183.770   
   Y22.220    
   X188.180   
   Y11.780    
   X192.590   
   Y22.220    
   X197.000   
   Y11.780    
   X201.410   
   Y22.220    
   X205.820   
   Y11.780    
   X210.230   
   Y22.220    
   X214.640   
   Y11.780    
   X219.050   
   Y22.220    
   X223.460   
   Y11.780    
   X227.870   
   Y22.220    
   X232.280   
   Y11.780    
   X236.690   
   Y22.220    
   X241.100   
   Y11.780    
   X245.510   
   Y22.220    
   X249.920   
   Y11.780    
(Pass: 7)
G0   Z6.000     
   X16.190    
G1   Z-5.600     F500 
   Y22.220     F1500
   X20.600    
   Y11.780    
   X25.010    
   Y22.220    
   X29.420    
   Y11.780    
   X33.830    
   Y22.220    
   X38.240    
   Y11.780    
   X42.650    
   Y22.220    
   X47.060    
   Y11.780    
   X51.470    
   Y22.220    
   X55.880    
   Y11.780    
   X60.290    
   Y22.220    
   X64.700    
   Y11.780    
   X69.110    
   Y22.220    
   X73.520    
   Y11.780    
   X77.930    
   Y22.220    
   X82.340    
   Y11.780    
   X86.750    
   Y22.220    
   X91.160    
   Y11.780    
   X95.570    
   Y22.220    
   X99.980    
   Y11.780    
   X104.390   
   Y22.220    
   X108.800   
   Y11.780    
   X113.210   
   Y22.220    
   X117.620   
   Y11.780    
   X122.030   
   Y22.220    
   X126.440   
   Y11.780    
   X130.850   
   Y22.220    
   X135.260   
   Y11.780    
   X139.670   
   Y22.220    
   X144.080   
   Y11.780    
   X148.490   
   Y22.220    
   X152.900   
   Y11.780    
   X157.310   
   Y22.220    
   X161.720   
   Y11.780    
   X166.130   
   Y22.220    
   X170.540   
   Y11.780    
   X174.950   
   Y22.220    
   X179.360   
   Y11.780    
   X183.770   
   Y22.220    
   X188.180   
   Y11.780    
   X192.590   
   Y22.220    
   X197.000   
   Y11.780    
   X201.410   
   Y22.220    
   X205.820   
   Y11.780    
   X210.230   
   Y22.220    
   X214.640   
   Y11.780    
   X219.050   
   Y22.220    
   X223.460   
   Y11.780    
   X227.870   
   Y22.220    
   X232.280   
   Y11.780    
   X236.690   
   Y22.220    
   X241.100   
   Y11.780    
   X245.510   
   Y22.220    
   X249.920   
   Y11.780    
(Pass: 8)
G0   Z6.000     
   X16.190    
G1   Z-6.400     F500 
   Y22.220     F1500
   X20.600    
   Y11.780    
   X25.010    
   Y22.220    
   X29.420    
   Y11.780    
   X33.830    
   Y22.220    
   X38.240    
   Y11.780    
   X42.650    
   Y22.220    
   X47.060    
   Y11.780    
   X51.470    
   Y22.220    
   X55.880    
   Y11.780    
   X60.290    
   Y22.220    
   X64.700    
   Y11.780    
   X69.110    
   Y22.220    
   X73.520    
   Y11.780    
   X77.930    
   Y22.220    
   X82.340    
   Y11.780    
   X86.750    
   Y22.220    
   X91.160    
   Y11.780    
   X95.570    
   Y22.220    
   X99.980    
   Y11.780    
   X104.390   
   Y22.220    
   X108.800   
   Y11.780    
   X113.210   
   Y22.220    
   X117.620   
   Y11.780    
   X122.030   
   Y22.220    
   X126.440   
   Y11.780    
   X130.850   
   Y22.220    
   X135.260   
   Y11.780    
   X139.670   
   Y22.220    
   X144.080   
   Y11.780    
   X148.490   
   Y22.220    
   X152.900   
   Y11.780    
   X157.310   
   Y22.220    
   X161.720   
   Y11.780    
   X166.130   
   Y22.220    
   X170.540   
   Y11.780    
   X174.950   
   Y22.220    
   X179.360   
   Y11.780    
   X183.770   
   Y22.220    
   X188.180   
   Y11.780    
   X192.590   
   Y22.220    
   X197.000   
   Y11.780    
   X201.410   
   Y22.220    
   X205.820   
   Y11.780    
   X210.230   
   Y22.220    
   X214.640   
   Y11.780    
   X219.050   
   Y22.220    
   X223.460   
   Y11.780    
   X227.870   
   Y22.220    
   X232.280   
   Y11.780    
   X236.690   
   Y22.220    
   X241.100   
   Y11.780    
   X245.510   
   Y22.220    
   X249.920   
   Y11.780    
(Pass: 9)
G0   Z6.000     
   X16.190    
G1   Z-7.200     F500 
   Y22.220     F1500
   X20.600    
   Y11.780    
   X25.010    
   Y22.220    
   X29.420    
   Y11.780    
   X33.830    
   Y22.220    
   X38.240    
   Y11.780    
   X42.650    
   Y22.220    
   X47.060    
   Y11.780    
   X51.470    
   Y22.220    
   X55.880    
   Y11.780    
   X60.290    
   Y22.220    
   X64.700    
   Y11.780    
   X69.110    
   Y22.220    
   X73.520    
   Y11.780    
   X77.930    
   Y22.220    
   X82.340    
   Y11.780    
   X86.750    
   Y22.220    
   X91.160    
   Y11.780    
   X95.570    
   Y22.220    
   X99.980    
   Y11.780    
   X104.390   
   Y22.220    
   X108.800   
   Y11.780    
   X113.210   
   Y22.220    
   X117.620   
   Y11.780    
   X122.030   
   Y22.220    
   X126.440   
   Y11.780    
   X130.850   
   Y22.220    
   X135.260   
   Y11.780    
   X139.670   
   Y22.220    
   X144.080   
   Y11.780    
   X148.490   
   Y22.220    
   X152.900   
   Y11.780    
   X157.310   
   Y22.220    
   X161.720   
   Y11.780    
   X166.130   
   Y22.220    
   X170.540   
   Y11.780    
   X174.950   
   Y22.220    
   X179.360   
   Y11.780    
   X183.770   
   Y22.220    
   X188.180   
   Y11.780    
   X192.590   
   Y22.220    
   X197.000   
   Y11.780    
   X201.410   
   Y22.220    
   X205.820   
   Y11.780    
   X210.230   
   Y22.220    
   X214.640   
   Y11.780    
   X219.050   
   Y22.220    
   X223.460   
   Y11.780    
   X227.870   
   Y22.220    
   X232.280   
   Y11.780    
   X236.690   
   Y22.220    
   X241.100   
   Y11.780    
   X245.510   
   Y22.220    
   X249.920   
   Y11.780    
(Pass: 10)
G0   Z6.000     
   X16.190    
G1   Z-8.000     F500 
   Y22.220     F1500
   X20.600    
   Y11.780    
   X25.010    
   Y22.220    
   X29.420    
   Y11.780    
   X33.830    
   Y22.220    
   X38.240    
   Y11.780    
   X42.650    
   Y22.220    
   X47.060    
   Y11.780    
   X51.470    
   Y22.220    
   X55.880    
   Y11.780    
   X60.290    
   Y22.220    
   X64.700    
   Y11.780    
   X69.110    
   Y22.220    
   X73.520    
   Y11.780    
   X77.930    
   Y22.220    
   X82.340    
   Y11.780    
   X86.750    
   Y22.220    
   X91.160    
   Y11.780    
   X95.570    
   Y22.220    
   X99.980    
   Y11.780    
   X104.390   
   Y22.220    
   X108.800   
   Y11.780    
   X113.210   
   Y22.220    
   X117.620   
   Y11.780    
   X122.030   
   Y22.220    
   X126.440   
   Y11.780    
   X130.850   
   Y22.220    
   X135.260   
   Y11.780    
   X139.670   
   Y22.220    
   X144.080   
   Y11.780    
   X148.490   
   Y22.220    
   X152.900   
   Y11.780    
   X157.310   
   Y22.220    
   X161.720   
   Y11.780    
   X166.130   
   Y22.220    
   X170.540   
   Y11.780    
   X174.950   
   Y22.220    
   X179.360   
   Y11.780    
   X183.770   
   Y22.220    
   X188.180   
   Y11.780    
   X192.590   
   Y22.220    
   X197.000   
   Y11.780    
   X201.410   
   Y22.220    
   X205.820   
   Y11.780    
   X210.230   
   Y22.220    
   X214.640   
   Y11.780    
   X219.050   
   Y22.220    
   X223.460   
   Y11.780    
   X227.870   
   Y22.220    
   X232.280   
   Y11.780    
   X236.690   
   Y22.220    
   X241.100   
   Y11.780    
   X245.510   
   Y22.220    
   X249.920   
   Y11.780    
(Pass: 11)
G0   Z6.000     
   X16.190    
G1   Z-8.800     F500 
   Y22.220     F1500
   X20.600    
   Y11.780    
   X25.010    
   Y22.220    
   X29.420    
   Y11.780    
   X33.830    
   Y22.220    
   X38.240    
   Y11.780    
   X42.650    
   Y22.220    
   X47.060    
   Y11.780    
   X51.470    
   Y22.220    
   X55.880    
   Y11.780    
   X60.290    
   Y22.220    
   X64.700    
   Y11.780    
   X69.110    
   Y22.220    
   X73.520    
   Y11.780    
   X77.930    
   Y22.220    
   X82.340    
   Y11.780    
   X86.750    
   Y22.220    
   X91.160    
   Y11.780    
   X95.570    
   Y22.220    
   X99.980    
   Y11.780    
   X104.390   
   Y22.220    
   X108.800   
   Y11.780    
   X113.210   
   Y22.220    
   X117.620   
   Y11.780    
   X122.030   
   Y22.220    
   X126.440   
   Y11.780    
   X130.850   
   Y22.220    
   X135.260   
   Y11.780    
   X139.670   
   Y22.220    
   X144.080   
   Y11.780    
   X148.490   
   Y22.220    
   X152.900   
   Y11.780    
   X157.310   
   Y22.220    
   X161.720   
   Y11.780    
   X166.130   
   Y22.220    
   X170.540   
   Y11.780    
   X174.950   
   Y22.220    
   X179.360   
   Y11.780    
   X183.770   
   Y22.220    
   X188.180   
   Y11.780    
   X192.590   
   Y22.220    
   X197.000   
   Y11.780    
   X201.410   
   Y22.220    
   X205.820   
   Y11.780    
   X210.230   
   Y22.220    
   X214.640   
   Y11.780    
   X219.050   
   Y22.220    
   X223.460   
   Y11.780    
   X227.870   
   Y22.220    
   X232.280   
   Y11.780    
   X236.690   
   Y22.220    
   X241.100   
   Y11.780    
   X245.510   
   Y22.220    
   X249.920   
   Y11.780    
(Pass: 12)
G0   Z6.000     
   X16.190    
G1   Z-9.000     F500 
   Y22.220     F1500
   X20.600    
   Y11.780    
   X25.010    
   Y22.220    
   X29.420    
   Y11.780    
   X33.830    
   Y22.220    
   X38.240    
   Y11.780    
   X42.650    
   Y22.220    
   X47.060    
   Y11.780    
   X51.470    
   Y22.220    
   X55.880    
   Y11.780    
   X60.290    
   Y22.220    
   X64.700    
   Y11.780    
   X69.110    
   Y22.220    
   X73.520    
   Y11.780    
   X77.930    
   Y22.220    
   X82.340    
   Y11.780    
   X86.750    
   Y22.220    
   X91.160    
   Y11.780    
   X95.570    
   Y22.220    
   X99.980    
   Y11.780    
   X104.390   
   Y22.220    
   X108.800   
   Y11.780    
   X113.210   
   Y22.220    
   X117.620   
   Y11.780    
   X122.030   
   Y22.220    
   X126.440   
   Y11.780    
   X130.850   
   Y22.220    
   X135.260   
   Y11.780    
   X139.670   
   Y22.220    
   X144.080   
   Y11.780    
   X148.490   
   Y22.220    
   X152.900   
   Y11.780    
   X157.310   
   Y22.220    
   X161.720   
   Y11.780    
   X166.130   
   Y22.220    
   X170.540   
   Y11.780    
   X174.950   
   Y22.220    
   X179.360   
   Y11.780    
   X183.770   
   Y22.220    
   X188.180   
   Y11.780    
   X192.590   
   Y22.220    
   X197.000   
   Y11.780    
   X201.410   
   Y22.220    
   X205.820   
   Y11.780    
   X210.230   
   Y22.220    
   X214.640   
   Y11.780    
   X219.050   
   Y22.220    
   X223.460   
   Y11.780    
   X227.870   
   Y22.220    
   X232.280   
   Y11.780    
   X236.690   
   Y22.220    
   X241.100   
   Y11.780    
   X245.510   
   Y22.220    
   X249.920   
   Y11.780    
G0   Z6.000     
(Pass: 1)
   X11.150       Y22.850    
G1   Z-0.800     F500 
   X254.850    F1500
(Pass: 2)
   X11.150    
   Z-1.600     F500 
   X254.850    F1500
(Pass: 3)
   X11.150    
   Z-2.400     F500 
   X254.850    F1500
(Pass: 4)
   X11.150    
   Z-3.200     F500 
   X254.850    F1500
(Pass: 5)
   X11.150    
   Z-4.000     F500 
   X254.850    F1500
(Pass: 6)
   X11.150    
   Z-4.800     F500 
   X254.850    F1500
(Pass: 7)
   X11.150    
   Z-5.600     F500 
   X254.850    F1500
(Pass: 8)
   X11.150    
   Z-6.400     F500 
   X254.850    F1500
(Pass: 9)
   X11.150    
   Z-7.200     F500 
   X254.850    F1500
(Pass: 10)
   X11.150    
   Z-8.000     F500 
   X254.850    F1500
(Pass: 11)
   X11.150    
   Z-8.800     F500 
   X254.850    F1500
(Pass: 12)
   X11.150    
   Z-9.600     F500 
   X254.850    F1500
(Pass: 13)
   X11.150    
   Z-10.400    F500 
   X254.850    F1500
(Pass: 14)
   X11.150    
   Z-11.200    F500 
   X254.850    F1500
(Pass: 15)
   X11.150    
   Z-12.000    F500 
   X254.850    F1500
(Pass: 16)
   X11.150    
   Z-12.800    F500 
   X254.850    F1500
(Pass: 17)
   X11.150    
   Z-13.600    F500 
   X254.850    F1500
(Pass: 18)
   X11.150    
   Z-14.400    F500 
   X254.850    F1500
(Pass: 19)
   X11.150    
   Z-15.200    F500 
   X254.850    F1500
(Pass: 20)
   X11.150    
   Z-16.000    F500 
   X254.850    F1500
(Pass: 21)
   X11.150    
   Z-16.800    F500 
   X254.850    F1500
(Pass: 22)
   X11.150    
   Z-17.600    F500 
   X254.850    F1500
(Pass: 23)
   X11.150    
   Z-18.400    F500 
   X254.850    F1500
(Pass: 24)
   X11.150    
   Z-19.200    F500 
   X254.850    F1500
(BREAK pass 24)
G0   Z6.000     
(Pass: 1)
   X270.850   
G1   Z-0.800     F500 
   X527.150    F1500
   Y64.531    
   Y70.831    
   Y900.299   
   Y906.599   
   Y1001.150  
   X270.850   
   Y903.378   
   Y897.078   
   Y73.182    
   Y66.882    
   Y22.850    
(Pass: 2)
   Z-1.600     F500 
   X527.150    F1500
   Y64.531    
   Y70.831    
   Y900.299   
   Y906.599   
   Y1001.150  
   X270.850   
   Y903.378   
   Y897.078   
   Y73.182    
   Y66.882    
   Y22.850    
(Pass: 3)
   Z-2.400     F500 
   X527.150    F1500
   Y64.531    
   Y70.831    
   Y900.299   
   Y906.599   
   Y1001.150  
   X270.850   
   Y903.378   
   Y897.078   
   Y73.182    
   Y66.882    
   Y22.850    
(Pass: 4)
   Z-3.200     F500 
   X527.150    F1500
   Y64.531    
   Y70.831    
   Y900.299   
   Y906.599   
   Y1001.150  
   X270.850   
   Y903.378   
   Y897.078   
   Y73.182    
   Y66.882    
   Y22.850    
(Pass: 5)
   Z-4.000     F500 
   X527.150    F1500
   Y64.531    
   Y70.831    
   Y900.299   
   Y906.599   
   Y1001.150  
   X270.850   
   Y903.378   
   Y897.078   
   Y73.182    
   Y66.882    
   Y22.850    
(Pass: 6)
   Z-4.800     F500 
   X527.150    F1500
   Y64.531    
   Y70.831    
   Y900.299   
   Y906.599   
   Y1001.150  
   X270.850   
   Y903.378   
   Y897.078   
   Y73.182    
   Y66.882    
   Y22.850    
(Pass: 7)
   Z-5.600     F500 
   X527.150    F1500
   Y64.531    
   Y70.831    
   Y900.299   
   Y906.599   
   Y1001.150  
   X270.850   
   Y903.378   
   Y897.078   
   Y73.182    
   Y66.882    
   Y22.850    
(Pass: 8)
   Z-6.400     F500 
   X527.150    F1500
   Y64.531    
   Y70.831    
   Y900.299   
   Y906.599   
   Y1001.150  
   X270.850   
   Y903.378   
   Y897.078   
   Y73.182    
   Y66.882    
   Y22.850    
(Pass: 9)
   Z-7.200     F500 
   X527.150    F1500
   Y64.531    
   Y70.831    
   Y900.299   
   Y906.599   
   Y1001.150  
   X270.850   
   Y903.378   
   Y897.078   
   Y73.182    
   Y66.882    
   Y22.850    
(Pass: 10)
   Z-8.000     F500 
   X527.150    F1500
   Y64.531    
   Y70.831    
   Y900.299   
   Y906.599   
   Y1001.150  
   X270.850   
   Y903.378   
   Y897.078   
   Y73.182    
   Y66.882    
   Y22.850    
(Pass: 11)
   Z-8.800     F500 
   X527.150    F1500
   Y64.531    
   Y70.831    
   Y900.299   
   Y906.599   
   Y1001.150  
   X270.850   
   Y903.378   
   Y897.078   
   Y73.182    
   Y66.882    
   Y22.850    
(Pass: 12)
   Z-9.600     F500 
   X527.150    F1500
   Y64.531    
   Y70.831    
   Y900.299   
   Y906.599   
   Y1001.150  
   X270.850   
   Y903.378   
   Y897.078   
   Y73.182    
   Y66.882    
   Y22.850    
(Pass: 13)
   Z-10.400    F500 
   X527.150    F1500
   Y64.531    
   Y70.831    
   Y900.299   
   Y906.599   
   Y1001.150  
   X270.850   
   Y903.378   
   Y897.078   
   Y73.182    
   Y66.882    
   Y22.850    
(Pass: 14)
   Z-11.200    F500 
   X527.150    F1500
   Y64.531    
   Y70.831    
   Y900.299   
   Y906.599   
   Y1001.150  
   X270.850   
   Y903.378   
   Y897.078   
   Y73.182    
   Y66.882    
   Y22.850    
(Pass: 15)
   Z-12.000    F500 
   X527.150    F1500
   Y64.531    
   Y70.831    
   Y900.299   
   Y906.599   
   Y1001.150  
   X270.850   
   Y903.378   
   Y897.078   
   Y73.182    
   Y66.882    
   Y22.850    
(Pass: 16)
   Z-12.800    F500 
   X527.150    F1500
   Y64.531    
   Y70.831    
   Y900.299   
   Y906.599   
   Y1001.150  
   X270.850   
   Y903.378   
   Y897.078   
   Y73.182    
   Y66.882    
   Y22.850    
(Pass: 17)
   Z-13.600    F500 
   X527.150    F1500
   Y64.531    
   Z-13.500   
   Y70.831    
   Z-13.600    F500 
   Y900.299    F1500
   Z-13.500   
   Y906.599   
   Z-13.600    F500 
   Y1001.150   F1500
   X270.850   
   Y903.378   
   Z-13.500   
   Y897.078   
   Z-13.600    F500 
   Y73.182     F1500
   Z-13.500   
   Y66.882    
   Z-13.600    F500 
   Y22.850     F1500
(Pass: 18)
   Z-14.400    F500 
   X527.150    F1500
   Y64.531    
   Z-13.500   
   Y70.831    
   Z-14.400    F500 
   Y900.299    F1500
   Z-13.500   
   Y906.599   
   Z-14.400    F500 
   Y1001.150   F1500
   X270.850   
   Y903.378   
   Z-13.500   
   Y897.078   
   Z-14.400    F500 
   Y73.182     F1500
   Z-13.500   
   Y66.882    
   Z-14.400    F500 
   Y22.850     F1500
(Pass: 19)
   Z-15.200    F500 
   X527.150    F1500
   Y64.531    
   Z-13.500   
   Y70.831    
   Z-15.200    F500 
   Y900.299    F1500
   Z-13.500   
   Y906.599   
   Z-15.200    F500 
   Y1001.150   F1500
   X270.850   
   Y903.378   
   Z-13.500   
   Y897.078   
   Z-15.200    F500 
   Y73.182     F1500
   Z-13.500   
   Y66.882    
   Z-15.200    F500 
   Y22.850     F1500
(Pass: 20)
   Z-16.000    F500 
   X527.150    F1500
   Y64.531    
   Z-13.500   
   Y70.831    
   Z-16.000    F500 
   Y900.299    F1500
   Z-13.500   
   Y906.599   
   Z-16.000    F500 
   Y1001.150   F1500
   X270.850   
   Y903.378   
   Z-13.500   
   Y897.078   
   Z-16.000    F500 
   Y73.182     F1500
   Z-13.500   
   Y66.882    
   Z-16.000    F500 
   Y22.850     F1500
(Pass: 21)
   Z-16.800    F500 
   X527.150    F1500
   Y64.531    
   Z-13.500   
   Y70.831    
   Z-16.800    F500 
   Y900.299    F1500
   Z-13.500   
   Y906.599   
   Z-16.800    F500 
   Y1001.150   F1500
   X270.850   
   Y903.378   
   Z-13.500   
   Y897.078   
   Z-16.800    F500 
   Y73.182     F1500
   Z-13.500   
   Y66.882    
   Z-16.800    F500 
   Y22.850     F1500
(Pass: 22)
   Z-17.600    F500 
   X527.150    F1500
   Y64.531    
   Z-13.500   
   Y70.831    
   Z-17.600    F500 
   Y900.299    F1500
   Z-13.500   
   Y906.599   
   Z-17.600    F500 
   Y1001.150   F1500
   X270.850   
   Y903.378   
   Z-13.500   
   Y897.078   
   Z-17.600    F500 
   Y73.182     F1500
   Z-13.500   
   Y66.882    
   Z-17.600    F500 
   Y22.850     F1500
(Pass: 23)
   Z-18.400    F500 
   X527.150    F1500
   Y64.531    
   Z-13.500   
   Y70.831    
   Z-18.400    F500 
   Y900.299    F1500
   Z-13.500   
   Y906.599   
   Z-18.400    F500 
   Y1001.150   F1500
   X270.850   
   Y903.378   
   Z-13.500   
   Y897.078   
   Z-18.400    F500 
   Y73.182     F1500
   Z-13.500   
   Y66.882    
   Z-18.400    F500 
   Y22.850     F1500
(Pass: 24)
   Z-19.200    F500 
   X527.150    F1500
   Y64.531    
   Z-13.500   
   Y70.831    
   Z-19.200    F500 
   Y900.299    F1500
   Z-13.500   
   Y906.599   
   Z-19.200    F500 
   Y1001.150   F1500
   X270.850   
   Y903.378   
   Z-13.500   
   Y897.078   
   Z-19.200    F500 
   Y73.182     F1500
   Z-13.500   
   Y66.882    
   Z-19.200    F500 
   Y22.850     F1500
(BREAK pass 24)
G0   Z6.000     
(Pass: 1)
   X277.780      Y11.780    
G1   Z-0.800     F500 
   Y22.220     F1500
   X282.190   
   Y11.780    
   X286.600   
   Y22.220    
   X291.010   
   Y11.780    
   X295.420   
   Y22.220    
   X299.830   
   Y11.780    
   X304.240   
   Y22.220    
   X308.650   
   Y11.780    
   X313.060   
   Y22.220    
   X317.470   
   Y11.780    
   X321.880   
   Y22.220    
   X326.290   
   Y11.780    
   X330.700   
   Y22.220    
   X335.110   
   Y11.780    
   X339.520   
   Y22.220    
   X343.930   
   Y11.780    
   X348.340   
   Y22.220    
   X352.750   
   Y11.780    
   X357.160   
   Y22.220    
   X361.570   
   Y11.780    
   X365.980   
   Y22.220    
   X370.390   
   Y11.780    
   X374.800   
   Y22.220    
   X379.210   
   Y11.780    
   X383.620   
   Y22.220    
   X388.030   
   Y11.780    
   X392.440   
   Y22.220    
   X396.850   
   Y11.780    
   X401.260   
   Y22.220    
   X405.670   
   Y11.780    
   X410.080   
   Y22.220    
   X414.490   
   Y11.780    
   X418.900   
   Y22.220    
   X423.310   
   Y11.780    
   X427.720   
   Y22.220    
   X432.130   
   Y11.780    
   X436.540   
   Y22.220    
   X440.950   
   Y11.780    
   X445.360   
   Y22.220    
   X449.770   
   Y11.780    
   X454.180   
   Y22.220    
   X458.590   
   Y11.780    
   X463.000   
   Y22.220    
   X467.410   
   Y11.780    
   X471.820   
   Y22.220    
   X476.230   
   Y11.780    
   X480.640   
   Y22.220    
   X485.050   
   Y11.780    
   X489.460   
   Y22.220    
   X493.870   
   Y11.780    
   X498.280   
   Y22.220    
   X502.690   
   Y11.780    
   X507.100   
   Y22.220    
   X511.510   
   Y11.780    
   X515.920   
   Y22.220    
(Pass: 2)
G0   Z6.000     
   X277.780      Y11.780    
G1   Z-1.600     F500 
   Y22.220     F1500
   X282.190   
   Y11.780    
   X286.600   
   Y22.220    
   X291.010   
   Y11.780    
   X295.420   
   Y22.220    
   X299.830   
   Y11.780    
   X304.240   
   Y22.220    
   X308.650   
   Y11.780    
   X313.060   
   Y22.220    
   X317.470   
   Y11.780    
   X321.880   
   Y22.220    
   X326.290   
   Y11.780    
   X330.700   
   Y22.220    
   X335.110   
   Y11.780    
   X339.520   
   Y22.220    
   X343.930   
   Y11.780    
   X348.340   
   Y22.220    
   X352.750   
   Y11.780    
   X357.160   
   Y22.220    
   X361.570   
   Y11.780    
   X365.980   
   Y22.220    
   X370.390   
   Y11.780    
   X374.800   
   Y22.220    
   X379.210   
   Y11.780    
   X383.620   
   Y22.220    
   X388.030   
   Y11.780    
   X392.440   
   Y22.220    
   X396.850   
   Y11.780    
   X401.260   
   Y22.220    
   X405.670   
   Y11.780    
   X410.080   
   Y22.220    
   X414.490   
   Y11.780    
   X418.900   
   Y22.220    
   X423.310   
   Y11.780    
   X427.720   
   Y22.220    
   X432.130   
   Y11.780    
   X436.540   
   Y22.220    
   X440.950   
   Y11.780    
   X445.360   
   Y22.220    
   X449.770   
   Y11.780    
   X454.180   
   Y22.220    
   X458.590   
   Y11.780    
   X463.000   
   Y22.220    
   X467.410   
   Y11.780    
   X471.820   
   Y22.220    
   X476.230   
   Y11.780    
   X480.640   
   Y22.220    
   X485.050   
   Y11.780    
   X489.460   
   Y22.220    
   X493.870   
   Y11.780    
   X498.280   
   Y22.220    
   X502.690   
   Y11.780    
   X507.100   
   Y22.220    
   X511.510   
   Y11.780    
   X515.920   
   Y22.220    
(Pass: 3)
G0   Z6.000     
   X277.780      Y11.780    
G1   Z-2.400     F500 
   Y22.220     F1500
   X282.190   
   Y11.780    
   X286.600   
   Y22.220    
   X291.010   
   Y11.780    
   X295.420   
   Y22.220    
   X299.830   
   Y11.780    
   X304.240   
   Y22.220    
   X308.650   
   Y11.780    
   X313.060   
   Y22.220    
   X317.470   
   Y11.780    
   X321.880   
   Y22.220    
   X326.290   
   Y11.780    
   X330.700   
   Y22.220    
   X335.110   
   Y11.780    
   X339.520   
   Y22.220    
   X343.930   
   Y11.780    
   X348.340   
   Y22.220    
   X352.750   
   Y11.780    
   X357.160   
   Y22.220    
   X361.570   
   Y11.780    
   X365.980   
   Y22.220    
   X370.390   
   Y11.780    
   X374.800   
   Y22.220    
   X379.210   
   Y11.780    
   X383.620   
   Y22.220    
   X388.030   
   Y11.780    
   X392.440   
   Y22.220    
   X396.850   
   Y11.780    
   X401.260   
   Y22.220    
   X405.670   
   Y11.780    
   X410.080   
   Y22.220    
   X414.490   
   Y11.780    
   X418.900   
   Y22.220    
   X423.310   
   Y11.780    
   X427.720   
   Y22.220    
   X432.130   
   Y11.780    
   X436.540   
   Y22.220    
   X440.950   
   Y11.780    
   X445.360   
   Y22.220    
   X449.770   
   Y11.780    
   X454.180   
   Y22.220    
   X458.590   
   Y11.780    
   X463.000   
   Y22.220    
   X467.410   
   Y11.780    
   X471.820   
   Y22.220    
   X476.230   
   Y11.780    
   X480.640   
   Y22.220    
   X485.050   
   Y11.780    
   X489.460   
   Y22.220    
   X493.870   
   Y11.780    
   X498.280   
   Y22.220    
   X502.690   
   Y11.780    
   X507.100   
   Y22.220    
   X511.510   
   Y11.780    
   X515.920   
   Y22.220    
(Pass: 4)
G0   Z6.000     
   X277.780      Y11.780    
G1   Z-3.200     F500 
   Y22.220     F1500
   X282.190   
   Y11.780    
   X286.600   
   Y22.220    
   X291.010   
   Y11.780    
   X295.420   
   Y22.220    
   X299.830   
   Y11.780    
   X304.240   
   Y22.220    
   X308.650   
   Y11.780    
   X313.060   
   Y22.220    
   X317.470   
   Y11.780    
   X321.880   
   Y22.220    
   X326.290   
   Y11.780    
   X330.700   
   Y22.220    
   X335.110   
   Y11.780    
   X339.520   
   Y22.220    
   X343.930   
   Y11.780    
   X348.340   
   Y22.220    
   X352.750   
   Y11.780    
   X357.160   
   Y22.220    
   X361.570   
   Y11.780    
   X365.980   
   Y22.220    
   X370.390   
   Y11.780    
   X374.800   
   Y22.220    
   X379.210   
   Y11.780    
   X383.620   
   Y22.220    
   X388.030   
   Y11.780    
   X392.440   
   Y22.220    
   X396.850   
   Y11.780    
   X401.260   
   Y22.220    
   X405.670   
   Y11.780    
   X410.080   
   Y22.220    
   X414.490   
   Y11.780    
   X418.900   
   Y22.220    
   X423.310   
   Y11.780    
   X427.720   
   Y22.220    
   X432.130   
   Y11.780    
   X436.540   
   Y22.220    
   X440.950   
   Y11.780    
   X445.360   
   Y22.220    
   X449.770   
   Y11.780    
   X454.180   
   Y22.220    
   X458.590   
   Y11.780    
   X463.000   
   Y22.220    
   X467.410   
   Y11.780    
   X471.820   
   Y22.220    
   X476.230   
   Y11.780    
   X480.640   
   Y22.220    
   X485.050   
   Y11.780    
   X489.460   
   Y22.220    
   X493.870   
   Y11.780    
   X498.280   
   Y22.220    
   X502.690   
   Y11.780    
   X507.100   
   Y22.220    
   X511.510   
   Y11.780    
   X515.920   
   Y22.220    
(Pass: 5)
G0   Z6.000     
   X277.780      Y11.780    
G1   Z-4.000     F500 
   Y22.220     F1500
   X282.190   
   Y11.780    
   X286.600   
   Y22.220    
   X291.010   
   Y11.780    
   X295.420   
   Y22.220    
   X299.830   
   Y11.780    
   X304.240   
   Y22.220    
   X308.650   
   Y11.780    
   X313.060   
   Y22.220    
   X317.470   
   Y11.780    
   X321.880   
   Y22.220    
   X326.290   
   Y11.780    
   X330.700   
   Y22.220    
   X335.110   
   Y11.780    
   X339.520   
   Y22.220    
   X343.930   
   Y11.780    
   X348.340   
   Y22.220    
   X352.750   
   Y11.780    
   X357.160   
   Y22.220    
   X361.570   
   Y11.780    
   X365.980   
   Y22.220    
   X370.390   
   Y11.780    
   X374.800   
   Y22.220    
   X379.210   
   Y11.780    
   X383.620   
   Y22.220    
   X388.030   
   Y11.780    
   X392.440   
   Y22.220    
   X396.850   
   Y11.780    
   X401.260   
   Y22.220    
   X405.670   
   Y11.780    
   X410.080   
   Y22.220    
   X414.490   
   Y11.780    
   X418.900   
   Y22.220    
   X423.310   
   Y11.780    
   X427.720   
   Y22.220    
   X432.130   
   Y11.780    
   X436.540   
   Y22.220    
   X440.950   
   Y11.780    
   X445.360   
   Y22.220    
   X449.770   
   Y11.780    
   X454.180   
   Y22.220    
   X458.590   
   Y11.780    
   X463.000   
   Y22.220    
   X467.410   
   Y11.780    
   X471.820   
   Y22.220    
   X476.230   
   Y11.780    
   X480.640   
   Y22.220    
   X485.050   
   Y11.780    
   X489.460   
   Y22.220    
   X493.870   
   Y11.780    
   X498.280   
   Y22.220    
   X502.690   
   Y11.780    
   X507.100   
   Y22.220    
   X511.510   
   Y11.780    
   X515.920   
   Y22.220    
(Pass: 6)
G0   Z6.000     
   X277.780      Y11.780    
G1   Z-4.800     F500 
   Y22.220     F1500
   X282.190   
   Y11.780    
   X286.600   
   Y22.220    
   X291.010   
   Y11.780    
   X295.420   
   Y22.220    
   X299.830   
   Y11.780    
   X304.240   
   Y22.220    
   X308.650   
   Y11.780    
   X313.060   
   Y22.220    
   X317.470   
   Y11.780    
   X321.880   
   Y22.220    
   X326.290   
   Y11.780    
   X330.700   
   Y22.220    
   X335.110   
   Y11.780    
   X339.520   
   Y22.220    
   X343.930   
   Y11.780    
   X348.340   
   Y22.220    
   X352.750   
   Y11.780    
   X357.160   
   Y22.220    
   X361.570   
   Y11.780    
   X365.980   
   Y22.220    
   X370.390   
   Y11.780    
   X374.800   
   Y22.220    
   X379.210   
   Y11.780    
   X383.620   
   Y22.220    
   X388.030   
   Y11.780    
   X392.440   
   Y22.220    
   X396.850   
   Y11.780    
   X401.260   
   Y22.220    
   X405.670   
   Y11.780    
   X410.080   
   Y22.220    
   X414.490   
   Y11.780    
   X418.900   
   Y22.220    
   X423.310   
   Y11.780    
   X427.720   
   Y22.220    
   X432.130   
   Y11.780    
   X436.540   
   Y22.220    
   X440.950   
   Y11.780    
   X445.360   
   Y22.220    
   X449.770   
   Y11.780    
   X454.180   
   Y22.220    
   X458.590   
   Y11.780    
   X463.000   
   Y22.220    
   X467.410   
   Y11.780    
   X471.820   
   Y22.220    
   X476.230   
   Y11.780    
   X480.640   
   Y22.220    
   X485.050   
   Y11.780    
   X489.460   
   Y22.220    
   X493.870   
   Y11.780    
   X498.280   
   Y22.220    
   X502.690   
   Y11.780    
   X507.100   
   Y22.220    
   X511.510   
   Y11.780    
   X515.920   
   Y22.220    
(Pass: 7)
G0   Z6.000     
   X277.780      Y11.780    
G1   Z-5.600     F500 
   Y22.220     F1500
   X282.190   
   Y11.780    
   X286.600   
   Y22.220    
   X291.010   
   Y11.780    
   X295.420   
   Y22.220    
   X299.830   
   Y11.780    
   X304.240   
   Y22.220    
   X308.650   
   Y11.780    
   X313.060   
   Y22.220    
   X317.470   
   Y11.780    
   X321.880   
   Y22.220    
   X326.290   
   Y11.780    
   X330.700   
   Y22.220    
   X335.110   
   Y11.780    
   X339.520   
   Y22.220    
   X343.930   
   Y11.780    
   X348.340   
   Y22.220    
   X352.750   
   Y11.780    
   X357.160   
   Y22.220    
   X361.570   
   Y11.780    
   X365.980   
   Y22.220    
   X370.390   
   Y11.780    
   X374.800   
   Y22.220    
   X379.210   
   Y11.780    
   X383.620   
   Y22.220    
   X388.030   
   Y11.780    
   X392.440   
   Y22.220    
   X396.850   
   Y11.780    
   X401.260   
   Y22.220    
   X405.670   
   Y11.780    
   X410.080   
   Y22.220    
   X414.490   
   Y11.780    
   X418.900   
   Y22.220    
   X423.310   
   Y11.780    
   X427.720   
   Y22.220    
   X432.130   
   Y11.780    
   X436.540   
   Y22.220    
   X440.950   
   Y11.780    
   X445.360   
   Y22.220    
   X449.770   
   Y11.780    
   X454.180   
   Y22.220    
   X458.590   
   Y11.780    
   X463.000   
   Y22.220    
   X467.410   
   Y11.780    
   X471.820   
   Y22.220    
   X476.230   
   Y11.780    
   X480.640   
   Y22.220    
   X485.050   
   Y11.780    
   X489.460   
   Y22.220    
   X493.870   
   Y11.780    
   X498.280   
   Y22.220    
   X502.690   
   Y11.780    
   X507.100   
   Y22.220    
   X511.510   
   Y11.780    
   X515.920   
   Y22.220    
(Pass: 8)
G0   Z6.000     
   X277.780      Y11.780    
G1   Z-6.400     F500 
   Y22.220     F1500
   X282.190   
   Y11.780    
   X286.600   
   Y22.220    
   X291.010   
   Y11.780    
   X295.420   
   Y22.220    
   X299.830   
   Y11.780    
   X304.240   
   Y22.220    
   X308.650   
   Y11.780    
   X313.060   
   Y22.220    
   X317.470   
   Y11.780    
   X321.880   
   Y22.220    
   X326.290   
   Y11.780    
   X330.700   
   Y22.220    
   X335.110   
   Y11.780    
   X339.520   
   Y22.220    
   X343.930   
   Y11.780    
   X348.340   
   Y22.220    
   X352.750   
   Y11.780    
   X357.160   
   Y22.220    
   X361.570   
   Y11.780    
   X365.980   
   Y22.220    
   X370.390   
   Y11.780    
   X374.800   
   Y22.220    
   X379.210   
   Y11.780    
   X383.620   
   Y22.220    
   X388.030   
   Y11.780    
   X392.440   
   Y22.220    
   X396.850   
   Y11.780    
   X401.260   
   Y22.220    
   X405.670   
   Y11.780    
   X410.080   
   Y22.220    
   X414.490   
   Y11.780    
   X418.900   
   Y22.220    
   X423.310   
   Y11.780    
   X427.720   
   Y22.220    
   X432.130   
   Y11.780    
   X436.540   
   Y22.220    
   X440.950   
   Y11.780    
   X445.360   
   Y22.220    
   X449.770   
   Y11.780    
   X454.180   
   Y22.220    
   X458.590   
   Y11.780    
   X463.000   
   Y22.220    
   X467.410   
   Y11.780    
   X471.820   
   Y22.220    
   X476.230   
   Y11.780    
   X480.640   
   Y22.220    
   X485.050   
   Y11.780    
   X489.460   
   Y22.220    
   X493.870   
   Y11.780    
   X498.280   
   Y22.220    
   X502.690   
   Y11.780    
   X507.100   
   Y22.220    
   X511.510   
   Y11.780    
   X515.920   
   Y22.220    
(Pass: 9)
G0   Z6.000     
   X277.780      Y11.780    
G1   Z-7.200     F500 
   Y22.220     F1500
   X282.190   
   Y11.780    
   X286.600   
   Y22.220    
   X291.010   
   Y11.780    
   X295.420   
   Y22.220    
   X299.830   
   Y11.780    
   X304.240   
   Y22.220    
   X308.650   
   Y11.780    
   X313.060   
   Y22.220    
   X317.470   
   Y11.780    
   X321.880   
   Y22.220    
   X326.290   
   Y11.780    
   X330.700   
   Y22.220    
   X335.110   
   Y11.780    
   X339.520   
   Y22.220    
   X343.930   
   Y11.780    
   X348.340   
   Y22.220    
   X352.750   
   Y11.780    
   X357.160   
   Y22.220    
   X361.570   
   Y11.780    
   X365.980   
   Y22.220    
   X370.390   
   Y11.780    
   X374.800   
   Y22.220    
   X379.210   
   Y11.780    
   X383.620   
   Y22.220    
   X388.030   
   Y11.780    
   X392.440   
   Y22.220    
   X396.850   
   Y11.780    
   X401.260   
   Y22.220    
   X405.670   
   Y11.780    
   X410.080   
   Y22.220    
   X414.490   
   Y11.780    
   X418.900   
   Y22.220    
   X423.310   
   Y11.780    
   X427.720   
   Y22.220    
   X432.130   
   Y11.780    
   X436.540   
   Y22.220    
   X440.950   
   Y11.780    
   X445.360   
   Y22.220    
   X449.770   
   Y11.780    
   X454.180   
   Y22.220    
   X458.590   
   Y11.780    
   X463.000   
   Y22.220    
   X467.410   
   Y11.780    
   X471.820   
   Y22.220    
   X476.230   
   Y11.780    
   X480.640   
   Y22.220    
   X485.050   
   Y11.780    
   X489.460   
   Y22.220    
   X493.870   
   Y11.780    
   X498.280   
   Y22.220    
   X502.690   
   Y11.780    
   X507.100   
   Y22.220    
   X511.510   
   Y11.780    
   X515.920   
   Y22.220    
(Pass: 10)
G0   Z6.000     
   X277.780      Y11.780    
G1   Z-8.000     F500 
   Y22.220     F1500
   X282.190   
   Y11.780    
   X286.600   
   Y22.220    
   X291.010   
   Y11.780    
   X295.420   
   Y22.220    
   X299.830   
   Y11.780    
   X304.240   
   Y22.220    
   X308.650   
   Y11.780    
   X313.060   
   Y22.220    
   X317.470   
   Y11.780    
   X321.880   
   Y22.220    
   X326.290   
   Y11.780    
   X330.700   
   Y22.220    
   X335.110   
   Y11.780    
   X339.520   
   Y22.220    
   X343.930   
   Y11.780    
   X348.340   
   Y22.220    
   X352.750   
   Y11.780    
   X357.160   
   Y22.220    
   X361.570   
   Y11.780    
   X365.980   
   Y22.220    
   X370.390   
   Y11.780    
   X374.800   
   Y22.220    
   X379.210   
   Y11.780    
   X383.620   
   Y22.220    
   X388.030   
   Y11.780    
   X392.440   
   Y22.220    
   X396.850   
   Y11.780    
   X401.260   
   Y22.220    
   X405.670   
   Y11.780    
   X410.080   
   Y22.220    
   X414.490   
   Y11.780    
   X418.900   
   Y22.220    
   X423.310   
   Y11.780    
   X427.720   
   Y22.220    
   X432.130   
   Y11.780    
   X436.540   
   Y22.220    
   X440.950   
   Y11.780    
   X445.360   
   Y22.220    
   X449.770   
   Y11.780    
   X454.180   
   Y22.220    
   X458.590   
   Y11.780    
   X463.000   
   Y22.220    
   X467.410   
   Y11.780    
   X471.820   
   Y22.220    
   X476.230   
   Y11.780    
   X480.640   
   Y22.220    
   X485.050   
   Y11.780    
   X489.460   
   Y22.220    
   X493.870   
   Y11.780    
   X498.280   
   Y22.220    
   X502.690   
   Y11.780    
   X507.100   
   Y22.220    
   X511.510   
   Y11.780    
   X515.920   
   Y22.220    
(Pass: 11)
G0   Z6.000     
   X277.780      Y11.780    
G1   Z-8.800     F500 
   Y22.220     F1500
   X282.190   
   Y11.780    
   X286.600   
   Y22.220    
   X291.010   
   Y11.780    
   X295.420   
   Y22.220    
   X299.830   
   Y11.780    
   X304.240   
   Y22.220    
   X308.650   
   Y11.780    
   X313.060   
   Y22.220    
   X317.470   
   Y11.780    
   X321.880   
   Y22.220    
   X326.290   
   Y11.780    
   X330.700   
   Y22.220    
   X335.110   
   Y11.780    
   X339.520   
   Y22.220    
   X343.930   
   Y11.780    
   X348.340   
   Y22.220    
   X352.750   
   Y11.780    
   X357.160   
   Y22.220    
   X361.570   
   Y11.780    
   X365.980   
   Y22.220    
   X370.390   
   Y11.780    
   X374.800   
   Y22.220    
   X379.210   
   Y11.780    
   X383.620   
   Y22.220    
   X388.030   
   Y11.780    
   X392.440   
   Y22.220    
   X396.850   
   Y11.780    
   X401.260   
   Y22.220    
   X405.670   
   Y11.780    
   X410.080   
   Y22.220    
   X414.490   
   Y11.780    
   X418.900   
   Y22.220    
   X423.310   
   Y11.780    
   X427.720   
   Y22.220    
   X432.130   
   Y11.780    
   X436.540   
   Y22.220    
   X440.950   
   Y11.780    
   X445.360   
   Y22.220    
   X449.770   
   Y11.780    
   X454.180   
   Y22.220    
   X458.590   
   Y11.780    
   X463.000   
   Y22.220    
   X467.410   
   Y11.780    
   X471.820   
   Y22.220    
   X476.230   
   Y11.780    
   X480.640   
   Y22.220    
   X485.050   
   Y11.780    
   X489.460   
   Y22.220    
   X493.870   
   Y11.780    
   X498.280   
   Y22.220    
   X502.690   
   Y11.780    
   X507.100   
   Y22.220    
   X511.510   
   Y11.780    
   X515.920   
   Y22.220    
(Pass: 12)
G0   Z6.000     
   X277.780      Y11.780    
G1   Z-9.000     F500 
   Y22.220     F1500
   X282.190   
   Y11.780    
   X286.600   
   Y22.220    
   X291.010   
   Y11.780    
   X295.420   
   Y22.220    
   X299.830   
   Y11.780    
   X304.240   
   Y22.220    
   X308.650   
   Y11.780    
   X313.060   
   Y22.220    
   X317.470   
   Y11.780    
   X321.880   
   Y22.220    
   X326.290   
   Y11.780    
   X330.700   
   Y22.220    
   X335.110   
   Y11.780    
   X339.520   
   Y22.220    
   X343.930   
   Y11.780    
   X348.340   
   Y22.220    
   X352.750   
   Y11.780    
   X357.160   
   Y22.220    
   X361.570   
   Y11.780    
   X365.980   
   Y22.220    
   X370.390   
   Y11.780    
   X374.800   
   Y22.220    
   X379.210   
   Y11.780    
   X383.620   
   Y22.220    
   X388.030   
   Y11.780    
   X392.440   
   Y22.220    
   X396.850   
   Y11.780    
   X401.260   
   Y22.220    
   X405.670   
   Y11.780    
   X410.080   
   Y22.220    
   X414.490   
   Y11.780    
   X418.900   
   Y22.220    
   X423.310   
   Y11.780    
   X427.720   
   Y22.220    
   X432.130   
   Y11.780    
   X436.540   
   Y22.220    
   X440.950   
   Y11.780    
   X445.360   
   Y22.220    
   X449.770   
   Y11.780    
   X454.180   
   Y22.220    
   X458.590   
   Y11.780    
   X463.000   
   Y22.220    
   X467.410   
   Y11.780    
   X471.820   
   Y22.220    
   X476.230   
   Y11.780    
   X480.640   
   Y22.220    
   X485.050   
   Y11.780    
   X489.460   
   Y22.220    
   X493.870   
   Y11.780    
   X498.280   
   Y22.220    
   X502.690   
   Y11.780    
   X507.100   
   Y22.220    
   X511.510   
   Y11.780    
   X515.920   
   Y22.220    
G0   Z6.000     
(Pass: 1)
   X277.150      Y22.850    
G1   Z-0.800     F500 
   X520.850    F1500
G0   Z6.000     
   X277.150   
G1   Z-0.800     F500 
   Y11.150     F1500
   X520.850   
   Y22.850    
(Pass: 2)
   X277.150   
   Z-1.600     F500 
   X520.850    F1500
G0   Z6.000     
   X277.150   
G1   Z-1.600     F500 
   Y11.150     F1500
   X520.850   
   Y22.850    
(Pass: 3)
   X277.150   
   Z-2.400     F500 
   X520.850    F1500
G0   Z6.000     
   X277.150   
G1   Z-2.400     F500 
   Y11.150     F1500
   X520.850   
   Y22.850    
(Pass: 4)
   X277.150   
   Z-3.200     F500 
   X520.850    F1500
G0   Z6.000     
   X277.150   
G1   Z-3.200     F500 
   Y11.150     F1500
   X520.850   
   Y22.850    
(Pass: 5)
   X277.150   
   Z-4.000     F500 
   X520.850    F1500
G0   Z6.000     
   X277.150   
G1   Z-4.000     F500 
   Y11.150     F1500
   X520.850   
   Y22.850    
(Pass: 6)
   X277.150   
   Z-4.800     F500 
   X520.850    F1500
G0   Z6.000     
   X277.150   
G1   Z-4.800     F500 
   Y11.150     F1500
   X520.850   
   Y22.850    
(Pass: 7)
   X277.150   
   Z-5.600     F500 
   X520.850    F1500
G0   Z6.000     
   X277.150   
G1   Z-5.600     F500 
   Y11.150     F1500
   X520.850   
   Y22.850    
(Pass: 8)
   X277.150   
   Z-6.400     F500 
   X520.850    F1500
G0   Z6.000     
   X277.150   
G1   Z-6.400     F500 
   Y11.150     F1500
   X520.850   
   Y22.850    
(Pass: 9)
   X277.150   
   Z-7.200     F500 
   X520.850    F1500
G0   Z6.000     
   X277.150   
G1   Z-7.200     F500 
   Y11.150     F1500
   X520.850   
   Y22.850    
(Pass: 10)
   X277.150   
   Z-8.000     F500 
   X520.850    F1500
G0   Z6.000     
   X277.150   
G1   Z-8.000     F500 
   Y11.150     F1500
   X520.850   
   Y22.850    
(Pass: 11)
   X277.150   
   Z-8.800     F500 
   X520.850    F1500
G0   Z6.000     
   X277.150   
G1   Z-8.800     F500 
   Y11.150     F1500
   X520.850   
   Y22.850    
(Pass: 12)
   X277.150   
   Z-9.600     F500 
   X520.850    F1500
G0   Z6.000     
   X277.150   
G1   Z-9.000     F500 
   Y11.150     F1500
   X520.850   
   Y22.850    
(Pass: 13)
   X277.150   
   Z-10.400    F500 
   X520.850    F1500
G0   Z6.000     
   X277.150   
G1   Z-9.000     F500 
   Y11.150     F1500
   X520.850   
   Y22.850    
(Pass: 14)
   X277.150   
   Z-11.200    F500 
   X520.850    F1500
G0   Z6.000     
   X277.150   
G1   Z-9.000     F500 
   Y11.150     F1500
   X520.850   
   Y22.850    
(Pass: 15)
   X277.150   
   Z-12.000    F500 
   X520.850    F1500
G0   Z6.000     
   X277.150   
G1   Z-9.000     F500 
   Y11.150     F1500
   X520.850   
   Y22.850    
(Pass: 16)
   X277.150   
   Z-12.800    F500 
   X520.850    F1500
G0   Z6.000     
   X277.150   
G1   Z-9.000     F500 
   Y11.150     F1500
   X520.850   
   Y22.850    
(Pass: 17)
   X277.150   
   Z-13.600    F500 
   X520.850    F1500
G0   Z6.000     
   X277.150   
G1   Z-9.000     F500 
   Y11.150     F1500
   X520.850   
   Y22.850    
(Pass: 18)
   X277.150   
   Z-14.400    F500 
   X520.850    F1500
G0   Z6.000     
   X277.150   
G1   Z-9.000     F500 
   Y11.150     F1500
   X520.850   
   Y22.850    
(Pass: 19)
   X277.150   
   Z-15.200    F500 
   X520.850    F1500
G0   Z6.000     
   X277.150   
G1   Z-9.000     F500 
   Y11.150     F1500
   X520.850   
   Y22.850    
(Pass: 20)
   X277.150   
   Z-16.000    F500 
   X520.850    F1500
G0   Z6.000     
   X277.150   
G1   Z-9.000     F500 
   Y11.150     F1500
   X520.850   
   Y22.850    
(Pass: 21)
   X277.150   
   Z-16.800    F500 
   X520.850    F1500
G0   Z6.000     
   X277.150   
G1   Z-9.000     F500 
   Y11.150     F1500
   X520.850   
   Y22.850    
(Pass: 22)
   X277.150   
   Z-17.600    F500 
   X520.850    F1500
G0   Z6.000     
   X277.150   
G1   Z-9.000     F500 
   Y11.150     F1500
   X520.850   
   Y22.850    
(Pass: 23)
   X277.150   
   Z-18.400    F500 
   X520.850    F1500
G0   Z6.000     
   X277.150   
G1   Z-9.000     F500 
   Y11.150     F1500
   X520.850   
   Y22.850    
(Pass: 24)
   X277.150   
   Z-19.200    F500 
   X520.850    F1500
G0   Z6.000     
   X277.150   
G1   Z-9.000     F500 
   Y11.150     F1500
   X520.850   
   Y22.850    
(BREAK pass 24)
G0   Z6.000     
(Pass: 1)
   X536.850      Y4.850     
G1   Z-0.800     F500 
   X793.150    F1500
   Y63.776    
   Y70.076    
   Y1231.951  
   Y1238.251  
   Y2031.150  
   X536.850   
   Y1240.677  
   Y1234.377  
   Y70.833    
   Y64.533    
   Y4.850     
(Pass: 2)
   Z-1.600     F500 
   X793.150    F1500
   Y63.776    
   Y70.076    
   Y1231.951  
   Y1238.251  
   Y2031.150  
   X536.850   
   Y1240.677  
   Y1234.377  
   Y70.833    
   Y64.533    
   Y4.850     
(Pass: 3)
   Z-2.400     F500 
   X793.150    F1500
   Y63.776    
   Y70.076    
   Y1231.951  
   Y1238.251  
   Y2031.150  
   X536.850   
   Y1240.677  
   Y1234.377  
   Y70.833    
   Y64.533    
   Y4.850     
(Pass: 4)
   Z-3.200     F500 
   X793.150    F1500
   Y63.776    
   Y70.076    
   Y1231.951  
   Y1238.251  
   Y2031.150  
   X536.850   
   Y1240.677  
   Y1234.377  
   Y70.833    
   Y64.533    
   Y4.850     
(Pass: 5)
   Z-4.000     F500 
   X793.150    F1500
   Y63.776    
   Y70.076    
   Y1231.951  
   Y1238.251  
   Y2031.150  
   X536.850   
   Y1240.677  
   Y1234.377  
   Y70.833    
   Y64.533    
   Y4.850     
(Pass: 6)
   Z-4.800     F500 
   X793.150    F1500
   Y63.776    
   Y70.076    
   Y1231.951  
   Y1238.251  
   Y2031.150  
   X536.850   
   Y1240.677  
   Y1234.377  
   Y70.833    
   Y64.533    
   Y4.850     
(Pass: 7)
   Z-5.600     F500 
   X793.150    F1500
   Y63.776    
   Y70.076    
   Y1231.951  
   Y1238.251  
   Y2031.150  
   X536.850   
   Y1240.677  
   Y1234.377  
   Y70.833    
   Y64.533    
   Y4.850     
(Pass: 8)
   Z-6.400     F500 
   X793.150    F1500
   Y63.776    
   Y70.076    
   Y1231.951  
   Y1238.251  
   Y2031.150  
   X536.850   
   Y1240.677  
   Y1234.377  
   Y70.833    
   Y64.533    
   Y4.850     
(Pass: 9)
   Z-7.200     F500 
   X793.150    F1500
   Y63.776    
   Y70.076    
   Y1231.951  
   Y1238.251  
   Y2031.150  
   X536.850   
   Y1240.677  
   Y1234.377  
   Y70.833    
   Y64.533    
   Y4.850     
(Pass: 10)
   Z-8.000     F500 
   X793.150    F1500
   Y63.776    
   Y70.076    
   Y1231.951  
   Y1238.251  
   Y2031.150  
   X536.850   
   Y1240.677  
   Y1234.377  
   Y70.833    
   Y64.533    
   Y4.850     
(Pass: 11)
   Z-8.800     F500 
   X793.150    F1500
   Y63.776    
   Y70.076    
   Y1231.951  
   Y1238.251  
   Y2031.150  
   X536.850   
   Y1240.677  
   Y1234.377  
   Y70.833    
   Y64.533    
   Y4.850     
(Pass: 12)
   Z-9.600     F500 
   X793.150    F1500
   Y63.776    
   Y70.076    
   Y1231.951  
   Y1238.251  
   Y2031.150  
   X536.850   
   Y1240.677  
   Y1234.377  
   Y70.833    
   Y64.533    
   Y4.850     
(Pass: 13)
   Z-10.400    F500 
   X793.150    F1500
   Y63.776    
   Y70.076    
   Y1231.951  
   Y1238.251  
   Y2031.150  
   X536.850   
   Y1240.677  
   Y1234.377  
   Y70.833    
   Y64.533    
   Y4.850     
(Pass: 14)
   Z-11.200    F500 
   X793.150    F1500
   Y63.776    
   Y70.076    
   Y1231.951  
   Y1238.251  
   Y2031.150  
   X536.850   
   Y1240.677  
   Y1234.377  
   Y70.833    
   Y64.533    
   Y4.850     
(Pass: 15)
   Z-12.000    F500 
   X793.150    F1500
   Y63.776    
   Y70.076    
   Y1231.951  
   Y1238.251  
   Y2031.150  
   X536.850   
   Y1240.677  
   Y1234.377  
   Y70.833    
   Y64.533    
   Y4.850     
(Pass: 16)
   Z-12.800    F500 
   X793.150    F1500
   Y63.776    
   Y70.076    
   Y1231.951  
   Y1238.251  
   Y2031.150  
   X536.850   
   Y1240.677  
   Y1234.377  
   Y70.833    
   Y64.533    
   Y4.850     
(Pass: 17)
   Z-13.600    F500 
   X793.150    F1500
   Y63.776    
   Z-13.500   
   Y70.076    
   Z-13.600    F500 
   Y1231.951   F1500
   Z-13.500   
   Y1238.251  
   Z-13.600    F500 
   Y2031.150   F1500
   X536.850   
   Y1240.677  
   Z-13.500   
   Y1234.377  
   Z-13.600    F500 
   Y70.833     F1500
   Z-13.500   
   Y64.533    
   Z-13.600    F500 
   Y4.850      F1500
(Pass: 18)
   Z-14.400    F500 
   X793.150    F1500
   Y63.776    
   Z-13.500   
   Y70.076    
   Z-14.400    F500 
   Y1231.951   F1500
   Z-13.500   
   Y1238.251  
   Z-14.400    F500 
   Y2031.150   F1500
   X536.850   
   Y1240.677  
   Z-13.500   
   Y1234.377  
   Z-14.400    F500 
   Y70.833     F1500
   Z-13.500   
   Y64.533    
   Z-14.400    F500 
   Y4.850      F1500
(Pass: 19)
   Z-15.200    F500 
   X793.150    F1500
   Y63.776    
   Z-13.500   
   Y70.076    
   Z-15.200    F500 
   Y1231.951   F1500
   Z-13.500   
   Y1238.251  
   Z-15.200    F500 
   Y2031.150   F1500
   X536.850   
   Y1240.677  
   Z-13.500   
   Y1234.377  
   Z-15.200    F500 
   Y70.833     F1500
   Z-13.500   
   Y64.533    
   Z-15.200    F500 
   Y4.850      F1500
(Pass: 20)
   Z-16.000    F500 
   X793.150    F1500
   Y63.776    
   Z-13.500   
   Y70.076    
   Z-16.000    F500 
   Y1231.951   F1500
   Z-13.500   
   Y1238.251  
   Z-16.000    F500 
   Y2031.150   F1500
   X536.850   
   Y1240.677  
   Z-13.500   
   Y1234.377  
   Z-16.000    F500 
   Y70.833     F1500
   Z-13.500   
   Y64.533    
   Z-16.000    F500 
   Y4.850      F1500
(Pass: 21)
   Z-16.800    F500 
   X793.150    F1500
   Y63.776    
   Z-13.500   
   Y70.076    
   Z-16.800    F500 
   Y1231.951   F1500
   Z-13.500   
   Y1238.251  
   Z-16.800    F500 
   Y2031.150   F1500
   X536.850   
   Y1240.677  
   Z-13.500   
   Y1234.377  
   Z-16.800    F500 
   Y70.833     F1500
   Z-13.500   
   Y64.533    
   Z-16.800    F500 
   Y4.850      F1500
(Pass: 22)
   Z-17.600    F500 
   X793.150    F1500
   Y63.776    
   Z-13.500   
   Y70.076    
   Z-17.600    F500 
   Y1231.951   F1500
   Z-13.500   
   Y1238.251  
   Z-17.600    F500 
   Y2031.150   F1500
   X536.850   
   Y1240.677  
   Z-13.500   
   Y1234.377  
   Z-17.600    F500 
   Y70.833     F1500
   Z-13.500   
   Y64.533    
   Z-17.600    F500 
   Y4.850      F1500
(Pass: 23)
   Z-18.400    F500 
   X793.150    F1500
   Y63.776    
   Z-13.500   
   Y70.076    
   Z-18.400    F500 
   Y1231.951   F1500
   Z-13.500   
   Y1238.251  
   Z-18.400    F500 
   Y2031.150   F1500
   X536.850   
   Y1240.677  
   Z-13.500   
   Y1234.377  
   Z-18.400    F500 
   Y70.833     F1500
   Z-13.500   
   Y64.533    
   Z-18.400    F500 
   Y4.850      F1500
(Pass: 24)
   Z-19.200    F500 
   X793.150    F1500
   Y63.776    
   Z-13.500   
   Y70.076    
   Z-19.200    F500 
   Y1231.951   F1500
   Z-13.500   
   Y1238.251  
   Z-19.200    F500 
   Y2031.150   F1500
   X536.850   
   Y1240.677  
   Z-13.500   
   Y1234.377  
   Z-19.200    F500 
   Y70.833     F1500
   Z-13.500   
   Y64.533    
   Z-19.200    F500 
   Y4.850      F1500
(BREAK pass 24)
G0   Z6.000     
(Pass: 1)
   X802.850   
G1   Z-0.800     F500 
   X1059.150   F1500
   Y60.641    
   Y66.941    
   Y1227.977  
   Y1234.277  
   Y2031.150  
   X802.850   
   Y1239.129  
   Y1232.829  
   Y70.863    
   Y64.563    
   Y4.850     
(Pass: 2)
   Z-1.600     F500 
   X1059.150   F1500
   Y60.641    
   Y66.941    
   Y1227.977  
   Y1234.277  
   Y2031.150  
   X802.850   
   Y1239.129  
   Y1232.829  
   Y70.863    
   Y64.563    
   Y4.850     
(Pass: 3)
   Z-2.400     F500 
   X1059.150   F1500
   Y60.641    
   Y66.941    
   Y1227.977  
   Y1234.277  
   Y2031.150  
   X802.850   
   Y1239.129  
   Y1232.829  
   Y70.863    
   Y64.563    
   Y4.850     
(Pass: 4)
   Z-3.200     F500 
   X1059.150   F1500
   Y60.641    
   Y66.941    
   Y1227.977  
   Y1234.277  
   Y2031.150  
   X802.850   
   Y1239.129  
   Y1232.829  
   Y70.863    
   Y64.563    
   Y4.850     
(Pass: 5)
   Z-4.000     F500 
   X1059.150   F1500
   Y60.641    
   Y66.941    
   Y1227.977  
   Y1234.277  
   Y2031.150  
   X802.850   
   Y1239.129  
   Y1232.829  
   Y70.863    
   Y64.563    
   Y4.850     
(Pass: 6)
   Z-4.800     F500 
   X1059.150   F1500
   Y60.641    
   Y66.941    
   Y1227.977  
   Y1234.277  
   Y2031.150  
   X802.850   
   Y1239.129  
   Y1232.829  
   Y70.863    
   Y64.563    
   Y4.850     
(Pass: 7)
   Z-5.600     F500 
   X1059.150   F1500
   Y60.641    
   Y66.941    
   Y1227.977  
   Y1234.277  
   Y2031.150  
   X802.850   
   Y1239.129  
   Y1232.829  
   Y70.863    
   Y64.563    
   Y4.850     
(Pass: 8)
   Z-6.400     F500 
   X1059.150   F1500
   Y60.641    
   Y66.941    
   Y1227.977  
   Y1234.277  
   Y2031.150  
   X802.850   
   Y1239.129  
   Y1232.829  
   Y70.863    
   Y64.563    
   Y4.850     
(Pass: 9)
   Z-7.200     F500 
   X1059.150   F1500
   Y60.641    
   Y66.941    
   Y1227.977  
   Y1234.277  
   Y2031.150  
   X802.850   
   Y1239.129  
   Y1232.829  
   Y70.863    
   Y64.563    
   Y4.850     
(Pass: 10)
   Z-8.000     F500 
   X1059.150   F1500
   Y60.641    
   Y66.941    
   Y1227.977  
   Y1234.277  
   Y2031.150  
   X802.850   
   Y1239.129  
   Y1232.829  
   Y70.863    
   Y64.563    
   Y4.850     
(Pass: 11)
   Z-8.800     F500 
   X1059.150   F1500
   Y60.641    
   Y66.941    
   Y1227.977  
   Y1234.277  
   Y2031.150  
   X802.850   
   Y1239.129  
   Y1232.829  
   Y70.863    
   Y64.563    
   Y4.850     
(Pass: 12)
   Z-9.600     F500 
   X1059.150   F1500
   Y60.641    
   Y66.941    
   Y1227.977  
   Y1234.277  
   Y2031.150  
   X802.850   
   Y1239.129  
   Y1232.829  
   Y70.863    
   Y64.563    
   Y4.850     
(Pass: 13)
   Z-10.400    F500 
   X1059.150   F1500
   Y60.641    
   Y66.941    
   Y1227.977  
   Y1234.277  
   Y2031.150  
   X802.850   
   Y1239.129  
   Y1232.829  
   Y70.863    
   Y64.563    
   Y4.850     
(Pass: 14)
   Z-11.200    F500 
   X1059.150   F1500
   Y60.641    
   Y66.941    
   Y1227.977  
   Y1234.277  
   Y2031.150  
   X802.850   
   Y1239.129  
   Y1232.829  
   Y70.863    
   Y64.563    
   Y4.850     
(Pass: 15)
   Z-12.000    F500 
   X1059.150   F1500
   Y60.641    
   Y66.941    
   Y1227.977  
   Y1234.277  
   Y2031.150  
   X802.850   
   Y1239.129  
   Y1232.829  
   Y70.863    
   Y64.563    
   Y4.850     
(Pass: 16)
   Z-12.800    F500 
   X1059.150   F1500
   Y60.641    
   Y66.941    
   Y1227.977  
   Y1234.277  
   Y2031.150  
   X802.850   
   Y1239.129  
   Y1232.829  
   Y70.863    
   Y64.563    
   Y4.850     
(Pass: 17)
   Z-13.600    F500 
   X1059.150   F1500
   Y60.641    
   Z-13.500   
   Y66.941    
   Z-13.600    F500 
   Y1227.977   F1500
   Z-13.500   
   Y1234.277  
   Z-13.600    F500 
   Y2031.150   F1500
   X802.850   
   Y1239.129  
   Z-13.500   
   Y1232.829  
   Z-13.600    F500 
   Y70.863     F1500
   Z-13.500   
   Y64.563    
   Z-13.600    F500 
   Y4.850      F1500
(Pass: 18)
   Z-14.400    F500 
   X1059.150   F1500
   Y60.641    
   Z-13.500   
   Y66.941    
   Z-14.400    F500 
   Y1227.977   F1500
   Z-13.500   
   Y1234.277  
   Z-14.400    F500 
   Y2031.150   F1500
   X802.850   
   Y1239.129  
   Z-13.500   
   Y1232.829  
   Z-14.400    F500 
   Y70.863     F1500
   Z-13.500   
   Y64.563    
   Z-14.400    F500 
   Y4.850      F1500
(Pass: 19)
   Z-15.200    F500 
   X1059.150   F1500
   Y60.641    
   Z-13.500   
   Y66.941    
   Z-15.200    F500 
   Y1227.977   F1500
   Z-13.500   
   Y1234.277  
   Z-15.200    F500 
   Y2031.150   F1500
   X802.850   
   Y1239.129  
   Z-13.500   
   Y1232.829  
   Z-15.200    F500 
   Y70.863     F1500
   Z-13.500   
   Y64.563    
   Z-15.200    F500 
   Y4.850      F1500
(Pass: 20)
   Z-16.000    F500 
   X1059.150   F1500
   Y60.641    
   Z-13.500   
   Y66.941    
   Z-16.000    F500 
   Y1227.977   F1500
   Z-13.500   
   Y1234.277  
   Z-16.000    F500 
   Y2031.150   F1500
   X802.850   
   Y1239.129  
   Z-13.500   
   Y1232.829  
   Z-16.000    F500 
   Y70.863     F1500
   Z-13.500   
   Y64.563    
   Z-16.000    F500 
   Y4.850      F1500
(Pass: 21)
   Z-16.800    F500 
   X1059.150   F1500
   Y60.641    
   Z-13.500   
   Y66.941    
   Z-16.800    F500 
   Y1227.977   F1500
   Z-13.500   
   Y1234.277  
   Z-16.800    F500 
   Y2031.150   F1500
   X802.850   
   Y1239.129  
   Z-13.500   
   Y1232.829  
   Z-16.800    F500 
   Y70.863     F1500
   Z-13.500   
   Y64.563    
   Z-16.800    F500 
   Y4.850      F1500
(Pass: 22)
   Z-17.600    F500 
   X1059.150   F1500
   Y60.641    
   Z-13.500   
   Y66.941    
   Z-17.600    F500 
   Y1227.977   F1500
   Z-13.500   
   Y1234.277  
   Z-17.600    F500 
   Y2031.150   F1500
   X802.850   
   Y1239.129  
   Z-13.500   
   Y1232.829  
   Z-17.600    F500 
   Y70.863     F1500
   Z-13.500   
   Y64.563    
   Z-17.600    F500 
   Y4.850      F1500
(Pass: 23)
   Z-18.400    F500 
   X1059.150   F1500
   Y60.641    
   Z-13.500   
   Y66.941    
   Z-18.400    F500 
   Y1227.977   F1500
   Z-13.500   
   Y1234.277  
   Z-18.400    F500 
   Y2031.150   F1500
   X802.850   
   Y1239.129  
   Z-13.500   
   Y1232.829  
   Z-18.400    F500 
   Y70.863     F1500
   Z-13.500   
   Y64.563    
   Z-18.400    F500 
   Y4.850      F1500
(Pass: 24)
   Z-19.200    F500 
   X1059.150   F1500
   Y60.641    
   Z-13.500   
   Y66.941    
   Z-19.200    F500 
   Y1227.977   F1500
   Z-13.500   
   Y1234.277  
   Z-19.200    F500 
   Y2031.150   F1500
   X802.850   
   Y1239.129  
   Z-13.500   
   Y1232.829  
   Z-19.200    F500 
   Y70.863     F1500
   Z-13.500   
   Y64.563    
   Z-19.200    F500 
   Y4.850      F1500
(BREAK pass 24)
G0   Z6.000     
G0 X0 Y0 (home)
M05
M30
%
