%
(Generated by SketchUcam {1.2})
(File: DogBoneBox.skp)
(Bit diameter: 6.3mm)
(Feed rate: 1200.0mm/min)
(Plunge Feed rate: 500.0mm/min)
(Material Thickness: 12.0mm)
(Material length: 600.0mm X width: 1200.0mm)
(Overhead Gantry: true)
(Retract feed rate NOT limited to plunge feed rate)
(Multipass enabled, Depth = 1.2mm)
(Optimization is ON)
(www.PhlatBoyz.com)
G90 G21 G49 
M3 S10000
G0   Z5.000     
(Pass: 1)
   X59.302       Y86.303    
G1   Z-1.200     F500 
   Y235.701    F1200
   X63.712    
   Y86.303    
G0   Z5.000     
   X70.672       Y91.373    
G1   Z-1.200     F500 
   Y85.673     F1200
   X384.872   
   Y91.373    
   X70.672    
G0   Z5.000     
   X75.712       Y86.303    
G1   Z-1.200     F500 
   Y90.743     F1200
   X80.122    
   Y86.303    
   X84.532    
   Y90.743    
   X88.942    
   Y86.303    
   X93.352    
   Y90.743    
   X97.762    
   Y86.303    
   X102.172   
   Y90.743    
   X106.582   
   Y86.303    
   X110.992   
   Y90.743    
   X115.402   
   Y86.303    
   X119.812   
   Y90.743    
   X124.222   
   Y86.303    
   X128.632   
   Y90.743    
   X133.042   
   Y86.303    
   X137.452   
   Y90.743    
   X141.862   
   Y86.303    
   X146.272   
   Y90.743    
   X150.682   
   Y86.303    
   X155.092   
   Y90.743    
   X159.502   
   Y86.303    
   X163.912   
   Y90.743    
   X168.322   
   Y86.303    
   X172.732   
   Y90.743    
   X177.142   
   Y86.303    
   X181.552   
   Y90.743    
   X185.962   
   Y86.303    
   X190.372   
   Y90.743    
   X194.782   
   Y86.303    
   X199.192   
   Y90.743    
   X203.602   
   Y86.303    
   X208.012   
   Y90.743    
   X212.422   
   Y86.303    
   X216.832   
   Y90.743    
   X221.242   
   Y86.303    
   X225.652   
   Y90.743    
   X230.062   
   Y86.303    
   X234.472   
   Y90.743    
   X238.882   
   Y86.303    
   X243.292   
   Y90.743    
   X247.702   
   Y86.303    
   X252.112   
   Y90.743    
   X256.522   
   Y86.303    
   X260.932   
   Y90.743    
   X265.342   
   Y86.303    
   X269.752   
   Y90.743    
   X274.162   
   Y86.303    
   X278.572   
   Y90.743    
   X282.982   
   Y86.303    
   X287.392   
   Y90.743    
   X291.802   
   Y86.303    
   X296.212   
   Y90.743    
   X300.622   
   Y86.303    
   X305.032   
   Y90.743    
   X309.442   
   Y86.303    
   X313.852   
   Y90.743    
   X318.262   
   Y86.303    
   X322.672   
   Y90.743    
   X327.082   
   Y86.303    
   X331.492   
   Y90.743    
   X335.902   
   Y86.303    
   X340.312   
   Y90.743    
   X344.722   
   Y86.303    
   X349.132   
   Y90.743    
   X353.542   
   Y86.303    
   X357.952   
   Y90.743    
   X362.362   
   Y86.303    
   X366.772   
   Y90.743    
   X371.182   
   Y86.303    
   X375.592   
   Y90.743    
   X380.002   
   Y86.303    
G0   Z5.000     
   X391.802   
G1   Z-1.200     F500 
   Y235.701    F1200
   X396.212   
   Y86.303    
G0   Z5.000     
   X396.872      Y85.673    
G1   Z-1.200     F500 
   Y236.331    F1200
   X391.172   
   Y85.673    
   X396.872   
G0   Z5.000     
   X64.372       Y236.331   
G1   Z-1.200     F500 
   X58.672     F1200
   Y85.673    
   X64.372    
   Y236.331   
(Pass: 2)
G0   Z5.000     
   X59.302       Y86.303    
G1   Z-2.400     F500 
   Y235.701    F1200
   X63.712    
   Y86.303    
G0   Z5.000     
   X70.672       Y91.373    
G1   Z-2.400     F500 
   Y85.673     F1200
   X384.872   
   Y91.373    
   X70.672    
G0   Z5.000     
   X75.712       Y86.303    
G1   Z-2.400     F500 
   Y90.743     F1200
   X80.122    
   Y86.303    
   X84.532    
   Y90.743    
   X88.942    
   Y86.303    
   X93.352    
   Y90.743    
   X97.762    
   Y86.303    
   X102.172   
   Y90.743    
   X106.582   
   Y86.303    
   X110.992   
   Y90.743    
   X115.402   
   Y86.303    
   X119.812   
   Y90.743    
   X124.222   
   Y86.303    
   X128.632   
   Y90.743    
   X133.042   
   Y86.303    
   X137.452   
   Y90.743    
   X141.862   
   Y86.303    
   X146.272   
   Y90.743    
   X150.682   
   Y86.303    
   X155.092   
   Y90.743    
   X159.502   
   Y86.303    
   X163.912   
   Y90.743    
   X168.322   
   Y86.303    
   X172.732   
   Y90.743    
   X177.142   
   Y86.303    
   X181.552   
   Y90.743    
   X185.962   
   Y86.303    
   X190.372   
   Y90.743    
   X194.782   
   Y86.303    
   X199.192   
   Y90.743    
   X203.602   
   Y86.303    
   X208.012   
   Y90.743    
   X212.422   
   Y86.303    
   X216.832   
   Y90.743    
   X221.242   
   Y86.303    
   X225.652   
   Y90.743    
   X230.062   
   Y86.303    
   X234.472   
   Y90.743    
   X238.882   
   Y86.303    
   X243.292   
   Y90.743    
   X247.702   
   Y86.303    
   X252.112   
   Y90.743    
   X256.522   
   Y86.303    
   X260.932   
   Y90.743    
   X265.342   
   Y86.303    
   X269.752   
   Y90.743    
   X274.162   
   Y86.303    
   X278.572   
   Y90.743    
   X282.982   
   Y86.303    
   X287.392   
   Y90.743    
   X291.802   
   Y86.303    
   X296.212   
   Y90.743    
   X300.622   
   Y86.303    
   X305.032   
   Y90.743    
   X309.442   
   Y86.303    
   X313.852   
   Y90.743    
   X318.262   
   Y86.303    
   X322.672   
   Y90.743    
   X327.082   
   Y86.303    
   X331.492   
   Y90.743    
   X335.902   
   Y86.303    
   X340.312   
   Y90.743    
   X344.722   
   Y86.303    
   X349.132   
   Y90.743    
   X353.542   
   Y86.303    
   X357.952   
   Y90.743    
   X362.362   
   Y86.303    
   X366.772   
   Y90.743    
   X371.182   
   Y86.303    
   X375.592   
   Y90.743    
   X380.002   
   Y86.303    
G0   Z5.000     
   X391.802   
G1   Z-2.400     F500 
   Y235.701    F1200
   X396.212   
   Y86.303    
G0   Z5.000     
   X396.872      Y85.673    
G1   Z-2.400     F500 
   Y236.331    F1200
   X391.172   
   Y85.673    
   X396.872   
G0   Z5.000     
   X64.372       Y236.331   
G1   Z-2.400     F500 
   X58.672     F1200
   Y85.673    
   X64.372    
   Y236.331   
(Pass: 3)
G0   Z5.000     
   X59.302       Y86.303    
G1   Z-3.600     F500 
   Y235.701    F1200
   X63.712    
   Y86.303    
G0   Z5.000     
   X70.672       Y91.373    
G1   Z-3.600     F500 
   Y85.673     F1200
   X384.872   
   Y91.373    
   X70.672    
G0   Z5.000     
   X75.712       Y86.303    
G1   Z-3.600     F500 
   Y90.743     F1200
   X80.122    
   Y86.303    
   X84.532    
   Y90.743    
   X88.942    
   Y86.303    
   X93.352    
   Y90.743    
   X97.762    
   Y86.303    
   X102.172   
   Y90.743    
   X106.582   
   Y86.303    
   X110.992   
   Y90.743    
   X115.402   
   Y86.303    
   X119.812   
   Y90.743    
   X124.222   
   Y86.303    
   X128.632   
   Y90.743    
   X133.042   
   Y86.303    
   X137.452   
   Y90.743    
   X141.862   
   Y86.303    
   X146.272   
   Y90.743    
   X150.682   
   Y86.303    
   X155.092   
   Y90.743    
   X159.502   
   Y86.303    
   X163.912   
   Y90.743    
   X168.322   
   Y86.303    
   X172.732   
   Y90.743    
   X177.142   
   Y86.303    
   X181.552   
   Y90.743    
   X185.962   
   Y86.303    
   X190.372   
   Y90.743    
   X194.782   
   Y86.303    
   X199.192   
   Y90.743    
   X203.602   
   Y86.303    
   X208.012   
   Y90.743    
   X212.422   
   Y86.303    
   X216.832   
   Y90.743    
   X221.242   
   Y86.303    
   X225.652   
   Y90.743    
   X230.062   
   Y86.303    
   X234.472   
   Y90.743    
   X238.882   
   Y86.303    
   X243.292   
   Y90.743    
   X247.702   
   Y86.303    
   X252.112   
   Y90.743    
   X256.522   
   Y86.303    
   X260.932   
   Y90.743    
   X265.342   
   Y86.303    
   X269.752   
   Y90.743    
   X274.162   
   Y86.303    
   X278.572   
   Y90.743    
   X282.982   
   Y86.303    
   X287.392   
   Y90.743    
   X291.802   
   Y86.303    
   X296.212   
   Y90.743    
   X300.622   
   Y86.303    
   X305.032   
   Y90.743    
   X309.442   
   Y86.303    
   X313.852   
   Y90.743    
   X318.262   
   Y86.303    
   X322.672   
   Y90.743    
   X327.082   
   Y86.303    
   X331.492   
   Y90.743    
   X335.902   
   Y86.303    
   X340.312   
   Y90.743    
   X344.722   
   Y86.303    
   X349.132   
   Y90.743    
   X353.542   
   Y86.303    
   X357.952   
   Y90.743    
   X362.362   
   Y86.303    
   X366.772   
   Y90.743    
   X371.182   
   Y86.303    
   X375.592   
   Y90.743    
   X380.002   
   Y86.303    
G0   Z5.000     
   X391.802   
G1   Z-3.600     F500 
   Y235.701    F1200
   X396.212   
   Y86.303    
G0   Z5.000     
   X396.872      Y85.673    
G1   Z-3.600     F500 
   Y236.331    F1200
   X391.172   
   Y85.673    
   X396.872   
G0   Z5.000     
   X64.372       Y236.331   
G1   Z-3.600     F500 
   X58.672     F1200
   Y85.673    
   X64.372    
   Y236.331   
(Pass: 4)
G0   Z5.000     
   X59.302       Y86.303    
G1   Z-4.800     F500 
   Y235.701    F1200
   X63.712    
   Y86.303    
G0   Z5.000     
   X70.672       Y91.373    
G1   Z-4.800     F500 
   Y85.673     F1200
   X384.872   
   Y91.373    
   X70.672    
G0   Z5.000     
   X75.712       Y86.303    
G1   Z-4.800     F500 
   Y90.743     F1200
   X80.122    
   Y86.303    
   X84.532    
   Y90.743    
   X88.942    
   Y86.303    
   X93.352    
   Y90.743    
   X97.762    
   Y86.303    
   X102.172   
   Y90.743    
   X106.582   
   Y86.303    
   X110.992   
   Y90.743    
   X115.402   
   Y86.303    
   X119.812   
   Y90.743    
   X124.222   
   Y86.303    
   X128.632   
   Y90.743    
   X133.042   
   Y86.303    
   X137.452   
   Y90.743    
   X141.862   
   Y86.303    
   X146.272   
   Y90.743    
   X150.682   
   Y86.303    
   X155.092   
   Y90.743    
   X159.502   
   Y86.303    
   X163.912   
   Y90.743    
   X168.322   
   Y86.303    
   X172.732   
   Y90.743    
   X177.142   
   Y86.303    
   X181.552   
   Y90.743    
   X185.962   
   Y86.303    
   X190.372   
   Y90.743    
   X194.782   
   Y86.303    
   X199.192   
   Y90.743    
   X203.602   
   Y86.303    
   X208.012   
   Y90.743    
   X212.422   
   Y86.303    
   X216.832   
   Y90.743    
   X221.242   
   Y86.303    
   X225.652   
   Y90.743    
   X230.062   
   Y86.303    
   X234.472   
   Y90.743    
   X238.882   
   Y86.303    
   X243.292   
   Y90.743    
   X247.702   
   Y86.303    
   X252.112   
   Y90.743    
   X256.522   
   Y86.303    
   X260.932   
   Y90.743    
   X265.342   
   Y86.303    
   X269.752   
   Y90.743    
   X274.162   
   Y86.303    
   X278.572   
   Y90.743    
   X282.982   
   Y86.303    
   X287.392   
   Y90.743    
   X291.802   
   Y86.303    
   X296.212   
   Y90.743    
   X300.622   
   Y86.303    
   X305.032   
   Y90.743    
   X309.442   
   Y86.303    
   X313.852   
   Y90.743    
   X318.262   
   Y86.303    
   X322.672   
   Y90.743    
   X327.082   
   Y86.303    
   X331.492   
   Y90.743    
   X335.902   
   Y86.303    
   X340.312   
   Y90.743    
   X344.722   
   Y86.303    
   X349.132   
   Y90.743    
   X353.542   
   Y86.303    
   X357.952   
   Y90.743    
   X362.362   
   Y86.303    
   X366.772   
   Y90.743    
   X371.182   
   Y86.303    
   X375.592   
   Y90.743    
   X380.002   
   Y86.303    
G0   Z5.000     
   X391.802   
G1   Z-4.800     F500 
   Y235.701    F1200
   X396.212   
   Y86.303    
G0   Z5.000     
   X396.872      Y85.673    
G1   Z-4.800     F500 
   Y236.331    F1200
   X391.172   
   Y85.673    
   X396.872   
G0   Z5.000     
   X64.372       Y236.331   
G1   Z-4.800     F500 
   X58.672     F1200
   Y85.673    
   X64.372    
   Y236.331   
(Pass: 5)
G0   Z5.000     
   X59.302       Y86.303    
G1   Z-6.000     F500 
   Y235.701    F1200
   X63.712    
   Y86.303    
G0   Z5.000     
   X70.672       Y91.373    
G1   Z-6.000     F500 
   Y85.673     F1200
   X384.872   
   Y91.373    
   X70.672    
G0   Z5.000     
   X75.712       Y86.303    
G1   Z-6.000     F500 
   Y90.743     F1200
   X80.122    
   Y86.303    
   X84.532    
   Y90.743    
   X88.942    
   Y86.303    
   X93.352    
   Y90.743    
   X97.762    
   Y86.303    
   X102.172   
   Y90.743    
   X106.582   
   Y86.303    
   X110.992   
   Y90.743    
   X115.402   
   Y86.303    
   X119.812   
   Y90.743    
   X124.222   
   Y86.303    
   X128.632   
   Y90.743    
   X133.042   
   Y86.303    
   X137.452   
   Y90.743    
   X141.862   
   Y86.303    
   X146.272   
   Y90.743    
   X150.682   
   Y86.303    
   X155.092   
   Y90.743    
   X159.502   
   Y86.303    
   X163.912   
   Y90.743    
   X168.322   
   Y86.303    
   X172.732   
   Y90.743    
   X177.142   
   Y86.303    
   X181.552   
   Y90.743    
   X185.962   
   Y86.303    
   X190.372   
   Y90.743    
   X194.782   
   Y86.303    
   X199.192   
   Y90.743    
   X203.602   
   Y86.303    
   X208.012   
   Y90.743    
   X212.422   
   Y86.303    
   X216.832   
   Y90.743    
   X221.242   
   Y86.303    
   X225.652   
   Y90.743    
   X230.062   
   Y86.303    
   X234.472   
   Y90.743    
   X238.882   
   Y86.303    
   X243.292   
   Y90.743    
   X247.702   
   Y86.303    
   X252.112   
   Y90.743    
   X256.522   
   Y86.303    
   X260.932   
   Y90.743    
   X265.342   
   Y86.303    
   X269.752   
   Y90.743    
   X274.162   
   Y86.303    
   X278.572   
   Y90.743    
   X282.982   
   Y86.303    
   X287.392   
   Y90.743    
   X291.802   
   Y86.303    
   X296.212   
   Y90.743    
   X300.622   
   Y86.303    
   X305.032   
   Y90.743    
   X309.442   
   Y86.303    
   X313.852   
   Y90.743    
   X318.262   
   Y86.303    
   X322.672   
   Y90.743    
   X327.082   
   Y86.303    
   X331.492   
   Y90.743    
   X335.902   
   Y86.303    
   X340.312   
   Y90.743    
   X344.722   
   Y86.303    
   X349.132   
   Y90.743    
   X353.542   
   Y86.303    
   X357.952   
   Y90.743    
   X362.362   
   Y86.303    
   X366.772   
   Y90.743    
   X371.182   
   Y86.303    
   X375.592   
   Y90.743    
   X380.002   
   Y86.303    
G0   Z5.000     
   X391.802   
G1   Z-6.000     F500 
   Y235.701    F1200
   X396.212   
   Y86.303    
G0   Z5.000     
   X396.872      Y85.673    
G1   Z-6.000     F500 
   Y236.331    F1200
   X391.172   
   Y85.673    
   X396.872   
G0   Z5.000     
   X64.372       Y236.331   
G1   Z-6.000     F500 
   X58.672     F1200
   Y85.673    
   X64.372    
   Y236.331   
G0   Z5.000     
(Pass: 1)
   X3.604        Y252.516   
G1   Z-1.200     F500 
G17 G3   X0.6225       Y233.0957     R50.1500    F1200
   X2.7687       Y213.5649     R50.1500   
   X9.8966       Y195.2551     R50.1500   
   X21.5206      Y179.4141     R50.1500   
   X36.8485      Y167.1213     R50.1500   
   X40.7971      Y165.3856     R50.1500   
G1   Y156.560   
G17 G3   X36.1736      Y154.4688     R50.1500   
   X20.9759      Y142.0155     R50.1500   
   X9.5192       Y126.0530     R50.1500   
   X2.5842       Y107.6693     R50.1500   
   X0.6437       Y88.1170      R50.1500   
   X3.8297       Y68.7288      R50.1500   
   X11.9253      Y50.8257      R50.1500   
   X24.3786      Y35.6280      R50.1500   
   X40.3411      Y24.1713      R50.1500   
   X58.7248      Y17.2364      R50.1500   
   X78.2771      Y15.2958      R50.1500   
   X97.6654      Y18.4819      R50.1500   
   X115.5684     Y26.5774      R50.1500   
   X130.7661     Y39.0308      R50.1500   
   X142.2228     Y54.9932      R50.1500   
   X147.0532     Y67.7981      R50.1500   
G1   X308.880   
G17 G3   X311.3102     Y59.6902      R50.1500   
   X321.6299     Y42.9702      R50.1500   
   X335.9254     Y29.4908      R50.1500   
   X353.2226     Y20.1707      R50.1500   
   X372.3425     Y15.6449      R50.1500   
   X391.9824     Y16.2220      R50.1500   
   X410.8036     Y21.8626      R50.1500   
   X427.5237     Y32.1823      R50.1500   
   X441.0031     Y46.4778      R50.1500   
   X450.3232     Y63.7749      R50.1500   
   X454.8490     Y82.8949      R50.1500   
   X454.2719     Y102.5348     R50.1500   
   X448.6313     Y121.3560     R50.1500   
   X438.3116     Y138.0761     R50.1500   
   X424.0161     Y151.5555     R50.1500   
   X414.7471     Y156.5498     R50.1500   
G1   Y165.116   
G17 G3   X417.6036     Y166.2991     R50.1500   
   X433.1917     Y178.2602     R50.1500   
   X445.1528     Y193.8482     R50.1500   
   X452.6719     Y212.0009     R50.1500   
   X455.2365     Y231.4811     R50.1500   
   X452.6719     Y250.9613     R50.1500   
   X445.1528     Y269.1140     R50.1500   
   X433.1917     Y284.7021     R50.1500   
   X417.6036     Y296.6632     R50.1500   
   X399.4510     Y304.1823     R50.1500   
   X379.9708     Y306.7469     R50.1500   
   X360.4905     Y304.1823     R50.1500   
   X342.3379     Y296.6632     R50.1500   
   X326.7498     Y284.7021     R50.1500   
   X314.7887     Y269.1140     R50.1500   
   X308.6136     Y254.2061     R50.1500   
G1   X147.101   
G17 G3   X141.8453     Y267.7071     R50.1500   
   X130.2213     Y283.5482     R50.1500   
   X114.8934     Y295.8409     R50.1500   
   X96.9062      Y303.7477     R50.1500   
   X77.4855      Y306.7296     R50.1500   
   X57.9548      Y304.5834     R50.1500   
   X39.6450      Y297.4555     R50.1500   
   X23.8039      Y285.8315     R50.1500   
   X11.5112      Y270.5036     R50.1500   
   X3.6044       Y252.5164     R50.1500   
(Pass: 2)
G1   Z-2.400     F500 
G17 G3   X0.6225       Y233.0957     R50.1500    F1200
   X2.7687       Y213.5649     R50.1500   
   X9.8966       Y195.2551     R50.1500   
   X21.5206      Y179.4141     R50.1500   
   X36.8485      Y167.1213     R50.1500   
   X40.7971      Y165.3856     R50.1500   
G1   Y156.560   
G17 G3   X36.1736      Y154.4688     R50.1500   
   X20.9759      Y142.0155     R50.1500   
   X9.5192       Y126.0530     R50.1500   
   X2.5842       Y107.6693     R50.1500   
   X0.6437       Y88.1170      R50.1500   
   X3.8297       Y68.7288      R50.1500   
   X11.9253      Y50.8257      R50.1500   
   X24.3786      Y35.6280      R50.1500   
   X40.3411      Y24.1713      R50.1500   
   X58.7248      Y17.2364      R50.1500   
   X78.2771      Y15.2958      R50.1500   
   X97.6654      Y18.4819      R50.1500   
   X115.5684     Y26.5774      R50.1500   
   X130.7661     Y39.0308      R50.1500   
   X142.2228     Y54.9932      R50.1500   
   X147.0532     Y67.7981      R50.1500   
G1   X308.880   
G17 G3   X311.3102     Y59.6902      R50.1500   
   X321.6299     Y42.9702      R50.1500   
   X335.9254     Y29.4908      R50.1500   
   X353.2226     Y20.1707      R50.1500   
   X372.3425     Y15.6449      R50.1500   
   X391.9824     Y16.2220      R50.1500   
   X410.8036     Y21.8626      R50.1500   
   X427.5237     Y32.1823      R50.1500   
   X441.0031     Y46.4778      R50.1500   
   X450.3232     Y63.7749      R50.1500   
   X454.8490     Y82.8949      R50.1500   
   X454.2719     Y102.5348     R50.1500   
   X448.6313     Y121.3560     R50.1500   
   X438.3116     Y138.0761     R50.1500   
   X424.0161     Y151.5555     R50.1500   
   X414.7471     Y156.5498     R50.1500   
G1   Y165.116   
G17 G3   X417.6036     Y166.2991     R50.1500   
   X433.1917     Y178.2602     R50.1500   
   X445.1528     Y193.8482     R50.1500   
   X452.6719     Y212.0009     R50.1500   
   X455.2365     Y231.4811     R50.1500   
   X452.6719     Y250.9613     R50.1500   
   X445.1528     Y269.1140     R50.1500   
   X433.1917     Y284.7021     R50.1500   
   X417.6036     Y296.6632     R50.1500   
   X399.4510     Y304.1823     R50.1500   
   X379.9708     Y306.7469     R50.1500   
   X360.4905     Y304.1823     R50.1500   
   X342.3379     Y296.6632     R50.1500   
   X326.7498     Y284.7021     R50.1500   
   X314.7887     Y269.1140     R50.1500   
   X308.6136     Y254.2061     R50.1500   
G1   X147.101   
G17 G3   X141.8453     Y267.7071     R50.1500   
   X130.2213     Y283.5482     R50.1500   
   X114.8934     Y295.8409     R50.1500   
   X96.9062      Y303.7477     R50.1500   
   X77.4855      Y306.7296     R50.1500   
   X57.9548      Y304.5834     R50.1500   
   X39.6450      Y297.4555     R50.1500   
   X23.8039      Y285.8315     R50.1500   
   X11.5112      Y270.5036     R50.1500   
   X3.6044       Y252.5164     R50.1500   
(Pass: 3)
G1   Z-3.600     F500 
G17 G3   X0.6225       Y233.0957     R50.1500    F1200
   X2.7687       Y213.5649     R50.1500   
   X9.8966       Y195.2551     R50.1500   
   X21.5206      Y179.4141     R50.1500   
   X36.8485      Y167.1213     R50.1500   
   X40.7971      Y165.3856     R50.1500   
G1   Y156.560   
G17 G3   X36.1736      Y154.4688     R50.1500   
   X20.9759      Y142.0155     R50.1500   
   X9.5192       Y126.0530     R50.1500   
   X2.5842       Y107.6693     R50.1500   
   X0.6437       Y88.1170      R50.1500   
   X3.8297       Y68.7288      R50.1500   
   X11.9253      Y50.8257      R50.1500   
   X24.3786      Y35.6280      R50.1500   
   X40.3411      Y24.1713      R50.1500   
   X58.7248      Y17.2364      R50.1500   
   X78.2771      Y15.2958      R50.1500   
   X97.6654      Y18.4819      R50.1500   
   X115.5684     Y26.5774      R50.1500   
   X130.7661     Y39.0308      R50.1500   
   X142.2228     Y54.9932      R50.1500   
   X147.0532     Y67.7981      R50.1500   
G1   X308.880   
G17 G3   X311.3102     Y59.6902      R50.1500   
   X321.6299     Y42.9702      R50.1500   
   X335.9254     Y29.4908      R50.1500   
   X353.2226     Y20.1707      R50.1500   
   X372.3425     Y15.6449      R50.1500   
   X391.9824     Y16.2220      R50.1500   
   X410.8036     Y21.8626      R50.1500   
   X427.5237     Y32.1823      R50.1500   
   X441.0031     Y46.4778      R50.1500   
   X450.3232     Y63.7749      R50.1500   
   X454.8490     Y82.8949      R50.1500   
   X454.2719     Y102.5348     R50.1500   
   X448.6313     Y121.3560     R50.1500   
   X438.3116     Y138.0761     R50.1500   
   X424.0161     Y151.5555     R50.1500   
   X414.7471     Y156.5498     R50.1500   
G1   Y165.116   
G17 G3   X417.6036     Y166.2991     R50.1500   
   X433.1917     Y178.2602     R50.1500   
   X445.1528     Y193.8482     R50.1500   
   X452.6719     Y212.0009     R50.1500   
   X455.2365     Y231.4811     R50.1500   
   X452.6719     Y250.9613     R50.1500   
   X445.1528     Y269.1140     R50.1500   
   X433.1917     Y284.7021     R50.1500   
   X417.6036     Y296.6632     R50.1500   
   X399.4510     Y304.1823     R50.1500   
   X379.9708     Y306.7469     R50.1500   
   X360.4905     Y304.1823     R50.1500   
   X342.3379     Y296.6632     R50.1500   
   X326.7498     Y284.7021     R50.1500   
   X314.7887     Y269.1140     R50.1500   
   X308.6136     Y254.2061     R50.1500   
G1   X147.101   
G17 G3   X141.8453     Y267.7071     R50.1500   
   X130.2213     Y283.5482     R50.1500   
   X114.8934     Y295.8409     R50.1500   
   X96.9062      Y303.7477     R50.1500   
   X77.4855      Y306.7296     R50.1500   
   X57.9548      Y304.5834     R50.1500   
   X39.6450      Y297.4555     R50.1500   
   X23.8039      Y285.8315     R50.1500   
   X11.5112      Y270.5036     R50.1500   
   X3.6044       Y252.5164     R50.1500   
(Pass: 4)
G1   Z-4.800     F500 
G17 G3   X0.6225       Y233.0957     R50.1500    F1200
   X2.7687       Y213.5649     R50.1500   
   X9.8966       Y195.2551     R50.1500   
   X21.5206      Y179.4141     R50.1500   
   X36.8485      Y167.1213     R50.1500   
   X40.7971      Y165.3856     R50.1500   
G1   Y156.560   
G17 G3   X36.1736      Y154.4688     R50.1500   
   X20.9759      Y142.0155     R50.1500   
   X9.5192       Y126.0530     R50.1500   
   X2.5842       Y107.6693     R50.1500   
   X0.6437       Y88.1170      R50.1500   
   X3.8297       Y68.7288      R50.1500   
   X11.9253      Y50.8257      R50.1500   
   X24.3786      Y35.6280      R50.1500   
   X40.3411      Y24.1713      R50.1500   
   X58.7248      Y17.2364      R50.1500   
   X78.2771      Y15.2958      R50.1500   
   X97.6654      Y18.4819      R50.1500   
   X115.5684     Y26.5774      R50.1500   
   X130.7661     Y39.0308      R50.1500   
   X142.2228     Y54.9932      R50.1500   
   X147.0532     Y67.7981      R50.1500   
G1   X308.880   
G17 G3   X311.3102     Y59.6902      R50.1500   
   X321.6299     Y42.9702      R50.1500   
   X335.9254     Y29.4908      R50.1500   
   X353.2226     Y20.1707      R50.1500   
   X372.3425     Y15.6449      R50.1500   
   X391.9824     Y16.2220      R50.1500   
   X410.8036     Y21.8626      R50.1500   
   X427.5237     Y32.1823      R50.1500   
   X441.0031     Y46.4778      R50.1500   
   X450.3232     Y63.7749      R50.1500   
   X454.8490     Y82.8949      R50.1500   
   X454.2719     Y102.5348     R50.1500   
   X448.6313     Y121.3560     R50.1500   
   X438.3116     Y138.0761     R50.1500   
   X424.0161     Y151.5555     R50.1500   
   X414.7471     Y156.5498     R50.1500   
G1   Y165.116   
G17 G3   X417.6036     Y166.2991     R50.1500   
   X433.1917     Y178.2602     R50.1500   
   X445.1528     Y193.8482     R50.1500   
   X452.6719     Y212.0009     R50.1500   
   X455.2365     Y231.4811     R50.1500   
   X452.6719     Y250.9613     R50.1500   
   X445.1528     Y269.1140     R50.1500   
   X433.1917     Y284.7021     R50.1500   
   X417.6036     Y296.6632     R50.1500   
   X399.4510     Y304.1823     R50.1500   
   X379.9708     Y306.7469     R50.1500   
   X360.4905     Y304.1823     R50.1500   
   X342.3379     Y296.6632     R50.1500   
   X326.7498     Y284.7021     R50.1500   
   X314.7887     Y269.1140     R50.1500   
   X308.6136     Y254.2061     R50.1500   
G1   X147.101   
G17 G3   X141.8453     Y267.7071     R50.1500   
   X130.2213     Y283.5482     R50.1500   
   X114.8934     Y295.8409     R50.1500   
   X96.9062      Y303.7477     R50.1500   
   X77.4855      Y306.7296     R50.1500   
   X57.9548      Y304.5834     R50.1500   
   X39.6450      Y297.4555     R50.1500   
   X23.8039      Y285.8315     R50.1500   
   X11.5112      Y270.5036     R50.1500   
   X3.6044       Y252.5164     R50.1500   
(Pass: 5)
G1   Z-6.000     F500 
G17 G3   X0.6225       Y233.0957     R50.1500    F1200
   X2.7687       Y213.5649     R50.1500   
   X9.8966       Y195.2551     R50.1500   
   X21.5206      Y179.4141     R50.1500   
   X36.8485      Y167.1213     R50.1500   
   X40.7971      Y165.3856     R50.1500   
G1   Y156.560   
G17 G3   X36.1736      Y154.4688     R50.1500   
   X20.9759      Y142.0155     R50.1500   
   X9.5192       Y126.0530     R50.1500   
   X2.5842       Y107.6693     R50.1500   
   X0.6437       Y88.1170      R50.1500   
   X3.8297       Y68.7288      R50.1500   
   X11.9253      Y50.8257      R50.1500   
   X24.3786      Y35.6280      R50.1500   
   X40.3411      Y24.1713      R50.1500   
   X58.7248      Y17.2364      R50.1500   
   X78.2771      Y15.2958      R50.1500   
   X97.6654      Y18.4819      R50.1500   
   X115.5684     Y26.5774      R50.1500   
   X130.7661     Y39.0308      R50.1500   
   X142.2228     Y54.9932      R50.1500   
   X147.0532     Y67.7981      R50.1500   
G1   X308.880   
G17 G3   X311.3102     Y59.6902      R50.1500   
   X321.6299     Y42.9702      R50.1500   
   X335.9254     Y29.4908      R50.1500   
   X353.2226     Y20.1707      R50.1500   
   X372.3425     Y15.6449      R50.1500   
   X391.9824     Y16.2220      R50.1500   
   X410.8036     Y21.8626      R50.1500   
   X427.5237     Y32.1823      R50.1500   
   X441.0031     Y46.4778      R50.1500   
   X450.3232     Y63.7749      R50.1500   
   X454.8490     Y82.8949      R50.1500   
   X454.2719     Y102.5348     R50.1500   
   X448.6313     Y121.3560     R50.1500   
   X438.3116     Y138.0761     R50.1500   
   X424.0161     Y151.5555     R50.1500   
   X414.7471     Y156.5498     R50.1500   
G1   Y165.116   
G17 G3   X417.6036     Y166.2991     R50.1500   
   X433.1917     Y178.2602     R50.1500   
   X445.1528     Y193.8482     R50.1500   
   X452.6719     Y212.0009     R50.1500   
   X455.2365     Y231.4811     R50.1500   
   X452.6719     Y250.9613     R50.1500   
   X445.1528     Y269.1140     R50.1500   
   X433.1917     Y284.7021     R50.1500   
   X417.6036     Y296.6632     R50.1500   
   X399.4510     Y304.1823     R50.1500   
   X379.9708     Y306.7469     R50.1500   
   X360.4905     Y304.1823     R50.1500   
   X342.3379     Y296.6632     R50.1500   
   X326.7498     Y284.7021     R50.1500   
   X314.7887     Y269.1140     R50.1500   
   X308.6136     Y254.2061     R50.1500   
G1   X147.101   
G17 G3   X141.8453     Y267.7071     R50.1500   
   X130.2213     Y283.5482     R50.1500   
   X114.8934     Y295.8409     R50.1500   
   X96.9062      Y303.7477     R50.1500   
   X77.4855      Y306.7296     R50.1500   
   X57.9548      Y304.5834     R50.1500   
   X39.6450      Y297.4555     R50.1500   
   X23.8039      Y285.8315     R50.1500   
   X11.5112      Y270.5036     R50.1500   
   X3.6044       Y252.5164     R50.1500   
(Pass: 6)
G1   Z-7.200     F500 
G17 G3   X0.6225       Y233.0957     R50.1500    F1200
   X2.7687       Y213.5649     R50.1500   
   X9.8966       Y195.2551     R50.1500   
   X21.5206      Y179.4141     R50.1500   
   X36.8485      Y167.1213     R50.1500   
   X40.7971      Y165.3856     R50.1500   
G1   Y156.560   
G17 G3   X36.1736      Y154.4688     R50.1500   
   X20.9759      Y142.0155     R50.1500   
   X9.5192       Y126.0530     R50.1500   
   X2.5842       Y107.6693     R50.1500   
   X0.6437       Y88.1170      R50.1500   
   X3.8297       Y68.7288      R50.1500   
   X11.9253      Y50.8257      R50.1500   
   X24.3786      Y35.6280      R50.1500   
   X40.3411      Y24.1713      R50.1500   
   X58.7248      Y17.2364      R50.1500   
   X78.2771      Y15.2958      R50.1500   
   X97.6654      Y18.4819      R50.1500   
   X115.5684     Y26.5774      R50.1500   
   X130.7661     Y39.0308      R50.1500   
   X142.2228     Y54.9932      R50.1500   
   X147.0532     Y67.7981      R50.1500   
G1   X308.880   
G17 G3   X311.3102     Y59.6902      R50.1500   
   X321.6299     Y42.9702      R50.1500   
   X335.9254     Y29.4908      R50.1500   
   X353.2226     Y20.1707      R50.1500   
   X372.3425     Y15.6449      R50.1500   
   X391.9824     Y16.2220      R50.1500   
   X410.8036     Y21.8626      R50.1500   
   X427.5237     Y32.1823      R50.1500   
   X441.0031     Y46.4778      R50.1500   
   X450.3232     Y63.7749      R50.1500   
   X454.8490     Y82.8949      R50.1500   
   X454.2719     Y102.5348     R50.1500   
   X448.6313     Y121.3560     R50.1500   
   X438.3116     Y138.0761     R50.1500   
   X424.0161     Y151.5555     R50.1500   
   X414.7471     Y156.5498     R50.1500   
G1   Y165.116   
G17 G3   X417.6036     Y166.2991     R50.1500   
   X433.1917     Y178.2602     R50.1500   
   X445.1528     Y193.8482     R50.1500   
   X452.6719     Y212.0009     R50.1500   
   X455.2365     Y231.4811     R50.1500   
   X452.6719     Y250.9613     R50.1500   
   X445.1528     Y269.1140     R50.1500   
   X433.1917     Y284.7021     R50.1500   
   X417.6036     Y296.6632     R50.1500   
   X399.4510     Y304.1823     R50.1500   
   X379.9708     Y306.7469     R50.1500   
   X360.4905     Y304.1823     R50.1500   
   X342.3379     Y296.6632     R50.1500   
   X326.7498     Y284.7021     R50.1500   
   X314.7887     Y269.1140     R50.1500   
   X308.6136     Y254.2061     R50.1500   
G1   X147.101   
G17 G3   X141.8453     Y267.7071     R50.1500   
   X130.2213     Y283.5482     R50.1500   
   X114.8934     Y295.8409     R50.1500   
   X96.9062      Y303.7477     R50.1500   
   X77.4855      Y306.7296     R50.1500   
   X57.9548      Y304.5834     R50.1500   
   X39.6450      Y297.4555     R50.1500   
   X23.8039      Y285.8315     R50.1500   
   X11.5112      Y270.5036     R50.1500   
   X3.6044       Y252.5164     R50.1500   
(Pass: 7)
G1   Z-8.400     F500 
G17 G3   X0.6225       Y233.0957     R50.1500    F1200
   X2.7687       Y213.5649     R50.1500   
   X9.8966       Y195.2551     R50.1500   
   X21.5206      Y179.4141     R50.1500   
   X36.8485      Y167.1213     R50.1500   
   X40.7971      Y165.3856     R50.1500   
G1   Y156.560   
G17 G3   X36.1736      Y154.4688     R50.1500   
   X20.9759      Y142.0155     R50.1500   
   X9.5192       Y126.0530     R50.1500   
   X2.5842       Y107.6693     R50.1500   
   X0.6437       Y88.1170      R50.1500   
   X3.8297       Y68.7288      R50.1500   
   X11.9253      Y50.8257      R50.1500   
   X24.3786      Y35.6280      R50.1500   
   X40.3411      Y24.1713      R50.1500   
   X58.7248      Y17.2364      R50.1500   
   X78.2771      Y15.2958      R50.1500   
   X97.6654      Y18.4819      R50.1500   
   X115.5684     Y26.5774      R50.1500   
   X130.7661     Y39.0308      R50.1500   
   X142.2228     Y54.9932      R50.1500   
   X147.0532     Y67.7981      R50.1500   
G1   X308.880   
G17 G3   X311.3102     Y59.6902      R50.1500   
   X321.6299     Y42.9702      R50.1500   
   X335.9254     Y29.4908      R50.1500   
   X353.2226     Y20.1707      R50.1500   
   X372.3425     Y15.6449      R50.1500   
   X391.9824     Y16.2220      R50.1500   
   X410.8036     Y21.8626      R50.1500   
   X427.5237     Y32.1823      R50.1500   
   X441.0031     Y46.4778      R50.1500   
   X450.3232     Y63.7749      R50.1500   
   X454.8490     Y82.8949      R50.1500   
   X454.2719     Y102.5348     R50.1500   
   X448.6313     Y121.3560     R50.1500   
   X438.3116     Y138.0761     R50.1500   
   X424.0161     Y151.5555     R50.1500   
   X414.7471     Y156.5498     R50.1500   
G1   Y165.116   
G17 G3   X417.6036     Y166.2991     R50.1500   
   X433.1917     Y178.2602     R50.1500   
   X445.1528     Y193.8482     R50.1500   
   X452.6719     Y212.0009     R50.1500   
   X455.2365     Y231.4811     R50.1500   
   X452.6719     Y250.9613     R50.1500   
   X445.1528     Y269.1140     R50.1500   
   X433.1917     Y284.7021     R50.1500   
   X417.6036     Y296.6632     R50.1500   
   X399.4510     Y304.1823     R50.1500   
   X379.9708     Y306.7469     R50.1500   
   X360.4905     Y304.1823     R50.1500   
   X342.3379     Y296.6632     R50.1500   
   X326.7498     Y284.7021     R50.1500   
   X314.7887     Y269.1140     R50.1500   
   X308.6136     Y254.2061     R50.1500   
G1   X147.101   
G17 G3   X141.8453     Y267.7071     R50.1500   
   X130.2213     Y283.5482     R50.1500   
   X114.8934     Y295.8409     R50.1500   
   X96.9062      Y303.7477     R50.1500   
   X77.4855      Y306.7296     R50.1500   
   X57.9548      Y304.5834     R50.1500   
   X39.6450      Y297.4555     R50.1500   
   X23.8039      Y285.8315     R50.1500   
   X11.5112      Y270.5036     R50.1500   
   X3.6044       Y252.5164     R50.1500   
(Pass: 8)
G1   Z-9.600     F500 
G17 G3   X0.6225       Y233.0957     R50.1500    F1200
   X2.7687       Y213.5649     R50.1500   
   X9.8966       Y195.2551     R50.1500   
   X21.5206      Y179.4141     R50.1500   
   X36.8485      Y167.1213     R50.1500   
   X40.7971      Y165.3856     R50.1500   
G1   Y156.560   
G17 G3   X36.1736      Y154.4688     R50.1500   
   X20.9759      Y142.0155     R50.1500   
   X9.5192       Y126.0530     R50.1500   
   X2.5842       Y107.6693     R50.1500   
   X0.6437       Y88.1170      R50.1500   
   X3.8297       Y68.7288      R50.1500   
   X11.9253      Y50.8257      R50.1500   
   X24.3786      Y35.6280      R50.1500   
   X40.3411      Y24.1713      R50.1500   
   X58.7248      Y17.2364      R50.1500   
   X78.2771      Y15.2958      R50.1500   
   X97.6654      Y18.4819      R50.1500   
   X115.5684     Y26.5774      R50.1500   
   X130.7661     Y39.0308      R50.1500   
   X142.2228     Y54.9932      R50.1500   
   X147.0532     Y67.7981      R50.1500   
G1   X308.880   
G17 G3   X311.3102     Y59.6902      R50.1500   
   X321.6299     Y42.9702      R50.1500   
   X335.9254     Y29.4908      R50.1500   
   X353.2226     Y20.1707      R50.1500   
   X372.3425     Y15.6449      R50.1500   
   X391.9824     Y16.2220      R50.1500   
   X410.8036     Y21.8626      R50.1500   
   X427.5237     Y32.1823      R50.1500   
   X441.0031     Y46.4778      R50.1500   
   X450.3232     Y63.7749      R50.1500   
   X454.8490     Y82.8949      R50.1500   
   X454.2719     Y102.5348     R50.1500   
   X448.6313     Y121.3560     R50.1500   
   X438.3116     Y138.0761     R50.1500   
   X424.0161     Y151.5555     R50.1500   
   X414.7471     Y156.5498     R50.1500   
G1   Y165.116   
G17 G3   X417.6036     Y166.2991     R50.1500   
   X433.1917     Y178.2602     R50.1500   
   X445.1528     Y193.8482     R50.1500   
   X452.6719     Y212.0009     R50.1500   
   X455.2365     Y231.4811     R50.1500   
   X452.6719     Y250.9613     R50.1500   
   X445.1528     Y269.1140     R50.1500   
   X433.1917     Y284.7021     R50.1500   
   X417.6036     Y296.6632     R50.1500   
   X399.4510     Y304.1823     R50.1500   
   X379.9708     Y306.7469     R50.1500   
   X360.4905     Y304.1823     R50.1500   
   X342.3379     Y296.6632     R50.1500   
   X326.7498     Y284.7021     R50.1500   
   X314.7887     Y269.1140     R50.1500   
   X308.6136     Y254.2061     R50.1500   
G1   X147.101   
G17 G3   X141.8453     Y267.7071     R50.1500   
   X130.2213     Y283.5482     R50.1500   
   X114.8934     Y295.8409     R50.1500   
   X96.9062      Y303.7477     R50.1500   
   X77.4855      Y306.7296     R50.1500   
   X57.9548      Y304.5834     R50.1500   
   X39.6450      Y297.4555     R50.1500   
   X23.8039      Y285.8315     R50.1500   
   X11.5112      Y270.5036     R50.1500   
   X3.6044       Y252.5164     R50.1500   
(Pass: 9)
G1   Z-10.800    F500 
G17 G3   X0.6225       Y233.0957     R50.1500    F1200
   X2.7687       Y213.5649     R50.1500   
   X9.8966       Y195.2551     R50.1500   
   X21.5206      Y179.4141     R50.1500   
   X36.8485      Y167.1213     R50.1500   
   X40.7971      Y165.3856     R50.1500   
G1   Y156.560   
G17 G3   X36.1736      Y154.4688     R50.1500   
   X20.9759      Y142.0155     R50.1500   
   X9.5192       Y126.0530     R50.1500   
   X2.5842       Y107.6693     R50.1500   
   X0.6437       Y88.1170      R50.1500   
   X3.8297       Y68.7288      R50.1500   
   X11.9253      Y50.8257      R50.1500   
   X24.3786      Y35.6280      R50.1500   
   X40.3411      Y24.1713      R50.1500   
   X58.7248      Y17.2364      R50.1500   
   X78.2771      Y15.2958      R50.1500   
   X97.6654      Y18.4819      R50.1500   
   X115.5684     Y26.5774      R50.1500   
   X130.7661     Y39.0308      R50.1500   
   X142.2228     Y54.9932      R50.1500   
   X147.0532     Y67.7981      R50.1500   
G1   X308.880   
G17 G3   X311.3102     Y59.6902      R50.1500   
   X321.6299     Y42.9702      R50.1500   
   X335.9254     Y29.4908      R50.1500   
   X353.2226     Y20.1707      R50.1500   
   X372.3425     Y15.6449      R50.1500   
   X391.9824     Y16.2220      R50.1500   
   X410.8036     Y21.8626      R50.1500   
   X427.5237     Y32.1823      R50.1500   
   X441.0031     Y46.4778      R50.1500   
   X450.3232     Y63.7749      R50.1500   
   X454.8490     Y82.8949      R50.1500   
   X454.2719     Y102.5348     R50.1500   
   X448.6313     Y121.3560     R50.1500   
   X438.3116     Y138.0761     R50.1500   
   X424.0161     Y151.5555     R50.1500   
   X414.7471     Y156.5498     R50.1500   
G1   Y165.116   
G17 G3   X417.6036     Y166.2991     R50.1500   
   X433.1917     Y178.2602     R50.1500   
   X445.1528     Y193.8482     R50.1500   
   X452.6719     Y212.0009     R50.1500   
   X455.2365     Y231.4811     R50.1500   
   X452.6719     Y250.9613     R50.1500   
   X445.1528     Y269.1140     R50.1500   
   X433.1917     Y284.7021     R50.1500   
   X417.6036     Y296.6632     R50.1500   
   X399.4510     Y304.1823     R50.1500   
   X379.9708     Y306.7469     R50.1500   
   X360.4905     Y304.1823     R50.1500   
   X342.3379     Y296.6632     R50.1500   
   X326.7498     Y284.7021     R50.1500   
   X314.7887     Y269.1140     R50.1500   
   X308.6136     Y254.2061     R50.1500   
G1   X147.101   
G17 G3   X141.8453     Y267.7071     R50.1500   
   X130.2213     Y283.5482     R50.1500   
   X114.8934     Y295.8409     R50.1500   
   X96.9062      Y303.7477     R50.1500   
   X77.4855      Y306.7296     R50.1500   
   X57.9548      Y304.5834     R50.1500   
   X39.6450      Y297.4555     R50.1500   
   X23.8039      Y285.8315     R50.1500   
   X11.5112      Y270.5036     R50.1500   
   X3.6044       Y252.5164     R50.1500   
(Pass: 10)
G1   Z-12.000    F500 
G17 G3   X0.6225       Y233.0957     R50.1500    F1200
   X2.7687       Y213.5649     R50.1500   
   X9.8966       Y195.2551     R50.1500   
   X21.5206      Y179.4141     R50.1500   
   X36.8485      Y167.1213     R50.1500   
   X40.7971      Y165.3856     R50.1500   
G1   Y156.560   
G17 G3   X36.1736      Y154.4688     R50.1500   
   X20.9759      Y142.0155     R50.1500   
   X9.5192       Y126.0530     R50.1500   
   X2.5842       Y107.6693     R50.1500   
   X0.6437       Y88.1170      R50.1500   
   X3.8297       Y68.7288      R50.1500   
   X11.9253      Y50.8257      R50.1500   
   X24.3786      Y35.6280      R50.1500   
   X40.3411      Y24.1713      R50.1500   
   X58.7248      Y17.2364      R50.1500   
   X78.2771      Y15.2958      R50.1500   
   X97.6654      Y18.4819      R50.1500   
   X115.5684     Y26.5774      R50.1500   
   X130.7661     Y39.0308      R50.1500   
   X142.2228     Y54.9932      R50.1500   
   X147.0532     Y67.7981      R50.1500   
G1   X308.880   
G17 G3   X311.3102     Y59.6902      R50.1500   
   X321.6299     Y42.9702      R50.1500   
   X335.9254     Y29.4908      R50.1500   
   X353.2226     Y20.1707      R50.1500   
   X372.3425     Y15.6449      R50.1500   
   X391.9824     Y16.2220      R50.1500   
   X410.8036     Y21.8626      R50.1500   
   X427.5237     Y32.1823      R50.1500   
   X441.0031     Y46.4778      R50.1500   
   X450.3232     Y63.7749      R50.1500   
   X454.8490     Y82.8949      R50.1500   
   X454.2719     Y102.5348     R50.1500   
   X448.6313     Y121.3560     R50.1500   
   X438.3116     Y138.0761     R50.1500   
   X424.0161     Y151.5555     R50.1500   
   X414.7471     Y156.5498     R50.1500   
G1   Y165.116   
G17 G3   X417.6036     Y166.2991     R50.1500   
   X433.1917     Y178.2602     R50.1500   
   X445.1528     Y193.8482     R50.1500   
   X452.6719     Y212.0009     R50.1500   
   X455.2365     Y231.4811     R50.1500   
   X452.6719     Y250.9613     R50.1500   
   X445.1528     Y269.1140     R50.1500   
   X433.1917     Y284.7021     R50.1500   
   X417.6036     Y296.6632     R50.1500   
   X399.4510     Y304.1823     R50.1500   
   X379.9708     Y306.7469     R50.1500   
   X360.4905     Y304.1823     R50.1500   
   X342.3379     Y296.6632     R50.1500   
   X326.7498     Y284.7021     R50.1500   
   X314.7887     Y269.1140     R50.1500   
   X308.6136     Y254.2061     R50.1500   
G1   X147.101   
G17 G3   X141.8453     Y267.7071     R50.1500   
   X130.2213     Y283.5482     R50.1500   
   X114.8934     Y295.8409     R50.1500   
   X96.9062      Y303.7477     R50.1500   
   X77.4855      Y306.7296     R50.1500   
   X57.9548      Y304.5834     R50.1500   
   X39.6450      Y297.4555     R50.1500   
   X23.8039      Y285.8315     R50.1500   
   X11.5112      Y270.5036     R50.1500   
   X3.6044       Y252.5164     R50.1500   
(Pass: 11)
G1   Z-13.200    F500 
G17 G3   X0.6225       Y233.0957     R50.1500    F1200
   X2.7687       Y213.5649     R50.1500   
   X9.8966       Y195.2551     R50.1500   
   X21.5206      Y179.4141     R50.1500   
   X36.8485      Y167.1213     R50.1500   
   X40.7971      Y165.3856     R50.1500   
G1   Y156.560   
G17 G3   X36.1736      Y154.4688     R50.1500   
   X20.9759      Y142.0155     R50.1500   
   X9.5192       Y126.0530     R50.1500   
   X2.5842       Y107.6693     R50.1500   
   X0.6437       Y88.1170      R50.1500   
   X3.8297       Y68.7288      R50.1500   
   X11.9253      Y50.8257      R50.1500   
   X24.3786      Y35.6280      R50.1500   
   X40.3411      Y24.1713      R50.1500   
   X58.7248      Y17.2364      R50.1500   
   X78.2771      Y15.2958      R50.1500   
   X97.6654      Y18.4819      R50.1500   
   X115.5684     Y26.5774      R50.1500   
   X130.7661     Y39.0308      R50.1500   
   X142.2228     Y54.9932      R50.1500   
   X147.0532     Y67.7981      R50.1500   
G1   X308.880   
G17 G3   X311.3102     Y59.6902      R50.1500   
   X321.6299     Y42.9702      R50.1500   
   X335.9254     Y29.4908      R50.1500   
   X353.2226     Y20.1707      R50.1500   
   X372.3425     Y15.6449      R50.1500   
   X391.9824     Y16.2220      R50.1500   
   X410.8036     Y21.8626      R50.1500   
   X427.5237     Y32.1823      R50.1500   
   X441.0031     Y46.4778      R50.1500   
   X450.3232     Y63.7749      R50.1500   
   X454.8490     Y82.8949      R50.1500   
   X454.2719     Y102.5348     R50.1500   
   X448.6313     Y121.3560     R50.1500   
   X438.3116     Y138.0761     R50.1500   
   X424.0161     Y151.5555     R50.1500   
   X414.7471     Y156.5498     R50.1500   
G1   Y165.116   
G17 G3   X417.6036     Y166.2991     R50.1500   
   X433.1917     Y178.2602     R50.1500   
   X445.1528     Y193.8482     R50.1500   
   X452.6719     Y212.0009     R50.1500   
   X455.2365     Y231.4811     R50.1500   
   X452.6719     Y250.9613     R50.1500   
   X445.1528     Y269.1140     R50.1500   
   X433.1917     Y284.7021     R50.1500   
   X417.6036     Y296.6632     R50.1500   
   X399.4510     Y304.1823     R50.1500   
   X379.9708     Y306.7469     R50.1500   
   X360.4905     Y304.1823     R50.1500   
   X342.3379     Y296.6632     R50.1500   
   X326.7498     Y284.7021     R50.1500   
   X314.7887     Y269.1140     R50.1500   
   X308.6136     Y254.2061     R50.1500   
G1   X147.101   
G17 G3   X141.8453     Y267.7071     R50.1500   
   X130.2213     Y283.5482     R50.1500   
   X114.8934     Y295.8409     R50.1500   
   X96.9062      Y303.7477     R50.1500   
   X77.4855      Y306.7296     R50.1500   
   X57.9548      Y304.5834     R50.1500   
   X39.6450      Y297.4555     R50.1500   
   X23.8039      Y285.8315     R50.1500   
   X11.5112      Y270.5036     R50.1500   
   X3.6044       Y252.5164     R50.1500   
G0   Z5.000     
(Pass: 1)
   X59.773       Y379.193   
G1   Z-1.200     F500 
   Y528.591    F1200
   X64.183    
   Y379.193   
G0   Z5.000     
   X71.143       Y384.263   
G1   Z-1.200     F500 
   Y378.563    F1200
   X385.343   
   Y384.263   
   X71.143    
G0   Z5.000     
   X76.183       Y379.193   
G1   Z-1.200     F500 
   Y383.633    F1200
   X80.593    
   Y379.193   
   X85.003    
   Y383.633   
   X89.413    
   Y379.193   
   X93.823    
   Y383.633   
   X98.233    
   Y379.193   
   X102.643   
   Y383.633   
   X107.053   
   Y379.193   
   X111.463   
   Y383.633   
   X115.873   
   Y379.193   
   X120.283   
   Y383.633   
   X124.693   
   Y379.193   
   X129.103   
   Y383.633   
   X133.513   
   Y379.193   
   X137.923   
   Y383.633   
   X142.333   
   Y379.193   
   X146.743   
   Y383.633   
   X151.153   
   Y379.193   
   X155.563   
   Y383.633   
   X159.973   
   Y379.193   
   X164.383   
   Y383.633   
   X168.793   
   Y379.193   
   X173.203   
   Y383.633   
   X177.613   
   Y379.193   
   X182.023   
   Y383.633   
   X186.433   
   Y379.193   
   X190.843   
   Y383.633   
   X195.253   
   Y379.193   
   X199.663   
   Y383.633   
   X204.073   
   Y379.193   
   X208.483   
   Y383.633   
   X212.893   
   Y379.193   
   X217.303   
   Y383.633   
   X221.713   
   Y379.193   
   X226.123   
   Y383.633   
   X230.533   
   Y379.193   
   X234.943   
   Y383.633   
   X239.353   
   Y379.193   
   X243.763   
   Y383.633   
   X248.173   
   Y379.193   
   X252.583   
   Y383.633   
   X256.993   
   Y379.193   
   X261.403   
   Y383.633   
   X265.813   
   Y379.193   
   X270.223   
   Y383.633   
   X274.633   
   Y379.193   
   X279.043   
   Y383.633   
   X283.453   
   Y379.193   
   X287.863   
   Y383.633   
   X292.273   
   Y379.193   
   X296.683   
   Y383.633   
   X301.093   
   Y379.193   
   X305.503   
   Y383.633   
   X309.913   
   Y379.193   
   X314.323   
   Y383.633   
   X318.733   
   Y379.193   
   X323.143   
   Y383.633   
   X327.553   
   Y379.193   
   X331.963   
   Y383.633   
   X336.373   
   Y379.193   
   X340.783   
   Y383.633   
   X345.193   
   Y379.193   
   X349.603   
   Y383.633   
   X354.013   
   Y379.193   
   X358.423   
   Y383.633   
   X362.833   
   Y379.193   
   X367.243   
   Y383.633   
   X371.653   
   Y379.193   
   X376.063   
   Y383.633   
   X380.473   
   Y379.193   
G0   Z5.000     
   X392.273   
G1   Z-1.200     F500 
   Y528.591    F1200
   X396.683   
   Y379.193   
G0   Z5.000     
   X397.343      Y378.563   
G1   Z-1.200     F500 
   Y529.221    F1200
   X391.643   
   Y378.563   
   X397.343   
G0   Z5.000     
   X64.843       Y529.221   
G1   Z-1.200     F500 
   X59.143     F1200
   Y378.563   
   X64.843    
   Y529.221   
(Pass: 2)
G0   Z5.000     
   X59.773       Y379.193   
G1   Z-2.400     F500 
   Y528.591    F1200
   X64.183    
   Y379.193   
G0   Z5.000     
   X71.143       Y384.263   
G1   Z-2.400     F500 
   Y378.563    F1200
   X385.343   
   Y384.263   
   X71.143    
G0   Z5.000     
   X76.183       Y379.193   
G1   Z-2.400     F500 
   Y383.633    F1200
   X80.593    
   Y379.193   
   X85.003    
   Y383.633   
   X89.413    
   Y379.193   
   X93.823    
   Y383.633   
   X98.233    
   Y379.193   
   X102.643   
   Y383.633   
   X107.053   
   Y379.193   
   X111.463   
   Y383.633   
   X115.873   
   Y379.193   
   X120.283   
   Y383.633   
   X124.693   
   Y379.193   
   X129.103   
   Y383.633   
   X133.513   
   Y379.193   
   X137.923   
   Y383.633   
   X142.333   
   Y379.193   
   X146.743   
   Y383.633   
   X151.153   
   Y379.193   
   X155.563   
   Y383.633   
   X159.973   
   Y379.193   
   X164.383   
   Y383.633   
   X168.793   
   Y379.193   
   X173.203   
   Y383.633   
   X177.613   
   Y379.193   
   X182.023   
   Y383.633   
   X186.433   
   Y379.193   
   X190.843   
   Y383.633   
   X195.253   
   Y379.193   
   X199.663   
   Y383.633   
   X204.073   
   Y379.193   
   X208.483   
   Y383.633   
   X212.893   
   Y379.193   
   X217.303   
   Y383.633   
   X221.713   
   Y379.193   
   X226.123   
   Y383.633   
   X230.533   
   Y379.193   
   X234.943   
   Y383.633   
   X239.353   
   Y379.193   
   X243.763   
   Y383.633   
   X248.173   
   Y379.193   
   X252.583   
   Y383.633   
   X256.993   
   Y379.193   
   X261.403   
   Y383.633   
   X265.813   
   Y379.193   
   X270.223   
   Y383.633   
   X274.633   
   Y379.193   
   X279.043   
   Y383.633   
   X283.453   
   Y379.193   
   X287.863   
   Y383.633   
   X292.273   
   Y379.193   
   X296.683   
   Y383.633   
   X301.093   
   Y379.193   
   X305.503   
   Y383.633   
   X309.913   
   Y379.193   
   X314.323   
   Y383.633   
   X318.733   
   Y379.193   
   X323.143   
   Y383.633   
   X327.553   
   Y379.193   
   X331.963   
   Y383.633   
   X336.373   
   Y379.193   
   X340.783   
   Y383.633   
   X345.193   
   Y379.193   
   X349.603   
   Y383.633   
   X354.013   
   Y379.193   
   X358.423   
   Y383.633   
   X362.833   
   Y379.193   
   X367.243   
   Y383.633   
   X371.653   
   Y379.193   
   X376.063   
   Y383.633   
   X380.473   
   Y379.193   
G0   Z5.000     
   X392.273   
G1   Z-2.400     F500 
   Y528.591    F1200
   X396.683   
   Y379.193   
G0   Z5.000     
   X397.343      Y378.563   
G1   Z-2.400     F500 
   Y529.221    F1200
   X391.643   
   Y378.563   
   X397.343   
G0   Z5.000     
   X64.843       Y529.221   
G1   Z-2.400     F500 
   X59.143     F1200
   Y378.563   
   X64.843    
   Y529.221   
(Pass: 3)
G0   Z5.000     
   X59.773       Y379.193   
G1   Z-3.600     F500 
   Y528.591    F1200
   X64.183    
   Y379.193   
G0   Z5.000     
   X71.143       Y384.263   
G1   Z-3.600     F500 
   Y378.563    F1200
   X385.343   
   Y384.263   
   X71.143    
G0   Z5.000     
   X76.183       Y379.193   
G1   Z-3.600     F500 
   Y383.633    F1200
   X80.593    
   Y379.193   
   X85.003    
   Y383.633   
   X89.413    
   Y379.193   
   X93.823    
   Y383.633   
   X98.233    
   Y379.193   
   X102.643   
   Y383.633   
   X107.053   
   Y379.193   
   X111.463   
   Y383.633   
   X115.873   
   Y379.193   
   X120.283   
   Y383.633   
   X124.693   
   Y379.193   
   X129.103   
   Y383.633   
   X133.513   
   Y379.193   
   X137.923   
   Y383.633   
   X142.333   
   Y379.193   
   X146.743   
   Y383.633   
   X151.153   
   Y379.193   
   X155.563   
   Y383.633   
   X159.973   
   Y379.193   
   X164.383   
   Y383.633   
   X168.793   
   Y379.193   
   X173.203   
   Y383.633   
   X177.613   
   Y379.193   
   X182.023   
   Y383.633   
   X186.433   
   Y379.193   
   X190.843   
   Y383.633   
   X195.253   
   Y379.193   
   X199.663   
   Y383.633   
   X204.073   
   Y379.193   
   X208.483   
   Y383.633   
   X212.893   
   Y379.193   
   X217.303   
   Y383.633   
   X221.713   
   Y379.193   
   X226.123   
   Y383.633   
   X230.533   
   Y379.193   
   X234.943   
   Y383.633   
   X239.353   
   Y379.193   
   X243.763   
   Y383.633   
   X248.173   
   Y379.193   
   X252.583   
   Y383.633   
   X256.993   
   Y379.193   
   X261.403   
   Y383.633   
   X265.813   
   Y379.193   
   X270.223   
   Y383.633   
   X274.633   
   Y379.193   
   X279.043   
   Y383.633   
   X283.453   
   Y379.193   
   X287.863   
   Y383.633   
   X292.273   
   Y379.193   
   X296.683   
   Y383.633   
   X301.093   
   Y379.193   
   X305.503   
   Y383.633   
   X309.913   
   Y379.193   
   X314.323   
   Y383.633   
   X318.733   
   Y379.193   
   X323.143   
   Y383.633   
   X327.553   
   Y379.193   
   X331.963   
   Y383.633   
   X336.373   
   Y379.193   
   X340.783   
   Y383.633   
   X345.193   
   Y379.193   
   X349.603   
   Y383.633   
   X354.013   
   Y379.193   
   X358.423   
   Y383.633   
   X362.833   
   Y379.193   
   X367.243   
   Y383.633   
   X371.653   
   Y379.193   
   X376.063   
   Y383.633   
   X380.473   
   Y379.193   
G0   Z5.000     
   X392.273   
G1   Z-3.600     F500 
   Y528.591    F1200
   X396.683   
   Y379.193   
G0   Z5.000     
   X397.343      Y378.563   
G1   Z-3.600     F500 
   Y529.221    F1200
   X391.643   
   Y378.563   
   X397.343   
G0   Z5.000     
   X64.843       Y529.221   
G1   Z-3.600     F500 
   X59.143     F1200
   Y378.563   
   X64.843    
   Y529.221   
(Pass: 4)
G0   Z5.000     
   X59.773       Y379.193   
G1   Z-4.800     F500 
   Y528.591    F1200
   X64.183    
   Y379.193   
G0   Z5.000     
   X71.143       Y384.263   
G1   Z-4.800     F500 
   Y378.563    F1200
   X385.343   
   Y384.263   
   X71.143    
G0   Z5.000     
   X76.183       Y379.193   
G1   Z-4.800     F500 
   Y383.633    F1200
   X80.593    
   Y379.193   
   X85.003    
   Y383.633   
   X89.413    
   Y379.193   
   X93.823    
   Y383.633   
   X98.233    
   Y379.193   
   X102.643   
   Y383.633   
   X107.053   
   Y379.193   
   X111.463   
   Y383.633   
   X115.873   
   Y379.193   
   X120.283   
   Y383.633   
   X124.693   
   Y379.193   
   X129.103   
   Y383.633   
   X133.513   
   Y379.193   
   X137.923   
   Y383.633   
   X142.333   
   Y379.193   
   X146.743   
   Y383.633   
   X151.153   
   Y379.193   
   X155.563   
   Y383.633   
   X159.973   
   Y379.193   
   X164.383   
   Y383.633   
   X168.793   
   Y379.193   
   X173.203   
   Y383.633   
   X177.613   
   Y379.193   
   X182.023   
   Y383.633   
   X186.433   
   Y379.193   
   X190.843   
   Y383.633   
   X195.253   
   Y379.193   
   X199.663   
   Y383.633   
   X204.073   
   Y379.193   
   X208.483   
   Y383.633   
   X212.893   
   Y379.193   
   X217.303   
   Y383.633   
   X221.713   
   Y379.193   
   X226.123   
   Y383.633   
   X230.533   
   Y379.193   
   X234.943   
   Y383.633   
   X239.353   
   Y379.193   
   X243.763   
   Y383.633   
   X248.173   
   Y379.193   
   X252.583   
   Y383.633   
   X256.993   
   Y379.193   
   X261.403   
   Y383.633   
   X265.813   
   Y379.193   
   X270.223   
   Y383.633   
   X274.633   
   Y379.193   
   X279.043   
   Y383.633   
   X283.453   
   Y379.193   
   X287.863   
   Y383.633   
   X292.273   
   Y379.193   
   X296.683   
   Y383.633   
   X301.093   
   Y379.193   
   X305.503   
   Y383.633   
   X309.913   
   Y379.193   
   X314.323   
   Y383.633   
   X318.733   
   Y379.193   
   X323.143   
   Y383.633   
   X327.553   
   Y379.193   
   X331.963   
   Y383.633   
   X336.373   
   Y379.193   
   X340.783   
   Y383.633   
   X345.193   
   Y379.193   
   X349.603   
   Y383.633   
   X354.013   
   Y379.193   
   X358.423   
   Y383.633   
   X362.833   
   Y379.193   
   X367.243   
   Y383.633   
   X371.653   
   Y379.193   
   X376.063   
   Y383.633   
   X380.473   
   Y379.193   
G0   Z5.000     
   X392.273   
G1   Z-4.800     F500 
   Y528.591    F1200
   X396.683   
   Y379.193   
G0   Z5.000     
   X397.343      Y378.563   
G1   Z-4.800     F500 
   Y529.221    F1200
   X391.643   
   Y378.563   
   X397.343   
G0   Z5.000     
   X64.843       Y529.221   
G1   Z-4.800     F500 
   X59.143     F1200
   Y378.563   
   X64.843    
   Y529.221   
(Pass: 5)
G0   Z5.000     
   X59.773       Y379.193   
G1   Z-6.000     F500 
   Y528.591    F1200
   X64.183    
   Y379.193   
G0   Z5.000     
   X71.143       Y384.263   
G1   Z-6.000     F500 
   Y378.563    F1200
   X385.343   
   Y384.263   
   X71.143    
G0   Z5.000     
   X76.183       Y379.193   
G1   Z-6.000     F500 
   Y383.633    F1200
   X80.593    
   Y379.193   
   X85.003    
   Y383.633   
   X89.413    
   Y379.193   
   X93.823    
   Y383.633   
   X98.233    
   Y379.193   
   X102.643   
   Y383.633   
   X107.053   
   Y379.193   
   X111.463   
   Y383.633   
   X115.873   
   Y379.193   
   X120.283   
   Y383.633   
   X124.693   
   Y379.193   
   X129.103   
   Y383.633   
   X133.513   
   Y379.193   
   X137.923   
   Y383.633   
   X142.333   
   Y379.193   
   X146.743   
   Y383.633   
   X151.153   
   Y379.193   
   X155.563   
   Y383.633   
   X159.973   
   Y379.193   
   X164.383   
   Y383.633   
   X168.793   
   Y379.193   
   X173.203   
   Y383.633   
   X177.613   
   Y379.193   
   X182.023   
   Y383.633   
   X186.433   
   Y379.193   
   X190.843   
   Y383.633   
   X195.253   
   Y379.193   
   X199.663   
   Y383.633   
   X204.073   
   Y379.193   
   X208.483   
   Y383.633   
   X212.893   
   Y379.193   
   X217.303   
   Y383.633   
   X221.713   
   Y379.193   
   X226.123   
   Y383.633   
   X230.533   
   Y379.193   
   X234.943   
   Y383.633   
   X239.353   
   Y379.193   
   X243.763   
   Y383.633   
   X248.173   
   Y379.193   
   X252.583   
   Y383.633   
   X256.993   
   Y379.193   
   X261.403   
   Y383.633   
   X265.813   
   Y379.193   
   X270.223   
   Y383.633   
   X274.633   
   Y379.193   
   X279.043   
   Y383.633   
   X283.453   
   Y379.193   
   X287.863   
   Y383.633   
   X292.273   
   Y379.193   
   X296.683   
   Y383.633   
   X301.093   
   Y379.193   
   X305.503   
   Y383.633   
   X309.913   
   Y379.193   
   X314.323   
   Y383.633   
   X318.733   
   Y379.193   
   X323.143   
   Y383.633   
   X327.553   
   Y379.193   
   X331.963   
   Y383.633   
   X336.373   
   Y379.193   
   X340.783   
   Y383.633   
   X345.193   
   Y379.193   
   X349.603   
   Y383.633   
   X354.013   
   Y379.193   
   X358.423   
   Y383.633   
   X362.833   
   Y379.193   
   X367.243   
   Y383.633   
   X371.653   
   Y379.193   
   X376.063   
   Y383.633   
   X380.473   
   Y379.193   
G0   Z5.000     
   X392.273   
G1   Z-6.000     F500 
   Y528.591    F1200
   X396.683   
   Y379.193   
G0   Z5.000     
   X397.343      Y378.563   
G1   Z-6.000     F500 
   Y529.221    F1200
   X391.643   
   Y378.563   
   X397.343   
G0   Z5.000     
   X64.843       Y529.221   
G1   Z-6.000     F500 
   X59.143     F1200
   Y378.563   
   X64.843    
   Y529.221   
G0   Z5.000     
(Pass: 1)
   X4.075        Y545.406   
G1   Z-1.200     F500 
G17 G3   X1.0934       Y525.9854     R50.1500    F1200
   X3.2396       Y506.4546     R50.1500   
   X10.3675      Y488.1448     R50.1500   
   X21.9915      Y472.3038     R50.1500   
   X37.3194      Y460.0110     R50.1500   
   X41.2680      Y458.2753     R50.1500   
G1   Y449.449   
G17 G3   X36.6444      Y447.3585     R50.1500   
   X21.4467      Y434.9052     R50.1500   
   X9.9900       Y418.9427     R50.1500   
   X3.0551       Y400.5590     R50.1500   
   X1.1145       Y381.0067     R50.1500   
   X4.3006       Y361.6185     R50.1500   
   X12.3961      Y343.7154     R50.1500   
   X24.8495      Y328.5177     R50.1500   
   X40.8119      Y317.0610     R50.1500   
   X59.1957      Y310.1261     R50.1500   
   X78.7480      Y308.1855     R50.1500   
   X98.1362      Y311.3716     R50.1500   
   X116.0392     Y319.4671     R50.1500   
   X131.2370     Y331.9205     R50.1500   
   X142.6937     Y347.8829     R50.1500   
   X147.5241     Y360.6878     R50.1500   
G1   X309.351   
G17 G3   X311.7811     Y352.5800     R50.1500   
   X322.1008     Y335.8599     R50.1500   
   X336.3963     Y322.3805     R50.1500   
   X353.6934     Y313.0604     R50.1500   
   X372.8134     Y308.5346     R50.1500   
   X392.4533     Y309.1117     R50.1500   
   X411.2745     Y314.7523     R50.1500   
   X427.9946     Y325.0720     R50.1500   
   X441.4740     Y339.3675     R50.1500   
   X450.7941     Y356.6647     R50.1500   
   X455.3198     Y375.7846     R50.1500   
   X454.7428     Y395.4245     R50.1500   
   X449.1022     Y414.2457     R50.1500   
   X438.7825     Y430.9658     R50.1500   
   X424.4870     Y444.4452     R50.1500   
   X415.2180     Y449.4395     R50.1500   
G1   Y458.006   
G17 G3   X418.0745     Y459.1888     R50.1500   
   X433.6626     Y471.1499     R50.1500   
   X445.6237     Y486.7380     R50.1500   
   X453.1428     Y504.8906     R50.1500   
   X455.7074     Y524.3708     R50.1500   
   X453.1428     Y543.8511     R50.1500   
   X445.6237     Y562.0037     R50.1500   
   X433.6626     Y577.5918     R50.1500   
   X418.0745     Y589.5529     R50.1500   
   X399.9218     Y597.0720     R50.1500   
   X380.4416     Y599.6366     R50.1500   
   X360.9614     Y597.0720     R50.1500   
   X342.8087     Y589.5529     R50.1500   
   X327.2207     Y577.5918     R50.1500   
   X315.2596     Y562.0037     R50.1500   
   X309.0845     Y547.0958     R50.1500   
G1   X147.572   
G17 G3   X142.3162     Y560.5968     R50.1500   
   X130.6922     Y576.4379     R50.1500   
   X115.3643     Y588.7306     R50.1500   
   X97.3771      Y596.6374     R50.1500   
   X77.9564      Y599.6193     R50.1500   
   X58.4256      Y597.4731     R50.1500   
   X40.1158      Y590.3452     R50.1500   
   X24.2748      Y578.7212     R50.1500   
   X11.9820      Y563.3933     R50.1500   
   X4.0753       Y545.4061     R50.1500   
(Pass: 2)
G1   Z-2.400     F500 
G17 G3   X1.0934       Y525.9854     R50.1500    F1200
   X3.2396       Y506.4546     R50.1500   
   X10.3675      Y488.1448     R50.1500   
   X21.9915      Y472.3038     R50.1500   
   X37.3194      Y460.0110     R50.1500   
   X41.2680      Y458.2753     R50.1500   
G1   Y449.449   
G17 G3   X36.6444      Y447.3585     R50.1500   
   X21.4467      Y434.9052     R50.1500   
   X9.9900       Y418.9427     R50.1500   
   X3.0551       Y400.5590     R50.1500   
   X1.1145       Y381.0067     R50.1500   
   X4.3006       Y361.6185     R50.1500   
   X12.3961      Y343.7154     R50.1500   
   X24.8495      Y328.5177     R50.1500   
   X40.8119      Y317.0610     R50.1500   
   X59.1957      Y310.1261     R50.1500   
   X78.7480      Y308.1855     R50.1500   
   X98.1362      Y311.3716     R50.1500   
   X116.0392     Y319.4671     R50.1500   
   X131.2370     Y331.9205     R50.1500   
   X142.6937     Y347.8829     R50.1500   
   X147.5241     Y360.6878     R50.1500   
G1   X309.351   
G17 G3   X311.7811     Y352.5800     R50.1500   
   X322.1008     Y335.8599     R50.1500   
   X336.3963     Y322.3805     R50.1500   
   X353.6934     Y313.0604     R50.1500   
   X372.8134     Y308.5346     R50.1500   
   X392.4533     Y309.1117     R50.1500   
   X411.2745     Y314.7523     R50.1500   
   X427.9946     Y325.0720     R50.1500   
   X441.4740     Y339.3675     R50.1500   
   X450.7941     Y356.6647     R50.1500   
   X455.3198     Y375.7846     R50.1500   
   X454.7428     Y395.4245     R50.1500   
   X449.1022     Y414.2457     R50.1500   
   X438.7825     Y430.9658     R50.1500   
   X424.4870     Y444.4452     R50.1500   
   X415.2180     Y449.4395     R50.1500   
G1   Y458.006   
G17 G3   X418.0745     Y459.1888     R50.1500   
   X433.6626     Y471.1499     R50.1500   
   X445.6237     Y486.7380     R50.1500   
   X453.1428     Y504.8906     R50.1500   
   X455.7074     Y524.3708     R50.1500   
   X453.1428     Y543.8511     R50.1500   
   X445.6237     Y562.0037     R50.1500   
   X433.6626     Y577.5918     R50.1500   
   X418.0745     Y589.5529     R50.1500   
   X399.9218     Y597.0720     R50.1500   
   X380.4416     Y599.6366     R50.1500   
   X360.9614     Y597.0720     R50.1500   
   X342.8087     Y589.5529     R50.1500   
   X327.2207     Y577.5918     R50.1500   
   X315.2596     Y562.0037     R50.1500   
   X309.0845     Y547.0958     R50.1500   
G1   X147.572   
G17 G3   X142.3162     Y560.5968     R50.1500   
   X130.6922     Y576.4379     R50.1500   
   X115.3643     Y588.7306     R50.1500   
   X97.3771      Y596.6374     R50.1500   
   X77.9564      Y599.6193     R50.1500   
   X58.4256      Y597.4731     R50.1500   
   X40.1158      Y590.3452     R50.1500   
   X24.2748      Y578.7212     R50.1500   
   X11.9820      Y563.3933     R50.1500   
   X4.0753       Y545.4061     R50.1500   
(Pass: 3)
G1   Z-3.600     F500 
G17 G3   X1.0934       Y525.9854     R50.1500    F1200
   X3.2396       Y506.4546     R50.1500   
   X10.3675      Y488.1448     R50.1500   
   X21.9915      Y472.3038     R50.1500   
   X37.3194      Y460.0110     R50.1500   
   X41.2680      Y458.2753     R50.1500   
G1   Y449.449   
G17 G3   X36.6444      Y447.3585     R50.1500   
   X21.4467      Y434.9052     R50.1500   
   X9.9900       Y418.9427     R50.1500   
   X3.0551       Y400.5590     R50.1500   
   X1.1145       Y381.0067     R50.1500   
   X4.3006       Y361.6185     R50.1500   
   X12.3961      Y343.7154     R50.1500   
   X24.8495      Y328.5177     R50.1500   
   X40.8119      Y317.0610     R50.1500   
   X59.1957      Y310.1261     R50.1500   
   X78.7480      Y308.1855     R50.1500   
   X98.1362      Y311.3716     R50.1500   
   X116.0392     Y319.4671     R50.1500   
   X131.2370     Y331.9205     R50.1500   
   X142.6937     Y347.8829     R50.1500   
   X147.5241     Y360.6878     R50.1500   
G1   X309.351   
G17 G3   X311.7811     Y352.5800     R50.1500   
   X322.1008     Y335.8599     R50.1500   
   X336.3963     Y322.3805     R50.1500   
   X353.6934     Y313.0604     R50.1500   
   X372.8134     Y308.5346     R50.1500   
   X392.4533     Y309.1117     R50.1500   
   X411.2745     Y314.7523     R50.1500   
   X427.9946     Y325.0720     R50.1500   
   X441.4740     Y339.3675     R50.1500   
   X450.7941     Y356.6647     R50.1500   
   X455.3198     Y375.7846     R50.1500   
   X454.7428     Y395.4245     R50.1500   
   X449.1022     Y414.2457     R50.1500   
   X438.7825     Y430.9658     R50.1500   
   X424.4870     Y444.4452     R50.1500   
   X415.2180     Y449.4395     R50.1500   
G1   Y458.006   
G17 G3   X418.0745     Y459.1888     R50.1500   
   X433.6626     Y471.1499     R50.1500   
   X445.6237     Y486.7380     R50.1500   
   X453.1428     Y504.8906     R50.1500   
   X455.7074     Y524.3708     R50.1500   
   X453.1428     Y543.8511     R50.1500   
   X445.6237     Y562.0037     R50.1500   
   X433.6626     Y577.5918     R50.1500   
   X418.0745     Y589.5529     R50.1500   
   X399.9218     Y597.0720     R50.1500   
   X380.4416     Y599.6366     R50.1500   
   X360.9614     Y597.0720     R50.1500   
   X342.8087     Y589.5529     R50.1500   
   X327.2207     Y577.5918     R50.1500   
   X315.2596     Y562.0037     R50.1500   
   X309.0845     Y547.0958     R50.1500   
G1   X147.572   
G17 G3   X142.3162     Y560.5968     R50.1500   
   X130.6922     Y576.4379     R50.1500   
   X115.3643     Y588.7306     R50.1500   
   X97.3771      Y596.6374     R50.1500   
   X77.9564      Y599.6193     R50.1500   
   X58.4256      Y597.4731     R50.1500   
   X40.1158      Y590.3452     R50.1500   
   X24.2748      Y578.7212     R50.1500   
   X11.9820      Y563.3933     R50.1500   
   X4.0753       Y545.4061     R50.1500   
(Pass: 4)
G1   Z-4.800     F500 
G17 G3   X1.0934       Y525.9854     R50.1500    F1200
   X3.2396       Y506.4546     R50.1500   
   X10.3675      Y488.1448     R50.1500   
   X21.9915      Y472.3038     R50.1500   
   X37.3194      Y460.0110     R50.1500   
   X41.2680      Y458.2753     R50.1500   
G1   Y449.449   
G17 G3   X36.6444      Y447.3585     R50.1500   
   X21.4467      Y434.9052     R50.1500   
   X9.9900       Y418.9427     R50.1500   
   X3.0551       Y400.5590     R50.1500   
   X1.1145       Y381.0067     R50.1500   
   X4.3006       Y361.6185     R50.1500   
   X12.3961      Y343.7154     R50.1500   
   X24.8495      Y328.5177     R50.1500   
   X40.8119      Y317.0610     R50.1500   
   X59.1957      Y310.1261     R50.1500   
   X78.7480      Y308.1855     R50.1500   
   X98.1362      Y311.3716     R50.1500   
   X116.0392     Y319.4671     R50.1500   
   X131.2370     Y331.9205     R50.1500   
   X142.6937     Y347.8829     R50.1500   
   X147.5241     Y360.6878     R50.1500   
G1   X309.351   
G17 G3   X311.7811     Y352.5800     R50.1500   
   X322.1008     Y335.8599     R50.1500   
   X336.3963     Y322.3805     R50.1500   
   X353.6934     Y313.0604     R50.1500   
   X372.8134     Y308.5346     R50.1500   
   X392.4533     Y309.1117     R50.1500   
   X411.2745     Y314.7523     R50.1500   
   X427.9946     Y325.0720     R50.1500   
   X441.4740     Y339.3675     R50.1500   
   X450.7941     Y356.6647     R50.1500   
   X455.3198     Y375.7846     R50.1500   
   X454.7428     Y395.4245     R50.1500   
   X449.1022     Y414.2457     R50.1500   
   X438.7825     Y430.9658     R50.1500   
   X424.4870     Y444.4452     R50.1500   
   X415.2180     Y449.4395     R50.1500   
G1   Y458.006   
G17 G3   X418.0745     Y459.1888     R50.1500   
   X433.6626     Y471.1499     R50.1500   
   X445.6237     Y486.7380     R50.1500   
   X453.1428     Y504.8906     R50.1500   
   X455.7074     Y524.3708     R50.1500   
   X453.1428     Y543.8511     R50.1500   
   X445.6237     Y562.0037     R50.1500   
   X433.6626     Y577.5918     R50.1500   
   X418.0745     Y589.5529     R50.1500   
   X399.9218     Y597.0720     R50.1500   
   X380.4416     Y599.6366     R50.1500   
   X360.9614     Y597.0720     R50.1500   
   X342.8087     Y589.5529     R50.1500   
   X327.2207     Y577.5918     R50.1500   
   X315.2596     Y562.0037     R50.1500   
   X309.0845     Y547.0958     R50.1500   
G1   X147.572   
G17 G3   X142.3162     Y560.5968     R50.1500   
   X130.6922     Y576.4379     R50.1500   
   X115.3643     Y588.7306     R50.1500   
   X97.3771      Y596.6374     R50.1500   
   X77.9564      Y599.6193     R50.1500   
   X58.4256      Y597.4731     R50.1500   
   X40.1158      Y590.3452     R50.1500   
   X24.2748      Y578.7212     R50.1500   
   X11.9820      Y563.3933     R50.1500   
   X4.0753       Y545.4061     R50.1500   
(Pass: 5)
G1   Z-6.000     F500 
G17 G3   X1.0934       Y525.9854     R50.1500    F1200
   X3.2396       Y506.4546     R50.1500   
   X10.3675      Y488.1448     R50.1500   
   X21.9915      Y472.3038     R50.1500   
   X37.3194      Y460.0110     R50.1500   
   X41.2680      Y458.2753     R50.1500   
G1   Y449.449   
G17 G3   X36.6444      Y447.3585     R50.1500   
   X21.4467      Y434.9052     R50.1500   
   X9.9900       Y418.9427     R50.1500   
   X3.0551       Y400.5590     R50.1500   
   X1.1145       Y381.0067     R50.1500   
   X4.3006       Y361.6185     R50.1500   
   X12.3961      Y343.7154     R50.1500   
   X24.8495      Y328.5177     R50.1500   
   X40.8119      Y317.0610     R50.1500   
   X59.1957      Y310.1261     R50.1500   
   X78.7480      Y308.1855     R50.1500   
   X98.1362      Y311.3716     R50.1500   
   X116.0392     Y319.4671     R50.1500   
   X131.2370     Y331.9205     R50.1500   
   X142.6937     Y347.8829     R50.1500   
   X147.5241     Y360.6878     R50.1500   
G1   X309.351   
G17 G3   X311.7811     Y352.5800     R50.1500   
   X322.1008     Y335.8599     R50.1500   
   X336.3963     Y322.3805     R50.1500   
   X353.6934     Y313.0604     R50.1500   
   X372.8134     Y308.5346     R50.1500   
   X392.4533     Y309.1117     R50.1500   
   X411.2745     Y314.7523     R50.1500   
   X427.9946     Y325.0720     R50.1500   
   X441.4740     Y339.3675     R50.1500   
   X450.7941     Y356.6647     R50.1500   
   X455.3198     Y375.7846     R50.1500   
   X454.7428     Y395.4245     R50.1500   
   X449.1022     Y414.2457     R50.1500   
   X438.7825     Y430.9658     R50.1500   
   X424.4870     Y444.4452     R50.1500   
   X415.2180     Y449.4395     R50.1500   
G1   Y458.006   
G17 G3   X418.0745     Y459.1888     R50.1500   
   X433.6626     Y471.1499     R50.1500   
   X445.6237     Y486.7380     R50.1500   
   X453.1428     Y504.8906     R50.1500   
   X455.7074     Y524.3708     R50.1500   
   X453.1428     Y543.8511     R50.1500   
   X445.6237     Y562.0037     R50.1500   
   X433.6626     Y577.5918     R50.1500   
   X418.0745     Y589.5529     R50.1500   
   X399.9218     Y597.0720     R50.1500   
   X380.4416     Y599.6366     R50.1500   
   X360.9614     Y597.0720     R50.1500   
   X342.8087     Y589.5529     R50.1500   
   X327.2207     Y577.5918     R50.1500   
   X315.2596     Y562.0037     R50.1500   
   X309.0845     Y547.0958     R50.1500   
G1   X147.572   
G17 G3   X142.3162     Y560.5968     R50.1500   
   X130.6922     Y576.4379     R50.1500   
   X115.3643     Y588.7306     R50.1500   
   X97.3771      Y596.6374     R50.1500   
   X77.9564      Y599.6193     R50.1500   
   X58.4256      Y597.4731     R50.1500   
   X40.1158      Y590.3452     R50.1500   
   X24.2748      Y578.7212     R50.1500   
   X11.9820      Y563.3933     R50.1500   
   X4.0753       Y545.4061     R50.1500   
(Pass: 6)
G1   Z-7.200     F500 
G17 G3   X1.0934       Y525.9854     R50.1500    F1200
   X3.2396       Y506.4546     R50.1500   
   X10.3675      Y488.1448     R50.1500   
   X21.9915      Y472.3038     R50.1500   
   X37.3194      Y460.0110     R50.1500   
   X41.2680      Y458.2753     R50.1500   
G1   Y449.449   
G17 G3   X36.6444      Y447.3585     R50.1500   
   X21.4467      Y434.9052     R50.1500   
   X9.9900       Y418.9427     R50.1500   
   X3.0551       Y400.5590     R50.1500   
   X1.1145       Y381.0067     R50.1500   
   X4.3006       Y361.6185     R50.1500   
   X12.3961      Y343.7154     R50.1500   
   X24.8495      Y328.5177     R50.1500   
   X40.8119      Y317.0610     R50.1500   
   X59.1957      Y310.1261     R50.1500   
   X78.7480      Y308.1855     R50.1500   
   X98.1362      Y311.3716     R50.1500   
   X116.0392     Y319.4671     R50.1500   
   X131.2370     Y331.9205     R50.1500   
   X142.6937     Y347.8829     R50.1500   
   X147.5241     Y360.6878     R50.1500   
G1   X309.351   
G17 G3   X311.7811     Y352.5800     R50.1500   
   X322.1008     Y335.8599     R50.1500   
   X336.3963     Y322.3805     R50.1500   
   X353.6934     Y313.0604     R50.1500   
   X372.8134     Y308.5346     R50.1500   
   X392.4533     Y309.1117     R50.1500   
   X411.2745     Y314.7523     R50.1500   
   X427.9946     Y325.0720     R50.1500   
   X441.4740     Y339.3675     R50.1500   
   X450.7941     Y356.6647     R50.1500   
   X455.3198     Y375.7846     R50.1500   
   X454.7428     Y395.4245     R50.1500   
   X449.1022     Y414.2457     R50.1500   
   X438.7825     Y430.9658     R50.1500   
   X424.4870     Y444.4452     R50.1500   
   X415.2180     Y449.4395     R50.1500   
G1   Y458.006   
G17 G3   X418.0745     Y459.1888     R50.1500   
   X433.6626     Y471.1499     R50.1500   
   X445.6237     Y486.7380     R50.1500   
   X453.1428     Y504.8906     R50.1500   
   X455.7074     Y524.3708     R50.1500   
   X453.1428     Y543.8511     R50.1500   
   X445.6237     Y562.0037     R50.1500   
   X433.6626     Y577.5918     R50.1500   
   X418.0745     Y589.5529     R50.1500   
   X399.9218     Y597.0720     R50.1500   
   X380.4416     Y599.6366     R50.1500   
   X360.9614     Y597.0720     R50.1500   
   X342.8087     Y589.5529     R50.1500   
   X327.2207     Y577.5918     R50.1500   
   X315.2596     Y562.0037     R50.1500   
   X309.0845     Y547.0958     R50.1500   
G1   X147.572   
G17 G3   X142.3162     Y560.5968     R50.1500   
   X130.6922     Y576.4379     R50.1500   
   X115.3643     Y588.7306     R50.1500   
   X97.3771      Y596.6374     R50.1500   
   X77.9564      Y599.6193     R50.1500   
   X58.4256      Y597.4731     R50.1500   
   X40.1158      Y590.3452     R50.1500   
   X24.2748      Y578.7212     R50.1500   
   X11.9820      Y563.3933     R50.1500   
   X4.0753       Y545.4061     R50.1500   
(Pass: 7)
G1   Z-8.400     F500 
G17 G3   X1.0934       Y525.9854     R50.1500    F1200
   X3.2396       Y506.4546     R50.1500   
   X10.3675      Y488.1448     R50.1500   
   X21.9915      Y472.3038     R50.1500   
   X37.3194      Y460.0110     R50.1500   
   X41.2680      Y458.2753     R50.1500   
G1   Y449.449   
G17 G3   X36.6444      Y447.3585     R50.1500   
   X21.4467      Y434.9052     R50.1500   
   X9.9900       Y418.9427     R50.1500   
   X3.0551       Y400.5590     R50.1500   
   X1.1145       Y381.0067     R50.1500   
   X4.3006       Y361.6185     R50.1500   
   X12.3961      Y343.7154     R50.1500   
   X24.8495      Y328.5177     R50.1500   
   X40.8119      Y317.0610     R50.1500   
   X59.1957      Y310.1261     R50.1500   
   X78.7480      Y308.1855     R50.1500   
   X98.1362      Y311.3716     R50.1500   
   X116.0392     Y319.4671     R50.1500   
   X131.2370     Y331.9205     R50.1500   
   X142.6937     Y347.8829     R50.1500   
   X147.5241     Y360.6878     R50.1500   
G1   X309.351   
G17 G3   X311.7811     Y352.5800     R50.1500   
   X322.1008     Y335.8599     R50.1500   
   X336.3963     Y322.3805     R50.1500   
   X353.6934     Y313.0604     R50.1500   
   X372.8134     Y308.5346     R50.1500   
   X392.4533     Y309.1117     R50.1500   
   X411.2745     Y314.7523     R50.1500   
   X427.9946     Y325.0720     R50.1500   
   X441.4740     Y339.3675     R50.1500   
   X450.7941     Y356.6647     R50.1500   
   X455.3198     Y375.7846     R50.1500   
   X454.7428     Y395.4245     R50.1500   
   X449.1022     Y414.2457     R50.1500   
   X438.7825     Y430.9658     R50.1500   
   X424.4870     Y444.4452     R50.1500   
   X415.2180     Y449.4395     R50.1500   
G1   Y458.006   
G17 G3   X418.0745     Y459.1888     R50.1500   
   X433.6626     Y471.1499     R50.1500   
   X445.6237     Y486.7380     R50.1500   
   X453.1428     Y504.8906     R50.1500   
   X455.7074     Y524.3708     R50.1500   
   X453.1428     Y543.8511     R50.1500   
   X445.6237     Y562.0037     R50.1500   
   X433.6626     Y577.5918     R50.1500   
   X418.0745     Y589.5529     R50.1500   
   X399.9218     Y597.0720     R50.1500   
   X380.4416     Y599.6366     R50.1500   
   X360.9614     Y597.0720     R50.1500   
   X342.8087     Y589.5529     R50.1500   
   X327.2207     Y577.5918     R50.1500   
   X315.2596     Y562.0037     R50.1500   
   X309.0845     Y547.0958     R50.1500   
G1   X147.572   
G17 G3   X142.3162     Y560.5968     R50.1500   
   X130.6922     Y576.4379     R50.1500   
   X115.3643     Y588.7306     R50.1500   
   X97.3771      Y596.6374     R50.1500   
   X77.9564      Y599.6193     R50.1500   
   X58.4256      Y597.4731     R50.1500   
   X40.1158      Y590.3452     R50.1500   
   X24.2748      Y578.7212     R50.1500   
   X11.9820      Y563.3933     R50.1500   
   X4.0753       Y545.4061     R50.1500   
(Pass: 8)
G1   Z-9.600     F500 
G17 G3   X1.0934       Y525.9854     R50.1500    F1200
   X3.2396       Y506.4546     R50.1500   
   X10.3675      Y488.1448     R50.1500   
   X21.9915      Y472.3038     R50.1500   
   X37.3194      Y460.0110     R50.1500   
   X41.2680      Y458.2753     R50.1500   
G1   Y449.449   
G17 G3   X36.6444      Y447.3585     R50.1500   
   X21.4467      Y434.9052     R50.1500   
   X9.9900       Y418.9427     R50.1500   
   X3.0551       Y400.5590     R50.1500   
   X1.1145       Y381.0067     R50.1500   
   X4.3006       Y361.6185     R50.1500   
   X12.3961      Y343.7154     R50.1500   
   X24.8495      Y328.5177     R50.1500   
   X40.8119      Y317.0610     R50.1500   
   X59.1957      Y310.1261     R50.1500   
   X78.7480      Y308.1855     R50.1500   
   X98.1362      Y311.3716     R50.1500   
   X116.0392     Y319.4671     R50.1500   
   X131.2370     Y331.9205     R50.1500   
   X142.6937     Y347.8829     R50.1500   
   X147.5241     Y360.6878     R50.1500   
G1   X309.351   
G17 G3   X311.7811     Y352.5800     R50.1500   
   X322.1008     Y335.8599     R50.1500   
   X336.3963     Y322.3805     R50.1500   
   X353.6934     Y313.0604     R50.1500   
   X372.8134     Y308.5346     R50.1500   
   X392.4533     Y309.1117     R50.1500   
   X411.2745     Y314.7523     R50.1500   
   X427.9946     Y325.0720     R50.1500   
   X441.4740     Y339.3675     R50.1500   
   X450.7941     Y356.6647     R50.1500   
   X455.3198     Y375.7846     R50.1500   
   X454.7428     Y395.4245     R50.1500   
   X449.1022     Y414.2457     R50.1500   
   X438.7825     Y430.9658     R50.1500   
   X424.4870     Y444.4452     R50.1500   
   X415.2180     Y449.4395     R50.1500   
G1   Y458.006   
G17 G3   X418.0745     Y459.1888     R50.1500   
   X433.6626     Y471.1499     R50.1500   
   X445.6237     Y486.7380     R50.1500   
   X453.1428     Y504.8906     R50.1500   
   X455.7074     Y524.3708     R50.1500   
   X453.1428     Y543.8511     R50.1500   
   X445.6237     Y562.0037     R50.1500   
   X433.6626     Y577.5918     R50.1500   
   X418.0745     Y589.5529     R50.1500   
   X399.9218     Y597.0720     R50.1500   
   X380.4416     Y599.6366     R50.1500   
   X360.9614     Y597.0720     R50.1500   
   X342.8087     Y589.5529     R50.1500   
   X327.2207     Y577.5918     R50.1500   
   X315.2596     Y562.0037     R50.1500   
   X309.0845     Y547.0958     R50.1500   
G1   X147.572   
G17 G3   X142.3162     Y560.5968     R50.1500   
   X130.6922     Y576.4379     R50.1500   
   X115.3643     Y588.7306     R50.1500   
   X97.3771      Y596.6374     R50.1500   
   X77.9564      Y599.6193     R50.1500   
   X58.4256      Y597.4731     R50.1500   
   X40.1158      Y590.3452     R50.1500   
   X24.2748      Y578.7212     R50.1500   
   X11.9820      Y563.3933     R50.1500   
   X4.0753       Y545.4061     R50.1500   
(Pass: 9)
G1   Z-10.800    F500 
G17 G3   X1.0934       Y525.9854     R50.1500    F1200
   X3.2396       Y506.4546     R50.1500   
   X10.3675      Y488.1448     R50.1500   
   X21.9915      Y472.3038     R50.1500   
   X37.3194      Y460.0110     R50.1500   
   X41.2680      Y458.2753     R50.1500   
G1   Y449.449   
G17 G3   X36.6444      Y447.3585     R50.1500   
   X21.4467      Y434.9052     R50.1500   
   X9.9900       Y418.9427     R50.1500   
   X3.0551       Y400.5590     R50.1500   
   X1.1145       Y381.0067     R50.1500   
   X4.3006       Y361.6185     R50.1500   
   X12.3961      Y343.7154     R50.1500   
   X24.8495      Y328.5177     R50.1500   
   X40.8119      Y317.0610     R50.1500   
   X59.1957      Y310.1261     R50.1500   
   X78.7480      Y308.1855     R50.1500   
   X98.1362      Y311.3716     R50.1500   
   X116.0392     Y319.4671     R50.1500   
   X131.2370     Y331.9205     R50.1500   
   X142.6937     Y347.8829     R50.1500   
   X147.5241     Y360.6878     R50.1500   
G1   X309.351   
G17 G3   X311.7811     Y352.5800     R50.1500   
   X322.1008     Y335.8599     R50.1500   
   X336.3963     Y322.3805     R50.1500   
   X353.6934     Y313.0604     R50.1500   
   X372.8134     Y308.5346     R50.1500   
   X392.4533     Y309.1117     R50.1500   
   X411.2745     Y314.7523     R50.1500   
   X427.9946     Y325.0720     R50.1500   
   X441.4740     Y339.3675     R50.1500   
   X450.7941     Y356.6647     R50.1500   
   X455.3198     Y375.7846     R50.1500   
   X454.7428     Y395.4245     R50.1500   
   X449.1022     Y414.2457     R50.1500   
   X438.7825     Y430.9658     R50.1500   
   X424.4870     Y444.4452     R50.1500   
   X415.2180     Y449.4395     R50.1500   
G1   Y458.006   
G17 G3   X418.0745     Y459.1888     R50.1500   
   X433.6626     Y471.1499     R50.1500   
   X445.6237     Y486.7380     R50.1500   
   X453.1428     Y504.8906     R50.1500   
   X455.7074     Y524.3708     R50.1500   
   X453.1428     Y543.8511     R50.1500   
   X445.6237     Y562.0037     R50.1500   
   X433.6626     Y577.5918     R50.1500   
   X418.0745     Y589.5529     R50.1500   
   X399.9218     Y597.0720     R50.1500   
   X380.4416     Y599.6366     R50.1500   
   X360.9614     Y597.0720     R50.1500   
   X342.8087     Y589.5529     R50.1500   
   X327.2207     Y577.5918     R50.1500   
   X315.2596     Y562.0037     R50.1500   
   X309.0845     Y547.0958     R50.1500   
G1   X147.572   
G17 G3   X142.3162     Y560.5968     R50.1500   
   X130.6922     Y576.4379     R50.1500   
   X115.3643     Y588.7306     R50.1500   
   X97.3771      Y596.6374     R50.1500   
   X77.9564      Y599.6193     R50.1500   
   X58.4256      Y597.4731     R50.1500   
   X40.1158      Y590.3452     R50.1500   
   X24.2748      Y578.7212     R50.1500   
   X11.9820      Y563.3933     R50.1500   
   X4.0753       Y545.4061     R50.1500   
(Pass: 10)
G1   Z-12.000    F500 
G17 G3   X1.0934       Y525.9854     R50.1500    F1200
   X3.2396       Y506.4546     R50.1500   
   X10.3675      Y488.1448     R50.1500   
   X21.9915      Y472.3038     R50.1500   
   X37.3194      Y460.0110     R50.1500   
   X41.2680      Y458.2753     R50.1500   
G1   Y449.449   
G17 G3   X36.6444      Y447.3585     R50.1500   
   X21.4467      Y434.9052     R50.1500   
   X9.9900       Y418.9427     R50.1500   
   X3.0551       Y400.5590     R50.1500   
   X1.1145       Y381.0067     R50.1500   
   X4.3006       Y361.6185     R50.1500   
   X12.3961      Y343.7154     R50.1500   
   X24.8495      Y328.5177     R50.1500   
   X40.8119      Y317.0610     R50.1500   
   X59.1957      Y310.1261     R50.1500   
   X78.7480      Y308.1855     R50.1500   
   X98.1362      Y311.3716     R50.1500   
   X116.0392     Y319.4671     R50.1500   
   X131.2370     Y331.9205     R50.1500   
   X142.6937     Y347.8829     R50.1500   
   X147.5241     Y360.6878     R50.1500   
G1   X309.351   
G17 G3   X311.7811     Y352.5800     R50.1500   
   X322.1008     Y335.8599     R50.1500   
   X336.3963     Y322.3805     R50.1500   
   X353.6934     Y313.0604     R50.1500   
   X372.8134     Y308.5346     R50.1500   
   X392.4533     Y309.1117     R50.1500   
   X411.2745     Y314.7523     R50.1500   
   X427.9946     Y325.0720     R50.1500   
   X441.4740     Y339.3675     R50.1500   
   X450.7941     Y356.6647     R50.1500   
   X455.3198     Y375.7846     R50.1500   
   X454.7428     Y395.4245     R50.1500   
   X449.1022     Y414.2457     R50.1500   
   X438.7825     Y430.9658     R50.1500   
   X424.4870     Y444.4452     R50.1500   
   X415.2180     Y449.4395     R50.1500   
G1   Y458.006   
G17 G3   X418.0745     Y459.1888     R50.1500   
   X433.6626     Y471.1499     R50.1500   
   X445.6237     Y486.7380     R50.1500   
   X453.1428     Y504.8906     R50.1500   
   X455.7074     Y524.3708     R50.1500   
   X453.1428     Y543.8511     R50.1500   
   X445.6237     Y562.0037     R50.1500   
   X433.6626     Y577.5918     R50.1500   
   X418.0745     Y589.5529     R50.1500   
   X399.9218     Y597.0720     R50.1500   
   X380.4416     Y599.6366     R50.1500   
   X360.9614     Y597.0720     R50.1500   
   X342.8087     Y589.5529     R50.1500   
   X327.2207     Y577.5918     R50.1500   
   X315.2596     Y562.0037     R50.1500   
   X309.0845     Y547.0958     R50.1500   
G1   X147.572   
G17 G3   X142.3162     Y560.5968     R50.1500   
   X130.6922     Y576.4379     R50.1500   
   X115.3643     Y588.7306     R50.1500   
   X97.3771      Y596.6374     R50.1500   
   X77.9564      Y599.6193     R50.1500   
   X58.4256      Y597.4731     R50.1500   
   X40.1158      Y590.3452     R50.1500   
   X24.2748      Y578.7212     R50.1500   
   X11.9820      Y563.3933     R50.1500   
   X4.0753       Y545.4061     R50.1500   
(Pass: 11)
G1   Z-13.200    F500 
G17 G3   X1.0934       Y525.9854     R50.1500    F1200
   X3.2396       Y506.4546     R50.1500   
   X10.3675      Y488.1448     R50.1500   
   X21.9915      Y472.3038     R50.1500   
   X37.3194      Y460.0110     R50.1500   
   X41.2680      Y458.2753     R50.1500   
G1   Y449.449   
G17 G3   X36.6444      Y447.3585     R50.1500   
   X21.4467      Y434.9052     R50.1500   
   X9.9900       Y418.9427     R50.1500   
   X3.0551       Y400.5590     R50.1500   
   X1.1145       Y381.0067     R50.1500   
   X4.3006       Y361.6185     R50.1500   
   X12.3961      Y343.7154     R50.1500   
   X24.8495      Y328.5177     R50.1500   
   X40.8119      Y317.0610     R50.1500   
   X59.1957      Y310.1261     R50.1500   
   X78.7480      Y308.1855     R50.1500   
   X98.1362      Y311.3716     R50.1500   
   X116.0392     Y319.4671     R50.1500   
   X131.2370     Y331.9205     R50.1500   
   X142.6937     Y347.8829     R50.1500   
   X147.5241     Y360.6878     R50.1500   
G1   X309.351   
G17 G3   X311.7811     Y352.5800     R50.1500   
   X322.1008     Y335.8599     R50.1500   
   X336.3963     Y322.3805     R50.1500   
   X353.6934     Y313.0604     R50.1500   
   X372.8134     Y308.5346     R50.1500   
   X392.4533     Y309.1117     R50.1500   
   X411.2745     Y314.7523     R50.1500   
   X427.9946     Y325.0720     R50.1500   
   X441.4740     Y339.3675     R50.1500   
   X450.7941     Y356.6647     R50.1500   
   X455.3198     Y375.7846     R50.1500   
   X454.7428     Y395.4245     R50.1500   
   X449.1022     Y414.2457     R50.1500   
   X438.7825     Y430.9658     R50.1500   
   X424.4870     Y444.4452     R50.1500   
   X415.2180     Y449.4395     R50.1500   
G1   Y458.006   
G17 G3   X418.0745     Y459.1888     R50.1500   
   X433.6626     Y471.1499     R50.1500   
   X445.6237     Y486.7380     R50.1500   
   X453.1428     Y504.8906     R50.1500   
   X455.7074     Y524.3708     R50.1500   
   X453.1428     Y543.8511     R50.1500   
   X445.6237     Y562.0037     R50.1500   
   X433.6626     Y577.5918     R50.1500   
   X418.0745     Y589.5529     R50.1500   
   X399.9218     Y597.0720     R50.1500   
   X380.4416     Y599.6366     R50.1500   
   X360.9614     Y597.0720     R50.1500   
   X342.8087     Y589.5529     R50.1500   
   X327.2207     Y577.5918     R50.1500   
   X315.2596     Y562.0037     R50.1500   
   X309.0845     Y547.0958     R50.1500   
G1   X147.572   
G17 G3   X142.3162     Y560.5968     R50.1500   
   X130.6922     Y576.4379     R50.1500   
   X115.3643     Y588.7306     R50.1500   
   X97.3771      Y596.6374     R50.1500   
   X77.9564      Y599.6193     R50.1500   
   X58.4256      Y597.4731     R50.1500   
   X40.1158      Y590.3452     R50.1500   
   X24.2748      Y578.7212     R50.1500   
   X11.9820      Y563.3933     R50.1500   
   X4.0753       Y545.4061     R50.1500   
G0   Z5.000     
(Pass: 1)
   X468.517      Y234.051   
G1   Z-1.200     F500 
   Y586.491    F1200
   X472.927   
   Y234.051   
G0   Z5.000     
   X801.017   
G1   Z-1.200     F500 
   Y586.491    F1200
   X805.427   
   Y234.051   
G0   Z5.000     
   X806.087      Y233.421   
G1   Z-1.200     F500 
   Y587.121    F1200
   X800.387   
   Y233.421   
   X806.087   
G0   Z5.000     
   X467.887      Y587.121   
G1   Z-1.200     F500 
   Y233.421    F1200
   X473.587   
   Y587.121   
   X467.887   
(Pass: 2)
G0   Z5.000     
   X468.517      Y234.051   
G1   Z-2.400     F500 
   Y586.491    F1200
   X472.927   
   Y234.051   
G0   Z5.000     
   X801.017   
G1   Z-2.400     F500 
   Y586.491    F1200
   X805.427   
   Y234.051   
G0   Z5.000     
   X806.087      Y233.421   
G1   Z-2.400     F500 
   Y587.121    F1200
   X800.387   
   Y233.421   
   X806.087   
G0   Z5.000     
   X467.887      Y587.121   
G1   Z-2.400     F500 
   Y233.421    F1200
   X473.587   
   Y587.121   
   X467.887   
(Pass: 3)
G0   Z5.000     
   X468.517      Y234.051   
G1   Z-3.600     F500 
   Y586.491    F1200
   X472.927   
   Y234.051   
G0   Z5.000     
   X801.017   
G1   Z-3.600     F500 
   Y586.491    F1200
   X805.427   
   Y234.051   
G0   Z5.000     
   X806.087      Y233.421   
G1   Z-3.600     F500 
   Y587.121    F1200
   X800.387   
   Y233.421   
   X806.087   
G0   Z5.000     
   X467.887      Y587.121   
G1   Z-3.600     F500 
   Y233.421    F1200
   X473.587   
   Y587.121   
   X467.887   
(Pass: 4)
G0   Z5.000     
   X468.517      Y234.051   
G1   Z-4.800     F500 
   Y586.491    F1200
   X472.927   
   Y234.051   
G0   Z5.000     
   X801.017   
G1   Z-4.800     F500 
   Y586.491    F1200
   X805.427   
   Y234.051   
G0   Z5.000     
   X806.087      Y233.421   
G1   Z-4.800     F500 
   Y587.121    F1200
   X800.387   
   Y233.421   
   X806.087   
G0   Z5.000     
   X467.887      Y587.121   
G1   Z-4.800     F500 
   Y233.421    F1200
   X473.587   
   Y587.121   
   X467.887   
(Pass: 5)
G0   Z5.000     
   X468.517      Y234.051   
G1   Z-6.000     F500 
   Y586.491    F1200
   X472.927   
   Y234.051   
G0   Z5.000     
   X801.017   
G1   Z-6.000     F500 
   Y586.491    F1200
   X805.427   
   Y234.051   
G0   Z5.000     
   X806.087      Y233.421   
G1   Z-6.000     F500 
   Y587.121    F1200
   X800.387   
   Y233.421   
   X806.087   
G0   Z5.000     
   X467.887      Y587.121   
G1   Z-6.000     F500 
   Y233.421    F1200
   X473.587   
   Y587.121   
   X467.887   
G0   Z5.000     
(Pass: 1)
   X461.587      Y593.421   
G1   Z-1.200     F500 
   Y227.121    F1200
   X812.387   
   Y593.421   
   X461.587   
(Pass: 2)
   Z-2.400     F500 
   Y227.121    F1200
   X812.387   
   Y593.421   
   X461.587   
(Pass: 3)
   Z-3.600     F500 
   Y227.121    F1200
   X812.387   
   Y593.421   
   X461.587   
(Pass: 4)
   Z-4.800     F500 
   Y227.121    F1200
   X812.387   
   Y593.421   
   X461.587   
(Pass: 5)
   Z-6.000     F500 
   Y227.121    F1200
   X812.387   
   Y593.421   
   X461.587   
(Pass: 6)
   Z-7.200     F500 
   Y227.121    F1200
   X812.387   
   Y593.421   
   X461.587   
(Pass: 7)
   Z-8.400     F500 
   Y227.121    F1200
   X812.387   
   Y593.421   
   X461.587   
(Pass: 8)
   Z-9.600     F500 
   Y227.121    F1200
   X812.387   
   Y593.421   
   X461.587   
(Pass: 9)
   Z-10.800    F500 
   Y227.121    F1200
   X812.387   
   Y593.421   
   X461.587   
(Pass: 10)
   Z-12.000    F500 
   Y227.121    F1200
   X812.387   
   Y593.421   
   X461.587   
(Pass: 11)
   Z-13.200    F500 
   Y227.121    F1200
   X812.387   
   Y593.421   
   X461.587   
G0   Z5.000     
(Pass: 1)
   X822.302      Y586.273   
G1   Z-1.200     F500 
   Y428.973    F1200
   X1188.602  
   Y586.273   
   X822.302   
(Pass: 2)
   Z-2.400     F500 
   Y428.973    F1200
   X1188.602  
   Y586.273   
   X822.302   
(Pass: 3)
   Z-3.600     F500 
   Y428.973    F1200
   X1188.602  
   Y586.273   
   X822.302   
(Pass: 4)
   Z-4.800     F500 
   Y428.973    F1200
   X1188.602  
   Y586.273   
   X822.302   
(Pass: 5)
   Z-6.000     F500 
   Y428.973    F1200
   X1188.602  
   Y586.273   
   X822.302   
(Pass: 6)
   Z-7.200     F500 
   Y428.973    F1200
   X1188.602  
   Y586.273   
   X822.302   
(Pass: 7)
   Z-8.400     F500 
   Y428.973    F1200
   X1188.602  
   Y586.273   
   X822.302   
(Pass: 8)
   Z-9.600     F500 
   Y428.973    F1200
   X1188.602  
   Y586.273   
   X822.302   
(Pass: 9)
   Z-10.800    F500 
   Y428.973    F1200
   X1188.602  
   Y586.273   
   X822.302   
(Pass: 10)
   Z-12.000    F500 
   Y428.973    F1200
   X1188.602  
   Y586.273   
   X822.302   
(Pass: 11)
   Z-13.200    F500 
   Y428.973    F1200
   X1188.602  
   Y586.273   
   X822.302   
G0   Z5.000     
(Pass: 1)
   X822.192      Y413.877   
G1   Z-1.200     F500 
   Y256.577    F1200
   X1188.492  
   Y413.877   
   X822.192   
(Pass: 2)
   Z-2.400     F500 
   Y256.577    F1200
   X1188.492  
   Y413.877   
   X822.192   
(Pass: 3)
   Z-3.600     F500 
   Y256.577    F1200
   X1188.492  
   Y413.877   
   X822.192   
(Pass: 4)
   Z-4.800     F500 
   Y256.577    F1200
   X1188.492  
   Y413.877   
   X822.192   
(Pass: 5)
   Z-6.000     F500 
   Y256.577    F1200
   X1188.492  
   Y413.877   
   X822.192   
(Pass: 6)
   Z-7.200     F500 
   Y256.577    F1200
   X1188.492  
   Y413.877   
   X822.192   
(Pass: 7)
   Z-8.400     F500 
   Y256.577    F1200
   X1188.492  
   Y413.877   
   X822.192   
(Pass: 8)
   Z-9.600     F500 
   Y256.577    F1200
   X1188.492  
   Y413.877   
   X822.192   
(Pass: 9)
   Z-10.800    F500 
   Y256.577    F1200
   X1188.492  
   Y413.877   
   X822.192   
(Pass: 10)
   Z-12.000    F500 
   Y256.577    F1200
   X1188.492  
   Y413.877   
   X822.192   
(Pass: 11)
   Z-13.200    F500 
   Y256.577    F1200
   X1188.492  
   Y413.877   
   X822.192   
G0   Z5.000     
G0 X0 Y0 (home)
M05
M30
%
