%
(Generated by SketchUcam {1.2})
(File: DogBoneBox.skp)
(Bit diameter: 6.3mm)
(Feed rate: 600.0mm/min)
(Plunge Feed rate: 400.0mm/min)
(Material Thickness: 12.0mm)
(Material length: 600.0mm X width: 1200.0mm)
(Overhead Gantry: true)
(Retract feed rate NOT limited to plunge feed rate)
(Multipass enabled, Depth = 1.2mm)
(Optimization is ON)
(www.PhlatBoyz.com)
G90 G21 G49
M3 S11000
G0   Z5.000
(Pass: 1)
   X468.517      Y234.051
G1   Z-1.200     F400
   Y586.491    F400
   X472.927
   Y234.051
G0   Z5.000
   X801.017
G1   Z-1.200     F400
   Y586.491    F400
   X805.427
   Y234.051
G0   Z5.000
   X806.087      Y233.421
G1   Z-1.200     F400
   Y587.121    F400
   X800.387
   Y233.421
   X806.087
G0   Z5.000
   X467.887      Y587.121
G1   Z-1.200     F400
   Y233.421    F400
   X473.587
   Y587.121
   X467.887
(Pass: 2)
G0   Z5.000
   X468.517      Y234.051
G1   Z-2.400     F400
   Y586.491    F400
   X472.927
   Y234.051
G0   Z5.000
   X801.017
G1   Z-2.400     F400
   Y586.491    F400
   X805.427
   Y234.051
G0   Z5.000
   X806.087      Y233.421
G1   Z-2.400     F400
   Y587.121    F400
   X800.387
   Y233.421
   X806.087
G0   Z5.000
   X467.887      Y587.121
G1   Z-2.400     F400
   Y233.421    F400
   X473.587
   Y587.121
   X467.887
(Pass: 3)
G0   Z5.000
   X468.517      Y234.051
G1   Z-3.600     F400
   Y586.491    F400
   X472.927
   Y234.051
G0   Z5.000
   X801.017
G1   Z-3.600     F400
   Y586.491    F400
   X805.427
   Y234.051
G0   Z5.000
   X806.087      Y233.421
G1   Z-3.600     F400
   Y587.121    F400
   X800.387
   Y233.421
   X806.087
G0   Z5.000
   X467.887      Y587.121
G1   Z-3.600     F400
   Y233.421    F400
   X473.587
   Y587.121
   X467.887
(Pass: 4)
G0   Z5.000
   X468.517      Y234.051
G1   Z-4.800     F400
   Y586.491    F400
   X472.927
   Y234.051
G0   Z5.000
   X801.017
G1   Z-4.800     F400
   Y586.491    F400
   X805.427
   Y234.051
G0   Z5.000
   X806.087      Y233.421
G1   Z-4.800     F400
   Y587.121    F400
   X800.387
   Y233.421
   X806.087
G0   Z5.000
   X467.887      Y587.121
G1   Z-4.800     F400
   Y233.421    F400
   X473.587
   Y587.121
   X467.887
(Pass: 5)
G0   Z5.000
   X468.517      Y234.051
G1   Z-6.000     F400
   Y586.491    F400
   X472.927
   Y234.051
G0   Z5.000
   X801.017
G1   Z-6.000     F400
   Y586.491    F400
   X805.427
   Y234.051
G0   Z5.000
   X806.087      Y233.421
G1   Z-6.000     F400
   Y587.121    F400
   X800.387
   Y233.421
   X806.087
G0   Z5.000
   X467.887      Y587.121
G1   Z-6.000     F400
   Y233.421    F400
   X473.587
   Y587.121
   X467.887
G0   Z5.000
(Pass: 1)
   X461.587      Y593.421
G1   Z-1.200     F400
   Y227.121    F400
   X812.387
   Y593.421
   X461.587
(Pass: 2)
   Z-2.400     F400
   Y227.121    F400
   X812.387
   Y593.421
   X461.587
(Pass: 3)
   Z-3.600     F400
   Y227.121    F400
   X812.387
   Y593.421
   X461.587
(Pass: 4)
   Z-4.800     F400
   Y227.121    F400
   X812.387
   Y593.421
   X461.587
(Pass: 5)
   Z-6.000     F400
   Y227.121    F400
   X812.387
   Y593.421
   X461.587
(Pass: 6)
   Z-7.200     F400
   Y227.121    F400
   X812.387
   Y593.421
   X461.587
(Pass: 7)
   Z-8.400     F400
   Y227.121    F400
   X812.387
   Y593.421
   X461.587
(Pass: 8)
   Z-9.600     F400
   Y227.121    F400
   X812.387
   Y593.421
   X461.587
(Pass: 9)
   Z-10.800    F400
   Y227.121    F400
   X812.387
   Y593.421
   X461.587
(Pass: 10)
   Z-12.000    F400
   Y227.121    F400
   X812.387
   Y593.421
   X461.587
(Pass: 11)
   Z-13.200    F400
   Y227.121    F400
   X812.387
   Y593.421
   X461.587
G0   Z5.000
(Pass: 1)
   X822.302      Y586.273
G1   Z-1.200     F400
   Y428.973    F400
   X1188.602
   Y586.273
   X822.302
(Pass: 2)
   Z-2.400     F400
   Y428.973    F400
   X1188.602
   Y586.273
   X822.302
(Pass: 3)
   Z-3.600     F400
   Y428.973    F400
   X1188.602
   Y586.273
   X822.302
(Pass: 4)
   Z-4.800     F400
   Y428.973    F400
   X1188.602
   Y586.273
   X822.302
(Pass: 5)
   Z-6.000     F400
   Y428.973    F400
   X1188.602
   Y586.273
   X822.302
(Pass: 6)
   Z-7.200     F400
   Y428.973    F400
   X1188.602
   Y586.273
   X822.302
(Pass: 7)
   Z-8.400     F400
   Y428.973    F400
   X1188.602
   Y586.273
   X822.302
(Pass: 8)
   Z-9.600     F400
   Y428.973    F400
   X1188.602
   Y586.273
   X822.302
(Pass: 9)
   Z-10.800    F400
   Y428.973    F400
   X1188.602
   Y586.273
   X822.302
(Pass: 10)
   Z-12.000    F400
   Y428.973    F400
   X1188.602
   Y586.273
   X822.302
(Pass: 11)
   Z-13.200    F400
   Y428.973    F400
   X1188.602
   Y586.273
   X822.302
G0   Z5.000
(Pass: 1)
   X822.192      Y413.877
G1   Z-1.200     F400
   Y256.577    F400
   X1188.492
   Y413.877
   X822.192
(Pass: 2)
   Z-2.400     F400
   Y256.577    F400
   X1188.492
   Y413.877
   X822.192
(Pass: 3)
   Z-3.600     F400
   Y256.577    F400
   X1188.492
   Y413.877
   X822.192
(Pass: 4)
   Z-4.800     F400
   Y256.577    F400
   X1188.492
   Y413.877
   X822.192
(Pass: 5)
   Z-6.000     F400
   Y256.577    F400
   X1188.492
   Y413.877
   X822.192
(Pass: 6)
   Z-7.200     F400
   Y256.577    F400
   X1188.492
   Y413.877
   X822.192
(Pass: 7)
   Z-8.400     F400
   Y256.577    F400
   X1188.492
   Y413.877
   X822.192
(Pass: 8)
   Z-9.600     F400
   Y256.577    F400
   X1188.492
   Y413.877
   X822.192
(Pass: 9)
   Z-10.800    F400
   Y256.577    F400
   X1188.492
   Y413.877
   X822.192
(Pass: 10)
   Z-12.000    F400
   Y256.577    F400
   X1188.492
   Y413.877
   X822.192
(Pass: 11)
   Z-13.200    F400
   Y256.577    F400
   X1188.492
   Y413.877
   X822.192
G0   Z5.000
G0 X0 Y0 (home)
M05
M30
%
