%
(Generated by SketchUcam {1.2})
(File: DogBoneBox.skp)
(Bit diameter: 6.3mm)
(Feed rate: 1200.0mm/min)
(Plunge Feed rate: 500.0mm/min)
(Material Thickness: 12.0mm)
(Material length: 900.0mm X width: 310.0mm)
(Overhead Gantry: true)
(Retract feed rate NOT limited to plunge feed rate)
(Multipass enabled, Depth = 1.0mm)
(Optimization is ON)
(www.PhlatBoyz.com)
G90 G21 G49 
M3 S10000
G0   Z5.000     
(Pass: 1)
   X65.891       Y53.716    
G1   Z-1.000     F500 
   Y144.128    F1200
   X70.301    
   Y53.716    
(Pass: 2)
G0   Z5.000     
   X65.891    
G1   Z-2.000     F500 
   Y144.128    F1200
   X70.301    
   Y53.716    
(Pass: 3)
G0   Z5.000     
   X65.891    
G1   Z-3.000     F500 
   Y144.128    F1200
   X70.301    
   Y53.716    
(Pass: 4)
G0   Z5.000     
   X65.891    
G1   Z-4.000     F500 
   Y144.128    F1200
   X70.301    
   Y53.716    
(Pass: 5)
G0   Z5.000     
   X65.891    
G1   Z-5.000     F500 
   Y144.128    F1200
   X70.301    
   Y53.716    
(Pass: 6)
G0   Z5.000     
   X65.891    
G1   Z-6.000     F500 
   Y144.128    F1200
   X70.301    
   Y53.716    
G0   Z5.000     
(Pass: 1)
   X70.961       Y53.086    
G1   Z-1.000     F500 
   Y144.758    F1200
   X65.261    
   Y53.086    
   X70.961    
(Pass: 2)
G0   Z5.000     
G1   Z-2.000     F500 
   Y144.758    F1200
   X65.261    
   Y53.086    
   X70.961    
(Pass: 3)
G0   Z5.000     
G1   Z-3.000     F500 
   Y144.758    F1200
   X65.261    
   Y53.086    
   X70.961    
(Pass: 4)
G0   Z5.000     
G1   Z-4.000     F500 
   Y144.758    F1200
   X65.261    
   Y53.086    
   X70.961    
(Pass: 5)
G0   Z5.000     
G1   Z-5.000     F500 
   Y144.758    F1200
   X65.261    
   Y53.086    
   X70.961    
(Pass: 6)
G0   Z5.000     
G1   Z-6.000     F500 
   Y144.758    F1200
   X65.261    
   Y53.086    
   X70.961    
G0   Z5.000     
(Pass: 1)
   X82.301       Y53.716    
G1   Z-1.000     F500 
   Y58.156     F1200
   X86.711    
   Y53.716    
   X91.121    
   Y58.156    
   X95.531    
   Y53.716    
   X99.941    
   Y58.156    
   X104.351   
   Y53.716    
   X108.761   
   Y58.156    
   X113.171   
   Y53.716    
   X117.581   
   Y58.156    
   X121.991   
   Y53.716    
   X126.401   
   Y58.156    
   X130.811   
   Y53.716    
   X135.221   
   Y58.156    
   X139.631   
   Y53.716    
   X144.041   
   Y58.156    
   X148.451   
   Y53.716    
   X152.861   
   Y58.156    
   X157.271   
   Y53.716    
   X161.681   
   Y58.156    
   X166.091   
   Y53.716    
   X170.501   
   Y58.156    
   X174.911   
   Y53.716    
   X179.321   
   Y58.156    
   X183.731   
   Y53.716    
   X188.141   
   Y58.156    
   X192.551   
   Y53.716    
   X196.961   
   Y58.156    
   X201.371   
   Y53.716    
   X205.781   
   Y58.156    
   X210.191   
   Y53.716    
   X214.601   
   Y58.156    
   X219.011   
   Y53.716    
   X223.421   
   Y58.156    
   X227.831   
   Y53.716    
(Pass: 2)
G0   Z5.000     
   X82.301    
G1   Z-2.000     F500 
   Y58.156     F1200
   X86.711    
   Y53.716    
   X91.121    
   Y58.156    
   X95.531    
   Y53.716    
   X99.941    
   Y58.156    
   X104.351   
   Y53.716    
   X108.761   
   Y58.156    
   X113.171   
   Y53.716    
   X117.581   
   Y58.156    
   X121.991   
   Y53.716    
   X126.401   
   Y58.156    
   X130.811   
   Y53.716    
   X135.221   
   Y58.156    
   X139.631   
   Y53.716    
   X144.041   
   Y58.156    
   X148.451   
   Y53.716    
   X152.861   
   Y58.156    
   X157.271   
   Y53.716    
   X161.681   
   Y58.156    
   X166.091   
   Y53.716    
   X170.501   
   Y58.156    
   X174.911   
   Y53.716    
   X179.321   
   Y58.156    
   X183.731   
   Y53.716    
   X188.141   
   Y58.156    
   X192.551   
   Y53.716    
   X196.961   
   Y58.156    
   X201.371   
   Y53.716    
   X205.781   
   Y58.156    
   X210.191   
   Y53.716    
   X214.601   
   Y58.156    
   X219.011   
   Y53.716    
   X223.421   
   Y58.156    
   X227.831   
   Y53.716    
(Pass: 3)
G0   Z5.000     
   X82.301    
G1   Z-3.000     F500 
   Y58.156     F1200
   X86.711    
   Y53.716    
   X91.121    
   Y58.156    
   X95.531    
   Y53.716    
   X99.941    
   Y58.156    
   X104.351   
   Y53.716    
   X108.761   
   Y58.156    
   X113.171   
   Y53.716    
   X117.581   
   Y58.156    
   X121.991   
   Y53.716    
   X126.401   
   Y58.156    
   X130.811   
   Y53.716    
   X135.221   
   Y58.156    
   X139.631   
   Y53.716    
   X144.041   
   Y58.156    
   X148.451   
   Y53.716    
   X152.861   
   Y58.156    
   X157.271   
   Y53.716    
   X161.681   
   Y58.156    
   X166.091   
   Y53.716    
   X170.501   
   Y58.156    
   X174.911   
   Y53.716    
   X179.321   
   Y58.156    
   X183.731   
   Y53.716    
   X188.141   
   Y58.156    
   X192.551   
   Y53.716    
   X196.961   
   Y58.156    
   X201.371   
   Y53.716    
   X205.781   
   Y58.156    
   X210.191   
   Y53.716    
   X214.601   
   Y58.156    
   X219.011   
   Y53.716    
   X223.421   
   Y58.156    
   X227.831   
   Y53.716    
(Pass: 4)
G0   Z5.000     
   X82.301    
G1   Z-4.000     F500 
   Y58.156     F1200
   X86.711    
   Y53.716    
   X91.121    
   Y58.156    
   X95.531    
   Y53.716    
   X99.941    
   Y58.156    
   X104.351   
   Y53.716    
   X108.761   
   Y58.156    
   X113.171   
   Y53.716    
   X117.581   
   Y58.156    
   X121.991   
   Y53.716    
   X126.401   
   Y58.156    
   X130.811   
   Y53.716    
   X135.221   
   Y58.156    
   X139.631   
   Y53.716    
   X144.041   
   Y58.156    
   X148.451   
   Y53.716    
   X152.861   
   Y58.156    
   X157.271   
   Y53.716    
   X161.681   
   Y58.156    
   X166.091   
   Y53.716    
   X170.501   
   Y58.156    
   X174.911   
   Y53.716    
   X179.321   
   Y58.156    
   X183.731   
   Y53.716    
   X188.141   
   Y58.156    
   X192.551   
   Y53.716    
   X196.961   
   Y58.156    
   X201.371   
   Y53.716    
   X205.781   
   Y58.156    
   X210.191   
   Y53.716    
   X214.601   
   Y58.156    
   X219.011   
   Y53.716    
   X223.421   
   Y58.156    
   X227.831   
   Y53.716    
(Pass: 5)
G0   Z5.000     
   X82.301    
G1   Z-5.000     F500 
   Y58.156     F1200
   X86.711    
   Y53.716    
   X91.121    
   Y58.156    
   X95.531    
   Y53.716    
   X99.941    
   Y58.156    
   X104.351   
   Y53.716    
   X108.761   
   Y58.156    
   X113.171   
   Y53.716    
   X117.581   
   Y58.156    
   X121.991   
   Y53.716    
   X126.401   
   Y58.156    
   X130.811   
   Y53.716    
   X135.221   
   Y58.156    
   X139.631   
   Y53.716    
   X144.041   
   Y58.156    
   X148.451   
   Y53.716    
   X152.861   
   Y58.156    
   X157.271   
   Y53.716    
   X161.681   
   Y58.156    
   X166.091   
   Y53.716    
   X170.501   
   Y58.156    
   X174.911   
   Y53.716    
   X179.321   
   Y58.156    
   X183.731   
   Y53.716    
   X188.141   
   Y58.156    
   X192.551   
   Y53.716    
   X196.961   
   Y58.156    
   X201.371   
   Y53.716    
   X205.781   
   Y58.156    
   X210.191   
   Y53.716    
   X214.601   
   Y58.156    
   X219.011   
   Y53.716    
   X223.421   
   Y58.156    
   X227.831   
   Y53.716    
(Pass: 6)
G0   Z5.000     
   X82.301    
G1   Z-6.000     F500 
   Y58.156     F1200
   X86.711    
   Y53.716    
   X91.121    
   Y58.156    
   X95.531    
   Y53.716    
   X99.941    
   Y58.156    
   X104.351   
   Y53.716    
   X108.761   
   Y58.156    
   X113.171   
   Y53.716    
   X117.581   
   Y58.156    
   X121.991   
   Y53.716    
   X126.401   
   Y58.156    
   X130.811   
   Y53.716    
   X135.221   
   Y58.156    
   X139.631   
   Y53.716    
   X144.041   
   Y58.156    
   X148.451   
   Y53.716    
   X152.861   
   Y58.156    
   X157.271   
   Y53.716    
   X161.681   
   Y58.156    
   X166.091   
   Y53.716    
   X170.501   
   Y58.156    
   X174.911   
   Y53.716    
   X179.321   
   Y58.156    
   X183.731   
   Y53.716    
   X188.141   
   Y58.156    
   X192.551   
   Y53.716    
   X196.961   
   Y58.156    
   X201.371   
   Y53.716    
   X205.781   
   Y58.156    
   X210.191   
   Y53.716    
   X214.601   
   Y58.156    
   X219.011   
   Y53.716    
   X223.421   
   Y58.156    
   X227.831   
   Y53.716    
G0   Z5.000     
(Pass: 1)
   X229.961      Y53.086    
G1   Z-1.000     F500 
   Y58.786     F1200
   X77.261    
   Y53.086    
   X229.961   
(Pass: 2)
G0   Z5.000     
G1   Z-2.000     F500 
   Y58.786     F1200
   X77.261    
   Y53.086    
   X229.961   
(Pass: 3)
G0   Z5.000     
G1   Z-3.000     F500 
   Y58.786     F1200
   X77.261    
   Y53.086    
   X229.961   
(Pass: 4)
G0   Z5.000     
G1   Z-4.000     F500 
   Y58.786     F1200
   X77.261    
   Y53.086    
   X229.961   
(Pass: 5)
G0   Z5.000     
G1   Z-5.000     F500 
   Y58.786     F1200
   X77.261    
   Y53.086    
   X229.961   
(Pass: 6)
G0   Z5.000     
G1   Z-6.000     F500 
   Y58.786     F1200
   X77.261    
   Y53.086    
   X229.961   
G0   Z5.000     
(Pass: 1)
   X236.891      Y53.716    
G1   Z-1.000     F500 
   Y144.128    F1200
   X241.301   
   Y53.716    
(Pass: 2)
G0   Z5.000     
   X236.891   
G1   Z-2.000     F500 
   Y144.128    F1200
   X241.301   
   Y53.716    
(Pass: 3)
G0   Z5.000     
   X236.891   
G1   Z-3.000     F500 
   Y144.128    F1200
   X241.301   
   Y53.716    
(Pass: 4)
G0   Z5.000     
   X236.891   
G1   Z-4.000     F500 
   Y144.128    F1200
   X241.301   
   Y53.716    
(Pass: 5)
G0   Z5.000     
   X236.891   
G1   Z-5.000     F500 
   Y144.128    F1200
   X241.301   
   Y53.716    
(Pass: 6)
G0   Z5.000     
   X236.891   
G1   Z-6.000     F500 
   Y144.128    F1200
   X241.301   
   Y53.716    
G0   Z5.000     
(Pass: 1)
   X241.961      Y53.086    
G1   Z-1.000     F500 
   Y144.758    F1200
   X236.261   
   Y53.086    
   X241.961   
(Pass: 2)
G0   Z5.000     
G1   Z-2.000     F500 
   Y144.758    F1200
   X236.261   
   Y53.086    
   X241.961   
(Pass: 3)
G0   Z5.000     
G1   Z-3.000     F500 
   Y144.758    F1200
   X236.261   
   Y53.086    
   X241.961   
(Pass: 4)
G0   Z5.000     
G1   Z-4.000     F500 
   Y144.758    F1200
   X236.261   
   Y53.086    
   X241.961   
(Pass: 5)
G0   Z5.000     
G1   Z-5.000     F500 
   Y144.758    F1200
   X236.261   
   Y53.086    
   X241.961   
(Pass: 6)
G0   Z5.000     
G1   Z-6.000     F500 
   Y144.758    F1200
   X236.261   
   Y53.086    
   X241.961   
G0   Z5.000     
(Pass: 1)
   X207.683      Y36.786    
G1   Z-1.000     F500 
G17 G3   X209.3032     Y31.3809      R50.1500    F1200
   X216.1830     Y20.2342      R50.1500   
   X225.7134     Y11.2479      R50.1500   
   X237.2448     Y5.0345       R50.1500   
   X249.9915     Y2.0173       R50.1500   
   X263.0847     Y2.4020       R50.1500   
   X275.6322     Y6.1624       R50.1500   
   X286.7789     Y13.0422      R50.1500   
   X295.7652     Y22.5726      R50.1500   
   X301.9786     Y34.1040      R50.1500   
   X304.9957     Y46.8506      R50.1500   
   X304.6110     Y59.9439      R50.1500   
   X300.8506     Y72.4914      R50.1500   
   X293.9708     Y83.6381      R50.1500   
   X284.4405     Y92.6243      R50.1500   
   X278.2612     Y95.9539      R50.1500   
G1   Y101.665   
G17 G3   X280.1655     Y102.4534     R50.1500   
   X290.5576     Y110.4275     R50.1500   
   X298.5316     Y120.8195     R50.1500   
   X303.5444     Y132.9213     R50.1500   
   X305.2541     Y145.9081     R50.1500   
   X303.5444     Y158.8949     R50.1500   
   X298.5316     Y170.9967     R50.1500   
   X290.5576     Y181.3887     R50.1500   
   X280.1655     Y189.3628     R50.1500   
   X268.0637     Y194.3755     R50.1500   
   X255.0769     Y196.0853     R50.1500   
   X242.0901     Y194.3755     R50.1500   
   X229.9883     Y189.3628     R50.1500   
   X219.5963     Y181.3887     R50.1500   
   X211.6222     Y170.9967     R50.1500   
   X207.5055     Y161.0581     R50.1500   
G1   X99.831    
G17 G3   X96.3266      Y170.0588     R50.1500   
   X88.5773      Y180.6195     R50.1500   
   X78.3587      Y188.8146     R50.1500   
   X66.3672      Y194.0858     R50.1500   
   X53.4201      Y196.0737     R50.1500   
   X40.3996      Y194.6430     R50.1500   
   X28.1931      Y189.8910     R50.1500   
   X17.6324      Y182.1417     R50.1500   
   X9.4372       Y171.9231     R50.1500   
   X4.1660       Y159.9316     R50.1500   
   X2.1781       Y146.9845     R50.1500   
   X3.6089       Y133.9640     R50.1500   
   X8.3609       Y121.7574     R50.1500   
   X16.1102      Y111.1967     R50.1500   
   X26.3288      Y103.0016     R50.1500   
   X28.9612      Y101.8444     R50.1500   
G1   Y95.960    
G17 G3   X25.8788      Y94.5666      R50.1500   
   X15.7470      Y86.2643      R50.1500   
   X8.1092       Y75.6227      R50.1500   
   X3.4859       Y63.3669      R50.1500   
   X2.1922       Y50.3320      R50.1500   
   X4.3162       Y37.4065      R50.1500   
   X9.7133       Y25.4712      R50.1500   
   X18.0155      Y15.3394      R50.1500   
   X28.6571      Y7.7016       R50.1500   
   X40.9130      Y3.0783       R50.1500   
   X53.9478      Y1.7846       R50.1500   
   X66.8733      Y3.9086       R50.1500   
   X78.8087      Y9.3056       R50.1500   
   X88.9405      Y17.6079      R50.1500   
   X96.5783      Y28.2495      R50.1500   
   X99.7986      Y36.7861      R50.1500   
G1   X207.683   
(Pass: 2)
   Z-2.000     F500 
G17 G3   X209.3032     Y31.3809      R50.1500    F1200
   X216.1830     Y20.2342      R50.1500   
   X225.7134     Y11.2479      R50.1500   
   X237.2448     Y5.0345       R50.1500   
   X249.9915     Y2.0173       R50.1500   
   X263.0847     Y2.4020       R50.1500   
   X275.6322     Y6.1624       R50.1500   
   X286.7789     Y13.0422      R50.1500   
   X295.7652     Y22.5726      R50.1500   
   X301.9786     Y34.1040      R50.1500   
   X304.9957     Y46.8506      R50.1500   
   X304.6110     Y59.9439      R50.1500   
   X300.8506     Y72.4914      R50.1500   
   X293.9708     Y83.6381      R50.1500   
   X284.4405     Y92.6243      R50.1500   
   X278.2612     Y95.9539      R50.1500   
G1   Y101.665   
G17 G3   X280.1655     Y102.4534     R50.1500   
   X290.5576     Y110.4275     R50.1500   
   X298.5316     Y120.8195     R50.1500   
   X303.5444     Y132.9213     R50.1500   
   X305.2541     Y145.9081     R50.1500   
   X303.5444     Y158.8949     R50.1500   
   X298.5316     Y170.9967     R50.1500   
   X290.5576     Y181.3887     R50.1500   
   X280.1655     Y189.3628     R50.1500   
   X268.0637     Y194.3755     R50.1500   
   X255.0769     Y196.0853     R50.1500   
   X242.0901     Y194.3755     R50.1500   
   X229.9883     Y189.3628     R50.1500   
   X219.5963     Y181.3887     R50.1500   
   X211.6222     Y170.9967     R50.1500   
   X207.5055     Y161.0581     R50.1500   
G1   X99.831    
G17 G3   X96.3266      Y170.0588     R50.1500   
   X88.5773      Y180.6195     R50.1500   
   X78.3587      Y188.8146     R50.1500   
   X66.3672      Y194.0858     R50.1500   
   X53.4201      Y196.0737     R50.1500   
   X40.3996      Y194.6430     R50.1500   
   X28.1931      Y189.8910     R50.1500   
   X17.6324      Y182.1417     R50.1500   
   X9.4372       Y171.9231     R50.1500   
   X4.1660       Y159.9316     R50.1500   
   X2.1781       Y146.9845     R50.1500   
   X3.6089       Y133.9640     R50.1500   
   X8.3609       Y121.7574     R50.1500   
   X16.1102      Y111.1967     R50.1500   
   X26.3288      Y103.0016     R50.1500   
   X28.9612      Y101.8444     R50.1500   
G1   Y95.960    
G17 G3   X25.8788      Y94.5666      R50.1500   
   X15.7470      Y86.2643      R50.1500   
   X8.1092       Y75.6227      R50.1500   
   X3.4859       Y63.3669      R50.1500   
   X2.1922       Y50.3320      R50.1500   
   X4.3162       Y37.4065      R50.1500   
   X9.7133       Y25.4712      R50.1500   
   X18.0155      Y15.3394      R50.1500   
   X28.6571      Y7.7016       R50.1500   
   X40.9130      Y3.0783       R50.1500   
   X53.9478      Y1.7846       R50.1500   
   X66.8733      Y3.9086       R50.1500   
   X78.8087      Y9.3056       R50.1500   
   X88.9405      Y17.6079      R50.1500   
   X96.5783      Y28.2495      R50.1500   
   X99.7986      Y36.7861      R50.1500   
G1   X207.683   
(Pass: 3)
   Z-3.000     F500 
G17 G3   X209.3032     Y31.3809      R50.1500    F1200
   X216.1830     Y20.2342      R50.1500   
   X225.7134     Y11.2479      R50.1500   
   X237.2448     Y5.0345       R50.1500   
   X249.9915     Y2.0173       R50.1500   
   X263.0847     Y2.4020       R50.1500   
   X275.6322     Y6.1624       R50.1500   
   X286.7789     Y13.0422      R50.1500   
   X295.7652     Y22.5726      R50.1500   
   X301.9786     Y34.1040      R50.1500   
   X304.9957     Y46.8506      R50.1500   
   X304.6110     Y59.9439      R50.1500   
   X300.8506     Y72.4914      R50.1500   
   X293.9708     Y83.6381      R50.1500   
   X284.4405     Y92.6243      R50.1500   
   X278.2612     Y95.9539      R50.1500   
G1   Y101.665   
G17 G3   X280.1655     Y102.4534     R50.1500   
   X290.5576     Y110.4275     R50.1500   
   X298.5316     Y120.8195     R50.1500   
   X303.5444     Y132.9213     R50.1500   
   X305.2541     Y145.9081     R50.1500   
   X303.5444     Y158.8949     R50.1500   
   X298.5316     Y170.9967     R50.1500   
   X290.5576     Y181.3887     R50.1500   
   X280.1655     Y189.3628     R50.1500   
   X268.0637     Y194.3755     R50.1500   
   X255.0769     Y196.0853     R50.1500   
   X242.0901     Y194.3755     R50.1500   
   X229.9883     Y189.3628     R50.1500   
   X219.5963     Y181.3887     R50.1500   
   X211.6222     Y170.9967     R50.1500   
   X207.5055     Y161.0581     R50.1500   
G1   X99.831    
G17 G3   X96.3266      Y170.0588     R50.1500   
   X88.5773      Y180.6195     R50.1500   
   X78.3587      Y188.8146     R50.1500   
   X66.3672      Y194.0858     R50.1500   
   X53.4201      Y196.0737     R50.1500   
   X40.3996      Y194.6430     R50.1500   
   X28.1931      Y189.8910     R50.1500   
   X17.6324      Y182.1417     R50.1500   
   X9.4372       Y171.9231     R50.1500   
   X4.1660       Y159.9316     R50.1500   
   X2.1781       Y146.9845     R50.1500   
   X3.6089       Y133.9640     R50.1500   
   X8.3609       Y121.7574     R50.1500   
   X16.1102      Y111.1967     R50.1500   
   X26.3288      Y103.0016     R50.1500   
   X28.9612      Y101.8444     R50.1500   
G1   Y95.960    
G17 G3   X25.8788      Y94.5666      R50.1500   
   X15.7470      Y86.2643      R50.1500   
   X8.1092       Y75.6227      R50.1500   
   X3.4859       Y63.3669      R50.1500   
   X2.1922       Y50.3320      R50.1500   
   X4.3162       Y37.4065      R50.1500   
   X9.7133       Y25.4712      R50.1500   
   X18.0155      Y15.3394      R50.1500   
   X28.6571      Y7.7016       R50.1500   
   X40.9130      Y3.0783       R50.1500   
   X53.9478      Y1.7846       R50.1500   
   X66.8733      Y3.9086       R50.1500   
   X78.8087      Y9.3056       R50.1500   
   X88.9405      Y17.6079      R50.1500   
   X96.5783      Y28.2495      R50.1500   
   X99.7986      Y36.7861      R50.1500   
G1   X207.683   
(Pass: 4)
   Z-4.000     F500 
G17 G3   X209.3032     Y31.3809      R50.1500    F1200
   X216.1830     Y20.2342      R50.1500   
   X225.7134     Y11.2479      R50.1500   
   X237.2448     Y5.0345       R50.1500   
   X249.9915     Y2.0173       R50.1500   
   X263.0847     Y2.4020       R50.1500   
   X275.6322     Y6.1624       R50.1500   
   X286.7789     Y13.0422      R50.1500   
   X295.7652     Y22.5726      R50.1500   
   X301.9786     Y34.1040      R50.1500   
   X304.9957     Y46.8506      R50.1500   
   X304.6110     Y59.9439      R50.1500   
   X300.8506     Y72.4914      R50.1500   
   X293.9708     Y83.6381      R50.1500   
   X284.4405     Y92.6243      R50.1500   
   X278.2612     Y95.9539      R50.1500   
G1   Y101.665   
G17 G3   X280.1655     Y102.4534     R50.1500   
   X290.5576     Y110.4275     R50.1500   
   X298.5316     Y120.8195     R50.1500   
   X303.5444     Y132.9213     R50.1500   
   X305.2541     Y145.9081     R50.1500   
   X303.5444     Y158.8949     R50.1500   
   X298.5316     Y170.9967     R50.1500   
   X290.5576     Y181.3887     R50.1500   
   X280.1655     Y189.3628     R50.1500   
   X268.0637     Y194.3755     R50.1500   
   X255.0769     Y196.0853     R50.1500   
   X242.0901     Y194.3755     R50.1500   
   X229.9883     Y189.3628     R50.1500   
   X219.5963     Y181.3887     R50.1500   
   X211.6222     Y170.9967     R50.1500   
   X207.5055     Y161.0581     R50.1500   
G1   X99.831    
G17 G3   X96.3266      Y170.0588     R50.1500   
   X88.5773      Y180.6195     R50.1500   
   X78.3587      Y188.8146     R50.1500   
   X66.3672      Y194.0858     R50.1500   
   X53.4201      Y196.0737     R50.1500   
   X40.3996      Y194.6430     R50.1500   
   X28.1931      Y189.8910     R50.1500   
   X17.6324      Y182.1417     R50.1500   
   X9.4372       Y171.9231     R50.1500   
   X4.1660       Y159.9316     R50.1500   
   X2.1781       Y146.9845     R50.1500   
   X3.6089       Y133.9640     R50.1500   
   X8.3609       Y121.7574     R50.1500   
   X16.1102      Y111.1967     R50.1500   
   X26.3288      Y103.0016     R50.1500   
   X28.9612      Y101.8444     R50.1500   
G1   Y95.960    
G17 G3   X25.8788      Y94.5666      R50.1500   
   X15.7470      Y86.2643      R50.1500   
   X8.1092       Y75.6227      R50.1500   
   X3.4859       Y63.3669      R50.1500   
   X2.1922       Y50.3320      R50.1500   
   X4.3162       Y37.4065      R50.1500   
   X9.7133       Y25.4712      R50.1500   
   X18.0155      Y15.3394      R50.1500   
   X28.6571      Y7.7016       R50.1500   
   X40.9130      Y3.0783       R50.1500   
   X53.9478      Y1.7846       R50.1500   
   X66.8733      Y3.9086       R50.1500   
   X78.8087      Y9.3056       R50.1500   
   X88.9405      Y17.6079      R50.1500   
   X96.5783      Y28.2495      R50.1500   
   X99.7986      Y36.7861      R50.1500   
G1   X207.683   
(Pass: 5)
   Z-5.000     F500 
G17 G3   X209.3032     Y31.3809      R50.1500    F1200
   X216.1830     Y20.2342      R50.1500   
   X225.7134     Y11.2479      R50.1500   
   X237.2448     Y5.0345       R50.1500   
   X249.9915     Y2.0173       R50.1500   
   X263.0847     Y2.4020       R50.1500   
   X275.6322     Y6.1624       R50.1500   
   X286.7789     Y13.0422      R50.1500   
   X295.7652     Y22.5726      R50.1500   
   X301.9786     Y34.1040      R50.1500   
   X304.9957     Y46.8506      R50.1500   
   X304.6110     Y59.9439      R50.1500   
   X300.8506     Y72.4914      R50.1500   
   X293.9708     Y83.6381      R50.1500   
   X284.4405     Y92.6243      R50.1500   
   X278.2612     Y95.9539      R50.1500   
G1   Y101.665   
G17 G3   X280.1655     Y102.4534     R50.1500   
   X290.5576     Y110.4275     R50.1500   
   X298.5316     Y120.8195     R50.1500   
   X303.5444     Y132.9213     R50.1500   
   X305.2541     Y145.9081     R50.1500   
   X303.5444     Y158.8949     R50.1500   
   X298.5316     Y170.9967     R50.1500   
   X290.5576     Y181.3887     R50.1500   
   X280.1655     Y189.3628     R50.1500   
   X268.0637     Y194.3755     R50.1500   
   X255.0769     Y196.0853     R50.1500   
   X242.0901     Y194.3755     R50.1500   
   X229.9883     Y189.3628     R50.1500   
   X219.5963     Y181.3887     R50.1500   
   X211.6222     Y170.9967     R50.1500   
   X207.5055     Y161.0581     R50.1500   
G1   X99.831    
G17 G3   X96.3266      Y170.0588     R50.1500   
   X88.5773      Y180.6195     R50.1500   
   X78.3587      Y188.8146     R50.1500   
   X66.3672      Y194.0858     R50.1500   
   X53.4201      Y196.0737     R50.1500   
   X40.3996      Y194.6430     R50.1500   
   X28.1931      Y189.8910     R50.1500   
   X17.6324      Y182.1417     R50.1500   
   X9.4372       Y171.9231     R50.1500   
   X4.1660       Y159.9316     R50.1500   
   X2.1781       Y146.9845     R50.1500   
   X3.6089       Y133.9640     R50.1500   
   X8.3609       Y121.7574     R50.1500   
   X16.1102      Y111.1967     R50.1500   
   X26.3288      Y103.0016     R50.1500   
   X28.9612      Y101.8444     R50.1500   
G1   Y95.960    
G17 G3   X25.8788      Y94.5666      R50.1500   
   X15.7470      Y86.2643      R50.1500   
   X8.1092       Y75.6227      R50.1500   
   X3.4859       Y63.3669      R50.1500   
   X2.1922       Y50.3320      R50.1500   
   X4.3162       Y37.4065      R50.1500   
   X9.7133       Y25.4712      R50.1500   
   X18.0155      Y15.3394      R50.1500   
   X28.6571      Y7.7016       R50.1500   
   X40.9130      Y3.0783       R50.1500   
   X53.9478      Y1.7846       R50.1500   
   X66.8733      Y3.9086       R50.1500   
   X78.8087      Y9.3056       R50.1500   
   X88.9405      Y17.6079      R50.1500   
   X96.5783      Y28.2495      R50.1500   
   X99.7986      Y36.7861      R50.1500   
G1   X207.683   
(Pass: 6)
   Z-6.000     F500 
G17 G3   X209.3032     Y31.3809      R50.1500    F1200
   X216.1830     Y20.2342      R50.1500   
   X225.7134     Y11.2479      R50.1500   
   X237.2448     Y5.0345       R50.1500   
   X249.9915     Y2.0173       R50.1500   
   X263.0847     Y2.4020       R50.1500   
   X275.6322     Y6.1624       R50.1500   
   X286.7789     Y13.0422      R50.1500   
   X295.7652     Y22.5726      R50.1500   
   X301.9786     Y34.1040      R50.1500   
   X304.9957     Y46.8506      R50.1500   
   X304.6110     Y59.9439      R50.1500   
   X300.8506     Y72.4914      R50.1500   
   X293.9708     Y83.6381      R50.1500   
   X284.4405     Y92.6243      R50.1500   
   X278.2612     Y95.9539      R50.1500   
G1   Y101.665   
G17 G3   X280.1655     Y102.4534     R50.1500   
   X290.5576     Y110.4275     R50.1500   
   X298.5316     Y120.8195     R50.1500   
   X303.5444     Y132.9213     R50.1500   
   X305.2541     Y145.9081     R50.1500   
   X303.5444     Y158.8949     R50.1500   
   X298.5316     Y170.9967     R50.1500   
   X290.5576     Y181.3887     R50.1500   
   X280.1655     Y189.3628     R50.1500   
   X268.0637     Y194.3755     R50.1500   
   X255.0769     Y196.0853     R50.1500   
   X242.0901     Y194.3755     R50.1500   
   X229.9883     Y189.3628     R50.1500   
   X219.5963     Y181.3887     R50.1500   
   X211.6222     Y170.9967     R50.1500   
   X207.5055     Y161.0581     R50.1500   
G1   X99.831    
G17 G3   X96.3266      Y170.0588     R50.1500   
   X88.5773      Y180.6195     R50.1500   
   X78.3587      Y188.8146     R50.1500   
   X66.3672      Y194.0858     R50.1500   
   X53.4201      Y196.0737     R50.1500   
   X40.3996      Y194.6430     R50.1500   
   X28.1931      Y189.8910     R50.1500   
   X17.6324      Y182.1417     R50.1500   
   X9.4372       Y171.9231     R50.1500   
   X4.1660       Y159.9316     R50.1500   
   X2.1781       Y146.9845     R50.1500   
   X3.6089       Y133.9640     R50.1500   
   X8.3609       Y121.7574     R50.1500   
   X16.1102      Y111.1967     R50.1500   
   X26.3288      Y103.0016     R50.1500   
   X28.9612      Y101.8444     R50.1500   
G1   Y95.960    
G17 G3   X25.8788      Y94.5666      R50.1500   
   X15.7470      Y86.2643      R50.1500   
   X8.1092       Y75.6227      R50.1500   
   X3.4859       Y63.3669      R50.1500   
   X2.1922       Y50.3320      R50.1500   
   X4.3162       Y37.4065      R50.1500   
   X9.7133       Y25.4712      R50.1500   
   X18.0155      Y15.3394      R50.1500   
   X28.6571      Y7.7016       R50.1500   
   X40.9130      Y3.0783       R50.1500   
   X53.9478      Y1.7846       R50.1500   
   X66.8733      Y3.9086       R50.1500   
   X78.8087      Y9.3056       R50.1500   
   X88.9405      Y17.6079      R50.1500   
   X96.5783      Y28.2495      R50.1500   
   X99.7986      Y36.7861      R50.1500   
G1   X207.683   
(Pass: 7)
   Z-7.000     F500 
G17 G3   X209.3032     Y31.3809      R50.1500    F1200
   X216.1830     Y20.2342      R50.1500   
   X225.7134     Y11.2479      R50.1500   
   X237.2448     Y5.0345       R50.1500   
   X249.9915     Y2.0173       R50.1500   
   X263.0847     Y2.4020       R50.1500   
   X275.6322     Y6.1624       R50.1500   
   X286.7789     Y13.0422      R50.1500   
   X295.7652     Y22.5726      R50.1500   
   X301.9786     Y34.1040      R50.1500   
   X304.9957     Y46.8506      R50.1500   
   X304.6110     Y59.9439      R50.1500   
   X300.8506     Y72.4914      R50.1500   
   X293.9708     Y83.6381      R50.1500   
   X284.4405     Y92.6243      R50.1500   
   X278.2612     Y95.9539      R50.1500   
G1   Y101.665   
G17 G3   X280.1655     Y102.4534     R50.1500   
   X290.5576     Y110.4275     R50.1500   
   X298.5316     Y120.8195     R50.1500   
   X303.5444     Y132.9213     R50.1500   
   X305.2541     Y145.9081     R50.1500   
   X303.5444     Y158.8949     R50.1500   
   X298.5316     Y170.9967     R50.1500   
   X290.5576     Y181.3887     R50.1500   
   X280.1655     Y189.3628     R50.1500   
   X268.0637     Y194.3755     R50.1500   
   X255.0769     Y196.0853     R50.1500   
   X242.0901     Y194.3755     R50.1500   
   X229.9883     Y189.3628     R50.1500   
   X219.5963     Y181.3887     R50.1500   
   X211.6222     Y170.9967     R50.1500   
   X207.5055     Y161.0581     R50.1500   
G1   X99.831    
G17 G3   X96.3266      Y170.0588     R50.1500   
   X88.5773      Y180.6195     R50.1500   
   X78.3587      Y188.8146     R50.1500   
   X66.3672      Y194.0858     R50.1500   
   X53.4201      Y196.0737     R50.1500   
   X40.3996      Y194.6430     R50.1500   
   X28.1931      Y189.8910     R50.1500   
   X17.6324      Y182.1417     R50.1500   
   X9.4372       Y171.9231     R50.1500   
   X4.1660       Y159.9316     R50.1500   
   X2.1781       Y146.9845     R50.1500   
   X3.6089       Y133.9640     R50.1500   
   X8.3609       Y121.7574     R50.1500   
   X16.1102      Y111.1967     R50.1500   
   X26.3288      Y103.0016     R50.1500   
   X28.9612      Y101.8444     R50.1500   
G1   Y95.960    
G17 G3   X25.8788      Y94.5666      R50.1500   
   X15.7470      Y86.2643      R50.1500   
   X8.1092       Y75.6227      R50.1500   
   X3.4859       Y63.3669      R50.1500   
   X2.1922       Y50.3320      R50.1500   
   X4.3162       Y37.4065      R50.1500   
   X9.7133       Y25.4712      R50.1500   
   X18.0155      Y15.3394      R50.1500   
   X28.6571      Y7.7016       R50.1500   
   X40.9130      Y3.0783       R50.1500   
   X53.9478      Y1.7846       R50.1500   
   X66.8733      Y3.9086       R50.1500   
   X78.8087      Y9.3056       R50.1500   
   X88.9405      Y17.6079      R50.1500   
   X96.5783      Y28.2495      R50.1500   
   X99.7986      Y36.7861      R50.1500   
G1   X207.683   
(Pass: 8)
   Z-8.000     F500 
G17 G3   X209.3032     Y31.3809      R50.1500    F1200
   X216.1830     Y20.2342      R50.1500   
   X225.7134     Y11.2479      R50.1500   
   X237.2448     Y5.0345       R50.1500   
   X249.9915     Y2.0173       R50.1500   
   X263.0847     Y2.4020       R50.1500   
   X275.6322     Y6.1624       R50.1500   
   X286.7789     Y13.0422      R50.1500   
   X295.7652     Y22.5726      R50.1500   
   X301.9786     Y34.1040      R50.1500   
   X304.9957     Y46.8506      R50.1500   
   X304.6110     Y59.9439      R50.1500   
   X300.8506     Y72.4914      R50.1500   
   X293.9708     Y83.6381      R50.1500   
   X284.4405     Y92.6243      R50.1500   
   X278.2612     Y95.9539      R50.1500   
G1   Y101.665   
G17 G3   X280.1655     Y102.4534     R50.1500   
   X290.5576     Y110.4275     R50.1500   
   X298.5316     Y120.8195     R50.1500   
   X303.5444     Y132.9213     R50.1500   
   X305.2541     Y145.9081     R50.1500   
   X303.5444     Y158.8949     R50.1500   
   X298.5316     Y170.9967     R50.1500   
   X290.5576     Y181.3887     R50.1500   
   X280.1655     Y189.3628     R50.1500   
   X268.0637     Y194.3755     R50.1500   
   X255.0769     Y196.0853     R50.1500   
   X242.0901     Y194.3755     R50.1500   
   X229.9883     Y189.3628     R50.1500   
   X219.5963     Y181.3887     R50.1500   
   X211.6222     Y170.9967     R50.1500   
   X207.5055     Y161.0581     R50.1500   
G1   X99.831    
G17 G3   X96.3266      Y170.0588     R50.1500   
   X88.5773      Y180.6195     R50.1500   
   X78.3587      Y188.8146     R50.1500   
   X66.3672      Y194.0858     R50.1500   
   X53.4201      Y196.0737     R50.1500   
   X40.3996      Y194.6430     R50.1500   
   X28.1931      Y189.8910     R50.1500   
   X17.6324      Y182.1417     R50.1500   
   X9.4372       Y171.9231     R50.1500   
   X4.1660       Y159.9316     R50.1500   
   X2.1781       Y146.9845     R50.1500   
   X3.6089       Y133.9640     R50.1500   
   X8.3609       Y121.7574     R50.1500   
   X16.1102      Y111.1967     R50.1500   
   X26.3288      Y103.0016     R50.1500   
   X28.9612      Y101.8444     R50.1500   
G1   Y95.960    
G17 G3   X25.8788      Y94.5666      R50.1500   
   X15.7470      Y86.2643      R50.1500   
   X8.1092       Y75.6227      R50.1500   
   X3.4859       Y63.3669      R50.1500   
   X2.1922       Y50.3320      R50.1500   
   X4.3162       Y37.4065      R50.1500   
   X9.7133       Y25.4712      R50.1500   
   X18.0155      Y15.3394      R50.1500   
   X28.6571      Y7.7016       R50.1500   
   X40.9130      Y3.0783       R50.1500   
   X53.9478      Y1.7846       R50.1500   
   X66.8733      Y3.9086       R50.1500   
   X78.8087      Y9.3056       R50.1500   
   X88.9405      Y17.6079      R50.1500   
   X96.5783      Y28.2495      R50.1500   
   X99.7986      Y36.7861      R50.1500   
G1   X207.683   
(Pass: 9)
   Z-9.000     F500 
G17 G3   X209.3032     Y31.3809      R50.1500    F1200
   X216.1830     Y20.2342      R50.1500   
   X225.7134     Y11.2479      R50.1500   
   X237.2448     Y5.0345       R50.1500   
   X249.9915     Y2.0173       R50.1500   
   X263.0847     Y2.4020       R50.1500   
   X275.6322     Y6.1624       R50.1500   
   X286.7789     Y13.0422      R50.1500   
   X295.7652     Y22.5726      R50.1500   
   X301.9786     Y34.1040      R50.1500   
   X304.9957     Y46.8506      R50.1500   
   X304.6110     Y59.9439      R50.1500   
   X300.8506     Y72.4914      R50.1500   
   X293.9708     Y83.6381      R50.1500   
   X284.4405     Y92.6243      R50.1500   
   X278.2612     Y95.9539      R50.1500   
G1   Y101.665   
G17 G3   X280.1655     Y102.4534     R50.1500   
   X290.5576     Y110.4275     R50.1500   
   X298.5316     Y120.8195     R50.1500   
   X303.5444     Y132.9213     R50.1500   
   X305.2541     Y145.9081     R50.1500   
   X303.5444     Y158.8949     R50.1500   
   X298.5316     Y170.9967     R50.1500   
   X290.5576     Y181.3887     R50.1500   
   X280.1655     Y189.3628     R50.1500   
   X268.0637     Y194.3755     R50.1500   
   X255.0769     Y196.0853     R50.1500   
   X242.0901     Y194.3755     R50.1500   
   X229.9883     Y189.3628     R50.1500   
   X219.5963     Y181.3887     R50.1500   
   X211.6222     Y170.9967     R50.1500   
   X207.5055     Y161.0581     R50.1500   
G1   X99.831    
G17 G3   X96.3266      Y170.0588     R50.1500   
   X88.5773      Y180.6195     R50.1500   
   X78.3587      Y188.8146     R50.1500   
   X66.3672      Y194.0858     R50.1500   
   X53.4201      Y196.0737     R50.1500   
   X40.3996      Y194.6430     R50.1500   
   X28.1931      Y189.8910     R50.1500   
   X17.6324      Y182.1417     R50.1500   
   X9.4372       Y171.9231     R50.1500   
   X4.1660       Y159.9316     R50.1500   
   X2.1781       Y146.9845     R50.1500   
   X3.6089       Y133.9640     R50.1500   
   X8.3609       Y121.7574     R50.1500   
   X16.1102      Y111.1967     R50.1500   
   X26.3288      Y103.0016     R50.1500   
   X28.9612      Y101.8444     R50.1500   
G1   Y95.960    
G17 G3   X25.8788      Y94.5666      R50.1500   
   X15.7470      Y86.2643      R50.1500   
   X8.1092       Y75.6227      R50.1500   
   X3.4859       Y63.3669      R50.1500   
   X2.1922       Y50.3320      R50.1500   
   X4.3162       Y37.4065      R50.1500   
   X9.7133       Y25.4712      R50.1500   
   X18.0155      Y15.3394      R50.1500   
   X28.6571      Y7.7016       R50.1500   
   X40.9130      Y3.0783       R50.1500   
   X53.9478      Y1.7846       R50.1500   
   X66.8733      Y3.9086       R50.1500   
   X78.8087      Y9.3056       R50.1500   
   X88.9405      Y17.6079      R50.1500   
   X96.5783      Y28.2495      R50.1500   
   X99.7986      Y36.7861      R50.1500   
G1   X207.683   
(Pass: 10)
   Z-10.000    F500 
G17 G3   X209.3032     Y31.3809      R50.1500    F1200
   X216.1830     Y20.2342      R50.1500   
   X225.7134     Y11.2479      R50.1500   
   X237.2448     Y5.0345       R50.1500   
   X249.9915     Y2.0173       R50.1500   
   X263.0847     Y2.4020       R50.1500   
   X275.6322     Y6.1624       R50.1500   
   X286.7789     Y13.0422      R50.1500   
   X295.7652     Y22.5726      R50.1500   
   X301.9786     Y34.1040      R50.1500   
   X304.9957     Y46.8506      R50.1500   
   X304.6110     Y59.9439      R50.1500   
   X300.8506     Y72.4914      R50.1500   
   X293.9708     Y83.6381      R50.1500   
   X284.4405     Y92.6243      R50.1500   
   X278.2612     Y95.9539      R50.1500   
G1   Y101.665   
G17 G3   X280.1655     Y102.4534     R50.1500   
   X290.5576     Y110.4275     R50.1500   
   X298.5316     Y120.8195     R50.1500   
   X303.5444     Y132.9213     R50.1500   
   X305.2541     Y145.9081     R50.1500   
   X303.5444     Y158.8949     R50.1500   
   X298.5316     Y170.9967     R50.1500   
   X290.5576     Y181.3887     R50.1500   
   X280.1655     Y189.3628     R50.1500   
   X268.0637     Y194.3755     R50.1500   
   X255.0769     Y196.0853     R50.1500   
   X242.0901     Y194.3755     R50.1500   
   X229.9883     Y189.3628     R50.1500   
   X219.5963     Y181.3887     R50.1500   
   X211.6222     Y170.9967     R50.1500   
   X207.5055     Y161.0581     R50.1500   
G1   X99.831    
G17 G3   X96.3266      Y170.0588     R50.1500   
   X88.5773      Y180.6195     R50.1500   
   X78.3587      Y188.8146     R50.1500   
   X66.3672      Y194.0858     R50.1500   
   X53.4201      Y196.0737     R50.1500   
   X40.3996      Y194.6430     R50.1500   
   X28.1931      Y189.8910     R50.1500   
   X17.6324      Y182.1417     R50.1500   
   X9.4372       Y171.9231     R50.1500   
   X4.1660       Y159.9316     R50.1500   
   X2.1781       Y146.9845     R50.1500   
   X3.6089       Y133.9640     R50.1500   
   X8.3609       Y121.7574     R50.1500   
   X16.1102      Y111.1967     R50.1500   
   X26.3288      Y103.0016     R50.1500   
   X28.9612      Y101.8444     R50.1500   
G1   Y95.960    
G17 G3   X25.8788      Y94.5666      R50.1500   
   X15.7470      Y86.2643      R50.1500   
   X8.1092       Y75.6227      R50.1500   
   X3.4859       Y63.3669      R50.1500   
   X2.1922       Y50.3320      R50.1500   
   X4.3162       Y37.4065      R50.1500   
   X9.7133       Y25.4712      R50.1500   
   X18.0155      Y15.3394      R50.1500   
   X28.6571      Y7.7016       R50.1500   
   X40.9130      Y3.0783       R50.1500   
   X53.9478      Y1.7846       R50.1500   
   X66.8733      Y3.9086       R50.1500   
   X78.8087      Y9.3056       R50.1500   
   X88.9405      Y17.6079      R50.1500   
   X96.5783      Y28.2495      R50.1500   
   X99.7986      Y36.7861      R50.1500   
G1   X207.683   
(Pass: 11)
   Z-11.000    F500 
G17 G3   X209.3032     Y31.3809      R50.1500    F1200
   X216.1830     Y20.2342      R50.1500   
   X225.7134     Y11.2479      R50.1500   
   X237.2448     Y5.0345       R50.1500   
   X249.9915     Y2.0173       R50.1500   
   X263.0847     Y2.4020       R50.1500   
   X275.6322     Y6.1624       R50.1500   
   X286.7789     Y13.0422      R50.1500   
   X295.7652     Y22.5726      R50.1500   
   X301.9786     Y34.1040      R50.1500   
   X304.9957     Y46.8506      R50.1500   
   X304.6110     Y59.9439      R50.1500   
   X300.8506     Y72.4914      R50.1500   
   X293.9708     Y83.6381      R50.1500   
   X284.4405     Y92.6243      R50.1500   
   X278.2612     Y95.9539      R50.1500   
G1   Y101.665   
G17 G3   X280.1655     Y102.4534     R50.1500   
   X290.5576     Y110.4275     R50.1500   
   X298.5316     Y120.8195     R50.1500   
   X303.5444     Y132.9213     R50.1500   
   X305.2541     Y145.9081     R50.1500   
   X303.5444     Y158.8949     R50.1500   
   X298.5316     Y170.9967     R50.1500   
   X290.5576     Y181.3887     R50.1500   
   X280.1655     Y189.3628     R50.1500   
   X268.0637     Y194.3755     R50.1500   
   X255.0769     Y196.0853     R50.1500   
   X242.0901     Y194.3755     R50.1500   
   X229.9883     Y189.3628     R50.1500   
   X219.5963     Y181.3887     R50.1500   
   X211.6222     Y170.9967     R50.1500   
   X207.5055     Y161.0581     R50.1500   
G1   X99.831    
G17 G3   X96.3266      Y170.0588     R50.1500   
   X88.5773      Y180.6195     R50.1500   
   X78.3587      Y188.8146     R50.1500   
   X66.3672      Y194.0858     R50.1500   
   X53.4201      Y196.0737     R50.1500   
   X40.3996      Y194.6430     R50.1500   
   X28.1931      Y189.8910     R50.1500   
   X17.6324      Y182.1417     R50.1500   
   X9.4372       Y171.9231     R50.1500   
   X4.1660       Y159.9316     R50.1500   
   X2.1781       Y146.9845     R50.1500   
   X3.6089       Y133.9640     R50.1500   
   X8.3609       Y121.7574     R50.1500   
   X16.1102      Y111.1967     R50.1500   
   X26.3288      Y103.0016     R50.1500   
   X28.9612      Y101.8444     R50.1500   
G1   Y95.960    
G17 G3   X25.8788      Y94.5666      R50.1500   
   X15.7470      Y86.2643      R50.1500   
   X8.1092       Y75.6227      R50.1500   
   X3.4859       Y63.3669      R50.1500   
   X2.1922       Y50.3320      R50.1500   
   X4.3162       Y37.4065      R50.1500   
   X9.7133       Y25.4712      R50.1500   
   X18.0155      Y15.3394      R50.1500   
   X28.6571      Y7.7016       R50.1500   
   X40.9130      Y3.0783       R50.1500   
   X53.9478      Y1.7846       R50.1500   
   X66.8733      Y3.9086       R50.1500   
   X78.8087      Y9.3056       R50.1500   
   X88.9405      Y17.6079      R50.1500   
   X96.5783      Y28.2495      R50.1500   
   X99.7986      Y36.7861      R50.1500   
G1   X207.683   
(Pass: 12)
   Z-12.000    F500 
G17 G3   X209.3032     Y31.3809      R50.1500    F1200
   X216.1830     Y20.2342      R50.1500   
   X225.7134     Y11.2479      R50.1500   
   X237.2448     Y5.0345       R50.1500   
   X249.9915     Y2.0173       R50.1500   
   X263.0847     Y2.4020       R50.1500   
   X275.6322     Y6.1624       R50.1500   
   X286.7789     Y13.0422      R50.1500   
   X295.7652     Y22.5726      R50.1500   
   X301.9786     Y34.1040      R50.1500   
   X304.9957     Y46.8506      R50.1500   
   X304.6110     Y59.9439      R50.1500   
   X300.8506     Y72.4914      R50.1500   
   X293.9708     Y83.6381      R50.1500   
   X284.4405     Y92.6243      R50.1500   
   X278.2612     Y95.9539      R50.1500   
G1   Y101.665   
G17 G3   X280.1655     Y102.4534     R50.1500   
   X290.5576     Y110.4275     R50.1500   
   X298.5316     Y120.8195     R50.1500   
   X303.5444     Y132.9213     R50.1500   
   X305.2541     Y145.9081     R50.1500   
   X303.5444     Y158.8949     R50.1500   
   X298.5316     Y170.9967     R50.1500   
   X290.5576     Y181.3887     R50.1500   
   X280.1655     Y189.3628     R50.1500   
   X268.0637     Y194.3755     R50.1500   
   X255.0769     Y196.0853     R50.1500   
   X242.0901     Y194.3755     R50.1500   
   X229.9883     Y189.3628     R50.1500   
   X219.5963     Y181.3887     R50.1500   
   X211.6222     Y170.9967     R50.1500   
   X207.5055     Y161.0581     R50.1500   
G1   X99.831    
G17 G3   X96.3266      Y170.0588     R50.1500   
   X88.5773      Y180.6195     R50.1500   
   X78.3587      Y188.8146     R50.1500   
   X66.3672      Y194.0858     R50.1500   
   X53.4201      Y196.0737     R50.1500   
   X40.3996      Y194.6430     R50.1500   
   X28.1931      Y189.8910     R50.1500   
   X17.6324      Y182.1417     R50.1500   
   X9.4372       Y171.9231     R50.1500   
   X4.1660       Y159.9316     R50.1500   
   X2.1781       Y146.9845     R50.1500   
   X3.6089       Y133.9640     R50.1500   
   X8.3609       Y121.7574     R50.1500   
   X16.1102      Y111.1967     R50.1500   
   X26.3288      Y103.0016     R50.1500   
   X28.9612      Y101.8444     R50.1500   
G1   Y95.960    
G17 G3   X25.8788      Y94.5666      R50.1500   
   X15.7470      Y86.2643      R50.1500   
   X8.1092       Y75.6227      R50.1500   
   X3.4859       Y63.3669      R50.1500   
   X2.1922       Y50.3320      R50.1500   
   X4.3162       Y37.4065      R50.1500   
   X9.7133       Y25.4712      R50.1500   
   X18.0155      Y15.3394      R50.1500   
   X28.6571      Y7.7016       R50.1500   
   X40.9130      Y3.0783       R50.1500   
   X53.9478      Y1.7846       R50.1500   
   X66.8733      Y3.9086       R50.1500   
   X78.8087      Y9.3056       R50.1500   
   X88.9405      Y17.6079      R50.1500   
   X96.5783      Y28.2495      R50.1500   
   X99.7986      Y36.7861      R50.1500   
G1   X207.683   
(Pass: 13)
   Z-13.000    F500 
G17 G3   X209.3032     Y31.3809      R50.1500    F1200
   X216.1830     Y20.2342      R50.1500   
   X225.7134     Y11.2479      R50.1500   
   X237.2448     Y5.0345       R50.1500   
   X249.9915     Y2.0173       R50.1500   
   X263.0847     Y2.4020       R50.1500   
   X275.6322     Y6.1624       R50.1500   
   X286.7789     Y13.0422      R50.1500   
   X295.7652     Y22.5726      R50.1500   
   X301.9786     Y34.1040      R50.1500   
   X304.9957     Y46.8506      R50.1500   
   X304.6110     Y59.9439      R50.1500   
   X300.8506     Y72.4914      R50.1500   
   X293.9708     Y83.6381      R50.1500   
   X284.4405     Y92.6243      R50.1500   
   X278.2612     Y95.9539      R50.1500   
G1   Y101.665   
G17 G3   X280.1655     Y102.4534     R50.1500   
   X290.5576     Y110.4275     R50.1500   
   X298.5316     Y120.8195     R50.1500   
   X303.5444     Y132.9213     R50.1500   
   X305.2541     Y145.9081     R50.1500   
   X303.5444     Y158.8949     R50.1500   
   X298.5316     Y170.9967     R50.1500   
   X290.5576     Y181.3887     R50.1500   
   X280.1655     Y189.3628     R50.1500   
   X268.0637     Y194.3755     R50.1500   
   X255.0769     Y196.0853     R50.1500   
   X242.0901     Y194.3755     R50.1500   
   X229.9883     Y189.3628     R50.1500   
   X219.5963     Y181.3887     R50.1500   
   X211.6222     Y170.9967     R50.1500   
   X207.5055     Y161.0581     R50.1500   
G1   X99.831    
G17 G3   X96.3266      Y170.0588     R50.1500   
   X88.5773      Y180.6195     R50.1500   
   X78.3587      Y188.8146     R50.1500   
   X66.3672      Y194.0858     R50.1500   
   X53.4201      Y196.0737     R50.1500   
   X40.3996      Y194.6430     R50.1500   
   X28.1931      Y189.8910     R50.1500   
   X17.6324      Y182.1417     R50.1500   
   X9.4372       Y171.9231     R50.1500   
   X4.1660       Y159.9316     R50.1500   
   X2.1781       Y146.9845     R50.1500   
   X3.6089       Y133.9640     R50.1500   
   X8.3609       Y121.7574     R50.1500   
   X16.1102      Y111.1967     R50.1500   
   X26.3288      Y103.0016     R50.1500   
   X28.9612      Y101.8444     R50.1500   
G1   Y95.960    
G17 G3   X25.8788      Y94.5666      R50.1500   
   X15.7470      Y86.2643      R50.1500   
   X8.1092       Y75.6227      R50.1500   
   X3.4859       Y63.3669      R50.1500   
   X2.1922       Y50.3320      R50.1500   
   X4.3162       Y37.4065      R50.1500   
   X9.7133       Y25.4712      R50.1500   
   X18.0155      Y15.3394      R50.1500   
   X28.6571      Y7.7016       R50.1500   
   X40.9130      Y3.0783       R50.1500   
   X53.9478      Y1.7846       R50.1500   
   X66.8733      Y3.9086       R50.1500   
   X78.8087      Y9.3056       R50.1500   
   X88.9405      Y17.6079      R50.1500   
   X96.5783      Y28.2495      R50.1500   
   X99.7986      Y36.7861      R50.1500   
G1   X207.683   
(Pass: 14)
   Z-13.200    F500 
G17 G3   X209.3032     Y31.3809      R50.1500    F1200
   X216.1830     Y20.2342      R50.1500   
   X225.7134     Y11.2479      R50.1500   
   X237.2448     Y5.0345       R50.1500   
   X249.9915     Y2.0173       R50.1500   
   X263.0847     Y2.4020       R50.1500   
   X275.6322     Y6.1624       R50.1500   
   X286.7789     Y13.0422      R50.1500   
   X295.7652     Y22.5726      R50.1500   
   X301.9786     Y34.1040      R50.1500   
   X304.9957     Y46.8506      R50.1500   
   X304.6110     Y59.9439      R50.1500   
   X300.8506     Y72.4914      R50.1500   
   X293.9708     Y83.6381      R50.1500   
   X284.4405     Y92.6243      R50.1500   
   X278.2612     Y95.9539      R50.1500   
G1   Y101.665   
G17 G3   X280.1655     Y102.4534     R50.1500   
   X290.5576     Y110.4275     R50.1500   
   X298.5316     Y120.8195     R50.1500   
   X303.5444     Y132.9213     R50.1500   
   X305.2541     Y145.9081     R50.1500   
   X303.5444     Y158.8949     R50.1500   
   X298.5316     Y170.9967     R50.1500   
   X290.5576     Y181.3887     R50.1500   
   X280.1655     Y189.3628     R50.1500   
   X268.0637     Y194.3755     R50.1500   
   X255.0769     Y196.0853     R50.1500   
   X242.0901     Y194.3755     R50.1500   
   X229.9883     Y189.3628     R50.1500   
   X219.5963     Y181.3887     R50.1500   
   X211.6222     Y170.9967     R50.1500   
   X207.5055     Y161.0581     R50.1500   
G1   X99.831    
G17 G3   X96.3266      Y170.0588     R50.1500   
   X88.5773      Y180.6195     R50.1500   
   X78.3587      Y188.8146     R50.1500   
   X66.3672      Y194.0858     R50.1500   
   X53.4201      Y196.0737     R50.1500   
   X40.3996      Y194.6430     R50.1500   
   X28.1931      Y189.8910     R50.1500   
   X17.6324      Y182.1417     R50.1500   
   X9.4372       Y171.9231     R50.1500   
   X4.1660       Y159.9316     R50.1500   
   X2.1781       Y146.9845     R50.1500   
   X3.6089       Y133.9640     R50.1500   
   X8.3609       Y121.7574     R50.1500   
   X16.1102      Y111.1967     R50.1500   
   X26.3288      Y103.0016     R50.1500   
   X28.9612      Y101.8444     R50.1500   
G1   Y95.960    
G17 G3   X25.8788      Y94.5666      R50.1500   
   X15.7470      Y86.2643      R50.1500   
   X8.1092       Y75.6227      R50.1500   
   X3.4859       Y63.3669      R50.1500   
   X2.1922       Y50.3320      R50.1500   
   X4.3162       Y37.4065      R50.1500   
   X9.7133       Y25.4712      R50.1500   
   X18.0155      Y15.3394      R50.1500   
   X28.6571      Y7.7016       R50.1500   
   X40.9130      Y3.0783       R50.1500   
   X53.9478      Y1.7846       R50.1500   
   X66.8733      Y3.9086       R50.1500   
   X78.8087      Y9.3056       R50.1500   
   X88.9405      Y17.6079      R50.1500   
   X96.5783      Y28.2495      R50.1500   
   X99.7986      Y36.7861      R50.1500   
G1   X207.683   
(BREAK pass 14)
G0   Z5.000     
(Pass: 1)
   X66.656       Y252.020   
G1   Z-1.000     F500 
   Y342.432    F1200
   X71.066    
   Y252.020   
(Pass: 2)
G0   Z5.000     
   X66.656    
G1   Z-2.000     F500 
   Y342.432    F1200
   X71.066    
   Y252.020   
(Pass: 3)
G0   Z5.000     
   X66.656    
G1   Z-3.000     F500 
   Y342.432    F1200
   X71.066    
   Y252.020   
(Pass: 4)
G0   Z5.000     
   X66.656    
G1   Z-4.000     F500 
   Y342.432    F1200
   X71.066    
   Y252.020   
(Pass: 5)
G0   Z5.000     
   X66.656    
G1   Z-5.000     F500 
   Y342.432    F1200
   X71.066    
   Y252.020   
(Pass: 6)
G0   Z5.000     
   X66.656    
G1   Z-6.000     F500 
   Y342.432    F1200
   X71.066    
   Y252.020   
G0   Z5.000     
(Pass: 1)
   X71.726       Y251.390   
G1   Z-1.000     F500 
   Y343.062    F1200
   X66.026    
   Y251.390   
   X71.726    
(Pass: 2)
G0   Z5.000     
G1   Z-2.000     F500 
   Y343.062    F1200
   X66.026    
   Y251.390   
   X71.726    
(Pass: 3)
G0   Z5.000     
G1   Z-3.000     F500 
   Y343.062    F1200
   X66.026    
   Y251.390   
   X71.726    
(Pass: 4)
G0   Z5.000     
G1   Z-4.000     F500 
   Y343.062    F1200
   X66.026    
   Y251.390   
   X71.726    
(Pass: 5)
G0   Z5.000     
G1   Z-5.000     F500 
   Y343.062    F1200
   X66.026    
   Y251.390   
   X71.726    
(Pass: 6)
G0   Z5.000     
G1   Z-6.000     F500 
   Y343.062    F1200
   X66.026    
   Y251.390   
   X71.726    
G0   Z5.000     
(Pass: 1)
   X83.066       Y252.020   
G1   Z-1.000     F500 
   Y256.460    F1200
   X87.476    
   Y252.020   
   X91.886    
   Y256.460   
   X96.296    
   Y252.020   
   X100.706   
   Y256.460   
   X105.116   
   Y252.020   
   X109.526   
   Y256.460   
   X113.936   
   Y252.020   
   X118.346   
   Y256.460   
   X122.756   
   Y252.020   
   X127.166   
   Y256.460   
   X131.576   
   Y252.020   
   X135.986   
   Y256.460   
   X140.396   
   Y252.020   
   X144.806   
   Y256.460   
   X149.216   
   Y252.020   
   X153.626   
   Y256.460   
   X158.036   
   Y252.020   
   X162.446   
   Y256.460   
   X166.856   
   Y252.020   
   X171.266   
   Y256.460   
   X175.676   
   Y252.020   
   X180.086   
   Y256.460   
   X184.496   
   Y252.020   
   X188.906   
   Y256.460   
   X193.316   
   Y252.020   
   X197.726   
   Y256.460   
   X202.136   
   Y252.020   
   X206.546   
   Y256.460   
   X210.956   
   Y252.020   
   X215.366   
   Y256.460   
   X219.776   
   Y252.020   
   X224.186   
   Y256.460   
   X228.596   
   Y252.020   
(Pass: 2)
G0   Z5.000     
   X83.066    
G1   Z-2.000     F500 
   Y256.460    F1200
   X87.476    
   Y252.020   
   X91.886    
   Y256.460   
   X96.296    
   Y252.020   
   X100.706   
   Y256.460   
   X105.116   
   Y252.020   
   X109.526   
   Y256.460   
   X113.936   
   Y252.020   
   X118.346   
   Y256.460   
   X122.756   
   Y252.020   
   X127.166   
   Y256.460   
   X131.576   
   Y252.020   
   X135.986   
   Y256.460   
   X140.396   
   Y252.020   
   X144.806   
   Y256.460   
   X149.216   
   Y252.020   
   X153.626   
   Y256.460   
   X158.036   
   Y252.020   
   X162.446   
   Y256.460   
   X166.856   
   Y252.020   
   X171.266   
   Y256.460   
   X175.676   
   Y252.020   
   X180.086   
   Y256.460   
   X184.496   
   Y252.020   
   X188.906   
   Y256.460   
   X193.316   
   Y252.020   
   X197.726   
   Y256.460   
   X202.136   
   Y252.020   
   X206.546   
   Y256.460   
   X210.956   
   Y252.020   
   X215.366   
   Y256.460   
   X219.776   
   Y252.020   
   X224.186   
   Y256.460   
   X228.596   
   Y252.020   
(Pass: 3)
G0   Z5.000     
   X83.066    
G1   Z-3.000     F500 
   Y256.460    F1200
   X87.476    
   Y252.020   
   X91.886    
   Y256.460   
   X96.296    
   Y252.020   
   X100.706   
   Y256.460   
   X105.116   
   Y252.020   
   X109.526   
   Y256.460   
   X113.936   
   Y252.020   
   X118.346   
   Y256.460   
   X122.756   
   Y252.020   
   X127.166   
   Y256.460   
   X131.576   
   Y252.020   
   X135.986   
   Y256.460   
   X140.396   
   Y252.020   
   X144.806   
   Y256.460   
   X149.216   
   Y252.020   
   X153.626   
   Y256.460   
   X158.036   
   Y252.020   
   X162.446   
   Y256.460   
   X166.856   
   Y252.020   
   X171.266   
   Y256.460   
   X175.676   
   Y252.020   
   X180.086   
   Y256.460   
   X184.496   
   Y252.020   
   X188.906   
   Y256.460   
   X193.316   
   Y252.020   
   X197.726   
   Y256.460   
   X202.136   
   Y252.020   
   X206.546   
   Y256.460   
   X210.956   
   Y252.020   
   X215.366   
   Y256.460   
   X219.776   
   Y252.020   
   X224.186   
   Y256.460   
   X228.596   
   Y252.020   
(Pass: 4)
G0   Z5.000     
   X83.066    
G1   Z-4.000     F500 
   Y256.460    F1200
   X87.476    
   Y252.020   
   X91.886    
   Y256.460   
   X96.296    
   Y252.020   
   X100.706   
   Y256.460   
   X105.116   
   Y252.020   
   X109.526   
   Y256.460   
   X113.936   
   Y252.020   
   X118.346   
   Y256.460   
   X122.756   
   Y252.020   
   X127.166   
   Y256.460   
   X131.576   
   Y252.020   
   X135.986   
   Y256.460   
   X140.396   
   Y252.020   
   X144.806   
   Y256.460   
   X149.216   
   Y252.020   
   X153.626   
   Y256.460   
   X158.036   
   Y252.020   
   X162.446   
   Y256.460   
   X166.856   
   Y252.020   
   X171.266   
   Y256.460   
   X175.676   
   Y252.020   
   X180.086   
   Y256.460   
   X184.496   
   Y252.020   
   X188.906   
   Y256.460   
   X193.316   
   Y252.020   
   X197.726   
   Y256.460   
   X202.136   
   Y252.020   
   X206.546   
   Y256.460   
   X210.956   
   Y252.020   
   X215.366   
   Y256.460   
   X219.776   
   Y252.020   
   X224.186   
   Y256.460   
   X228.596   
   Y252.020   
(Pass: 5)
G0   Z5.000     
   X83.066    
G1   Z-5.000     F500 
   Y256.460    F1200
   X87.476    
   Y252.020   
   X91.886    
   Y256.460   
   X96.296    
   Y252.020   
   X100.706   
   Y256.460   
   X105.116   
   Y252.020   
   X109.526   
   Y256.460   
   X113.936   
   Y252.020   
   X118.346   
   Y256.460   
   X122.756   
   Y252.020   
   X127.166   
   Y256.460   
   X131.576   
   Y252.020   
   X135.986   
   Y256.460   
   X140.396   
   Y252.020   
   X144.806   
   Y256.460   
   X149.216   
   Y252.020   
   X153.626   
   Y256.460   
   X158.036   
   Y252.020   
   X162.446   
   Y256.460   
   X166.856   
   Y252.020   
   X171.266   
   Y256.460   
   X175.676   
   Y252.020   
   X180.086   
   Y256.460   
   X184.496   
   Y252.020   
   X188.906   
   Y256.460   
   X193.316   
   Y252.020   
   X197.726   
   Y256.460   
   X202.136   
   Y252.020   
   X206.546   
   Y256.460   
   X210.956   
   Y252.020   
   X215.366   
   Y256.460   
   X219.776   
   Y252.020   
   X224.186   
   Y256.460   
   X228.596   
   Y252.020   
(Pass: 6)
G0   Z5.000     
   X83.066    
G1   Z-6.000     F500 
   Y256.460    F1200
   X87.476    
   Y252.020   
   X91.886    
   Y256.460   
   X96.296    
   Y252.020   
   X100.706   
   Y256.460   
   X105.116   
   Y252.020   
   X109.526   
   Y256.460   
   X113.936   
   Y252.020   
   X118.346   
   Y256.460   
   X122.756   
   Y252.020   
   X127.166   
   Y256.460   
   X131.576   
   Y252.020   
   X135.986   
   Y256.460   
   X140.396   
   Y252.020   
   X144.806   
   Y256.460   
   X149.216   
   Y252.020   
   X153.626   
   Y256.460   
   X158.036   
   Y252.020   
   X162.446   
   Y256.460   
   X166.856   
   Y252.020   
   X171.266   
   Y256.460   
   X175.676   
   Y252.020   
   X180.086   
   Y256.460   
   X184.496   
   Y252.020   
   X188.906   
   Y256.460   
   X193.316   
   Y252.020   
   X197.726   
   Y256.460   
   X202.136   
   Y252.020   
   X206.546   
   Y256.460   
   X210.956   
   Y252.020   
   X215.366   
   Y256.460   
   X219.776   
   Y252.020   
   X224.186   
   Y256.460   
   X228.596   
   Y252.020   
G0   Z5.000     
(Pass: 1)
   X230.726      Y251.390   
G1   Z-1.000     F500 
   Y257.090    F1200
   X78.026    
   Y251.390   
   X230.726   
(Pass: 2)
G0   Z5.000     
G1   Z-2.000     F500 
   Y257.090    F1200
   X78.026    
   Y251.390   
   X230.726   
(Pass: 3)
G0   Z5.000     
G1   Z-3.000     F500 
   Y257.090    F1200
   X78.026    
   Y251.390   
   X230.726   
(Pass: 4)
G0   Z5.000     
G1   Z-4.000     F500 
   Y257.090    F1200
   X78.026    
   Y251.390   
   X230.726   
(Pass: 5)
G0   Z5.000     
G1   Z-5.000     F500 
   Y257.090    F1200
   X78.026    
   Y251.390   
   X230.726   
(Pass: 6)
G0   Z5.000     
G1   Z-6.000     F500 
   Y257.090    F1200
   X78.026    
   Y251.390   
   X230.726   
G0   Z5.000     
(Pass: 1)
   X237.656      Y252.020   
G1   Z-1.000     F500 
   Y342.432    F1200
   X242.066   
   Y252.020   
(Pass: 2)
G0   Z5.000     
   X237.656   
G1   Z-2.000     F500 
   Y342.432    F1200
   X242.066   
   Y252.020   
(Pass: 3)
G0   Z5.000     
   X237.656   
G1   Z-3.000     F500 
   Y342.432    F1200
   X242.066   
   Y252.020   
(Pass: 4)
G0   Z5.000     
   X237.656   
G1   Z-4.000     F500 
   Y342.432    F1200
   X242.066   
   Y252.020   
(Pass: 5)
G0   Z5.000     
   X237.656   
G1   Z-5.000     F500 
   Y342.432    F1200
   X242.066   
   Y252.020   
(Pass: 6)
G0   Z5.000     
   X237.656   
G1   Z-6.000     F500 
   Y342.432    F1200
   X242.066   
   Y252.020   
G0   Z5.000     
(Pass: 1)
   X242.726      Y251.390   
G1   Z-1.000     F500 
   Y343.062    F1200
   X237.026   
   Y251.390   
   X242.726   
(Pass: 2)
G0   Z5.000     
G1   Z-2.000     F500 
   Y343.062    F1200
   X237.026   
   Y251.390   
   X242.726   
(Pass: 3)
G0   Z5.000     
G1   Z-3.000     F500 
   Y343.062    F1200
   X237.026   
   Y251.390   
   X242.726   
(Pass: 4)
G0   Z5.000     
G1   Z-4.000     F500 
   Y343.062    F1200
   X237.026   
   Y251.390   
   X242.726   
(Pass: 5)
G0   Z5.000     
G1   Z-5.000     F500 
   Y343.062    F1200
   X237.026   
   Y251.390   
   X242.726   
(Pass: 6)
G0   Z5.000     
G1   Z-6.000     F500 
   Y343.062    F1200
   X237.026   
   Y251.390   
   X242.726   
G0   Z5.000     
(Pass: 1)
   X208.448      Y235.090   
G1   Z-1.000     F500 
G17 G3   X210.0679     Y229.6845     R50.1500    F1200
   X216.9477     Y218.5378     R50.1500   
   X226.4781     Y209.5516     R50.1500   
   X238.0095     Y203.3382     R50.1500   
   X250.7561     Y200.3210     R50.1500   
   X263.8494     Y200.7057     R50.1500   
   X276.3969     Y204.4661     R50.1500   
   X287.5436     Y211.3459     R50.1500   
   X296.5298     Y220.8763     R50.1500   
   X302.7433     Y232.4077     R50.1500   
   X305.7604     Y245.1543     R50.1500   
   X305.3757     Y258.2476     R50.1500   
   X301.6153     Y270.7951     R50.1500   
   X294.7355     Y281.9418     R50.1500   
   X285.2052     Y290.9280     R50.1500   
   X279.0259     Y294.2576     R50.1500   
G1   Y299.968   
G17 G3   X280.9302     Y300.7571     R50.1500   
   X291.3222     Y308.7312     R50.1500   
   X299.2963     Y319.1232     R50.1500   
   X304.3090     Y331.2250     R50.1500   
   X306.0188     Y344.2118     R50.1500   
   X304.3090     Y357.1986     R50.1500   
   X299.2963     Y369.3004     R50.1500   
   X291.3222     Y379.6924     R50.1500   
   X280.9302     Y387.6665     R50.1500   
   X268.8284     Y392.6792     R50.1500   
   X255.8416     Y394.3890     R50.1500   
   X242.8548     Y392.6792     R50.1500   
   X230.7530     Y387.6665     R50.1500   
   X220.3610     Y379.6924     R50.1500   
   X212.3869     Y369.3004     R50.1500   
   X208.2702     Y359.3618     R50.1500   
G1   X100.595   
G17 G3   X97.0913      Y368.3625     R50.1500   
   X89.3420      Y378.9232     R50.1500   
   X79.1234      Y387.1183     R50.1500   
   X67.1319      Y392.3895     R50.1500   
   X54.1848      Y394.3774     R50.1500   
   X41.1643      Y392.9467     R50.1500   
   X28.9578      Y388.1947     R50.1500   
   X18.3971      Y380.4454     R50.1500   
   X10.2019      Y370.2268     R50.1500   
   X4.9307       Y358.2353     R50.1500   
   X2.9428       Y345.2882     R50.1500   
   X4.3736       Y332.2677     R50.1500   
   X9.1255       Y320.0611     R50.1500   
   X16.8749      Y309.5004     R50.1500   
   X27.0935      Y301.3053     R50.1500   
   X29.7259      Y300.1481     R50.1500   
G1   Y294.264   
G17 G3   X26.6435      Y292.8703     R50.1500   
   X16.5117      Y284.5680     R50.1500   
   X8.8739       Y273.9264     R50.1500   
   X4.2506       Y261.6706     R50.1500   
   X2.9569       Y248.6357     R50.1500   
   X5.0809       Y235.7102     R50.1500   
   X10.4780      Y223.7749     R50.1500   
   X18.7802      Y213.6431     R50.1500   
   X29.4218      Y206.0053     R50.1500   
   X41.6777      Y201.3820     R50.1500   
   X54.7125      Y200.0883     R50.1500   
   X67.6380      Y202.2123     R50.1500   
   X79.5734      Y207.6093     R50.1500   
   X89.7052      Y215.9116     R50.1500   
   X97.3430      Y226.5532     R50.1500   
   X100.5632     Y235.0898     R50.1500   
G1   X208.448   
(Pass: 2)
   Z-2.000     F500 
G17 G3   X210.0679     Y229.6845     R50.1500    F1200
   X216.9477     Y218.5378     R50.1500   
   X226.4781     Y209.5516     R50.1500   
   X238.0095     Y203.3382     R50.1500   
   X250.7561     Y200.3210     R50.1500   
   X263.8494     Y200.7057     R50.1500   
   X276.3969     Y204.4661     R50.1500   
   X287.5436     Y211.3459     R50.1500   
   X296.5298     Y220.8763     R50.1500   
   X302.7433     Y232.4077     R50.1500   
   X305.7604     Y245.1543     R50.1500   
   X305.3757     Y258.2476     R50.1500   
   X301.6153     Y270.7951     R50.1500   
   X294.7355     Y281.9418     R50.1500   
   X285.2052     Y290.9280     R50.1500   
   X279.0259     Y294.2576     R50.1500   
G1   Y299.968   
G17 G3   X280.9302     Y300.7571     R50.1500   
   X291.3222     Y308.7312     R50.1500   
   X299.2963     Y319.1232     R50.1500   
   X304.3090     Y331.2250     R50.1500   
   X306.0188     Y344.2118     R50.1500   
   X304.3090     Y357.1986     R50.1500   
   X299.2963     Y369.3004     R50.1500   
   X291.3222     Y379.6924     R50.1500   
   X280.9302     Y387.6665     R50.1500   
   X268.8284     Y392.6792     R50.1500   
   X255.8416     Y394.3890     R50.1500   
   X242.8548     Y392.6792     R50.1500   
   X230.7530     Y387.6665     R50.1500   
   X220.3610     Y379.6924     R50.1500   
   X212.3869     Y369.3004     R50.1500   
   X208.2702     Y359.3618     R50.1500   
G1   X100.595   
G17 G3   X97.0913      Y368.3625     R50.1500   
   X89.3420      Y378.9232     R50.1500   
   X79.1234      Y387.1183     R50.1500   
   X67.1319      Y392.3895     R50.1500   
   X54.1848      Y394.3774     R50.1500   
   X41.1643      Y392.9467     R50.1500   
   X28.9578      Y388.1947     R50.1500   
   X18.3971      Y380.4454     R50.1500   
   X10.2019      Y370.2268     R50.1500   
   X4.9307       Y358.2353     R50.1500   
   X2.9428       Y345.2882     R50.1500   
   X4.3736       Y332.2677     R50.1500   
   X9.1255       Y320.0611     R50.1500   
   X16.8749      Y309.5004     R50.1500   
   X27.0935      Y301.3053     R50.1500   
   X29.7259      Y300.1481     R50.1500   
G1   Y294.264   
G17 G3   X26.6435      Y292.8703     R50.1500   
   X16.5117      Y284.5680     R50.1500   
   X8.8739       Y273.9264     R50.1500   
   X4.2506       Y261.6706     R50.1500   
   X2.9569       Y248.6357     R50.1500   
   X5.0809       Y235.7102     R50.1500   
   X10.4780      Y223.7749     R50.1500   
   X18.7802      Y213.6431     R50.1500   
   X29.4218      Y206.0053     R50.1500   
   X41.6777      Y201.3820     R50.1500   
   X54.7125      Y200.0883     R50.1500   
   X67.6380      Y202.2123     R50.1500   
   X79.5734      Y207.6093     R50.1500   
   X89.7052      Y215.9116     R50.1500   
   X97.3430      Y226.5532     R50.1500   
   X100.5632     Y235.0898     R50.1500   
G1   X208.448   
(Pass: 3)
   Z-3.000     F500 
G17 G3   X210.0679     Y229.6845     R50.1500    F1200
   X216.9477     Y218.5378     R50.1500   
   X226.4781     Y209.5516     R50.1500   
   X238.0095     Y203.3382     R50.1500   
   X250.7561     Y200.3210     R50.1500   
   X263.8494     Y200.7057     R50.1500   
   X276.3969     Y204.4661     R50.1500   
   X287.5436     Y211.3459     R50.1500   
   X296.5298     Y220.8763     R50.1500   
   X302.7433     Y232.4077     R50.1500   
   X305.7604     Y245.1543     R50.1500   
   X305.3757     Y258.2476     R50.1500   
   X301.6153     Y270.7951     R50.1500   
   X294.7355     Y281.9418     R50.1500   
   X285.2052     Y290.9280     R50.1500   
   X279.0259     Y294.2576     R50.1500   
G1   Y299.968   
G17 G3   X280.9302     Y300.7571     R50.1500   
   X291.3222     Y308.7312     R50.1500   
   X299.2963     Y319.1232     R50.1500   
   X304.3090     Y331.2250     R50.1500   
   X306.0188     Y344.2118     R50.1500   
   X304.3090     Y357.1986     R50.1500   
   X299.2963     Y369.3004     R50.1500   
   X291.3222     Y379.6924     R50.1500   
   X280.9302     Y387.6665     R50.1500   
   X268.8284     Y392.6792     R50.1500   
   X255.8416     Y394.3890     R50.1500   
   X242.8548     Y392.6792     R50.1500   
   X230.7530     Y387.6665     R50.1500   
   X220.3610     Y379.6924     R50.1500   
   X212.3869     Y369.3004     R50.1500   
   X208.2702     Y359.3618     R50.1500   
G1   X100.595   
G17 G3   X97.0913      Y368.3625     R50.1500   
   X89.3420      Y378.9232     R50.1500   
   X79.1234      Y387.1183     R50.1500   
   X67.1319      Y392.3895     R50.1500   
   X54.1848      Y394.3774     R50.1500   
   X41.1643      Y392.9467     R50.1500   
   X28.9578      Y388.1947     R50.1500   
   X18.3971      Y380.4454     R50.1500   
   X10.2019      Y370.2268     R50.1500   
   X4.9307       Y358.2353     R50.1500   
   X2.9428       Y345.2882     R50.1500   
   X4.3736       Y332.2677     R50.1500   
   X9.1255       Y320.0611     R50.1500   
   X16.8749      Y309.5004     R50.1500   
   X27.0935      Y301.3053     R50.1500   
   X29.7259      Y300.1481     R50.1500   
G1   Y294.264   
G17 G3   X26.6435      Y292.8703     R50.1500   
   X16.5117      Y284.5680     R50.1500   
   X8.8739       Y273.9264     R50.1500   
   X4.2506       Y261.6706     R50.1500   
   X2.9569       Y248.6357     R50.1500   
   X5.0809       Y235.7102     R50.1500   
   X10.4780      Y223.7749     R50.1500   
   X18.7802      Y213.6431     R50.1500   
   X29.4218      Y206.0053     R50.1500   
   X41.6777      Y201.3820     R50.1500   
   X54.7125      Y200.0883     R50.1500   
   X67.6380      Y202.2123     R50.1500   
   X79.5734      Y207.6093     R50.1500   
   X89.7052      Y215.9116     R50.1500   
   X97.3430      Y226.5532     R50.1500   
   X100.5632     Y235.0898     R50.1500   
G1   X208.448   
(Pass: 4)
   Z-4.000     F500 
G17 G3   X210.0679     Y229.6845     R50.1500    F1200
   X216.9477     Y218.5378     R50.1500   
   X226.4781     Y209.5516     R50.1500   
   X238.0095     Y203.3382     R50.1500   
   X250.7561     Y200.3210     R50.1500   
   X263.8494     Y200.7057     R50.1500   
   X276.3969     Y204.4661     R50.1500   
   X287.5436     Y211.3459     R50.1500   
   X296.5298     Y220.8763     R50.1500   
   X302.7433     Y232.4077     R50.1500   
   X305.7604     Y245.1543     R50.1500   
   X305.3757     Y258.2476     R50.1500   
   X301.6153     Y270.7951     R50.1500   
   X294.7355     Y281.9418     R50.1500   
   X285.2052     Y290.9280     R50.1500   
   X279.0259     Y294.2576     R50.1500   
G1   Y299.968   
G17 G3   X280.9302     Y300.7571     R50.1500   
   X291.3222     Y308.7312     R50.1500   
   X299.2963     Y319.1232     R50.1500   
   X304.3090     Y331.2250     R50.1500   
   X306.0188     Y344.2118     R50.1500   
   X304.3090     Y357.1986     R50.1500   
   X299.2963     Y369.3004     R50.1500   
   X291.3222     Y379.6924     R50.1500   
   X280.9302     Y387.6665     R50.1500   
   X268.8284     Y392.6792     R50.1500   
   X255.8416     Y394.3890     R50.1500   
   X242.8548     Y392.6792     R50.1500   
   X230.7530     Y387.6665     R50.1500   
   X220.3610     Y379.6924     R50.1500   
   X212.3869     Y369.3004     R50.1500   
   X208.2702     Y359.3618     R50.1500   
G1   X100.595   
G17 G3   X97.0913      Y368.3625     R50.1500   
   X89.3420      Y378.9232     R50.1500   
   X79.1234      Y387.1183     R50.1500   
   X67.1319      Y392.3895     R50.1500   
   X54.1848      Y394.3774     R50.1500   
   X41.1643      Y392.9467     R50.1500   
   X28.9578      Y388.1947     R50.1500   
   X18.3971      Y380.4454     R50.1500   
   X10.2019      Y370.2268     R50.1500   
   X4.9307       Y358.2353     R50.1500   
   X2.9428       Y345.2882     R50.1500   
   X4.3736       Y332.2677     R50.1500   
   X9.1255       Y320.0611     R50.1500   
   X16.8749      Y309.5004     R50.1500   
   X27.0935      Y301.3053     R50.1500   
   X29.7259      Y300.1481     R50.1500   
G1   Y294.264   
G17 G3   X26.6435      Y292.8703     R50.1500   
   X16.5117      Y284.5680     R50.1500   
   X8.8739       Y273.9264     R50.1500   
   X4.2506       Y261.6706     R50.1500   
   X2.9569       Y248.6357     R50.1500   
   X5.0809       Y235.7102     R50.1500   
   X10.4780      Y223.7749     R50.1500   
   X18.7802      Y213.6431     R50.1500   
   X29.4218      Y206.0053     R50.1500   
   X41.6777      Y201.3820     R50.1500   
   X54.7125      Y200.0883     R50.1500   
   X67.6380      Y202.2123     R50.1500   
   X79.5734      Y207.6093     R50.1500   
   X89.7052      Y215.9116     R50.1500   
   X97.3430      Y226.5532     R50.1500   
   X100.5632     Y235.0898     R50.1500   
G1   X208.448   
(Pass: 5)
   Z-5.000     F500 
G17 G3   X210.0679     Y229.6845     R50.1500    F1200
   X216.9477     Y218.5378     R50.1500   
   X226.4781     Y209.5516     R50.1500   
   X238.0095     Y203.3382     R50.1500   
   X250.7561     Y200.3210     R50.1500   
   X263.8494     Y200.7057     R50.1500   
   X276.3969     Y204.4661     R50.1500   
   X287.5436     Y211.3459     R50.1500   
   X296.5298     Y220.8763     R50.1500   
   X302.7433     Y232.4077     R50.1500   
   X305.7604     Y245.1543     R50.1500   
   X305.3757     Y258.2476     R50.1500   
   X301.6153     Y270.7951     R50.1500   
   X294.7355     Y281.9418     R50.1500   
   X285.2052     Y290.9280     R50.1500   
   X279.0259     Y294.2576     R50.1500   
G1   Y299.968   
G17 G3   X280.9302     Y300.7571     R50.1500   
   X291.3222     Y308.7312     R50.1500   
   X299.2963     Y319.1232     R50.1500   
   X304.3090     Y331.2250     R50.1500   
   X306.0188     Y344.2118     R50.1500   
   X304.3090     Y357.1986     R50.1500   
   X299.2963     Y369.3004     R50.1500   
   X291.3222     Y379.6924     R50.1500   
   X280.9302     Y387.6665     R50.1500   
   X268.8284     Y392.6792     R50.1500   
   X255.8416     Y394.3890     R50.1500   
   X242.8548     Y392.6792     R50.1500   
   X230.7530     Y387.6665     R50.1500   
   X220.3610     Y379.6924     R50.1500   
   X212.3869     Y369.3004     R50.1500   
   X208.2702     Y359.3618     R50.1500   
G1   X100.595   
G17 G3   X97.0913      Y368.3625     R50.1500   
   X89.3420      Y378.9232     R50.1500   
   X79.1234      Y387.1183     R50.1500   
   X67.1319      Y392.3895     R50.1500   
   X54.1848      Y394.3774     R50.1500   
   X41.1643      Y392.9467     R50.1500   
   X28.9578      Y388.1947     R50.1500   
   X18.3971      Y380.4454     R50.1500   
   X10.2019      Y370.2268     R50.1500   
   X4.9307       Y358.2353     R50.1500   
   X2.9428       Y345.2882     R50.1500   
   X4.3736       Y332.2677     R50.1500   
   X9.1255       Y320.0611     R50.1500   
   X16.8749      Y309.5004     R50.1500   
   X27.0935      Y301.3053     R50.1500   
   X29.7259      Y300.1481     R50.1500   
G1   Y294.264   
G17 G3   X26.6435      Y292.8703     R50.1500   
   X16.5117      Y284.5680     R50.1500   
   X8.8739       Y273.9264     R50.1500   
   X4.2506       Y261.6706     R50.1500   
   X2.9569       Y248.6357     R50.1500   
   X5.0809       Y235.7102     R50.1500   
   X10.4780      Y223.7749     R50.1500   
   X18.7802      Y213.6431     R50.1500   
   X29.4218      Y206.0053     R50.1500   
   X41.6777      Y201.3820     R50.1500   
   X54.7125      Y200.0883     R50.1500   
   X67.6380      Y202.2123     R50.1500   
   X79.5734      Y207.6093     R50.1500   
   X89.7052      Y215.9116     R50.1500   
   X97.3430      Y226.5532     R50.1500   
   X100.5632     Y235.0898     R50.1500   
G1   X208.448   
(Pass: 6)
   Z-6.000     F500 
G17 G3   X210.0679     Y229.6845     R50.1500    F1200
   X216.9477     Y218.5378     R50.1500   
   X226.4781     Y209.5516     R50.1500   
   X238.0095     Y203.3382     R50.1500   
   X250.7561     Y200.3210     R50.1500   
   X263.8494     Y200.7057     R50.1500   
   X276.3969     Y204.4661     R50.1500   
   X287.5436     Y211.3459     R50.1500   
   X296.5298     Y220.8763     R50.1500   
   X302.7433     Y232.4077     R50.1500   
   X305.7604     Y245.1543     R50.1500   
   X305.3757     Y258.2476     R50.1500   
   X301.6153     Y270.7951     R50.1500   
   X294.7355     Y281.9418     R50.1500   
   X285.2052     Y290.9280     R50.1500   
   X279.0259     Y294.2576     R50.1500   
G1   Y299.968   
G17 G3   X280.9302     Y300.7571     R50.1500   
   X291.3222     Y308.7312     R50.1500   
   X299.2963     Y319.1232     R50.1500   
   X304.3090     Y331.2250     R50.1500   
   X306.0188     Y344.2118     R50.1500   
   X304.3090     Y357.1986     R50.1500   
   X299.2963     Y369.3004     R50.1500   
   X291.3222     Y379.6924     R50.1500   
   X280.9302     Y387.6665     R50.1500   
   X268.8284     Y392.6792     R50.1500   
   X255.8416     Y394.3890     R50.1500   
   X242.8548     Y392.6792     R50.1500   
   X230.7530     Y387.6665     R50.1500   
   X220.3610     Y379.6924     R50.1500   
   X212.3869     Y369.3004     R50.1500   
   X208.2702     Y359.3618     R50.1500   
G1   X100.595   
G17 G3   X97.0913      Y368.3625     R50.1500   
   X89.3420      Y378.9232     R50.1500   
   X79.1234      Y387.1183     R50.1500   
   X67.1319      Y392.3895     R50.1500   
   X54.1848      Y394.3774     R50.1500   
   X41.1643      Y392.9467     R50.1500   
   X28.9578      Y388.1947     R50.1500   
   X18.3971      Y380.4454     R50.1500   
   X10.2019      Y370.2268     R50.1500   
   X4.9307       Y358.2353     R50.1500   
   X2.9428       Y345.2882     R50.1500   
   X4.3736       Y332.2677     R50.1500   
   X9.1255       Y320.0611     R50.1500   
   X16.8749      Y309.5004     R50.1500   
   X27.0935      Y301.3053     R50.1500   
   X29.7259      Y300.1481     R50.1500   
G1   Y294.264   
G17 G3   X26.6435      Y292.8703     R50.1500   
   X16.5117      Y284.5680     R50.1500   
   X8.8739       Y273.9264     R50.1500   
   X4.2506       Y261.6706     R50.1500   
   X2.9569       Y248.6357     R50.1500   
   X5.0809       Y235.7102     R50.1500   
   X10.4780      Y223.7749     R50.1500   
   X18.7802      Y213.6431     R50.1500   
   X29.4218      Y206.0053     R50.1500   
   X41.6777      Y201.3820     R50.1500   
   X54.7125      Y200.0883     R50.1500   
   X67.6380      Y202.2123     R50.1500   
   X79.5734      Y207.6093     R50.1500   
   X89.7052      Y215.9116     R50.1500   
   X97.3430      Y226.5532     R50.1500   
   X100.5632     Y235.0898     R50.1500   
G1   X208.448   
(Pass: 7)
   Z-7.000     F500 
G17 G3   X210.0679     Y229.6845     R50.1500    F1200
   X216.9477     Y218.5378     R50.1500   
   X226.4781     Y209.5516     R50.1500   
   X238.0095     Y203.3382     R50.1500   
   X250.7561     Y200.3210     R50.1500   
   X263.8494     Y200.7057     R50.1500   
   X276.3969     Y204.4661     R50.1500   
   X287.5436     Y211.3459     R50.1500   
   X296.5298     Y220.8763     R50.1500   
   X302.7433     Y232.4077     R50.1500   
   X305.7604     Y245.1543     R50.1500   
   X305.3757     Y258.2476     R50.1500   
   X301.6153     Y270.7951     R50.1500   
   X294.7355     Y281.9418     R50.1500   
   X285.2052     Y290.9280     R50.1500   
   X279.0259     Y294.2576     R50.1500   
G1   Y299.968   
G17 G3   X280.9302     Y300.7571     R50.1500   
   X291.3222     Y308.7312     R50.1500   
   X299.2963     Y319.1232     R50.1500   
   X304.3090     Y331.2250     R50.1500   
   X306.0188     Y344.2118     R50.1500   
   X304.3090     Y357.1986     R50.1500   
   X299.2963     Y369.3004     R50.1500   
   X291.3222     Y379.6924     R50.1500   
   X280.9302     Y387.6665     R50.1500   
   X268.8284     Y392.6792     R50.1500   
   X255.8416     Y394.3890     R50.1500   
   X242.8548     Y392.6792     R50.1500   
   X230.7530     Y387.6665     R50.1500   
   X220.3610     Y379.6924     R50.1500   
   X212.3869     Y369.3004     R50.1500   
   X208.2702     Y359.3618     R50.1500   
G1   X100.595   
G17 G3   X97.0913      Y368.3625     R50.1500   
   X89.3420      Y378.9232     R50.1500   
   X79.1234      Y387.1183     R50.1500   
   X67.1319      Y392.3895     R50.1500   
   X54.1848      Y394.3774     R50.1500   
   X41.1643      Y392.9467     R50.1500   
   X28.9578      Y388.1947     R50.1500   
   X18.3971      Y380.4454     R50.1500   
   X10.2019      Y370.2268     R50.1500   
   X4.9307       Y358.2353     R50.1500   
   X2.9428       Y345.2882     R50.1500   
   X4.3736       Y332.2677     R50.1500   
   X9.1255       Y320.0611     R50.1500   
   X16.8749      Y309.5004     R50.1500   
   X27.0935      Y301.3053     R50.1500   
   X29.7259      Y300.1481     R50.1500   
G1   Y294.264   
G17 G3   X26.6435      Y292.8703     R50.1500   
   X16.5117      Y284.5680     R50.1500   
   X8.8739       Y273.9264     R50.1500   
   X4.2506       Y261.6706     R50.1500   
   X2.9569       Y248.6357     R50.1500   
   X5.0809       Y235.7102     R50.1500   
   X10.4780      Y223.7749     R50.1500   
   X18.7802      Y213.6431     R50.1500   
   X29.4218      Y206.0053     R50.1500   
   X41.6777      Y201.3820     R50.1500   
   X54.7125      Y200.0883     R50.1500   
   X67.6380      Y202.2123     R50.1500   
   X79.5734      Y207.6093     R50.1500   
   X89.7052      Y215.9116     R50.1500   
   X97.3430      Y226.5532     R50.1500   
   X100.5632     Y235.0898     R50.1500   
G1   X208.448   
(Pass: 8)
   Z-8.000     F500 
G17 G3   X210.0679     Y229.6845     R50.1500    F1200
   X216.9477     Y218.5378     R50.1500   
   X226.4781     Y209.5516     R50.1500   
   X238.0095     Y203.3382     R50.1500   
   X250.7561     Y200.3210     R50.1500   
   X263.8494     Y200.7057     R50.1500   
   X276.3969     Y204.4661     R50.1500   
   X287.5436     Y211.3459     R50.1500   
   X296.5298     Y220.8763     R50.1500   
   X302.7433     Y232.4077     R50.1500   
   X305.7604     Y245.1543     R50.1500   
   X305.3757     Y258.2476     R50.1500   
   X301.6153     Y270.7951     R50.1500   
   X294.7355     Y281.9418     R50.1500   
   X285.2052     Y290.9280     R50.1500   
   X279.0259     Y294.2576     R50.1500   
G1   Y299.968   
G17 G3   X280.9302     Y300.7571     R50.1500   
   X291.3222     Y308.7312     R50.1500   
   X299.2963     Y319.1232     R50.1500   
   X304.3090     Y331.2250     R50.1500   
   X306.0188     Y344.2118     R50.1500   
   X304.3090     Y357.1986     R50.1500   
   X299.2963     Y369.3004     R50.1500   
   X291.3222     Y379.6924     R50.1500   
   X280.9302     Y387.6665     R50.1500   
   X268.8284     Y392.6792     R50.1500   
   X255.8416     Y394.3890     R50.1500   
   X242.8548     Y392.6792     R50.1500   
   X230.7530     Y387.6665     R50.1500   
   X220.3610     Y379.6924     R50.1500   
   X212.3869     Y369.3004     R50.1500   
   X208.2702     Y359.3618     R50.1500   
G1   X100.595   
G17 G3   X97.0913      Y368.3625     R50.1500   
   X89.3420      Y378.9232     R50.1500   
   X79.1234      Y387.1183     R50.1500   
   X67.1319      Y392.3895     R50.1500   
   X54.1848      Y394.3774     R50.1500   
   X41.1643      Y392.9467     R50.1500   
   X28.9578      Y388.1947     R50.1500   
   X18.3971      Y380.4454     R50.1500   
   X10.2019      Y370.2268     R50.1500   
   X4.9307       Y358.2353     R50.1500   
   X2.9428       Y345.2882     R50.1500   
   X4.3736       Y332.2677     R50.1500   
   X9.1255       Y320.0611     R50.1500   
   X16.8749      Y309.5004     R50.1500   
   X27.0935      Y301.3053     R50.1500   
   X29.7259      Y300.1481     R50.1500   
G1   Y294.264   
G17 G3   X26.6435      Y292.8703     R50.1500   
   X16.5117      Y284.5680     R50.1500   
   X8.8739       Y273.9264     R50.1500   
   X4.2506       Y261.6706     R50.1500   
   X2.9569       Y248.6357     R50.1500   
   X5.0809       Y235.7102     R50.1500   
   X10.4780      Y223.7749     R50.1500   
   X18.7802      Y213.6431     R50.1500   
   X29.4218      Y206.0053     R50.1500   
   X41.6777      Y201.3820     R50.1500   
   X54.7125      Y200.0883     R50.1500   
   X67.6380      Y202.2123     R50.1500   
   X79.5734      Y207.6093     R50.1500   
   X89.7052      Y215.9116     R50.1500   
   X97.3430      Y226.5532     R50.1500   
   X100.5632     Y235.0898     R50.1500   
G1   X208.448   
(Pass: 9)
   Z-9.000     F500 
G17 G3   X210.0679     Y229.6845     R50.1500    F1200
   X216.9477     Y218.5378     R50.1500   
   X226.4781     Y209.5516     R50.1500   
   X238.0095     Y203.3382     R50.1500   
   X250.7561     Y200.3210     R50.1500   
   X263.8494     Y200.7057     R50.1500   
   X276.3969     Y204.4661     R50.1500   
   X287.5436     Y211.3459     R50.1500   
   X296.5298     Y220.8763     R50.1500   
   X302.7433     Y232.4077     R50.1500   
   X305.7604     Y245.1543     R50.1500   
   X305.3757     Y258.2476     R50.1500   
   X301.6153     Y270.7951     R50.1500   
   X294.7355     Y281.9418     R50.1500   
   X285.2052     Y290.9280     R50.1500   
   X279.0259     Y294.2576     R50.1500   
G1   Y299.968   
G17 G3   X280.9302     Y300.7571     R50.1500   
   X291.3222     Y308.7312     R50.1500   
   X299.2963     Y319.1232     R50.1500   
   X304.3090     Y331.2250     R50.1500   
   X306.0188     Y344.2118     R50.1500   
   X304.3090     Y357.1986     R50.1500   
   X299.2963     Y369.3004     R50.1500   
   X291.3222     Y379.6924     R50.1500   
   X280.9302     Y387.6665     R50.1500   
   X268.8284     Y392.6792     R50.1500   
   X255.8416     Y394.3890     R50.1500   
   X242.8548     Y392.6792     R50.1500   
   X230.7530     Y387.6665     R50.1500   
   X220.3610     Y379.6924     R50.1500   
   X212.3869     Y369.3004     R50.1500   
   X208.2702     Y359.3618     R50.1500   
G1   X100.595   
G17 G3   X97.0913      Y368.3625     R50.1500   
   X89.3420      Y378.9232     R50.1500   
   X79.1234      Y387.1183     R50.1500   
   X67.1319      Y392.3895     R50.1500   
   X54.1848      Y394.3774     R50.1500   
   X41.1643      Y392.9467     R50.1500   
   X28.9578      Y388.1947     R50.1500   
   X18.3971      Y380.4454     R50.1500   
   X10.2019      Y370.2268     R50.1500   
   X4.9307       Y358.2353     R50.1500   
   X2.9428       Y345.2882     R50.1500   
   X4.3736       Y332.2677     R50.1500   
   X9.1255       Y320.0611     R50.1500   
   X16.8749      Y309.5004     R50.1500   
   X27.0935      Y301.3053     R50.1500   
   X29.7259      Y300.1481     R50.1500   
G1   Y294.264   
G17 G3   X26.6435      Y292.8703     R50.1500   
   X16.5117      Y284.5680     R50.1500   
   X8.8739       Y273.9264     R50.1500   
   X4.2506       Y261.6706     R50.1500   
   X2.9569       Y248.6357     R50.1500   
   X5.0809       Y235.7102     R50.1500   
   X10.4780      Y223.7749     R50.1500   
   X18.7802      Y213.6431     R50.1500   
   X29.4218      Y206.0053     R50.1500   
   X41.6777      Y201.3820     R50.1500   
   X54.7125      Y200.0883     R50.1500   
   X67.6380      Y202.2123     R50.1500   
   X79.5734      Y207.6093     R50.1500   
   X89.7052      Y215.9116     R50.1500   
   X97.3430      Y226.5532     R50.1500   
   X100.5632     Y235.0898     R50.1500   
G1   X208.448   
(Pass: 10)
   Z-10.000    F500 
G17 G3   X210.0679     Y229.6845     R50.1500    F1200
   X216.9477     Y218.5378     R50.1500   
   X226.4781     Y209.5516     R50.1500   
   X238.0095     Y203.3382     R50.1500   
   X250.7561     Y200.3210     R50.1500   
   X263.8494     Y200.7057     R50.1500   
   X276.3969     Y204.4661     R50.1500   
   X287.5436     Y211.3459     R50.1500   
   X296.5298     Y220.8763     R50.1500   
   X302.7433     Y232.4077     R50.1500   
   X305.7604     Y245.1543     R50.1500   
   X305.3757     Y258.2476     R50.1500   
   X301.6153     Y270.7951     R50.1500   
   X294.7355     Y281.9418     R50.1500   
   X285.2052     Y290.9280     R50.1500   
   X279.0259     Y294.2576     R50.1500   
G1   Y299.968   
G17 G3   X280.9302     Y300.7571     R50.1500   
   X291.3222     Y308.7312     R50.1500   
   X299.2963     Y319.1232     R50.1500   
   X304.3090     Y331.2250     R50.1500   
   X306.0188     Y344.2118     R50.1500   
   X304.3090     Y357.1986     R50.1500   
   X299.2963     Y369.3004     R50.1500   
   X291.3222     Y379.6924     R50.1500   
   X280.9302     Y387.6665     R50.1500   
   X268.8284     Y392.6792     R50.1500   
   X255.8416     Y394.3890     R50.1500   
   X242.8548     Y392.6792     R50.1500   
   X230.7530     Y387.6665     R50.1500   
   X220.3610     Y379.6924     R50.1500   
   X212.3869     Y369.3004     R50.1500   
   X208.2702     Y359.3618     R50.1500   
G1   X100.595   
G17 G3   X97.0913      Y368.3625     R50.1500   
   X89.3420      Y378.9232     R50.1500   
   X79.1234      Y387.1183     R50.1500   
   X67.1319      Y392.3895     R50.1500   
   X54.1848      Y394.3774     R50.1500   
   X41.1643      Y392.9467     R50.1500   
   X28.9578      Y388.1947     R50.1500   
   X18.3971      Y380.4454     R50.1500   
   X10.2019      Y370.2268     R50.1500   
   X4.9307       Y358.2353     R50.1500   
   X2.9428       Y345.2882     R50.1500   
   X4.3736       Y332.2677     R50.1500   
   X9.1255       Y320.0611     R50.1500   
   X16.8749      Y309.5004     R50.1500   
   X27.0935      Y301.3053     R50.1500   
   X29.7259      Y300.1481     R50.1500   
G1   Y294.264   
G17 G3   X26.6435      Y292.8703     R50.1500   
   X16.5117      Y284.5680     R50.1500   
   X8.8739       Y273.9264     R50.1500   
   X4.2506       Y261.6706     R50.1500   
   X2.9569       Y248.6357     R50.1500   
   X5.0809       Y235.7102     R50.1500   
   X10.4780      Y223.7749     R50.1500   
   X18.7802      Y213.6431     R50.1500   
   X29.4218      Y206.0053     R50.1500   
   X41.6777      Y201.3820     R50.1500   
   X54.7125      Y200.0883     R50.1500   
   X67.6380      Y202.2123     R50.1500   
   X79.5734      Y207.6093     R50.1500   
   X89.7052      Y215.9116     R50.1500   
   X97.3430      Y226.5532     R50.1500   
   X100.5632     Y235.0898     R50.1500   
G1   X208.448   
(Pass: 11)
   Z-11.000    F500 
G17 G3   X210.0679     Y229.6845     R50.1500    F1200
   X216.9477     Y218.5378     R50.1500   
   X226.4781     Y209.5516     R50.1500   
   X238.0095     Y203.3382     R50.1500   
   X250.7561     Y200.3210     R50.1500   
   X263.8494     Y200.7057     R50.1500   
   X276.3969     Y204.4661     R50.1500   
   X287.5436     Y211.3459     R50.1500   
   X296.5298     Y220.8763     R50.1500   
   X302.7433     Y232.4077     R50.1500   
   X305.7604     Y245.1543     R50.1500   
   X305.3757     Y258.2476     R50.1500   
   X301.6153     Y270.7951     R50.1500   
   X294.7355     Y281.9418     R50.1500   
   X285.2052     Y290.9280     R50.1500   
   X279.0259     Y294.2576     R50.1500   
G1   Y299.968   
G17 G3   X280.9302     Y300.7571     R50.1500   
   X291.3222     Y308.7312     R50.1500   
   X299.2963     Y319.1232     R50.1500   
   X304.3090     Y331.2250     R50.1500   
   X306.0188     Y344.2118     R50.1500   
   X304.3090     Y357.1986     R50.1500   
   X299.2963     Y369.3004     R50.1500   
   X291.3222     Y379.6924     R50.1500   
   X280.9302     Y387.6665     R50.1500   
   X268.8284     Y392.6792     R50.1500   
   X255.8416     Y394.3890     R50.1500   
   X242.8548     Y392.6792     R50.1500   
   X230.7530     Y387.6665     R50.1500   
   X220.3610     Y379.6924     R50.1500   
   X212.3869     Y369.3004     R50.1500   
   X208.2702     Y359.3618     R50.1500   
G1   X100.595   
G17 G3   X97.0913      Y368.3625     R50.1500   
   X89.3420      Y378.9232     R50.1500   
   X79.1234      Y387.1183     R50.1500   
   X67.1319      Y392.3895     R50.1500   
   X54.1848      Y394.3774     R50.1500   
   X41.1643      Y392.9467     R50.1500   
   X28.9578      Y388.1947     R50.1500   
   X18.3971      Y380.4454     R50.1500   
   X10.2019      Y370.2268     R50.1500   
   X4.9307       Y358.2353     R50.1500   
   X2.9428       Y345.2882     R50.1500   
   X4.3736       Y332.2677     R50.1500   
   X9.1255       Y320.0611     R50.1500   
   X16.8749      Y309.5004     R50.1500   
   X27.0935      Y301.3053     R50.1500   
   X29.7259      Y300.1481     R50.1500   
G1   Y294.264   
G17 G3   X26.6435      Y292.8703     R50.1500   
   X16.5117      Y284.5680     R50.1500   
   X8.8739       Y273.9264     R50.1500   
   X4.2506       Y261.6706     R50.1500   
   X2.9569       Y248.6357     R50.1500   
   X5.0809       Y235.7102     R50.1500   
   X10.4780      Y223.7749     R50.1500   
   X18.7802      Y213.6431     R50.1500   
   X29.4218      Y206.0053     R50.1500   
   X41.6777      Y201.3820     R50.1500   
   X54.7125      Y200.0883     R50.1500   
   X67.6380      Y202.2123     R50.1500   
   X79.5734      Y207.6093     R50.1500   
   X89.7052      Y215.9116     R50.1500   
   X97.3430      Y226.5532     R50.1500   
   X100.5632     Y235.0898     R50.1500   
G1   X208.448   
(Pass: 12)
   Z-12.000    F500 
G17 G3   X210.0679     Y229.6845     R50.1500    F1200
   X216.9477     Y218.5378     R50.1500   
   X226.4781     Y209.5516     R50.1500   
   X238.0095     Y203.3382     R50.1500   
   X250.7561     Y200.3210     R50.1500   
   X263.8494     Y200.7057     R50.1500   
   X276.3969     Y204.4661     R50.1500   
   X287.5436     Y211.3459     R50.1500   
   X296.5298     Y220.8763     R50.1500   
   X302.7433     Y232.4077     R50.1500   
   X305.7604     Y245.1543     R50.1500   
   X305.3757     Y258.2476     R50.1500   
   X301.6153     Y270.7951     R50.1500   
   X294.7355     Y281.9418     R50.1500   
   X285.2052     Y290.9280     R50.1500   
   X279.0259     Y294.2576     R50.1500   
G1   Y299.968   
G17 G3   X280.9302     Y300.7571     R50.1500   
   X291.3222     Y308.7312     R50.1500   
   X299.2963     Y319.1232     R50.1500   
   X304.3090     Y331.2250     R50.1500   
   X306.0188     Y344.2118     R50.1500   
   X304.3090     Y357.1986     R50.1500   
   X299.2963     Y369.3004     R50.1500   
   X291.3222     Y379.6924     R50.1500   
   X280.9302     Y387.6665     R50.1500   
   X268.8284     Y392.6792     R50.1500   
   X255.8416     Y394.3890     R50.1500   
   X242.8548     Y392.6792     R50.1500   
   X230.7530     Y387.6665     R50.1500   
   X220.3610     Y379.6924     R50.1500   
   X212.3869     Y369.3004     R50.1500   
   X208.2702     Y359.3618     R50.1500   
G1   X100.595   
G17 G3   X97.0913      Y368.3625     R50.1500   
   X89.3420      Y378.9232     R50.1500   
   X79.1234      Y387.1183     R50.1500   
   X67.1319      Y392.3895     R50.1500   
   X54.1848      Y394.3774     R50.1500   
   X41.1643      Y392.9467     R50.1500   
   X28.9578      Y388.1947     R50.1500   
   X18.3971      Y380.4454     R50.1500   
   X10.2019      Y370.2268     R50.1500   
   X4.9307       Y358.2353     R50.1500   
   X2.9428       Y345.2882     R50.1500   
   X4.3736       Y332.2677     R50.1500   
   X9.1255       Y320.0611     R50.1500   
   X16.8749      Y309.5004     R50.1500   
   X27.0935      Y301.3053     R50.1500   
   X29.7259      Y300.1481     R50.1500   
G1   Y294.264   
G17 G3   X26.6435      Y292.8703     R50.1500   
   X16.5117      Y284.5680     R50.1500   
   X8.8739       Y273.9264     R50.1500   
   X4.2506       Y261.6706     R50.1500   
   X2.9569       Y248.6357     R50.1500   
   X5.0809       Y235.7102     R50.1500   
   X10.4780      Y223.7749     R50.1500   
   X18.7802      Y213.6431     R50.1500   
   X29.4218      Y206.0053     R50.1500   
   X41.6777      Y201.3820     R50.1500   
   X54.7125      Y200.0883     R50.1500   
   X67.6380      Y202.2123     R50.1500   
   X79.5734      Y207.6093     R50.1500   
   X89.7052      Y215.9116     R50.1500   
   X97.3430      Y226.5532     R50.1500   
   X100.5632     Y235.0898     R50.1500   
G1   X208.448   
(Pass: 13)
   Z-13.000    F500 
G17 G3   X210.0679     Y229.6845     R50.1500    F1200
   X216.9477     Y218.5378     R50.1500   
   X226.4781     Y209.5516     R50.1500   
   X238.0095     Y203.3382     R50.1500   
   X250.7561     Y200.3210     R50.1500   
   X263.8494     Y200.7057     R50.1500   
   X276.3969     Y204.4661     R50.1500   
   X287.5436     Y211.3459     R50.1500   
   X296.5298     Y220.8763     R50.1500   
   X302.7433     Y232.4077     R50.1500   
   X305.7604     Y245.1543     R50.1500   
   X305.3757     Y258.2476     R50.1500   
   X301.6153     Y270.7951     R50.1500   
   X294.7355     Y281.9418     R50.1500   
   X285.2052     Y290.9280     R50.1500   
   X279.0259     Y294.2576     R50.1500   
G1   Y299.968   
G17 G3   X280.9302     Y300.7571     R50.1500   
   X291.3222     Y308.7312     R50.1500   
   X299.2963     Y319.1232     R50.1500   
   X304.3090     Y331.2250     R50.1500   
   X306.0188     Y344.2118     R50.1500   
   X304.3090     Y357.1986     R50.1500   
   X299.2963     Y369.3004     R50.1500   
   X291.3222     Y379.6924     R50.1500   
   X280.9302     Y387.6665     R50.1500   
   X268.8284     Y392.6792     R50.1500   
   X255.8416     Y394.3890     R50.1500   
   X242.8548     Y392.6792     R50.1500   
   X230.7530     Y387.6665     R50.1500   
   X220.3610     Y379.6924     R50.1500   
   X212.3869     Y369.3004     R50.1500   
   X208.2702     Y359.3618     R50.1500   
G1   X100.595   
G17 G3   X97.0913      Y368.3625     R50.1500   
   X89.3420      Y378.9232     R50.1500   
   X79.1234      Y387.1183     R50.1500   
   X67.1319      Y392.3895     R50.1500   
   X54.1848      Y394.3774     R50.1500   
   X41.1643      Y392.9467     R50.1500   
   X28.9578      Y388.1947     R50.1500   
   X18.3971      Y380.4454     R50.1500   
   X10.2019      Y370.2268     R50.1500   
   X4.9307       Y358.2353     R50.1500   
   X2.9428       Y345.2882     R50.1500   
   X4.3736       Y332.2677     R50.1500   
   X9.1255       Y320.0611     R50.1500   
   X16.8749      Y309.5004     R50.1500   
   X27.0935      Y301.3053     R50.1500   
   X29.7259      Y300.1481     R50.1500   
G1   Y294.264   
G17 G3   X26.6435      Y292.8703     R50.1500   
   X16.5117      Y284.5680     R50.1500   
   X8.8739       Y273.9264     R50.1500   
   X4.2506       Y261.6706     R50.1500   
   X2.9569       Y248.6357     R50.1500   
   X5.0809       Y235.7102     R50.1500   
   X10.4780      Y223.7749     R50.1500   
   X18.7802      Y213.6431     R50.1500   
   X29.4218      Y206.0053     R50.1500   
   X41.6777      Y201.3820     R50.1500   
   X54.7125      Y200.0883     R50.1500   
   X67.6380      Y202.2123     R50.1500   
   X79.5734      Y207.6093     R50.1500   
   X89.7052      Y215.9116     R50.1500   
   X97.3430      Y226.5532     R50.1500   
   X100.5632     Y235.0898     R50.1500   
G1   X208.448   
(Pass: 14)
   Z-13.200    F500 
G17 G3   X210.0679     Y229.6845     R50.1500    F1200
   X216.9477     Y218.5378     R50.1500   
   X226.4781     Y209.5516     R50.1500   
   X238.0095     Y203.3382     R50.1500   
   X250.7561     Y200.3210     R50.1500   
   X263.8494     Y200.7057     R50.1500   
   X276.3969     Y204.4661     R50.1500   
   X287.5436     Y211.3459     R50.1500   
   X296.5298     Y220.8763     R50.1500   
   X302.7433     Y232.4077     R50.1500   
   X305.7604     Y245.1543     R50.1500   
   X305.3757     Y258.2476     R50.1500   
   X301.6153     Y270.7951     R50.1500   
   X294.7355     Y281.9418     R50.1500   
   X285.2052     Y290.9280     R50.1500   
   X279.0259     Y294.2576     R50.1500   
G1   Y299.968   
G17 G3   X280.9302     Y300.7571     R50.1500   
   X291.3222     Y308.7312     R50.1500   
   X299.2963     Y319.1232     R50.1500   
   X304.3090     Y331.2250     R50.1500   
   X306.0188     Y344.2118     R50.1500   
   X304.3090     Y357.1986     R50.1500   
   X299.2963     Y369.3004     R50.1500   
   X291.3222     Y379.6924     R50.1500   
   X280.9302     Y387.6665     R50.1500   
   X268.8284     Y392.6792     R50.1500   
   X255.8416     Y394.3890     R50.1500   
   X242.8548     Y392.6792     R50.1500   
   X230.7530     Y387.6665     R50.1500   
   X220.3610     Y379.6924     R50.1500   
   X212.3869     Y369.3004     R50.1500   
   X208.2702     Y359.3618     R50.1500   
G1   X100.595   
G17 G3   X97.0913      Y368.3625     R50.1500   
   X89.3420      Y378.9232     R50.1500   
