%
(Generated by SketchUcam V1.3a)
(File: DrawerDOlly.skp)
(Bit diameter: 6.0mm)
(Feed rate: 600.0mm/min)
(Plunge Feed rate: 100.0mm/min)
(Material Thickness: 19.0mm)
(Material length: 2200.0mm X width: 1200.0mm)
(Overhead Gantry: true)
(Multipass enabled, Depth = 3.0mm)
(Optimization is ON)
(www.PhlatBoyz.com)
G90 G21 G49  G17
M3 S12000
G00 Z10.000
(Pass: 1)
 X6.803 Y6.803
G01 Z-3.000 F100 
G03 X8.0822 Y5.6813 R13.0000 F600 
 X9.4968 Y4.7361 R13.0000
 X11.0227 Y3.9836 R13.0000
 X12.6337 Y3.4367 R13.0000
 X14.3023 Y3.1048 R13.0000
 X15.9018 Y3.0000 R13.0000
G01 X616.098
G03 X617.6977 Y3.1048 R13.0000
 X619.3663 Y3.4367 R13.0000
 X620.9773 Y3.9836 R13.0000
 X622.5032 Y4.7361 R13.0000
 X623.9178 Y5.6813 R13.0000
 X625.1969 Y6.8031 R13.0000
 X626.3187 Y8.0822 R13.0000
 X627.2639 Y9.4968 R13.0000
 X628.0164 Y11.0227 R13.0000
 X628.5633 Y12.6337 R13.0000
 X628.8952 Y14.3023 R13.0000
 X629.0000 Y15.9018 R13.0000
G01 Y446.098
G03 X628.8952 Y447.6977 R13.0000
 X628.5633 Y449.3663 R13.0000
 X628.0164 Y450.9773 R13.0000
 X627.2639 Y452.5032 R13.0000
 X626.3187 Y453.9178 R13.0000
 X625.1969 Y455.1969 R13.0000
 X623.9178 Y456.3187 R13.0000
 X622.5032 Y457.2639 R13.0000
 X620.9773 Y458.0164 R13.0000
 X619.3663 Y458.5633 R13.0000
 X617.6977 Y458.8952 R13.0000
 X616.0982 Y459.0000 R13.0000
G01 X15.902
G03 X14.3023 Y458.8952 R13.0000
 X12.6337 Y458.5633 R13.0000
 X11.0227 Y458.0164 R13.0000
 X9.4968 Y457.2639 R13.0000
 X8.0822 Y456.3187 R13.0000
 X6.8031 Y455.1969 R13.0000
 X5.6813 Y453.9178 R13.0000
 X4.7361 Y452.5032 R13.0000
 X3.9836 Y450.9773 R13.0000
 X3.4367 Y449.3663 R13.0000
 X3.1048 Y447.6977 R13.0000
 X3.0000 Y446.0982 R13.0000
G01 Y15.902
G03 X3.1048 Y14.3023 R13.0000
 X3.4367 Y12.6337 R13.0000
 X3.9836 Y11.0227 R13.0000
 X4.7361 Y9.4968 R13.0000
 X5.6813 Y8.0822 R13.0000
 X6.8031 Y6.8031 R13.0000
(Pass: 2)
G01 Z-6.000 F100 
G03 X8.0822 Y5.6813 R13.0000 F600 
 X9.4968 Y4.7361 R13.0000
 X11.0227 Y3.9836 R13.0000
 X12.6337 Y3.4367 R13.0000
 X14.3023 Y3.1048 R13.0000
 X15.9018 Y3.0000 R13.0000
G01 X616.098
G03 X617.6977 Y3.1048 R13.0000
 X619.3663 Y3.4367 R13.0000
 X620.9773 Y3.9836 R13.0000
 X622.5032 Y4.7361 R13.0000
 X623.9178 Y5.6813 R13.0000
 X625.1969 Y6.8031 R13.0000
 X626.3187 Y8.0822 R13.0000
 X627.2639 Y9.4968 R13.0000
 X628.0164 Y11.0227 R13.0000
 X628.5633 Y12.6337 R13.0000
 X628.8952 Y14.3023 R13.0000
 X629.0000 Y15.9018 R13.0000
G01 Y446.098
G03 X628.8952 Y447.6977 R13.0000
 X628.5633 Y449.3663 R13.0000
 X628.0164 Y450.9773 R13.0000
 X627.2639 Y452.5032 R13.0000
 X626.3187 Y453.9178 R13.0000
 X625.1969 Y455.1969 R13.0000
 X623.9178 Y456.3187 R13.0000
 X622.5032 Y457.2639 R13.0000
 X620.9773 Y458.0164 R13.0000
 X619.3663 Y458.5633 R13.0000
 X617.6977 Y458.8952 R13.0000
 X616.0982 Y459.0000 R13.0000
G01 X15.902
G03 X14.3023 Y458.8952 R13.0000
 X12.6337 Y458.5633 R13.0000
 X11.0227 Y458.0164 R13.0000
 X9.4968 Y457.2639 R13.0000
 X8.0822 Y456.3187 R13.0000
 X6.8031 Y455.1969 R13.0000
 X5.6813 Y453.9178 R13.0000
 X4.7361 Y452.5032 R13.0000
 X3.9836 Y450.9773 R13.0000
 X3.4367 Y449.3663 R13.0000
 X3.1048 Y447.6977 R13.0000
 X3.0000 Y446.0982 R13.0000
G01 Y15.902
G03 X3.1048 Y14.3023 R13.0000
 X3.4367 Y12.6337 R13.0000
 X3.9836 Y11.0227 R13.0000
 X4.7361 Y9.4968 R13.0000
 X5.6813 Y8.0822 R13.0000
 X6.8031 Y6.8031 R13.0000
(Pass: 3)
G01 Z-9.000 F100 
G03 X8.0822 Y5.6813 R13.0000 F600 
 X9.4968 Y4.7361 R13.0000
 X11.0227 Y3.9836 R13.0000
 X12.6337 Y3.4367 R13.0000
 X14.3023 Y3.1048 R13.0000
 X15.9018 Y3.0000 R13.0000
G01 X616.098
G03 X617.6977 Y3.1048 R13.0000
 X619.3663 Y3.4367 R13.0000
 X620.9773 Y3.9836 R13.0000
 X622.5032 Y4.7361 R13.0000
 X623.9178 Y5.6813 R13.0000
 X625.1969 Y6.8031 R13.0000
 X626.3187 Y8.0822 R13.0000
 X627.2639 Y9.4968 R13.0000
 X628.0164 Y11.0227 R13.0000
 X628.5633 Y12.6337 R13.0000
 X628.8952 Y14.3023 R13.0000
 X629.0000 Y15.9018 R13.0000
G01 Y446.098
G03 X628.8952 Y447.6977 R13.0000
 X628.5633 Y449.3663 R13.0000
 X628.0164 Y450.9773 R13.0000
 X627.2639 Y452.5032 R13.0000
 X626.3187 Y453.9178 R13.0000
 X625.1969 Y455.1969 R13.0000
 X623.9178 Y456.3187 R13.0000
 X622.5032 Y457.2639 R13.0000
 X620.9773 Y458.0164 R13.0000
 X619.3663 Y458.5633 R13.0000
 X617.6977 Y458.8952 R13.0000
 X616.0982 Y459.0000 R13.0000
G01 X15.902
G03 X14.3023 Y458.8952 R13.0000
 X12.6337 Y458.5633 R13.0000
 X11.0227 Y458.0164 R13.0000
 X9.4968 Y457.2639 R13.0000
 X8.0822 Y456.3187 R13.0000
 X6.8031 Y455.1969 R13.0000
 X5.6813 Y453.9178 R13.0000
 X4.7361 Y452.5032 R13.0000
 X3.9836 Y450.9773 R13.0000
 X3.4367 Y449.3663 R13.0000
 X3.1048 Y447.6977 R13.0000
 X3.0000 Y446.0982 R13.0000
G01 Y15.902
G03 X3.1048 Y14.3023 R13.0000
 X3.4367 Y12.6337 R13.0000
 X3.9836 Y11.0227 R13.0000
 X4.7361 Y9.4968 R13.0000
 X5.6813 Y8.0822 R13.0000
 X6.8031 Y6.8031 R13.0000
(Pass: 4)
G01 Z-12.000 F100 
G03 X8.0822 Y5.6813 R13.0000 F600 
 X9.4968 Y4.7361 R13.0000
 X11.0227 Y3.9836 R13.0000
 X12.6337 Y3.4367 R13.0000
 X14.3023 Y3.1048 R13.0000
 X15.9018 Y3.0000 R13.0000
G01 X616.098
G03 X617.6977 Y3.1048 R13.0000
 X619.3663 Y3.4367 R13.0000
 X620.9773 Y3.9836 R13.0000
 X622.5032 Y4.7361 R13.0000
 X623.9178 Y5.6813 R13.0000
 X625.1969 Y6.8031 R13.0000
 X626.3187 Y8.0822 R13.0000
 X627.2639 Y9.4968 R13.0000
 X628.0164 Y11.0227 R13.0000
 X628.5633 Y12.6337 R13.0000
 X628.8952 Y14.3023 R13.0000
 X629.0000 Y15.9018 R13.0000
G01 Y446.098
G03 X628.8952 Y447.6977 R13.0000
 X628.5633 Y449.3663 R13.0000
 X628.0164 Y450.9773 R13.0000
 X627.2639 Y452.5032 R13.0000
 X626.3187 Y453.9178 R13.0000
 X625.1969 Y455.1969 R13.0000
 X623.9178 Y456.3187 R13.0000
 X622.5032 Y457.2639 R13.0000
 X620.9773 Y458.0164 R13.0000
 X619.3663 Y458.5633 R13.0000
 X617.6977 Y458.8952 R13.0000
 X616.0982 Y459.0000 R13.0000
G01 X15.902
G03 X14.3023 Y458.8952 R13.0000
 X12.6337 Y458.5633 R13.0000
 X11.0227 Y458.0164 R13.0000
 X9.4968 Y457.2639 R13.0000
 X8.0822 Y456.3187 R13.0000
 X6.8031 Y455.1969 R13.0000
 X5.6813 Y453.9178 R13.0000
 X4.7361 Y452.5032 R13.0000
 X3.9836 Y450.9773 R13.0000
 X3.4367 Y449.3663 R13.0000
 X3.1048 Y447.6977 R13.0000
 X3.0000 Y446.0982 R13.0000
G01 Y15.902
G03 X3.1048 Y14.3023 R13.0000
 X3.4367 Y12.6337 R13.0000
 X3.9836 Y11.0227 R13.0000
 X4.7361 Y9.4968 R13.0000
 X5.6813 Y8.0822 R13.0000
 X6.8031 Y6.8031 R13.0000
(Pass: 5)
G01 Z-15.000 F100 
G03 X8.0822 Y5.6813 R13.0000 F600 
 X9.4968 Y4.7361 R13.0000
 X11.0227 Y3.9836 R13.0000
 X12.6337 Y3.4367 R13.0000
 X14.3023 Y3.1048 R13.0000
 X15.9018 Y3.0000 R13.0000
G01 X616.098
G03 X617.6977 Y3.1048 R13.0000
 X619.3663 Y3.4367 R13.0000
 X620.9773 Y3.9836 R13.0000
 X622.5032 Y4.7361 R13.0000
 X623.9178 Y5.6813 R13.0000
 X625.1969 Y6.8031 R13.0000
 X626.3187 Y8.0822 R13.0000
 X627.2639 Y9.4968 R13.0000
 X628.0164 Y11.0227 R13.0000
 X628.5633 Y12.6337 R13.0000
 X628.8952 Y14.3023 R13.0000
 X629.0000 Y15.9018 R13.0000
G01 Y446.098
G03 X628.8952 Y447.6977 R13.0000
 X628.5633 Y449.3663 R13.0000
 X628.0164 Y450.9773 R13.0000
 X627.2639 Y452.5032 R13.0000
 X626.3187 Y453.9178 R13.0000
 X625.1969 Y455.1969 R13.0000
 X623.9178 Y456.3187 R13.0000
 X622.5032 Y457.2639 R13.0000
 X620.9773 Y458.0164 R13.0000
 X619.3663 Y458.5633 R13.0000
 X617.6977 Y458.8952 R13.0000
 X616.0982 Y459.0000 R13.0000
G01 X15.902
G03 X14.3023 Y458.8952 R13.0000
 X12.6337 Y458.5633 R13.0000
 X11.0227 Y458.0164 R13.0000
 X9.4968 Y457.2639 R13.0000
 X8.0822 Y456.3187 R13.0000
 X6.8031 Y455.1969 R13.0000
 X5.6813 Y453.9178 R13.0000
 X4.7361 Y452.5032 R13.0000
 X3.9836 Y450.9773 R13.0000
 X3.4367 Y449.3663 R13.0000
 X3.1048 Y447.6977 R13.0000
 X3.0000 Y446.0982 R13.0000
G01 Y15.902
G03 X3.1048 Y14.3023 R13.0000
 X3.4367 Y12.6337 R13.0000
 X3.9836 Y11.0227 R13.0000
 X4.7361 Y9.4968 R13.0000
 X5.6813 Y8.0822 R13.0000
 X6.8031 Y6.8031 R13.0000
(Pass: 6)
G01 Z-18.000 F100 
G03 X8.0822 Y5.6813 R13.0000 F600 
 X9.4968 Y4.7361 R13.0000
 X11.0227 Y3.9836 R13.0000
 X12.6337 Y3.4367 R13.0000
 X14.3023 Y3.1048 R13.0000
 X15.9018 Y3.0000 R13.0000
G01 X616.098
G03 X617.6977 Y3.1048 R13.0000
 X619.3663 Y3.4367 R13.0000
 X620.9773 Y3.9836 R13.0000
 X622.5032 Y4.7361 R13.0000
 X623.9178 Y5.6813 R13.0000
 X625.1969 Y6.8031 R13.0000
 X626.3187 Y8.0822 R13.0000
 X627.2639 Y9.4968 R13.0000
 X628.0164 Y11.0227 R13.0000
 X628.5633 Y12.6337 R13.0000
 X628.8952 Y14.3023 R13.0000
 X629.0000 Y15.9018 R13.0000
G01 Y446.098
G03 X628.8952 Y447.6977 R13.0000
 X628.5633 Y449.3663 R13.0000
 X628.0164 Y450.9773 R13.0000
 X627.2639 Y452.5032 R13.0000
 X626.3187 Y453.9178 R13.0000
 X625.1969 Y455.1969 R13.0000
 X623.9178 Y456.3187 R13.0000
 X622.5032 Y457.2639 R13.0000
 X620.9773 Y458.0164 R13.0000
 X619.3663 Y458.5633 R13.0000
 X617.6977 Y458.8952 R13.0000
 X616.0982 Y459.0000 R13.0000
G01 X15.902
G03 X14.3023 Y458.8952 R13.0000
 X12.6337 Y458.5633 R13.0000
 X11.0227 Y458.0164 R13.0000
 X9.4968 Y457.2639 R13.0000
 X8.0822 Y456.3187 R13.0000
 X6.8031 Y455.1969 R13.0000
 X5.6813 Y453.9178 R13.0000
 X4.7361 Y452.5032 R13.0000
 X3.9836 Y450.9773 R13.0000
 X3.4367 Y449.3663 R13.0000
 X3.1048 Y447.6977 R13.0000
 X3.0000 Y446.0982 R13.0000
G01 Y15.902
G03 X3.1048 Y14.3023 R13.0000
 X3.4367 Y12.6337 R13.0000
 X3.9836 Y11.0227 R13.0000
 X4.7361 Y9.4968 R13.0000
 X5.6813 Y8.0822 R13.0000
 X6.8031 Y6.8031 R13.0000
(Pass: 7)
G01 Z-20.900 F100 
G03 X8.0822 Y5.6813 R13.0000 F600 
 X9.4968 Y4.7361 R13.0000
 X11.0227 Y3.9836 R13.0000
 X12.6337 Y3.4367 R13.0000
 X14.3023 Y3.1048 R13.0000
 X15.9018 Y3.0000 R13.0000
G01 X616.098
G03 X617.6977 Y3.1048 R13.0000
 X619.3663 Y3.4367 R13.0000
 X620.9773 Y3.9836 R13.0000
 X622.5032 Y4.7361 R13.0000
 X623.9178 Y5.6813 R13.0000
 X625.1969 Y6.8031 R13.0000
 X626.3187 Y8.0822 R13.0000
 X627.2639 Y9.4968 R13.0000
 X628.0164 Y11.0227 R13.0000
 X628.5633 Y12.6337 R13.0000
 X628.8952 Y14.3023 R13.0000
 X629.0000 Y15.9018 R13.0000
G01 Y446.098
G03 X628.8952 Y447.6977 R13.0000
 X628.5633 Y449.3663 R13.0000
 X628.0164 Y450.9773 R13.0000
 X627.2639 Y452.5032 R13.0000
 X626.3187 Y453.9178 R13.0000
 X625.1969 Y455.1969 R13.0000
 X623.9178 Y456.3187 R13.0000
 X622.5032 Y457.2639 R13.0000
 X620.9773 Y458.0164 R13.0000
 X619.3663 Y458.5633 R13.0000
 X617.6977 Y458.8952 R13.0000
 X616.0982 Y459.0000 R13.0000
G01 X15.902
G03 X14.3023 Y458.8952 R13.0000
 X12.6337 Y458.5633 R13.0000
 X11.0227 Y458.0164 R13.0000
 X9.4968 Y457.2639 R13.0000
 X8.0822 Y456.3187 R13.0000
 X6.8031 Y455.1969 R13.0000
 X5.6813 Y453.9178 R13.0000
 X4.7361 Y452.5032 R13.0000
 X3.9836 Y450.9773 R13.0000
 X3.4367 Y449.3663 R13.0000
 X3.1048 Y447.6977 R13.0000
 X3.0000 Y446.0982 R13.0000
G01 Y15.902
G03 X3.1048 Y14.3023 R13.0000
 X3.4367 Y12.6337 R13.0000
 X3.9836 Y11.0227 R13.0000
 X4.7361 Y9.4968 R13.0000
 X5.6813 Y8.0822 R13.0000
 X6.8031 Y6.8031 R13.0000
G00 Z10.000
G00 X0 Y0 (home)
M05
M30
%
