%
(Generated by SketchUcam {1.2b1})
(File: Router Plates.skp)
(Bit diameter: 3.0mm)
(Feed rate: 2000.0mm/min)
(Plunge Feed rate: 1000.0mm/min)
(Material Thickness: 3.4mm)
(Material length: 600.0mm X width: 300.0mm)
(Overhead Gantry: true)
(Retract feed rate NOT limited to plunge feed rate)
(Multipass enabled, Depth = 0.1mm)
(Optimization is ON)
(www.PhlatBoyz.com)
G90 G21 G49 
M3 S11000
G0   Z5.000     
(Pass: 1)
   X10.000       Y10.000    
(plungebore    depth=3.400         diam=3.000     )
G00   Z1.667     
G01   Z-0.100     F1000
G00   z1.667     
G01   Z-0.200    
G00   z1.667     
G01   Z-0.300    
G00   z1.667     
G01   Z-0.400    
G00   z1.667     
G01   Z-0.500    
G00   z1.667     
G01   Z-0.600    
G00   z1.667     
G01   Z-0.700    
G00   z1.667     
G01   Z-0.800    
G00   z1.667     
G01   Z-0.900    
G00   z1.667     
G01   Z-1.000    
G00   z1.667     
G01   Z-1.100    
G00   z1.667     
G01   Z-1.200    
G00   z1.667     
G01   Z-1.300    
G00   z1.667     
G01   Z-1.400    
G00   z1.667     
G01   Z-1.500    
G00   z1.667     
G01   Z-1.600    
G00   z1.667     
G01   Z-1.700    
G00   z1.667     
G01   Z-1.800    
G00   z1.667     
G01   Z-1.900    
G00   z1.667     
G01   Z-2.000    
G00   z1.667     
G01   Z-2.100    
G00   z1.667     
G01   Z-2.200    
G00   z1.667     
G01   Z-2.300    
G00   z1.667     
G01   Z-2.400    
G00   z1.667     
G01   Z-2.500    
G00   z1.667     
G01   Z-2.600    
G00   z1.667     
G01   Z-2.700    
G00   z1.667     
G01   Z-2.800    
G00   z1.667     
G01   Z-2.900    
G00   z1.667     
G01   Z-3.000    
G00   z1.667     
G01   Z-3.100    
G00   z1.667     
G01   Z-3.200    
G00   z1.667     
G01   Z-3.300    
G00   z1.667     
G01   Z-3.400    
G00   z1.667     
G00   Y10.000        Z5.000     
(plungebore end)
(Group: _diam_5.0mm)
(Pass: 1)
G0   X20.000    
(plungebore    depth=3.400         diam=5.000     )
G00   Z1.667     
G01   Z-0.100     F1000
G00   z1.667     
G01   Z-0.200    
G00   z1.667     
G01   Z-0.300    
G00   z1.667     
G01   Z-0.400    
G00   z1.667     
G01   Z-0.500    
G00   z1.667     
G01   Z-0.600    
G00   z1.667     
G01   Z-0.700    
G00   z1.667     
G01   Z-0.800    
G00   z1.667     
G01   Z-0.900    
G00   z1.667     
G01   Z-1.000    
G00   z1.667     
G01   Z-1.100    
G00   z1.667     
G01   Z-1.200    
G00   z1.667     
G01   Z-1.300    
G00   z1.667     
G01   Z-1.400    
G00   z1.667     
G01   Z-1.500    
G00   z1.667     
G01   Z-1.600    
G00   z1.667     
G01   Z-1.700    
G00   z1.667     
G01   Z-1.800    
G00   z1.667     
G01   Z-1.900    
G00   z1.667     
G01   Z-2.000    
G00   z1.667     
G01   Z-2.100    
G00   z1.667     
G01   Z-2.200    
G00   z1.667     
G01   Z-2.300    
G00   z1.667     
G01   Z-2.400    
G00   z1.667     
G01   Z-2.500    
G00   z1.667     
G01   Z-2.600    
G00   z1.667     
G01   Z-2.700    
G00   z1.667     
G01   Z-2.800    
G00   z1.667     
G01   Z-2.900    
G00   z1.667     
G01   Z-3.000    
G00   z1.667     
G01   Z-3.100    
G00   z1.667     
G01   Z-3.200    
G00   z1.667     
G01   Z-3.300    
G00   z1.667     
G01   Z-3.400    
G00   z1.667     
G00   Y9.0000    
G01    Z0.0000     F2000
G02     X20.0000       Y9.0000        Z-0.1000    I0    J1.0000    
G02     X20.0000       Y9.0000        Z-0.2000    I0    J1.0000    
G02     X20.0000       Y9.0000        Z-0.3000    I0    J1.0000    
G02     X20.0000       Y9.0000        Z-0.4000    I0    J1.0000    
G02     X20.0000       Y9.0000        Z-0.5000    I0    J1.0000    
G02     X20.0000       Y9.0000        Z-0.6000    I0    J1.0000    
G02     X20.0000       Y9.0000        Z-0.7000    I0    J1.0000    
G02     X20.0000       Y9.0000        Z-0.8000    I0    J1.0000    
G02     X20.0000       Y9.0000        Z-0.9000    I0    J1.0000    
G02     X20.0000       Y9.0000        Z-1.0000    I0    J1.0000    
G02     X20.0000       Y9.0000        Z-1.1000    I0    J1.0000    
G02     X20.0000       Y9.0000        Z-1.2000    I0    J1.0000    
G02     X20.0000       Y9.0000        Z-1.3000    I0    J1.0000    
G02     X20.0000       Y9.0000        Z-1.4000    I0    J1.0000    
G02     X20.0000       Y9.0000        Z-1.5000    I0    J1.0000    
G02     X20.0000       Y9.0000        Z-1.6000    I0    J1.0000    
G02     X20.0000       Y9.0000        Z-1.7000    I0    J1.0000    
G02     X20.0000       Y9.0000        Z-1.8000    I0    J1.0000    
G02     X20.0000       Y9.0000        Z-1.9000    I0    J1.0000    
G02     X20.0000       Y9.0000        Z-2.0000    I0    J1.0000    
G02     X20.0000       Y9.0000        Z-2.1000    I0    J1.0000    
G02     X20.0000       Y9.0000        Z-2.2000    I0    J1.0000    
G02     X20.0000       Y9.0000        Z-2.3000    I0    J1.0000    
G02     X20.0000       Y9.0000        Z-2.4000    I0    J1.0000    
G02     X20.0000       Y9.0000        Z-2.5000    I0    J1.0000    
G02     X20.0000       Y9.0000        Z-2.6000    I0    J1.0000    
G02     X20.0000       Y9.0000        Z-2.7000    I0    J1.0000    
G02     X20.0000       Y9.0000        Z-2.8000    I0    J1.0000    
G02     X20.0000       Y9.0000        Z-2.9000    I0    J1.0000    
G02     X20.0000       Y9.0000        Z-3.0000    I0    J1.0000    
G02     X20.0000       Y9.0000        Z-3.4000    I0    J1.0000    
G02     X20.0000       Y9.0000     I0.0    J1.0000    
G00   Y10.000        Z5.000     
(plungebore end)
(Group complete: _diam_5.0mm)
(Group: _diam_7.1mm)
(Pass: 1)
G0   X30.000    
(plungebore    depth=3.400         diam=7.100     )
G00   Z1.667     
G01   Z-0.100     F1000
G00   z1.667     
G01   Z-0.200    
G00   z1.667     
G01   Z-0.300    
G00   z1.667     
G01   Z-0.400    
G00   z1.667     
G01   Z-0.500    
G00   z1.667     
G01   Z-0.600    
G00   z1.667     
G01   Z-0.700    
G00   z1.667     
G01   Z-0.800    
G00   z1.667     
G01   Z-0.900    
G00   z1.667     
G01   Z-1.000    
G00   z1.667     
G01   Z-1.100    
G00   z1.667     
G01   Z-1.200    
G00   z1.667     
G01   Z-1.300    
G00   z1.667     
G01   Z-1.400    
G00   z1.667     
G01   Z-1.500    
G00   z1.667     
G01   Z-1.600    
G00   z1.667     
G01   Z-1.700    
G00   z1.667     
G01   Z-1.800    
G00   z1.667     
G01   Z-1.900    
G00   z1.667     
G01   Z-2.000    
G00   z1.667     
G01   Z-2.100    
G00   z1.667     
G01   Z-2.200    
G00   z1.667     
G01   Z-2.300    
G00   z1.667     
G01   Z-2.400    
G00   z1.667     
G01   Z-2.500    
G00   z1.667     
G01   Z-2.600    
G00   z1.667     
G01   Z-2.700    
G00   z1.667     
G01   Z-2.800    
G00   z1.667     
G01   Z-2.900    
G00   z1.667     
G01   Z-3.000    
G00   z1.667     
G01   Z-3.100    
G00   z1.667     
G01   Z-3.200    
G00   z1.667     
G01   Z-3.300    
G00   z1.667     
G01   Z-3.400    
G00   z1.667     
G00   Y7.9500    
G01    Z0.0000     F2000
G02     X30.0000       Y7.9500        Z-0.1000    I0    J2.0500    
G02     X30.0000       Y7.9500        Z-0.2000    I0    J2.0500    
G02     X30.0000       Y7.9500        Z-0.3000    I0    J2.0500    
G02     X30.0000       Y7.9500        Z-0.4000    I0    J2.0500    
G02     X30.0000       Y7.9500        Z-0.5000    I0    J2.0500    
G02     X30.0000       Y7.9500        Z-0.6000    I0    J2.0500    
G02     X30.0000       Y7.9500        Z-0.7000    I0    J2.0500    
G02     X30.0000       Y7.9500        Z-0.8000    I0    J2.0500    
G02     X30.0000       Y7.9500        Z-0.9000    I0    J2.0500    
G02     X30.0000       Y7.9500        Z-1.0000    I0    J2.0500    
G02     X30.0000       Y7.9500        Z-1.1000    I0    J2.0500    
G02     X30.0000       Y7.9500        Z-1.2000    I0    J2.0500    
G02     X30.0000       Y7.9500        Z-1.3000    I0    J2.0500    
G02     X30.0000       Y7.9500        Z-1.4000    I0    J2.0500    
G02     X30.0000       Y7.9500        Z-1.5000    I0    J2.0500    
G02     X30.0000       Y7.9500        Z-1.6000    I0    J2.0500    
G02     X30.0000       Y7.9500        Z-1.7000    I0    J2.0500    
G02     X30.0000       Y7.9500        Z-1.8000    I0    J2.0500    
G02     X30.0000       Y7.9500        Z-1.9000    I0    J2.0500    
G02     X30.0000       Y7.9500        Z-2.0000    I0    J2.0500    
G02     X30.0000       Y7.9500        Z-2.1000    I0    J2.0500    
G02     X30.0000       Y7.9500        Z-2.2000    I0    J2.0500    
G02     X30.0000       Y7.9500        Z-2.3000    I0    J2.0500    
G02     X30.0000       Y7.9500        Z-2.4000    I0    J2.0500    
G02     X30.0000       Y7.9500        Z-2.5000    I0    J2.0500    
G02     X30.0000       Y7.9500        Z-2.6000    I0    J2.0500    
G02     X30.0000       Y7.9500        Z-2.7000    I0    J2.0500    
G02     X30.0000       Y7.9500        Z-2.8000    I0    J2.0500    
G02     X30.0000       Y7.9500        Z-2.9000    I0    J2.0500    
G02     X30.0000       Y7.9500        Z-3.0000    I0    J2.0500    
G02     X30.0000       Y7.9500        Z-3.4000    I0    J2.0500    
G02     X30.0000       Y7.9500     I0.0    J2.0500    
G00   Y10.000        Z5.000     
(plungebore end)
(Group complete: _diam_7.1mm)
(Pass: 1)
G0   X20.688       Y19.292    
G1   Z-0.100     F1000
G17 G2   X20.4809      Y19.1380      R1.0000     F2000
   X20.2414      Y19.0429      R1.0000    
   X19.9855      Y19.0130      R1.0000    
   X19.7306      Y19.0504      R1.0000    
   X19.4940      Y19.1525      R1.0000    
   X19.2919      Y19.3124      R1.0000    
   X19.1380      Y19.5191      R1.0000    
   X19.0429      Y19.7586      R1.0000    
   X19.0130      Y20.0145      R1.0000    
   X19.0504      Y20.2694      R1.0000    
   X19.1525      Y20.5060      R1.0000    
   X19.3124      Y20.7081      R1.0000    
   X19.5191      Y20.8620      R1.0000    
   X19.7586      Y20.9571      R1.0000    
   X20.0145      Y20.9870      R1.0000    
   X20.2694      Y20.9496      R1.0000    
   X20.5060      Y20.8475      R1.0000    
   X20.7081      Y20.6876      R1.0000    
   X20.8620      Y20.4809      R1.0000    
   X20.9571      Y20.2414      R1.0000    
   X20.9870      Y19.9855      R1.0000    
   X20.9496      Y19.7306      R1.0000    
   X20.8475      Y19.4940      R1.0000    
   X20.6876      Y19.2919      R1.0000    
(Pass: 2)
G1   Z-0.200     F1000
G17 G2   X20.4809      Y19.1380      R1.0000     F2000
   X20.2414      Y19.0429      R1.0000    
   X19.9855      Y19.0130      R1.0000    
   X19.7306      Y19.0504      R1.0000    
   X19.4940      Y19.1525      R1.0000    
   X19.2919      Y19.3124      R1.0000    
   X19.1380      Y19.5191      R1.0000    
   X19.0429      Y19.7586      R1.0000    
   X19.0130      Y20.0145      R1.0000    
   X19.0504      Y20.2694      R1.0000    
   X19.1525      Y20.5060      R1.0000    
   X19.3124      Y20.7081      R1.0000    
   X19.5191      Y20.8620      R1.0000    
   X19.7586      Y20.9571      R1.0000    
   X20.0145      Y20.9870      R1.0000    
   X20.2694      Y20.9496      R1.0000    
   X20.5060      Y20.8475      R1.0000    
   X20.7081      Y20.6876      R1.0000    
   X20.8620      Y20.4809      R1.0000    
   X20.9571      Y20.2414      R1.0000    
   X20.9870      Y19.9855      R1.0000    
   X20.9496      Y19.7306      R1.0000    
   X20.8475      Y19.4940      R1.0000    
   X20.6876      Y19.2919      R1.0000    
(Pass: 3)
G1   Z-0.300     F1000
G17 G2   X20.4809      Y19.1380      R1.0000     F2000
   X20.2414      Y19.0429      R1.0000    
   X19.9855      Y19.0130      R1.0000    
   X19.7306      Y19.0504      R1.0000    
   X19.4940      Y19.1525      R1.0000    
   X19.2919      Y19.3124      R1.0000    
   X19.1380      Y19.5191      R1.0000    
   X19.0429      Y19.7586      R1.0000    
   X19.0130      Y20.0145      R1.0000    
   X19.0504      Y20.2694      R1.0000    
   X19.1525      Y20.5060      R1.0000    
   X19.3124      Y20.7081      R1.0000    
   X19.5191      Y20.8620      R1.0000    
   X19.7586      Y20.9571      R1.0000    
   X20.0145      Y20.9870      R1.0000    
   X20.2694      Y20.9496      R1.0000    
   X20.5060      Y20.8475      R1.0000    
   X20.7081      Y20.6876      R1.0000    
   X20.8620      Y20.4809      R1.0000    
   X20.9571      Y20.2414      R1.0000    
   X20.9870      Y19.9855      R1.0000    
   X20.9496      Y19.7306      R1.0000    
   X20.8475      Y19.4940      R1.0000    
   X20.6876      Y19.2919      R1.0000    
(Pass: 4)
G1   Z-0.400     F1000
G17 G2   X20.4809      Y19.1380      R1.0000     F2000
   X20.2414      Y19.0429      R1.0000    
   X19.9855      Y19.0130      R1.0000    
   X19.7306      Y19.0504      R1.0000    
   X19.4940      Y19.1525      R1.0000    
   X19.2919      Y19.3124      R1.0000    
   X19.1380      Y19.5191      R1.0000    
   X19.0429      Y19.7586      R1.0000    
   X19.0130      Y20.0145      R1.0000    
   X19.0504      Y20.2694      R1.0000    
   X19.1525      Y20.5060      R1.0000    
   X19.3124      Y20.7081      R1.0000    
   X19.5191      Y20.8620      R1.0000    
   X19.7586      Y20.9571      R1.0000    
   X20.0145      Y20.9870      R1.0000    
   X20.2694      Y20.9496      R1.0000    
   X20.5060      Y20.8475      R1.0000    
   X20.7081      Y20.6876      R1.0000    
   X20.8620      Y20.4809      R1.0000    
   X20.9571      Y20.2414      R1.0000    
   X20.9870      Y19.9855      R1.0000    
   X20.9496      Y19.7306      R1.0000    
   X20.8475      Y19.4940      R1.0000    
   X20.6876      Y19.2919      R1.0000    
(Pass: 5)
G1   Z-0.500     F1000
G17 G2   X20.4809      Y19.1380      R1.0000     F2000
   X20.2414      Y19.0429      R1.0000    
   X19.9855      Y19.0130      R1.0000    
   X19.7306      Y19.0504      R1.0000    
   X19.4940      Y19.1525      R1.0000    
   X19.2919      Y19.3124      R1.0000    
   X19.1380      Y19.5191      R1.0000    
   X19.0429      Y19.7586      R1.0000    
   X19.0130      Y20.0145      R1.0000    
   X19.0504      Y20.2694      R1.0000    
   X19.1525      Y20.5060      R1.0000    
   X19.3124      Y20.7081      R1.0000    
   X19.5191      Y20.8620      R1.0000    
   X19.7586      Y20.9571      R1.0000    
   X20.0145      Y20.9870      R1.0000    
   X20.2694      Y20.9496      R1.0000    
   X20.5060      Y20.8475      R1.0000    
   X20.7081      Y20.6876      R1.0000    
   X20.8620      Y20.4809      R1.0000    
   X20.9571      Y20.2414      R1.0000    
   X20.9870      Y19.9855      R1.0000    
   X20.9496      Y19.7306      R1.0000    
   X20.8475      Y19.4940      R1.0000    
   X20.6876      Y19.2919      R1.0000    
(Pass: 6)
G1   Z-0.600     F1000
G17 G2   X20.4809      Y19.1380      R1.0000     F2000
   X20.2414      Y19.0429      R1.0000    
   X19.9855      Y19.0130      R1.0000    
   X19.7306      Y19.0504      R1.0000    
   X19.4940      Y19.1525      R1.0000    
   X19.2919      Y19.3124      R1.0000    
   X19.1380      Y19.5191      R1.0000    
   X19.0429      Y19.7586      R1.0000    
   X19.0130      Y20.0145      R1.0000    
   X19.0504      Y20.2694      R1.0000    
   X19.1525      Y20.5060      R1.0000    
   X19.3124      Y20.7081      R1.0000    
   X19.5191      Y20.8620      R1.0000    
   X19.7586      Y20.9571      R1.0000    
   X20.0145      Y20.9870      R1.0000    
   X20.2694      Y20.9496      R1.0000    
   X20.5060      Y20.8475      R1.0000    
   X20.7081      Y20.6876      R1.0000    
   X20.8620      Y20.4809      R1.0000    
   X20.9571      Y20.2414      R1.0000    
   X20.9870      Y19.9855      R1.0000    
   X20.9496      Y19.7306      R1.0000    
   X20.8475      Y19.4940      R1.0000    
   X20.6876      Y19.2919      R1.0000    
(Pass: 7)
G1   Z-0.700     F1000
G17 G2   X20.4809      Y19.1380      R1.0000     F2000
   X20.2414      Y19.0429      R1.0000    
   X19.9855      Y19.0130      R1.0000    
   X19.7306      Y19.0504      R1.0000    
   X19.4940      Y19.1525      R1.0000    
   X19.2919      Y19.3124      R1.0000    
   X19.1380      Y19.5191      R1.0000    
   X19.0429      Y19.7586      R1.0000    
   X19.0130      Y20.0145      R1.0000    
   X19.0504      Y20.2694      R1.0000    
   X19.1525      Y20.5060      R1.0000    
   X19.3124      Y20.7081      R1.0000    
   X19.5191      Y20.8620      R1.0000    
   X19.7586      Y20.9571      R1.0000    
   X20.0145      Y20.9870      R1.0000    
   X20.2694      Y20.9496      R1.0000    
   X20.5060      Y20.8475      R1.0000    
   X20.7081      Y20.6876      R1.0000    
   X20.8620      Y20.4809      R1.0000    
   X20.9571      Y20.2414      R1.0000    
   X20.9870      Y19.9855      R1.0000    
   X20.9496      Y19.7306      R1.0000    
   X20.8475      Y19.4940      R1.0000    
   X20.6876      Y19.2919      R1.0000    
(Pass: 8)
G1   Z-0.800     F1000
G17 G2   X20.4809      Y19.1380      R1.0000     F2000
   X20.2414      Y19.0429      R1.0000    
   X19.9855      Y19.0130      R1.0000    
   X19.7306      Y19.0504      R1.0000    
   X19.4940      Y19.1525      R1.0000    
   X19.2919      Y19.3124      R1.0000    
   X19.1380      Y19.5191      R1.0000    
   X19.0429      Y19.7586      R1.0000    
   X19.0130      Y20.0145      R1.0000    
   X19.0504      Y20.2694      R1.0000    
   X19.1525      Y20.5060      R1.0000    
   X19.3124      Y20.7081      R1.0000    
   X19.5191      Y20.8620      R1.0000    
   X19.7586      Y20.9571      R1.0000    
   X20.0145      Y20.9870      R1.0000    
   X20.2694      Y20.9496      R1.0000    
   X20.5060      Y20.8475      R1.0000    
   X20.7081      Y20.6876      R1.0000    
   X20.8620      Y20.4809      R1.0000    
   X20.9571      Y20.2414      R1.0000    
   X20.9870      Y19.9855      R1.0000    
   X20.9496      Y19.7306      R1.0000    
   X20.8475      Y19.4940      R1.0000    
   X20.6876      Y19.2919      R1.0000    
(Pass: 9)
G1   Z-0.900     F1000
G17 G2   X20.4809      Y19.1380      R1.0000     F2000
   X20.2414      Y19.0429      R1.0000    
   X19.9855      Y19.0130      R1.0000    
   X19.7306      Y19.0504      R1.0000    
   X19.4940      Y19.1525      R1.0000    
   X19.2919      Y19.3124      R1.0000    
   X19.1380      Y19.5191      R1.0000    
   X19.0429      Y19.7586      R1.0000    
   X19.0130      Y20.0145      R1.0000    
   X19.0504      Y20.2694      R1.0000    
   X19.1525      Y20.5060      R1.0000    
   X19.3124      Y20.7081      R1.0000    
   X19.5191      Y20.8620      R1.0000    
   X19.7586      Y20.9571      R1.0000    
   X20.0145      Y20.9870      R1.0000    
   X20.2694      Y20.9496      R1.0000    
   X20.5060      Y20.8475      R1.0000    
   X20.7081      Y20.6876      R1.0000    
   X20.8620      Y20.4809      R1.0000    
   X20.9571      Y20.2414      R1.0000    
   X20.9870      Y19.9855      R1.0000    
   X20.9496      Y19.7306      R1.0000    
   X20.8475      Y19.4940      R1.0000    
   X20.6876      Y19.2919      R1.0000    
(Pass: 10)
G1   Z-1.000     F1000
G17 G2   X20.4809      Y19.1380      R1.0000     F2000
   X20.2414      Y19.0429      R1.0000    
   X19.9855      Y19.0130      R1.0000    
   X19.7306      Y19.0504      R1.0000    
   X19.4940      Y19.1525      R1.0000    
   X19.2919      Y19.3124      R1.0000    
   X19.1380      Y19.5191      R1.0000    
   X19.0429      Y19.7586      R1.0000    
   X19.0130      Y20.0145      R1.0000    
   X19.0504      Y20.2694      R1.0000    
   X19.1525      Y20.5060      R1.0000    
   X19.3124      Y20.7081      R1.0000    
   X19.5191      Y20.8620      R1.0000    
   X19.7586      Y20.9571      R1.0000    
   X20.0145      Y20.9870      R1.0000    
   X20.2694      Y20.9496      R1.0000    
   X20.5060      Y20.8475      R1.0000    
   X20.7081      Y20.6876      R1.0000    
   X20.8620      Y20.4809      R1.0000    
   X20.9571      Y20.2414      R1.0000    
   X20.9870      Y19.9855      R1.0000    
   X20.9496      Y19.7306      R1.0000    
   X20.8475      Y19.4940      R1.0000    
   X20.6876      Y19.2919      R1.0000    
(Pass: 11)
G1   Z-1.100     F1000
G17 G2   X20.4809      Y19.1380      R1.0000     F2000
   X20.2414      Y19.0429      R1.0000    
   X19.9855      Y19.0130      R1.0000    
   X19.7306      Y19.0504      R1.0000    
   X19.4940      Y19.1525      R1.0000    
   X19.2919      Y19.3124      R1.0000    
   X19.1380      Y19.5191      R1.0000    
   X19.0429      Y19.7586      R1.0000    
   X19.0130      Y20.0145      R1.0000    
   X19.0504      Y20.2694      R1.0000    
   X19.1525      Y20.5060      R1.0000    
   X19.3124      Y20.7081      R1.0000    
   X19.5191      Y20.8620      R1.0000    
   X19.7586      Y20.9571      R1.0000    
   X20.0145      Y20.9870      R1.0000    
   X20.2694      Y20.9496      R1.0000    
   X20.5060      Y20.8475      R1.0000    
   X20.7081      Y20.6876      R1.0000    
   X20.8620      Y20.4809      R1.0000    
   X20.9571      Y20.2414      R1.0000    
   X20.9870      Y19.9855      R1.0000    
   X20.9496      Y19.7306      R1.0000    
   X20.8475      Y19.4940      R1.0000    
   X20.6876      Y19.2919      R1.0000    
(Pass: 12)
G1   Z-1.200     F1000
G17 G2   X20.4809      Y19.1380      R1.0000     F2000
   X20.2414      Y19.0429      R1.0000    
   X19.9855      Y19.0130      R1.0000    
   X19.7306      Y19.0504      R1.0000    
   X19.4940      Y19.1525      R1.0000    
   X19.2919      Y19.3124      R1.0000    
   X19.1380      Y19.5191      R1.0000    
   X19.0429      Y19.7586      R1.0000    
   X19.0130      Y20.0145      R1.0000    
   X19.0504      Y20.2694      R1.0000    
   X19.1525      Y20.5060      R1.0000    
   X19.3124      Y20.7081      R1.0000    
   X19.5191      Y20.8620      R1.0000    
   X19.7586      Y20.9571      R1.0000    
   X20.0145      Y20.9870      R1.0000    
   X20.2694      Y20.9496      R1.0000    
   X20.5060      Y20.8475      R1.0000    
   X20.7081      Y20.6876      R1.0000    
   X20.8620      Y20.4809      R1.0000    
   X20.9571      Y20.2414      R1.0000    
   X20.9870      Y19.9855      R1.0000    
   X20.9496      Y19.7306      R1.0000    
   X20.8475      Y19.4940      R1.0000    
   X20.6876      Y19.2919      R1.0000    
(Pass: 13)
G1   Z-1.300     F1000
G17 G2   X20.4809      Y19.1380      R1.0000     F2000
   X20.2414      Y19.0429      R1.0000    
   X19.9855      Y19.0130      R1.0000    
   X19.7306      Y19.0504      R1.0000    
   X19.4940      Y19.1525      R1.0000    
   X19.2919      Y19.3124      R1.0000    
   X19.1380      Y19.5191      R1.0000    
   X19.0429      Y19.7586      R1.0000    
   X19.0130      Y20.0145      R1.0000    
   X19.0504      Y20.2694      R1.0000    
   X19.1525      Y20.5060      R1.0000    
   X19.3124      Y20.7081      R1.0000    
   X19.5191      Y20.8620      R1.0000    
   X19.7586      Y20.9571      R1.0000    
   X20.0145      Y20.9870      R1.0000    
   X20.2694      Y20.9496      R1.0000    
   X20.5060      Y20.8475      R1.0000    
   X20.7081      Y20.6876      R1.0000    
   X20.8620      Y20.4809      R1.0000    
   X20.9571      Y20.2414      R1.0000    
   X20.9870      Y19.9855      R1.0000    
   X20.9496      Y19.7306      R1.0000    
   X20.8475      Y19.4940      R1.0000    
   X20.6876      Y19.2919      R1.0000    
(Pass: 14)
G1   Z-1.400     F1000
G17 G2   X20.4809      Y19.1380      R1.0000     F2000
   X20.2414      Y19.0429      R1.0000    
   X19.9855      Y19.0130      R1.0000    
   X19.7306      Y19.0504      R1.0000    
   X19.4940      Y19.1525      R1.0000    
   X19.2919      Y19.3124      R1.0000    
   X19.1380      Y19.5191      R1.0000    
   X19.0429      Y19.7586      R1.0000    
   X19.0130      Y20.0145      R1.0000    
   X19.0504      Y20.2694      R1.0000    
   X19.1525      Y20.5060      R1.0000    
   X19.3124      Y20.7081      R1.0000    
   X19.5191      Y20.8620      R1.0000    
   X19.7586      Y20.9571      R1.0000    
   X20.0145      Y20.9870      R1.0000    
   X20.2694      Y20.9496      R1.0000    
   X20.5060      Y20.8475      R1.0000    
   X20.7081      Y20.6876      R1.0000    
   X20.8620      Y20.4809      R1.0000    
   X20.9571      Y20.2414      R1.0000    
   X20.9870      Y19.9855      R1.0000    
   X20.9496      Y19.7306      R1.0000    
   X20.8475      Y19.4940      R1.0000    
   X20.6876      Y19.2919      R1.0000    
(Pass: 15)
G1   Z-1.500     F1000
G17 G2   X20.4809      Y19.1380      R1.0000     F2000
   X20.2414      Y19.0429      R1.0000    
   X19.9855      Y19.0130      R1.0000    
   X19.7306      Y19.0504      R1.0000    
   X19.4940      Y19.1525      R1.0000    
   X19.2919      Y19.3124      R1.0000    
   X19.1380      Y19.5191      R1.0000    
   X19.0429      Y19.7586      R1.0000    
   X19.0130      Y20.0145      R1.0000    
   X19.0504      Y20.2694      R1.0000    
   X19.1525      Y20.5060      R1.0000    
   X19.3124      Y20.7081      R1.0000    
   X19.5191      Y20.8620      R1.0000    
   X19.7586      Y20.9571      R1.0000    
   X20.0145      Y20.9870      R1.0000    
   X20.2694      Y20.9496      R1.0000    
   X20.5060      Y20.8475      R1.0000    
   X20.7081      Y20.6876      R1.0000    
   X20.8620      Y20.4809      R1.0000    
   X20.9571      Y20.2414      R1.0000    
   X20.9870      Y19.9855      R1.0000    
   X20.9496      Y19.7306      R1.0000    
   X20.8475      Y19.4940      R1.0000    
   X20.6876      Y19.2919      R1.0000    
(Pass: 16)
G1   Z-1.600     F1000
G17 G2   X20.4809      Y19.1380      R1.0000     F2000
   X20.2414      Y19.0429      R1.0000    
   X19.9855      Y19.0130      R1.0000    
   X19.7306      Y19.0504      R1.0000    
   X19.4940      Y19.1525      R1.0000    
   X19.2919      Y19.3124      R1.0000    
   X19.1380      Y19.5191      R1.0000    
   X19.0429      Y19.7586      R1.0000    
   X19.0130      Y20.0145      R1.0000    
   X19.0504      Y20.2694      R1.0000    
   X19.1525      Y20.5060      R1.0000    
   X19.3124      Y20.7081      R1.0000    
   X19.5191      Y20.8620      R1.0000    
   X19.7586      Y20.9571      R1.0000    
   X20.0145      Y20.9870      R1.0000    
   X20.2694      Y20.9496      R1.0000    
   X20.5060      Y20.8475      R1.0000    
   X20.7081      Y20.6876      R1.0000    
   X20.8620      Y20.4809      R1.0000    
   X20.9571      Y20.2414      R1.0000    
   X20.9870      Y19.9855      R1.0000    
   X20.9496      Y19.7306      R1.0000    
   X20.8475      Y19.4940      R1.0000    
   X20.6876      Y19.2919      R1.0000    
(Pass: 17)
G1   Z-1.700     F1000
G17 G2   X20.4809      Y19.1380      R1.0000     F2000
   X20.2414      Y19.0429      R1.0000    
   X19.9855      Y19.0130      R1.0000    
   X19.7306      Y19.0504      R1.0000    
   X19.4940      Y19.1525      R1.0000    
   X19.2919      Y19.3124      R1.0000    
   X19.1380      Y19.5191      R1.0000    
   X19.0429      Y19.7586      R1.0000    
   X19.0130      Y20.0145      R1.0000    
   X19.0504      Y20.2694      R1.0000    
   X19.1525      Y20.5060      R1.0000    
   X19.3124      Y20.7081      R1.0000    
   X19.5191      Y20.8620      R1.0000    
   X19.7586      Y20.9571      R1.0000    
   X20.0145      Y20.9870      R1.0000    
   X20.2694      Y20.9496      R1.0000    
   X20.5060      Y20.8475      R1.0000    
   X20.7081      Y20.6876      R1.0000    
   X20.8620      Y20.4809      R1.0000    
   X20.9571      Y20.2414      R1.0000    
   X20.9870      Y19.9855      R1.0000    
   X20.9496      Y19.7306      R1.0000    
   X20.8475      Y19.4940      R1.0000    
   X20.6876      Y19.2919      R1.0000    
(Pass: 18)
G1   Z-1.800     F1000
G17 G2   X20.4809      Y19.1380      R1.0000     F2000
   X20.2414      Y19.0429      R1.0000    
   X19.9855      Y19.0130      R1.0000    
   X19.7306      Y19.0504      R1.0000    
   X19.4940      Y19.1525      R1.0000    
   X19.2919      Y19.3124      R1.0000    
   X19.1380      Y19.5191      R1.0000    
   X19.0429      Y19.7586      R1.0000    
   X19.0130      Y20.0145      R1.0000    
   X19.0504      Y20.2694      R1.0000    
   X19.1525      Y20.5060      R1.0000    
   X19.3124      Y20.7081      R1.0000    
   X19.5191      Y20.8620      R1.0000    
   X19.7586      Y20.9571      R1.0000    
   X20.0145      Y20.9870      R1.0000    
   X20.2694      Y20.9496      R1.0000    
   X20.5060      Y20.8475      R1.0000    
   X20.7081      Y20.6876      R1.0000    
   X20.8620      Y20.4809      R1.0000    
   X20.9571      Y20.2414      R1.0000    
   X20.9870      Y19.9855      R1.0000    
   X20.9496      Y19.7306      R1.0000    
   X20.8475      Y19.4940      R1.0000    
   X20.6876      Y19.2919      R1.0000    
(Pass: 19)
G1   Z-1.900     F1000
G17 G2   X20.4809      Y19.1380      R1.0000     F2000
   X20.2414      Y19.0429      R1.0000    
   X19.9855      Y19.0130      R1.0000    
   X19.7306      Y19.0504      R1.0000    
   X19.4940      Y19.1525      R1.0000    
   X19.2919      Y19.3124      R1.0000    
   X19.1380      Y19.5191      R1.0000    
   X19.0429      Y19.7586      R1.0000    
   X19.0130      Y20.0145      R1.0000    
   X19.0504      Y20.2694      R1.0000    
   X19.1525      Y20.5060      R1.0000    
   X19.3124      Y20.7081      R1.0000    
   X19.5191      Y20.8620      R1.0000    
   X19.7586      Y20.9571      R1.0000    
   X20.0145      Y20.9870      R1.0000    
   X20.2694      Y20.9496      R1.0000    
   X20.5060      Y20.8475      R1.0000    
   X20.7081      Y20.6876      R1.0000    
   X20.8620      Y20.4809      R1.0000    
   X20.9571      Y20.2414      R1.0000    
   X20.9870      Y19.9855      R1.0000    
   X20.9496      Y19.7306      R1.0000    
   X20.8475      Y19.4940      R1.0000    
   X20.6876      Y19.2919      R1.0000    
(Pass: 20)
G1   Z-2.000     F1000
G17 G2   X20.4809      Y19.1380      R1.0000     F2000
   X20.2414      Y19.0429      R1.0000    
   X19.9855      Y19.0130      R1.0000    
   X19.7306      Y19.0504      R1.0000    
   X19.4940      Y19.1525      R1.0000    
   X19.2919      Y19.3124      R1.0000    
   X19.1380      Y19.5191      R1.0000    
   X19.0429      Y19.7586      R1.0000    
   X19.0130      Y20.0145      R1.0000    
   X19.0504      Y20.2694      R1.0000    
   X19.1525      Y20.5060      R1.0000    
   X19.3124      Y20.7081      R1.0000    
   X19.5191      Y20.8620      R1.0000    
   X19.7586      Y20.9571      R1.0000    
   X20.0145      Y20.9870      R1.0000    
   X20.2694      Y20.9496      R1.0000    
   X20.5060      Y20.8475      R1.0000    
   X20.7081      Y20.6876      R1.0000    
   X20.8620      Y20.4809      R1.0000    
   X20.9571      Y20.2414      R1.0000    
   X20.9870      Y19.9855      R1.0000    
   X20.9496      Y19.7306      R1.0000    
   X20.8475      Y19.4940      R1.0000    
   X20.6876      Y19.2919      R1.0000    
(Pass: 21)
G1   Z-2.100     F1000
G17 G2   X20.4809      Y19.1380      R1.0000     F2000
   X20.2414      Y19.0429      R1.0000    
   X19.9855      Y19.0130      R1.0000    
   X19.7306      Y19.0504      R1.0000    
   X19.4940      Y19.1525      R1.0000    
   X19.2919      Y19.3124      R1.0000    
   X19.1380      Y19.5191      R1.0000    
   X19.0429      Y19.7586      R1.0000    
   X19.0130      Y20.0145      R1.0000    
   X19.0504      Y20.2694      R1.0000    
   X19.1525      Y20.5060      R1.0000    
   X19.3124      Y20.7081      R1.0000    
   X19.5191      Y20.8620      R1.0000    
   X19.7586      Y20.9571      R1.0000    
   X20.0145      Y20.9870      R1.0000    
   X20.2694      Y20.9496      R1.0000    
   X20.5060      Y20.8475      R1.0000    
   X20.7081      Y20.6876      R1.0000    
   X20.8620      Y20.4809      R1.0000    
   X20.9571      Y20.2414      R1.0000    
   X20.9870      Y19.9855      R1.0000    
   X20.9496      Y19.7306      R1.0000    
   X20.8475      Y19.4940      R1.0000    
   X20.6876      Y19.2919      R1.0000    
(Pass: 22)
G1   Z-2.200     F1000
G17 G2   X20.4809      Y19.1380      R1.0000     F2000
   X20.2414      Y19.0429      R1.0000    
   X19.9855      Y19.0130      R1.0000    
   X19.7306      Y19.0504      R1.0000    
   X19.4940      Y19.1525      R1.0000    
   X19.2919      Y19.3124      R1.0000    
   X19.1380      Y19.5191      R1.0000    
   X19.0429      Y19.7586      R1.0000    
   X19.0130      Y20.0145      R1.0000    
   X19.0504      Y20.2694      R1.0000    
   X19.1525      Y20.5060      R1.0000    
   X19.3124      Y20.7081      R1.0000    
   X19.5191      Y20.8620      R1.0000    
   X19.7586      Y20.9571      R1.0000    
   X20.0145      Y20.9870      R1.0000    
   X20.2694      Y20.9496      R1.0000    
   X20.5060      Y20.8475      R1.0000    
   X20.7081      Y20.6876      R1.0000    
   X20.8620      Y20.4809      R1.0000    
   X20.9571      Y20.2414      R1.0000    
   X20.9870      Y19.9855      R1.0000    
   X20.9496      Y19.7306      R1.0000    
   X20.8475      Y19.4940      R1.0000    
   X20.6876      Y19.2919      R1.0000    
(Pass: 23)
G1   Z-2.300     F1000
G17 G2   X20.4809      Y19.1380      R1.0000     F2000
   X20.2414      Y19.0429      R1.0000    
   X19.9855      Y19.0130      R1.0000    
   X19.7306      Y19.0504      R1.0000    
   X19.4940      Y19.1525      R1.0000    
   X19.2919      Y19.3124      R1.0000    
   X19.1380      Y19.5191      R1.0000    
   X19.0429      Y19.7586      R1.0000    
   X19.0130      Y20.0145      R1.0000    
   X19.0504      Y20.2694      R1.0000    
   X19.1525      Y20.5060      R1.0000    
   X19.3124      Y20.7081      R1.0000    
   X19.5191      Y20.8620      R1.0000    
   X19.7586      Y20.9571      R1.0000    
   X20.0145      Y20.9870      R1.0000    
   X20.2694      Y20.9496      R1.0000    
   X20.5060      Y20.8475      R1.0000    
   X20.7081      Y20.6876      R1.0000    
   X20.8620      Y20.4809      R1.0000    
   X20.9571      Y20.2414      R1.0000    
   X20.9870      Y19.9855      R1.0000    
   X20.9496      Y19.7306      R1.0000    
   X20.8475      Y19.4940      R1.0000    
   X20.6876      Y19.2919      R1.0000    
(Pass: 24)
G1   Z-2.400     F1000
G17 G2   X20.4809      Y19.1380      R1.0000     F2000
   X20.2414      Y19.0429      R1.0000    
   X19.9855      Y19.0130      R1.0000    
   X19.7306      Y19.0504      R1.0000    
   X19.4940      Y19.1525      R1.0000    
   X19.2919      Y19.3124      R1.0000    
   X19.1380      Y19.5191      R1.0000    
   X19.0429      Y19.7586      R1.0000    
   X19.0130      Y20.0145      R1.0000    
   X19.0504      Y20.2694      R1.0000    
   X19.1525      Y20.5060      R1.0000    
   X19.3124      Y20.7081      R1.0000    
   X19.5191      Y20.8620      R1.0000    
   X19.7586      Y20.9571      R1.0000    
   X20.0145      Y20.9870      R1.0000    
   X20.2694      Y20.9496      R1.0000    
   X20.5060      Y20.8475      R1.0000    
   X20.7081      Y20.6876      R1.0000    
   X20.8620      Y20.4809      R1.0000    
   X20.9571      Y20.2414      R1.0000    
   X20.9870      Y19.9855      R1.0000    
   X20.9496      Y19.7306      R1.0000    
   X20.8475      Y19.4940      R1.0000    
   X20.6876      Y19.2919      R1.0000    
(Pass: 25)
G1   Z-2.500     F1000
G17 G2   X20.4809      Y19.1380      R1.0000     F2000
   X20.2414      Y19.0429      R1.0000    
   X19.9855      Y19.0130      R1.0000    
   X19.7306      Y19.0504      R1.0000    
   X19.4940      Y19.1525      R1.0000    
   X19.2919      Y19.3124      R1.0000    
   X19.1380      Y19.5191      R1.0000    
   X19.0429      Y19.7586      R1.0000    
   X19.0130      Y20.0145      R1.0000    
   X19.0504      Y20.2694      R1.0000    
   X19.1525      Y20.5060      R1.0000    
   X19.3124      Y20.7081      R1.0000    
   X19.5191      Y20.8620      R1.0000    
   X19.7586      Y20.9571      R1.0000    
   X20.0145      Y20.9870      R1.0000    
   X20.2694      Y20.9496      R1.0000    
   X20.5060      Y20.8475      R1.0000    
   X20.7081      Y20.6876      R1.0000    
   X20.8620      Y20.4809      R1.0000    
   X20.9571      Y20.2414      R1.0000    
   X20.9870      Y19.9855      R1.0000    
   X20.9496      Y19.7306      R1.0000    
   X20.8475      Y19.4940      R1.0000    
   X20.6876      Y19.2919      R1.0000    
(Pass: 26)
G1   Z-2.600     F1000
G17 G2   X20.4809      Y19.1380      R1.0000     F2000
   X20.2414      Y19.0429      R1.0000    
   X19.9855      Y19.0130      R1.0000    
   X19.7306      Y19.0504      R1.0000    
   X19.4940      Y19.1525      R1.0000    
   X19.2919      Y19.3124      R1.0000    
   X19.1380      Y19.5191      R1.0000    
   X19.0429      Y19.7586      R1.0000    
   X19.0130      Y20.0145      R1.0000    
   X19.0504      Y20.2694      R1.0000    
   X19.1525      Y20.5060      R1.0000    
   X19.3124      Y20.7081      R1.0000    
   X19.5191      Y20.8620      R1.0000    
   X19.7586      Y20.9571      R1.0000    
   X20.0145      Y20.9870      R1.0000    
   X20.2694      Y20.9496      R1.0000    
   X20.5060      Y20.8475      R1.0000    
   X20.7081      Y20.6876      R1.0000    
   X20.8620      Y20.4809      R1.0000    
   X20.9571      Y20.2414      R1.0000    
   X20.9870      Y19.9855      R1.0000    
   X20.9496      Y19.7306      R1.0000    
   X20.8475      Y19.4940      R1.0000    
   X20.6876      Y19.2919      R1.0000    
(Pass: 27)
G1   Z-2.700     F1000
G17 G2   X20.4809      Y19.1380      R1.0000     F2000
   X20.2414      Y19.0429      R1.0000    
   X19.9855      Y19.0130      R1.0000    
   X19.7306      Y19.0504      R1.0000    
   X19.4940      Y19.1525      R1.0000    
   X19.2919      Y19.3124      R1.0000    
   X19.1380      Y19.5191      R1.0000    
   X19.0429      Y19.7586      R1.0000    
   X19.0130      Y20.0145      R1.0000    
   X19.0504      Y20.2694      R1.0000    
   X19.1525      Y20.5060      R1.0000    
   X19.3124      Y20.7081      R1.0000    
   X19.5191      Y20.8620      R1.0000    
   X19.7586      Y20.9571      R1.0000    
   X20.0145      Y20.9870      R1.0000    
   X20.2694      Y20.9496      R1.0000    
   X20.5060      Y20.8475      R1.0000    
   X20.7081      Y20.6876      R1.0000    
   X20.8620      Y20.4809      R1.0000    
   X20.9571      Y20.2414      R1.0000    
   X20.9870      Y19.9855      R1.0000    
   X20.9496      Y19.7306      R1.0000    
   X20.8475      Y19.4940      R1.0000    
   X20.6876      Y19.2919      R1.0000    
(Pass: 28)
G1   Z-2.800     F1000
G17 G2   X20.4809      Y19.1380      R1.0000     F2000
   X20.2414      Y19.0429      R1.0000    
   X19.9855      Y19.0130      R1.0000    
   X19.7306      Y19.0504      R1.0000    
   X19.4940      Y19.1525      R1.0000    
   X19.2919      Y19.3124      R1.0000    
   X19.1380      Y19.5191      R1.0000    
   X19.0429      Y19.7586      R1.0000    
   X19.0130      Y20.0145      R1.0000    
   X19.0504      Y20.2694      R1.0000    
   X19.1525      Y20.5060      R1.0000    
   X19.3124      Y20.7081      R1.0000    
   X19.5191      Y20.8620      R1.0000    
   X19.7586      Y20.9571      R1.0000    
   X20.0145      Y20.9870      R1.0000    
   X20.2694      Y20.9496      R1.0000    
   X20.5060      Y20.8475      R1.0000    
   X20.7081      Y20.6876      R1.0000    
   X20.8620      Y20.4809      R1.0000    
   X20.9571      Y20.2414      R1.0000    
   X20.9870      Y19.9855      R1.0000    
   X20.9496      Y19.7306      R1.0000    
   X20.8475      Y19.4940      R1.0000    
   X20.6876      Y19.2919      R1.0000    
(Pass: 29)
G1   Z-2.900     F1000
G17 G2   X20.4809      Y19.1380      R1.0000     F2000
   X20.2414      Y19.0429      R1.0000    
   X19.9855      Y19.0130      R1.0000    
   X19.7306      Y19.0504      R1.0000    
   X19.4940      Y19.1525      R1.0000    
   X19.2919      Y19.3124      R1.0000    
   X19.1380      Y19.5191      R1.0000    
   X19.0429      Y19.7586      R1.0000    
   X19.0130      Y20.0145      R1.0000    
   X19.0504      Y20.2694      R1.0000    
   X19.1525      Y20.5060      R1.0000    
   X19.3124      Y20.7081      R1.0000    
   X19.5191      Y20.8620      R1.0000    
   X19.7586      Y20.9571      R1.0000    
   X20.0145      Y20.9870      R1.0000    
   X20.2694      Y20.9496      R1.0000    
   X20.5060      Y20.8475      R1.0000    
   X20.7081      Y20.6876      R1.0000    
   X20.8620      Y20.4809      R1.0000    
   X20.9571      Y20.2414      R1.0000    
   X20.9870      Y19.9855      R1.0000    
   X20.9496      Y19.7306      R1.0000    
   X20.8475      Y19.4940      R1.0000    
   X20.6876      Y19.2919      R1.0000    
(Pass: 30)
G1   Z-3.000     F1000
G17 G2   X20.4809      Y19.1380      R1.0000     F2000
   X20.2414      Y19.0429      R1.0000    
   X19.9855      Y19.0130      R1.0000    
   X19.7306      Y19.0504      R1.0000    
   X19.4940      Y19.1525      R1.0000    
   X19.2919      Y19.3124      R1.0000    
   X19.1380      Y19.5191      R1.0000    
   X19.0429      Y19.7586      R1.0000    
   X19.0130      Y20.0145      R1.0000    
   X19.0504      Y20.2694      R1.0000    
   X19.1525      Y20.5060      R1.0000    
   X19.3124      Y20.7081      R1.0000    
   X19.5191      Y20.8620      R1.0000    
   X19.7586      Y20.9571      R1.0000    
   X20.0145      Y20.9870      R1.0000    
   X20.2694      Y20.9496      R1.0000    
   X20.5060      Y20.8475      R1.0000    
   X20.7081      Y20.6876      R1.0000    
   X20.8620      Y20.4809      R1.0000    
   X20.9571      Y20.2414      R1.0000    
   X20.9870      Y19.9855      R1.0000    
   X20.9496      Y19.7306      R1.0000    
   X20.8475      Y19.4940      R1.0000    
   X20.6876      Y19.2919      R1.0000    
(Pass: 31)
G1   Z-3.100     F1000
G17 G2   X20.4809      Y19.1380      R1.0000     F2000
   X20.2414      Y19.0429      R1.0000    
   X19.9855      Y19.0130      R1.0000    
   X19.7306      Y19.0504      R1.0000    
   X19.4940      Y19.1525      R1.0000    
   X19.2919      Y19.3124      R1.0000    
   X19.1380      Y19.5191      R1.0000    
   X19.0429      Y19.7586      R1.0000    
   X19.0130      Y20.0145      R1.0000    
   X19.0504      Y20.2694      R1.0000    
   X19.1525      Y20.5060      R1.0000    
   X19.3124      Y20.7081      R1.0000    
   X19.5191      Y20.8620      R1.0000    
   X19.7586      Y20.9571      R1.0000    
   X20.0145      Y20.9870      R1.0000    
   X20.2694      Y20.9496      R1.0000    
   X20.5060      Y20.8475      R1.0000    
   X20.7081      Y20.6876      R1.0000    
   X20.8620      Y20.4809      R1.0000    
   X20.9571      Y20.2414      R1.0000    
   X20.9870      Y19.9855      R1.0000    
   X20.9496      Y19.7306      R1.0000    
   X20.8475      Y19.4940      R1.0000    
   X20.6876      Y19.2919      R1.0000    
(Pass: 32)
G1   Z-3.200     F1000
G17 G2   X20.4809      Y19.1380      R1.0000     F2000
   X20.2414      Y19.0429      R1.0000    
   X19.9855      Y19.0130      R1.0000    
   X19.7306      Y19.0504      R1.0000    
   X19.4940      Y19.1525      R1.0000    
   X19.2919      Y19.3124      R1.0000    
   X19.1380      Y19.5191      R1.0000    
   X19.0429      Y19.7586      R1.0000    
   X19.0130      Y20.0145      R1.0000    
   X19.0504      Y20.2694      R1.0000    
   X19.1525      Y20.5060      R1.0000    
   X19.3124      Y20.7081      R1.0000    
   X19.5191      Y20.8620      R1.0000    
   X19.7586      Y20.9571      R1.0000    
   X20.0145      Y20.9870      R1.0000    
   X20.2694      Y20.9496      R1.0000    
   X20.5060      Y20.8475      R1.0000    
   X20.7081      Y20.6876      R1.0000    
   X20.8620      Y20.4809      R1.0000    
   X20.9571      Y20.2414      R1.0000    
   X20.9870      Y19.9855      R1.0000    
   X20.9496      Y19.7306      R1.0000    
   X20.8475      Y19.4940      R1.0000    
   X20.6876      Y19.2919      R1.0000    
(Pass: 33)
G1   Z-3.300     F1000
G17 G2   X20.4809      Y19.1380      R1.0000     F2000
   X20.2414      Y19.0429      R1.0000    
   X19.9855      Y19.0130      R1.0000    
   X19.7306      Y19.0504      R1.0000    
   X19.4940      Y19.1525      R1.0000    
   X19.2919      Y19.3124      R1.0000    
   X19.1380      Y19.5191      R1.0000    
   X19.0429      Y19.7586      R1.0000    
   X19.0130      Y20.0145      R1.0000    
   X19.0504      Y20.2694      R1.0000    
   X19.1525      Y20.5060      R1.0000    
   X19.3124      Y20.7081      R1.0000    
   X19.5191      Y20.8620      R1.0000    
   X19.7586      Y20.9571      R1.0000    
   X20.0145      Y20.9870      R1.0000    
   X20.2694      Y20.9496      R1.0000    
   X20.5060      Y20.8475      R1.0000    
   X20.7081      Y20.6876      R1.0000    
   X20.8620      Y20.4809      R1.0000    
   X20.9571      Y20.2414      R1.0000    
   X20.9870      Y19.9855      R1.0000    
   X20.9496      Y19.7306      R1.0000    
   X20.8475      Y19.4940      R1.0000    
   X20.6876      Y19.2919      R1.0000    
(Pass: 34)
G1   Z-3.400     F1000
G17 G2   X20.4809      Y19.1380      R1.0000     F2000
   X20.2414      Y19.0429      R1.0000    
   X19.9855      Y19.0130      R1.0000    
   X19.7306      Y19.0504      R1.0000    
   X19.4940      Y19.1525      R1.0000    
   X19.2919      Y19.3124      R1.0000    
   X19.1380      Y19.5191      R1.0000    
   X19.0429      Y19.7586      R1.0000    
   X19.0130      Y20.0145      R1.0000    
   X19.0504      Y20.2694      R1.0000    
   X19.1525      Y20.5060      R1.0000    
   X19.3124      Y20.7081      R1.0000    
   X19.5191      Y20.8620      R1.0000    
   X19.7586      Y20.9571      R1.0000    
   X20.0145      Y20.9870      R1.0000    
   X20.2694      Y20.9496      R1.0000    
   X20.5060      Y20.8475      R1.0000    
   X20.7081      Y20.6876      R1.0000    
   X20.8620      Y20.4809      R1.0000    
   X20.9571      Y20.2414      R1.0000    
   X20.9870      Y19.9855      R1.0000    
   X20.9496      Y19.7306      R1.0000    
   X20.8475      Y19.4940      R1.0000    
   X20.6876      Y19.2919      R1.0000    
G0   Z5.000     
(Pass: 1)
   X27.994       Y19.646    
G1   Z-0.100     F1000
G17 G2   X27.9706      Y20.1769      R2.0500     F2000
   X28.0856      Y20.6961      R2.0500    
   X28.3310      Y21.1679      R2.0500    
   X28.6901      Y21.5601      R2.0500    
   X29.1385      Y21.8459      R2.0500    
   X29.6456      Y22.0060      R2.0500    
   X30.1769      Y22.0294      R2.0500    
   X30.6961      Y21.9144      R2.0500    
   X31.1679      Y21.6690      R2.0500    
   X31.5601      Y21.3099      R2.0500    
   X31.8459      Y20.8615      R2.0500    
   X32.0060      Y20.3544      R2.0500    
   X32.0294      Y19.8231      R2.0500    
   X31.9144      Y19.3039      R2.0500    
   X31.6690      Y18.8321      R2.0500    
   X31.3099      Y18.4399      R2.0500    
   X30.8615      Y18.1541      R2.0500    
   X30.3544      Y17.9940      R2.0500    
   X29.8231      Y17.9706      R2.0500    
   X29.3039      Y18.0856      R2.0500    
   X28.8321      Y18.3310      R2.0500    
   X28.4399      Y18.6901      R2.0500    
   X28.1541      Y19.1385      R2.0500    
   X27.9940      Y19.6456      R2.0500    
(Pass: 2)
G1   Z-0.200     F1000
G17 G2   X27.9706      Y20.1769      R2.0500     F2000
   X28.0856      Y20.6961      R2.0500    
   X28.3310      Y21.1679      R2.0500    
   X28.6901      Y21.5601      R2.0500    
   X29.1385      Y21.8459      R2.0500    
   X29.6456      Y22.0060      R2.0500    
   X30.1769      Y22.0294      R2.0500    
   X30.6961      Y21.9144      R2.0500    
   X31.1679      Y21.6690      R2.0500    
   X31.5601      Y21.3099      R2.0500    
   X31.8459      Y20.8615      R2.0500    
   X32.0060      Y20.3544      R2.0500    
   X32.0294      Y19.8231      R2.0500    
   X31.9144      Y19.3039      R2.0500    
   X31.6690      Y18.8321      R2.0500    
   X31.3099      Y18.4399      R2.0500    
   X30.8615      Y18.1541      R2.0500    
   X30.3544      Y17.9940      R2.0500    
   X29.8231      Y17.9706      R2.0500    
   X29.3039      Y18.0856      R2.0500    
   X28.8321      Y18.3310      R2.0500    
   X28.4399      Y18.6901      R2.0500    
   X28.1541      Y19.1385      R2.0500    
   X27.9940      Y19.6456      R2.0500    
(Pass: 3)
G1   Z-0.300     F1000
G17 G2   X27.9706      Y20.1769      R2.0500     F2000
   X28.0856      Y20.6961      R2.0500    
   X28.3310      Y21.1679      R2.0500    
   X28.6901      Y21.5601      R2.0500    
   X29.1385      Y21.8459      R2.0500    
   X29.6456      Y22.0060      R2.0500    
   X30.1769      Y22.0294      R2.0500    
   X30.6961      Y21.9144      R2.0500    
   X31.1679      Y21.6690      R2.0500    
   X31.5601      Y21.3099      R2.0500    
   X31.8459      Y20.8615      R2.0500    
   X32.0060      Y20.3544      R2.0500    
   X32.0294      Y19.8231      R2.0500    
   X31.9144      Y19.3039      R2.0500    
   X31.6690      Y18.8321      R2.0500    
   X31.3099      Y18.4399      R2.0500    
   X30.8615      Y18.1541      R2.0500    
   X30.3544      Y17.9940      R2.0500    
   X29.8231      Y17.9706      R2.0500    
   X29.3039      Y18.0856      R2.0500    
   X28.8321      Y18.3310      R2.0500    
   X28.4399      Y18.6901      R2.0500    
   X28.1541      Y19.1385      R2.0500    
   X27.9940      Y19.6456      R2.0500    
(Pass: 4)
G1   Z-0.400     F1000
G17 G2   X27.9706      Y20.1769      R2.0500     F2000
   X28.0856      Y20.6961      R2.0500    
   X28.3310      Y21.1679      R2.0500    
   X28.6901      Y21.5601      R2.0500    
   X29.1385      Y21.8459      R2.0500    
   X29.6456      Y22.0060      R2.0500    
   X30.1769      Y22.0294      R2.0500    
   X30.6961      Y21.9144      R2.0500    
   X31.1679      Y21.6690      R2.0500    
   X31.5601      Y21.3099      R2.0500    
   X31.8459      Y20.8615      R2.0500    
   X32.0060      Y20.3544      R2.0500    
   X32.0294      Y19.8231      R2.0500    
   X31.9144      Y19.3039      R2.0500    
   X31.6690      Y18.8321      R2.0500    
   X31.3099      Y18.4399      R2.0500    
   X30.8615      Y18.1541      R2.0500    
   X30.3544      Y17.9940      R2.0500    
   X29.8231      Y17.9706      R2.0500    
   X29.3039      Y18.0856      R2.0500    
   X28.8321      Y18.3310      R2.0500    
   X28.4399      Y18.6901      R2.0500    
   X28.1541      Y19.1385      R2.0500    
   X27.9940      Y19.6456      R2.0500    
(Pass: 5)
G1   Z-0.500     F1000
G17 G2   X27.9706      Y20.1769      R2.0500     F2000
   X28.0856      Y20.6961      R2.0500    
   X28.3310      Y21.1679      R2.0500    
   X28.6901      Y21.5601      R2.0500    
   X29.1385      Y21.8459      R2.0500    
   X29.6456      Y22.0060      R2.0500    
   X30.1769      Y22.0294      R2.0500    
   X30.6961      Y21.9144      R2.0500    
   X31.1679      Y21.6690      R2.0500    
   X31.5601      Y21.3099      R2.0500    
   X31.8459      Y20.8615      R2.0500    
   X32.0060      Y20.3544      R2.0500    
   X32.0294      Y19.8231      R2.0500    
   X31.9144      Y19.3039      R2.0500    
   X31.6690      Y18.8321      R2.0500    
   X31.3099      Y18.4399      R2.0500    
   X30.8615      Y18.1541      R2.0500    
   X30.3544      Y17.9940      R2.0500    
   X29.8231      Y17.9706      R2.0500    
   X29.3039      Y18.0856      R2.0500    
   X28.8321      Y18.3310      R2.0500    
   X28.4399      Y18.6901      R2.0500    
   X28.1541      Y19.1385      R2.0500    
   X27.9940      Y19.6456      R2.0500    
(Pass: 6)
G1   Z-0.600     F1000
G17 G2   X27.9706      Y20.1769      R2.0500     F2000
   X28.0856      Y20.6961      R2.0500    
   X28.3310      Y21.1679      R2.0500    
   X28.6901      Y21.5601      R2.0500    
   X29.1385      Y21.8459      R2.0500    
   X29.6456      Y22.0060      R2.0500    
   X30.1769      Y22.0294      R2.0500    
   X30.6961      Y21.9144      R2.0500    
   X31.1679      Y21.6690      R2.0500    
   X31.5601      Y21.3099      R2.0500    
   X31.8459      Y20.8615      R2.0500    
   X32.0060      Y20.3544      R2.0500    
   X32.0294      Y19.8231      R2.0500    
   X31.9144      Y19.3039      R2.0500    
   X31.6690      Y18.8321      R2.0500    
   X31.3099      Y18.4399      R2.0500    
   X30.8615      Y18.1541      R2.0500    
   X30.3544      Y17.9940      R2.0500    
   X29.8231      Y17.9706      R2.0500    
   X29.3039      Y18.0856      R2.0500    
   X28.8321      Y18.3310      R2.0500    
   X28.4399      Y18.6901      R2.0500    
   X28.1541      Y19.1385      R2.0500    
   X27.9940      Y19.6456      R2.0500    
(Pass: 7)
G1   Z-0.700     F1000
G17 G2   X27.9706      Y20.1769      R2.0500     F2000
   X28.0856      Y20.6961      R2.0500    
   X28.3310      Y21.1679      R2.0500    
   X28.6901      Y21.5601      R2.0500    
   X29.1385      Y21.8459      R2.0500    
   X29.6456      Y22.0060      R2.0500    
   X30.1769      Y22.0294      R2.0500    
   X30.6961      Y21.9144      R2.0500    
   X31.1679      Y21.6690      R2.0500    
   X31.5601      Y21.3099      R2.0500    
   X31.8459      Y20.8615      R2.0500    
   X32.0060      Y20.3544      R2.0500    
   X32.0294      Y19.8231      R2.0500    
   X31.9144      Y19.3039      R2.0500    
   X31.6690      Y18.8321      R2.0500    
   X31.3099      Y18.4399      R2.0500    
   X30.8615      Y18.1541      R2.0500    
   X30.3544      Y17.9940      R2.0500    
   X29.8231      Y17.9706      R2.0500    
   X29.3039      Y18.0856      R2.0500    
   X28.8321      Y18.3310      R2.0500    
   X28.4399      Y18.6901      R2.0500    
   X28.1541      Y19.1385      R2.0500    
   X27.9940      Y19.6456      R2.0500    
(Pass: 8)
G1   Z-0.800     F1000
G17 G2   X27.9706      Y20.1769      R2.0500     F2000
   X28.0856      Y20.6961      R2.0500    
   X28.3310      Y21.1679      R2.0500    
   X28.6901      Y21.5601      R2.0500    
   X29.1385      Y21.8459      R2.0500    
   X29.6456      Y22.0060      R2.0500    
   X30.1769      Y22.0294      R2.0500    
   X30.6961      Y21.9144      R2.0500    
   X31.1679      Y21.6690      R2.0500    
   X31.5601      Y21.3099      R2.0500    
   X31.8459      Y20.8615      R2.0500    
   X32.0060      Y20.3544      R2.0500    
   X32.0294      Y19.8231      R2.0500    
   X31.9144      Y19.3039      R2.0500    
   X31.6690      Y18.8321      R2.0500    
   X31.3099      Y18.4399      R2.0500    
   X30.8615      Y18.1541      R2.0500    
   X30.3544      Y17.9940      R2.0500    
   X29.8231      Y17.9706      R2.0500    
   X29.3039      Y18.0856      R2.0500    
   X28.8321      Y18.3310      R2.0500    
   X28.4399      Y18.6901      R2.0500    
   X28.1541      Y19.1385      R2.0500    
   X27.9940      Y19.6456      R2.0500    
(Pass: 9)
G1   Z-0.900     F1000
G17 G2   X27.9706      Y20.1769      R2.0500     F2000
   X28.0856      Y20.6961      R2.0500    
   X28.3310      Y21.1679      R2.0500    
   X28.6901      Y21.5601      R2.0500    
   X29.1385      Y21.8459      R2.0500    
   X29.6456      Y22.0060      R2.0500    
   X30.1769      Y22.0294      R2.0500    
   X30.6961      Y21.9144      R2.0500    
   X31.1679      Y21.6690      R2.0500    
   X31.5601      Y21.3099      R2.0500    
   X31.8459      Y20.8615      R2.0500    
   X32.0060      Y20.3544      R2.0500    
   X32.0294      Y19.8231      R2.0500    
   X31.9144      Y19.3039      R2.0500    
   X31.6690      Y18.8321      R2.0500    
   X31.3099      Y18.4399      R2.0500    
   X30.8615      Y18.1541      R2.0500    
   X30.3544      Y17.9940      R2.0500    
   X29.8231      Y17.9706      R2.0500    
   X29.3039      Y18.0856      R2.0500    
   X28.8321      Y18.3310      R2.0500    
   X28.4399      Y18.6901      R2.0500    
   X28.1541      Y19.1385      R2.0500    
   X27.9940      Y19.6456      R2.0500    
(Pass: 10)
G1   Z-1.000     F1000
G17 G2   X27.9706      Y20.1769      R2.0500     F2000
   X28.0856      Y20.6961      R2.0500    
   X28.3310      Y21.1679      R2.0500    
   X28.6901      Y21.5601      R2.0500    
   X29.1385      Y21.8459      R2.0500    
   X29.6456      Y22.0060      R2.0500    
   X30.1769      Y22.0294      R2.0500    
   X30.6961      Y21.9144      R2.0500    
   X31.1679      Y21.6690      R2.0500    
   X31.5601      Y21.3099      R2.0500    
   X31.8459      Y20.8615      R2.0500    
   X32.0060      Y20.3544      R2.0500    
   X32.0294      Y19.8231      R2.0500    
   X31.9144      Y19.3039      R2.0500    
   X31.6690      Y18.8321      R2.0500    
   X31.3099      Y18.4399      R2.0500    
   X30.8615      Y18.1541      R2.0500    
   X30.3544      Y17.9940      R2.0500    
   X29.8231      Y17.9706      R2.0500    
   X29.3039      Y18.0856      R2.0500    
   X28.8321      Y18.3310      R2.0500    
   X28.4399      Y18.6901      R2.0500    
   X28.1541      Y19.1385      R2.0500    
   X27.9940      Y19.6456      R2.0500    
(Pass: 11)
G1   Z-1.100     F1000
G17 G2   X27.9706      Y20.1769      R2.0500     F2000
   X28.0856      Y20.6961      R2.0500    
   X28.3310      Y21.1679      R2.0500    
   X28.6901      Y21.5601      R2.0500    
   X29.1385      Y21.8459      R2.0500    
   X29.6456      Y22.0060      R2.0500    
   X30.1769      Y22.0294      R2.0500    
   X30.6961      Y21.9144      R2.0500    
   X31.1679      Y21.6690      R2.0500    
   X31.5601      Y21.3099      R2.0500    
   X31.8459      Y20.8615      R2.0500    
   X32.0060      Y20.3544      R2.0500    
   X32.0294      Y19.8231      R2.0500    
   X31.9144      Y19.3039      R2.0500    
   X31.6690      Y18.8321      R2.0500    
   X31.3099      Y18.4399      R2.0500    
   X30.8615      Y18.1541      R2.0500    
   X30.3544      Y17.9940      R2.0500    
   X29.8231      Y17.9706      R2.0500    
   X29.3039      Y18.0856      R2.0500    
   X28.8321      Y18.3310      R2.0500    
   X28.4399      Y18.6901      R2.0500    
   X28.1541      Y19.1385      R2.0500    
   X27.9940      Y19.6456      R2.0500    
(Pass: 12)
G1   Z-1.200     F1000
G17 G2   X27.9706      Y20.1769      R2.0500     F2000
   X28.0856      Y20.6961      R2.0500    
   X28.3310      Y21.1679      R2.0500    
   X28.6901      Y21.5601      R2.0500    
   X29.1385      Y21.8459      R2.0500    
   X29.6456      Y22.0060      R2.0500    
   X30.1769      Y22.0294      R2.0500    
   X30.6961      Y21.9144      R2.0500    
   X31.1679      Y21.6690      R2.0500    
   X31.5601      Y21.3099      R2.0500    
   X31.8459      Y20.8615      R2.0500    
   X32.0060      Y20.3544      R2.0500    
   X32.0294      Y19.8231      R2.0500    
   X31.9144      Y19.3039      R2.0500    
   X31.6690      Y18.8321      R2.0500    
   X31.3099      Y18.4399      R2.0500    
   X30.8615      Y18.1541      R2.0500    
   X30.3544      Y17.9940      R2.0500    
   X29.8231      Y17.9706      R2.0500    
   X29.3039      Y18.0856      R2.0500    
   X28.8321      Y18.3310      R2.0500    
   X28.4399      Y18.6901      R2.0500    
   X28.1541      Y19.1385      R2.0500    
   X27.9940      Y19.6456      R2.0500    
(Pass: 13)
G1   Z-1.300     F1000
G17 G2   X27.9706      Y20.1769      R2.0500     F2000
   X28.0856      Y20.6961      R2.0500    
   X28.3310      Y21.1679      R2.0500    
   X28.6901      Y21.5601      R2.0500    
   X29.1385      Y21.8459      R2.0500    
   X29.6456      Y22.0060      R2.0500    
   X30.1769      Y22.0294      R2.0500    
   X30.6961      Y21.9144      R2.0500    
   X31.1679      Y21.6690      R2.0500    
   X31.5601      Y21.3099      R2.0500    
   X31.8459      Y20.8615      R2.0500    
   X32.0060      Y20.3544      R2.0500    
   X32.0294      Y19.8231      R2.0500    
   X31.9144      Y19.3039      R2.0500    
   X31.6690      Y18.8321      R2.0500    
   X31.3099      Y18.4399      R2.0500    
   X30.8615      Y18.1541      R2.0500    
   X30.3544      Y17.9940      R2.0500    
   X29.8231      Y17.9706      R2.0500    
   X29.3039      Y18.0856      R2.0500    
   X28.8321      Y18.3310      R2.0500    
   X28.4399      Y18.6901      R2.0500    
   X28.1541      Y19.1385      R2.0500    
   X27.9940      Y19.6456      R2.0500    
(Pass: 14)
G1   Z-1.400     F1000
G17 G2   X27.9706      Y20.1769      R2.0500     F2000
   X28.0856      Y20.6961      R2.0500    
   X28.3310      Y21.1679      R2.0500    
   X28.6901      Y21.5601      R2.0500    
   X29.1385      Y21.8459      R2.0500    
   X29.6456      Y22.0060      R2.0500    
   X30.1769      Y22.0294      R2.0500    
   X30.6961      Y21.9144      R2.0500    
   X31.1679      Y21.6690      R2.0500    
   X31.5601      Y21.3099      R2.0500    
   X31.8459      Y20.8615      R2.0500    
   X32.0060      Y20.3544      R2.0500    
   X32.0294      Y19.8231      R2.0500    
   X31.9144      Y19.3039      R2.0500    
   X31.6690      Y18.8321      R2.0500    
   X31.3099      Y18.4399      R2.0500    
   X30.8615      Y18.1541      R2.0500    
   X30.3544      Y17.9940      R2.0500    
   X29.8231      Y17.9706      R2.0500    
   X29.3039      Y18.0856      R2.0500    
   X28.8321      Y18.3310      R2.0500    
   X28.4399      Y18.6901      R2.0500    
   X28.1541      Y19.1385      R2.0500    
   X27.9940      Y19.6456      R2.0500    
(Pass: 15)
G1   Z-1.500     F1000
G17 G2   X27.9706      Y20.1769      R2.0500     F2000
   X28.0856      Y20.6961      R2.0500    
   X28.3310      Y21.1679      R2.0500    
   X28.6901      Y21.5601      R2.0500    
   X29.1385      Y21.8459      R2.0500    
   X29.6456      Y22.0060      R2.0500    
   X30.1769      Y22.0294      R2.0500    
   X30.6961      Y21.9144      R2.0500    
   X31.1679      Y21.6690      R2.0500    
   X31.5601      Y21.3099      R2.0500    
   X31.8459      Y20.8615      R2.0500    
   X32.0060      Y20.3544      R2.0500    
   X32.0294      Y19.8231      R2.0500    
   X31.9144      Y19.3039      R2.0500    
   X31.6690      Y18.8321      R2.0500    
   X31.3099      Y18.4399      R2.0500    
   X30.8615      Y18.1541      R2.0500    
   X30.3544      Y17.9940      R2.0500    
   X29.8231      Y17.9706      R2.0500    
   X29.3039      Y18.0856      R2.0500    
   X28.8321      Y18.3310      R2.0500    
   X28.4399      Y18.6901      R2.0500    
   X28.1541      Y19.1385      R2.0500    
   X27.9940      Y19.6456      R2.0500    
(Pass: 16)
G1   Z-1.600     F1000
G17 G2   X27.9706      Y20.1769      R2.0500     F2000
   X28.0856      Y20.6961      R2.0500    
   X28.3310      Y21.1679      R2.0500    
   X28.6901      Y21.5601      R2.0500    
   X29.1385      Y21.8459      R2.0500    
   X29.6456      Y22.0060      R2.0500    
   X30.1769      Y22.0294      R2.0500    
   X30.6961      Y21.9144      R2.0500    
   X31.1679      Y21.6690      R2.0500    
   X31.5601      Y21.3099      R2.0500    
   X31.8459      Y20.8615      R2.0500    
   X32.0060      Y20.3544      R2.0500    
   X32.0294      Y19.8231      R2.0500    
   X31.9144      Y19.3039      R2.0500    
   X31.6690      Y18.8321      R2.0500    
   X31.3099      Y18.4399      R2.0500    
   X30.8615      Y18.1541      R2.0500    
   X30.3544      Y17.9940      R2.0500    
   X29.8231      Y17.9706      R2.0500    
   X29.3039      Y18.0856      R2.0500    
   X28.8321      Y18.3310      R2.0500    
   X28.4399      Y18.6901      R2.0500    
   X28.1541      Y19.1385      R2.0500    
   X27.9940      Y19.6456      R2.0500    
(Pass: 17)
G1   Z-1.700     F1000
G17 G2   X27.9706      Y20.1769      R2.0500     F2000
   X28.0856      Y20.6961      R2.0500    
   X28.3310      Y21.1679      R2.0500    
   X28.6901      Y21.5601      R2.0500    
   X29.1385      Y21.8459      R2.0500    
   X29.6456      Y22.0060      R2.0500    
   X30.1769      Y22.0294      R2.0500    
   X30.6961      Y21.9144      R2.0500    
   X31.1679      Y21.6690      R2.0500    
   X31.5601      Y21.3099      R2.0500    
   X31.8459      Y20.8615      R2.0500    
   X32.0060      Y20.3544      R2.0500    
   X32.0294      Y19.8231      R2.0500    
   X31.9144      Y19.3039      R2.0500    
   X31.6690      Y18.8321      R2.0500    
   X31.3099      Y18.4399      R2.0500    
   X30.8615      Y18.1541      R2.0500    
   X30.3544      Y17.9940      R2.0500    
   X29.8231      Y17.9706      R2.0500    
   X29.3039      Y18.0856      R2.0500    
   X28.8321      Y18.3310      R2.0500    
   X28.4399      Y18.6901      R2.0500    
   X28.1541      Y19.1385      R2.0500    
   X27.9940      Y19.6456      R2.0500    
(Pass: 18)
G1   Z-1.800     F1000
G17 G2   X27.9706      Y20.1769      R2.0500     F2000
   X28.0856      Y20.6961      R2.0500    
   X28.3310      Y21.1679      R2.0500    
   X28.6901      Y21.5601      R2.0500    
   X29.1385      Y21.8459      R2.0500    
   X29.6456      Y22.0060      R2.0500    
   X30.1769      Y22.0294      R2.0500    
   X30.6961      Y21.9144      R2.0500    
   X31.1679      Y21.6690      R2.0500    
   X31.5601      Y21.3099      R2.0500    
   X31.8459      Y20.8615      R2.0500    
   X32.0060      Y20.3544      R2.0500    
   X32.0294      Y19.8231      R2.0500    
   X31.9144      Y19.3039      R2.0500    
   X31.6690      Y18.8321      R2.0500    
   X31.3099      Y18.4399      R2.0500    
   X30.8615      Y18.1541      R2.0500    
   X30.3544      Y17.9940      R2.0500    
   X29.8231      Y17.9706      R2.0500    
   X29.3039      Y18.0856      R2.0500    
   X28.8321      Y18.3310      R2.0500    
   X28.4399      Y18.6901      R2.0500    
   X28.1541      Y19.1385      R2.0500    
   X27.9940      Y19.6456      R2.0500    
(Pass: 19)
G1   Z-1.900     F1000
G17 G2   X27.9706      Y20.1769      R2.0500     F2000
   X28.0856      Y20.6961      R2.0500    
   X28.3310      Y21.1679      R2.0500    
   X28.6901      Y21.5601      R2.0500    
   X29.1385      Y21.8459      R2.0500    
   X29.6456      Y22.0060      R2.0500    
   X30.1769      Y22.0294      R2.0500    
   X30.6961      Y21.9144      R2.0500    
   X31.1679      Y21.6690      R2.0500    
   X31.5601      Y21.3099      R2.0500    
   X31.8459      Y20.8615      R2.0500    
   X32.0060      Y20.3544      R2.0500    
   X32.0294      Y19.8231      R2.0500    
   X31.9144      Y19.3039      R2.0500    
   X31.6690      Y18.8321      R2.0500    
   X31.3099      Y18.4399      R2.0500    
   X30.8615      Y18.1541      R2.0500    
   X30.3544      Y17.9940      R2.0500    
   X29.8231      Y17.9706      R2.0500    
   X29.3039      Y18.0856      R2.0500    
   X28.8321      Y18.3310      R2.0500    
   X28.4399      Y18.6901      R2.0500    
   X28.1541      Y19.1385      R2.0500    
   X27.9940      Y19.6456      R2.0500    
(Pass: 20)
G1   Z-2.000     F1000
G17 G2   X27.9706      Y20.1769      R2.0500     F2000
   X28.0856      Y20.6961      R2.0500    
   X28.3310      Y21.1679      R2.0500    
   X28.6901      Y21.5601      R2.0500    
   X29.1385      Y21.8459      R2.0500    
   X29.6456      Y22.0060      R2.0500    
   X30.1769      Y22.0294      R2.0500    
   X30.6961      Y21.9144      R2.0500    
   X31.1679      Y21.6690      R2.0500    
   X31.5601      Y21.3099      R2.0500    
   X31.8459      Y20.8615      R2.0500    
   X32.0060      Y20.3544      R2.0500    
   X32.0294      Y19.8231      R2.0500    
   X31.9144      Y19.3039      R2.0500    
   X31.6690      Y18.8321      R2.0500    
   X31.3099      Y18.4399      R2.0500    
   X30.8615      Y18.1541      R2.0500    
   X30.3544      Y17.9940      R2.0500    
   X29.8231      Y17.9706      R2.0500    
   X29.3039      Y18.0856      R2.0500    
   X28.8321      Y18.3310      R2.0500    
   X28.4399      Y18.6901      R2.0500    
   X28.1541      Y19.1385      R2.0500    
   X27.9940      Y19.6456      R2.0500    
(Pass: 21)
G1   Z-2.100     F1000
G17 G2   X27.9706      Y20.1769      R2.0500     F2000
   X28.0856      Y20.6961      R2.0500    
   X28.3310      Y21.1679      R2.0500    
   X28.6901      Y21.5601      R2.0500    
   X29.1385      Y21.8459      R2.0500    
   X29.6456      Y22.0060      R2.0500    
   X30.1769      Y22.0294      R2.0500    
   X30.6961      Y21.9144      R2.0500    
   X31.1679      Y21.6690      R2.0500    
   X31.5601      Y21.3099      R2.0500    
   X31.8459      Y20.8615      R2.0500    
   X32.0060      Y20.3544      R2.0500    
   X32.0294      Y19.8231      R2.0500    
   X31.9144      Y19.3039      R2.0500    
   X31.6690      Y18.8321      R2.0500    
   X31.3099      Y18.4399      R2.0500    
   X30.8615      Y18.1541      R2.0500    
   X30.3544      Y17.9940      R2.0500    
   X29.8231      Y17.9706      R2.0500    
   X29.3039      Y18.0856      R2.0500    
   X28.8321      Y18.3310      R2.0500    
   X28.4399      Y18.6901      R2.0500    
   X28.1541      Y19.1385      R2.0500    
   X27.9940      Y19.6456      R2.0500    
(Pass: 22)
G1   Z-2.200     F1000
G17 G2   X27.9706      Y20.1769      R2.0500     F2000
   X28.0856      Y20.6961      R2.0500    
   X28.3310      Y21.1679      R2.0500    
   X28.6901      Y21.5601      R2.0500    
   X29.1385      Y21.8459      R2.0500    
   X29.6456      Y22.0060      R2.0500    
   X30.1769      Y22.0294      R2.0500    
   X30.6961      Y21.9144      R2.0500    
   X31.1679      Y21.6690      R2.0500    
   X31.5601      Y21.3099      R2.0500    
   X31.8459      Y20.8615      R2.0500    
   X32.0060      Y20.3544      R2.0500    
   X32.0294      Y19.8231      R2.0500    
   X31.9144      Y19.3039      R2.0500    
   X31.6690      Y18.8321      R2.0500    
   X31.3099      Y18.4399      R2.0500    
   X30.8615      Y18.1541      R2.0500    
   X30.3544      Y17.9940      R2.0500    
   X29.8231      Y17.9706      R2.0500    
   X29.3039      Y18.0856      R2.0500    
   X28.8321      Y18.3310      R2.0500    
   X28.4399      Y18.6901      R2.0500    
   X28.1541      Y19.1385      R2.0500    
   X27.9940      Y19.6456      R2.0500    
(Pass: 23)
G1   Z-2.300     F1000
G17 G2   X27.9706      Y20.1769      R2.0500     F2000
   X28.0856      Y20.6961      R2.0500    
   X28.3310      Y21.1679      R2.0500    
   X28.6901      Y21.5601      R2.0500    
   X29.1385      Y21.8459      R2.0500    
   X29.6456      Y22.0060      R2.0500    
   X30.1769      Y22.0294      R2.0500    
   X30.6961      Y21.9144      R2.0500    
   X31.1679      Y21.6690      R2.0500    
   X31.5601      Y21.3099      R2.0500    
   X31.8459      Y20.8615      R2.0500    
   X32.0060      Y20.3544      R2.0500    
   X32.0294      Y19.8231      R2.0500    
   X31.9144      Y19.3039      R2.0500    
   X31.6690      Y18.8321      R2.0500    
   X31.3099      Y18.4399      R2.0500    
   X30.8615      Y18.1541      R2.0500    
   X30.3544      Y17.9940      R2.0500    
   X29.8231      Y17.9706      R2.0500    
   X29.3039      Y18.0856      R2.0500    
   X28.8321      Y18.3310      R2.0500    
   X28.4399      Y18.6901      R2.0500    
   X28.1541      Y19.1385      R2.0500    
   X27.9940      Y19.6456      R2.0500    
(Pass: 24)
G1   Z-2.400     F1000
G17 G2   X27.9706      Y20.1769      R2.0500     F2000
   X28.0856      Y20.6961      R2.0500    
   X28.3310      Y21.1679      R2.0500    
   X28.6901      Y21.5601      R2.0500    
   X29.1385      Y21.8459      R2.0500    
   X29.6456      Y22.0060      R2.0500    
   X30.1769      Y22.0294      R2.0500    
   X30.6961      Y21.9144      R2.0500    
   X31.1679      Y21.6690      R2.0500    
   X31.5601      Y21.3099      R2.0500    
   X31.8459      Y20.8615      R2.0500    
   X32.0060      Y20.3544      R2.0500    
   X32.0294      Y19.8231      R2.0500    
   X31.9144      Y19.3039      R2.0500    
   X31.6690      Y18.8321      R2.0500    
   X31.3099      Y18.4399      R2.0500    
   X30.8615      Y18.1541      R2.0500    
   X30.3544      Y17.9940      R2.0500    
   X29.8231      Y17.9706      R2.0500    
   X29.3039      Y18.0856      R2.0500    
   X28.8321      Y18.3310      R2.0500    
   X28.4399      Y18.6901      R2.0500    
   X28.1541      Y19.1385      R2.0500    
   X27.9940      Y19.6456      R2.0500    
(Pass: 25)
G1   Z-2.500     F1000
G17 G2   X27.9706      Y20.1769      R2.0500     F2000
   X28.0856      Y20.6961      R2.0500    
   X28.3310      Y21.1679      R2.0500    
   X28.6901      Y21.5601      R2.0500    
   X29.1385      Y21.8459      R2.0500    
   X29.6456      Y22.0060      R2.0500    
   X30.1769      Y22.0294      R2.0500    
   X30.6961      Y21.9144      R2.0500    
   X31.1679      Y21.6690      R2.0500    
   X31.5601      Y21.3099      R2.0500    
   X31.8459      Y20.8615      R2.0500    
   X32.0060      Y20.3544      R2.0500    
   X32.0294      Y19.8231      R2.0500    
   X31.9144      Y19.3039      R2.0500    
   X31.6690      Y18.8321      R2.0500    
   X31.3099      Y18.4399      R2.0500    
   X30.8615      Y18.1541      R2.0500    
   X30.3544      Y17.9940      R2.0500    
   X29.8231      Y17.9706      R2.0500    
   X29.3039      Y18.0856      R2.0500    
   X28.8321      Y18.3310      R2.0500    
   X28.4399      Y18.6901      R2.0500    
   X28.1541      Y19.1385      R2.0500    
   X27.9940      Y19.6456      R2.0500    
(Pass: 26)
G1   Z-2.600     F1000
G17 G2   X27.9706      Y20.1769      R2.0500     F2000
   X28.0856      Y20.6961      R2.0500    
   X28.3310      Y21.1679      R2.0500    
   X28.6901      Y21.5601      R2.0500    
   X29.1385      Y21.8459      R2.0500    
   X29.6456      Y22.0060      R2.0500    
   X30.1769      Y22.0294      R2.0500    
   X30.6961      Y21.9144      R2.0500    
   X31.1679      Y21.6690      R2.0500    
   X31.5601      Y21.3099      R2.0500    
   X31.8459      Y20.8615      R2.0500    
   X32.0060      Y20.3544      R2.0500    
   X32.0294      Y19.8231      R2.0500    
   X31.9144      Y19.3039      R2.0500    
   X31.6690      Y18.8321      R2.0500    
   X31.3099      Y18.4399      R2.0500    
   X30.8615      Y18.1541      R2.0500    
   X30.3544      Y17.9940      R2.0500    
   X29.8231      Y17.9706      R2.0500    
   X29.3039      Y18.0856      R2.0500    
   X28.8321      Y18.3310      R2.0500    
   X28.4399      Y18.6901      R2.0500    
   X28.1541      Y19.1385      R2.0500    
   X27.9940      Y19.6456      R2.0500    
(Pass: 27)
G1   Z-2.700     F1000
G17 G2   X27.9706      Y20.1769      R2.0500     F2000
   X28.0856      Y20.6961      R2.0500    
   X28.3310      Y21.1679      R2.0500    
   X28.6901      Y21.5601      R2.0500    
   X29.1385      Y21.8459      R2.0500    
   X29.6456      Y22.0060      R2.0500    
   X30.1769      Y22.0294      R2.0500    
   X30.6961      Y21.9144      R2.0500    
   X31.1679      Y21.6690      R2.0500    
   X31.5601      Y21.3099      R2.0500    
   X31.8459      Y20.8615      R2.0500    
   X32.0060      Y20.3544      R2.0500    
   X32.0294      Y19.8231      R2.0500    
   X31.9144      Y19.3039      R2.0500    
   X31.6690      Y18.8321      R2.0500    
   X31.3099      Y18.4399      R2.0500    
   X30.8615      Y18.1541      R2.0500    
   X30.3544      Y17.9940      R2.0500    
   X29.8231      Y17.9706      R2.0500    
   X29.3039      Y18.0856      R2.0500    
   X28.8321      Y18.3310      R2.0500    
   X28.4399      Y18.6901      R2.0500    
   X28.1541      Y19.1385      R2.0500    
   X27.9940      Y19.6456      R2.0500    
(Pass: 28)
G1   Z-2.800     F1000
G17 G2   X27.9706      Y20.1769      R2.0500     F2000
   X28.0856      Y20.6961      R2.0500    
   X28.3310      Y21.1679      R2.0500    
   X28.6901      Y21.5601      R2.0500    
   X29.1385      Y21.8459      R2.0500    
   X29.6456      Y22.0060      R2.0500    
   X30.1769      Y22.0294      R2.0500    
   X30.6961      Y21.9144      R2.0500    
   X31.1679      Y21.6690      R2.0500    
   X31.5601      Y21.3099      R2.0500    
   X31.8459      Y20.8615      R2.0500    
   X32.0060      Y20.3544      R2.0500    
   X32.0294      Y19.8231      R2.0500    
   X31.9144      Y19.3039      R2.0500    
   X31.6690      Y18.8321      R2.0500    
   X31.3099      Y18.4399      R2.0500    
   X30.8615      Y18.1541      R2.0500    
   X30.3544      Y17.9940      R2.0500    
   X29.8231      Y17.9706      R2.0500    
   X29.3039      Y18.0856      R2.0500    
   X28.8321      Y18.3310      R2.0500    
   X28.4399      Y18.6901      R2.0500    
   X28.1541      Y19.1385      R2.0500    
   X27.9940      Y19.6456      R2.0500    
(Pass: 29)
G1   Z-2.900     F1000
G17 G2   X27.9706      Y20.1769      R2.0500     F2000
   X28.0856      Y20.6961      R2.0500    
   X28.3310      Y21.1679      R2.0500    
   X28.6901      Y21.5601      R2.0500    
   X29.1385      Y21.8459      R2.0500    
   X29.6456      Y22.0060      R2.0500    
   X30.1769      Y22.0294      R2.0500    
   X30.6961      Y21.9144      R2.0500    
   X31.1679      Y21.6690      R2.0500    
   X31.5601      Y21.3099      R2.0500    
   X31.8459      Y20.8615      R2.0500    
   X32.0060      Y20.3544      R2.0500    
   X32.0294      Y19.8231      R2.0500    
   X31.9144      Y19.3039      R2.0500    
   X31.6690      Y18.8321      R2.0500    
   X31.3099      Y18.4399      R2.0500    
   X30.8615      Y18.1541      R2.0500    
   X30.3544      Y17.9940      R2.0500    
   X29.8231      Y17.9706      R2.0500    
   X29.3039      Y18.0856      R2.0500    
   X28.8321      Y18.3310      R2.0500    
   X28.4399      Y18.6901      R2.0500    
   X28.1541      Y19.1385      R2.0500    
   X27.9940      Y19.6456      R2.0500    
(Pass: 30)
G1   Z-3.000     F1000
G17 G2   X27.9706      Y20.1769      R2.0500     F2000
   X28.0856      Y20.6961      R2.0500    
   X28.3310      Y21.1679      R2.0500    
   X28.6901      Y21.5601      R2.0500    
   X29.1385      Y21.8459      R2.0500    
   X29.6456      Y22.0060      R2.0500    
   X30.1769      Y22.0294      R2.0500    
   X30.6961      Y21.9144      R2.0500    
   X31.1679      Y21.6690      R2.0500    
   X31.5601      Y21.3099      R2.0500    
   X31.8459      Y20.8615      R2.0500    
   X32.0060      Y20.3544      R2.0500    
   X32.0294      Y19.8231      R2.0500    
   X31.9144      Y19.3039      R2.0500    
   X31.6690      Y18.8321      R2.0500    
   X31.3099      Y18.4399      R2.0500    
   X30.8615      Y18.1541      R2.0500    
   X30.3544      Y17.9940      R2.0500    
   X29.8231      Y17.9706      R2.0500    
   X29.3039      Y18.0856      R2.0500    
   X28.8321      Y18.3310      R2.0500    
   X28.4399      Y18.6901      R2.0500    
   X28.1541      Y19.1385      R2.0500    
   X27.9940      Y19.6456      R2.0500    
(Pass: 31)
G1   Z-3.100     F1000
G17 G2   X27.9706      Y20.1769      R2.0500     F2000
   X28.0856      Y20.6961      R2.0500    
   X28.3310      Y21.1679      R2.0500    
   X28.6901      Y21.5601      R2.0500    
   X29.1385      Y21.8459      R2.0500    
   X29.6456      Y22.0060      R2.0500    
   X30.1769      Y22.0294      R2.0500    
   X30.6961      Y21.9144      R2.0500    
   X31.1679      Y21.6690      R2.0500    
   X31.5601      Y21.3099      R2.0500    
   X31.8459      Y20.8615      R2.0500    
   X32.0060      Y20.3544      R2.0500    
   X32.0294      Y19.8231      R2.0500    
   X31.9144      Y19.3039      R2.0500    
   X31.6690      Y18.8321      R2.0500    
   X31.3099      Y18.4399      R2.0500    
   X30.8615      Y18.1541      R2.0500    
   X30.3544      Y17.9940      R2.0500    
   X29.8231      Y17.9706      R2.0500    
   X29.3039      Y18.0856      R2.0500    
   X28.8321      Y18.3310      R2.0500    
   X28.4399      Y18.6901      R2.0500    
   X28.1541      Y19.1385      R2.0500    
   X27.9940      Y19.6456      R2.0500    
(Pass: 32)
G1   Z-3.200     F1000
G17 G2   X27.9706      Y20.1769      R2.0500     F2000
   X28.0856      Y20.6961      R2.0500    
   X28.3310      Y21.1679      R2.0500    
   X28.6901      Y21.5601      R2.0500    
   X29.1385      Y21.8459      R2.0500    
   X29.6456      Y22.0060      R2.0500    
   X30.1769      Y22.0294      R2.0500    
   X30.6961      Y21.9144      R2.0500    
   X31.1679      Y21.6690      R2.0500    
   X31.5601      Y21.3099      R2.0500    
   X31.8459      Y20.8615      R2.0500    
   X32.0060      Y20.3544      R2.0500    
   X32.0294      Y19.8231      R2.0500    
   X31.9144      Y19.3039      R2.0500    
   X31.6690      Y18.8321      R2.0500    
   X31.3099      Y18.4399      R2.0500    
   X30.8615      Y18.1541      R2.0500    
   X30.3544      Y17.9940      R2.0500    
   X29.8231      Y17.9706      R2.0500    
   X29.3039      Y18.0856      R2.0500    
   X28.8321      Y18.3310      R2.0500    
   X28.4399      Y18.6901      R2.0500    
   X28.1541      Y19.1385      R2.0500    
   X27.9940      Y19.6456      R2.0500    
(Pass: 33)
G1   Z-3.300     F1000
G17 G2   X27.9706      Y20.1769      R2.0500     F2000
   X28.0856      Y20.6961      R2.0500    
   X28.3310      Y21.1679      R2.0500    
   X28.6901      Y21.5601      R2.0500    
   X29.1385      Y21.8459      R2.0500    
   X29.6456      Y22.0060      R2.0500    
   X30.1769      Y22.0294      R2.0500    
   X30.6961      Y21.9144      R2.0500    
   X31.1679      Y21.6690      R2.0500    
   X31.5601      Y21.3099      R2.0500    
   X31.8459      Y20.8615      R2.0500    
   X32.0060      Y20.3544      R2.0500    
   X32.0294      Y19.8231      R2.0500    
   X31.9144      Y19.3039      R2.0500    
   X31.6690      Y18.8321      R2.0500    
   X31.3099      Y18.4399      R2.0500    
   X30.8615      Y18.1541      R2.0500    
   X30.3544      Y17.9940      R2.0500    
   X29.8231      Y17.9706      R2.0500    
   X29.3039      Y18.0856      R2.0500    
   X28.8321      Y18.3310      R2.0500    
   X28.4399      Y18.6901      R2.0500    
   X28.1541      Y19.1385      R2.0500    
   X27.9940      Y19.6456      R2.0500    
(Pass: 34)
G1   Z-3.400     F1000
G17 G2   X27.9706      Y20.1769      R2.0500     F2000
   X28.0856      Y20.6961      R2.0500    
   X28.3310      Y21.1679      R2.0500    
   X28.6901      Y21.5601      R2.0500    
   X29.1385      Y21.8459      R2.0500    
   X29.6456      Y22.0060      R2.0500    
   X30.1769      Y22.0294      R2.0500    
   X30.6961      Y21.9144      R2.0500    
   X31.1679      Y21.6690      R2.0500    
   X31.5601      Y21.3099      R2.0500    
   X31.8459      Y20.8615      R2.0500    
   X32.0060      Y20.3544      R2.0500    
   X32.0294      Y19.8231      R2.0500    
   X31.9144      Y19.3039      R2.0500    
   X31.6690      Y18.8321      R2.0500    
   X31.3099      Y18.4399      R2.0500    
   X30.8615      Y18.1541      R2.0500    
   X30.3544      Y17.9940      R2.0500    
   X29.8231      Y17.9706      R2.0500    
   X29.3039      Y18.0856      R2.0500    
   X28.8321      Y18.3310      R2.0500    
   X28.4399      Y18.6901      R2.0500    
   X28.1541      Y19.1385      R2.0500    
   X27.9940      Y19.6456      R2.0500    
G0   Z5.000     
G0 X0 Y0 (home)
M05
M30
%
