%
(Generated by SketchUcam {1.2b1})
(File: Router Plates.skp)
(Bit diameter: 2.6mm)
(Feed rate: 2000.0mm/min)
(Plunge Feed rate: 1000.0mm/min)
(Material Thickness: 3.4mm)
(Material length: 600.0mm X width: 300.0mm)
(Overhead Gantry: true)
(Retract feed rate NOT limited to plunge feed rate)
(Multipass enabled, Depth = 0.1mm)
(Optimization is ON)
(www.PhlatBoyz.com)
G90 G21 G49 
M3 S11000
G0   Z5.000     
(Pass: 1)
   X10.000       Y10.000    
(plungebore    depth=3.400         diam=2.600     )
G00   Z1.667     
G01   Z-0.100     F1000
G00   z1.667     
G01   Z-0.200    
G00   z1.667     
G01   Z-0.300    
G00   z1.667     
G01   Z-0.400    
G00   z1.667     
G01   Z-0.500    
G00   z1.667     
G01   Z-0.600    
G00   z1.667     
G01   Z-0.700    
G00   z1.667     
G01   Z-0.800    
G00   z1.667     
G01   Z-0.900    
G00   z1.667     
G01   Z-1.000    
G00   z1.667     
G01   Z-1.100    
G00   z1.667     
G01   Z-1.200    
G00   z1.667     
G01   Z-1.300    
G00   z1.667     
G01   Z-1.400    
G00   z1.667     
G01   Z-1.500    
G00   z1.667     
G01   Z-1.600    
G00   z1.667     
G01   Z-1.700    
G00   z1.667     
G01   Z-1.800    
G00   z1.667     
G01   Z-1.900    
G00   z1.667     
G01   Z-2.000    
G00   z1.667     
G01   Z-2.100    
G00   z1.667     
G01   Z-2.200    
G00   z1.667     
G01   Z-2.300    
G00   z1.667     
G01   Z-2.400    
G00   z1.667     
G01   Z-2.500    
G00   z1.667     
G01   Z-2.600    
G00   z1.667     
G01   Z-2.700    
G00   z1.667     
G01   Z-2.800    
G00   z1.667     
G01   Z-2.900    
G00   z1.667     
G01   Z-3.000    
G00   z1.667     
G01   Z-3.100    
G00   z1.667     
G01   Z-3.200    
G00   z1.667     
G01   Z-3.300    
G00   z1.667     
G01   Z-3.400    
G00   z1.667     
G00   Y10.000        Z5.000     
(plungebore end)
(Group: _diam_5.0mm)
(Pass: 1)
G0   X20.000    
(plungebore    depth=3.400         diam=5.000     )
G00   Z1.667     
G01   Z-0.100     F1000
G00   z1.667     
G01   Z-0.200    
G00   z1.667     
G01   Z-0.300    
G00   z1.667     
G01   Z-0.400    
G00   z1.667     
G01   Z-0.500    
G00   z1.667     
G01   Z-0.600    
G00   z1.667     
G01   Z-0.700    
G00   z1.667     
G01   Z-0.800    
G00   z1.667     
G01   Z-0.900    
G00   z1.667     
G01   Z-1.000    
G00   z1.667     
G01   Z-1.100    
G00   z1.667     
G01   Z-1.200    
G00   z1.667     
G01   Z-1.300    
G00   z1.667     
G01   Z-1.400    
G00   z1.667     
G01   Z-1.500    
G00   z1.667     
G01   Z-1.600    
G00   z1.667     
G01   Z-1.700    
G00   z1.667     
G01   Z-1.800    
G00   z1.667     
G01   Z-1.900    
G00   z1.667     
G01   Z-2.000    
G00   z1.667     
G01   Z-2.100    
G00   z1.667     
G01   Z-2.200    
G00   z1.667     
G01   Z-2.300    
G00   z1.667     
G01   Z-2.400    
G00   z1.667     
G01   Z-2.500    
G00   z1.667     
G01   Z-2.600    
G00   z1.667     
G01   Z-2.700    
G00   z1.667     
G01   Z-2.800    
G00   z1.667     
G01   Z-2.900    
G00   z1.667     
G01   Z-3.000    
G00   z1.667     
G01   Z-3.100    
G00   z1.667     
G01   Z-3.200    
G00   z1.667     
G01   Z-3.300    
G00   z1.667     
G01   Z-3.400    
G00   z1.667     
G00   Y8.8000    
G01    Z0.0000     F2000
G02     X20.0000       Y8.8000        Z-0.1000    I0    J1.2000    
G02     X20.0000       Y8.8000        Z-0.2000    I0    J1.2000    
G02     X20.0000       Y8.8000        Z-0.3000    I0    J1.2000    
G02     X20.0000       Y8.8000        Z-0.4000    I0    J1.2000    
G02     X20.0000       Y8.8000        Z-0.5000    I0    J1.2000    
G02     X20.0000       Y8.8000        Z-0.6000    I0    J1.2000    
G02     X20.0000       Y8.8000        Z-0.7000    I0    J1.2000    
G02     X20.0000       Y8.8000        Z-0.8000    I0    J1.2000    
G02     X20.0000       Y8.8000        Z-0.9000    I0    J1.2000    
G02     X20.0000       Y8.8000        Z-1.0000    I0    J1.2000    
G02     X20.0000       Y8.8000        Z-1.1000    I0    J1.2000    
G02     X20.0000       Y8.8000        Z-1.2000    I0    J1.2000    
G02     X20.0000       Y8.8000        Z-1.3000    I0    J1.2000    
G02     X20.0000       Y8.8000        Z-1.4000    I0    J1.2000    
G02     X20.0000       Y8.8000        Z-1.5000    I0    J1.2000    
G02     X20.0000       Y8.8000        Z-1.6000    I0    J1.2000    
G02     X20.0000       Y8.8000        Z-1.7000    I0    J1.2000    
G02     X20.0000       Y8.8000        Z-1.8000    I0    J1.2000    
G02     X20.0000       Y8.8000        Z-1.9000    I0    J1.2000    
G02     X20.0000       Y8.8000        Z-2.0000    I0    J1.2000    
G02     X20.0000       Y8.8000        Z-2.1000    I0    J1.2000    
G02     X20.0000       Y8.8000        Z-2.2000    I0    J1.2000    
G02     X20.0000       Y8.8000        Z-2.3000    I0    J1.2000    
G02     X20.0000       Y8.8000        Z-2.4000    I0    J1.2000    
G02     X20.0000       Y8.8000        Z-2.5000    I0    J1.2000    
G02     X20.0000       Y8.8000        Z-2.6000    I0    J1.2000    
G02     X20.0000       Y8.8000        Z-2.7000    I0    J1.2000    
G02     X20.0000       Y8.8000        Z-2.8000    I0    J1.2000    
G02     X20.0000       Y8.8000        Z-2.9000    I0    J1.2000    
G02     X20.0000       Y8.8000        Z-3.0000    I0    J1.2000    
G02     X20.0000       Y8.8000        Z-3.4000    I0    J1.2000    
G02     X20.0000       Y8.8000     I0.0    J1.2000    
G00   Y10.000        Z5.000     
(plungebore end)
(Group complete: _diam_5.0mm)
(Group: _diam_7.1mm)
(Pass: 1)
G0   X30.000    
(plungebore    depth=3.400         diam=7.100     )
G00   Z1.667     
G01   Z-0.100     F1000
G00   z1.667     
G01   Z-0.200    
G00   z1.667     
G01   Z-0.300    
G00   z1.667     
G01   Z-0.400    
G00   z1.667     
G01   Z-0.500    
G00   z1.667     
G01   Z-0.600    
G00   z1.667     
G01   Z-0.700    
G00   z1.667     
G01   Z-0.800    
G00   z1.667     
G01   Z-0.900    
G00   z1.667     
G01   Z-1.000    
G00   z1.667     
G01   Z-1.100    
G00   z1.667     
G01   Z-1.200    
G00   z1.667     
G01   Z-1.300    
G00   z1.667     
G01   Z-1.400    
G00   z1.667     
G01   Z-1.500    
G00   z1.667     
G01   Z-1.600    
G00   z1.667     
G01   Z-1.700    
G00   z1.667     
G01   Z-1.800    
G00   z1.667     
G01   Z-1.900    
G00   z1.667     
G01   Z-2.000    
G00   z1.667     
G01   Z-2.100    
G00   z1.667     
G01   Z-2.200    
G00   z1.667     
G01   Z-2.300    
G00   z1.667     
G01   Z-2.400    
G00   z1.667     
G01   Z-2.500    
G00   z1.667     
G01   Z-2.600    
G00   z1.667     
G01   Z-2.700    
G00   z1.667     
G01   Z-2.800    
G00   z1.667     
G01   Z-2.900    
G00   z1.667     
G01   Z-3.000    
G00   z1.667     
G01   Z-3.100    
G00   z1.667     
G01   Z-3.200    
G00   z1.667     
G01   Z-3.300    
G00   z1.667     
G01   Z-3.400    
G00   z1.667     
G00   Y7.7500    
G01    Z0.0000     F2000
G02     X30.0000       Y7.7500        Z-0.1000    I0    J2.2500    
G02     X30.0000       Y7.7500        Z-0.2000    I0    J2.2500    
G02     X30.0000       Y7.7500        Z-0.3000    I0    J2.2500    
G02     X30.0000       Y7.7500        Z-0.4000    I0    J2.2500    
G02     X30.0000       Y7.7500        Z-0.5000    I0    J2.2500    
G02     X30.0000       Y7.7500        Z-0.6000    I0    J2.2500    
G02     X30.0000       Y7.7500        Z-0.7000    I0    J2.2500    
G02     X30.0000       Y7.7500        Z-0.8000    I0    J2.2500    
G02     X30.0000       Y7.7500        Z-0.9000    I0    J2.2500    
G02     X30.0000       Y7.7500        Z-1.0000    I0    J2.2500    
G02     X30.0000       Y7.7500        Z-1.1000    I0    J2.2500    
G02     X30.0000       Y7.7500        Z-1.2000    I0    J2.2500    
G02     X30.0000       Y7.7500        Z-1.3000    I0    J2.2500    
G02     X30.0000       Y7.7500        Z-1.4000    I0    J2.2500    
G02     X30.0000       Y7.7500        Z-1.5000    I0    J2.2500    
G02     X30.0000       Y7.7500        Z-1.6000    I0    J2.2500    
G02     X30.0000       Y7.7500        Z-1.7000    I0    J2.2500    
G02     X30.0000       Y7.7500        Z-1.8000    I0    J2.2500    
G02     X30.0000       Y7.7500        Z-1.9000    I0    J2.2500    
G02     X30.0000       Y7.7500        Z-2.0000    I0    J2.2500    
G02     X30.0000       Y7.7500        Z-2.1000    I0    J2.2500    
G02     X30.0000       Y7.7500        Z-2.2000    I0    J2.2500    
G02     X30.0000       Y7.7500        Z-2.3000    I0    J2.2500    
G02     X30.0000       Y7.7500        Z-2.4000    I0    J2.2500    
G02     X30.0000       Y7.7500        Z-2.5000    I0    J2.2500    
G02     X30.0000       Y7.7500        Z-2.6000    I0    J2.2500    
G02     X30.0000       Y7.7500        Z-2.7000    I0    J2.2500    
G02     X30.0000       Y7.7500        Z-2.8000    I0    J2.2500    
G02     X30.0000       Y7.7500        Z-2.9000    I0    J2.2500    
G02     X30.0000       Y7.7500        Z-3.0000    I0    J2.2500    
G02     X30.0000       Y7.7500        Z-3.4000    I0    J2.2500    
G02     X30.0000       Y7.7500     I0.0    J2.2500    
G00   Y10.000        Z5.000     
(plungebore end)
(Group complete: _diam_7.1mm)
(Pass: 1)
G0   X10.188       Y20.011    
G1   Z-0.100     F1000
G17 G2   X10.1849      Y19.9621      R0.2000     F2000
   X10.1688      Y19.9156      R0.2000    
   X10.1412      Y19.8747      R0.2000    
   X10.1040      Y19.8424      R0.2000    
   X10.0597      Y19.8209      R0.2000    
   X10.0113      Y19.8116      R0.2000    
   X9.9621       Y19.8151      R0.2000    
   X9.9156       Y19.8312      R0.2000    
   X9.8747       Y19.8588      R0.2000    
   X9.8424       Y19.8960      R0.2000    
   X9.8209       Y19.9403      R0.2000    
   X9.8116       Y19.9887      R0.2000    
   X9.8151       Y20.0379      R0.2000    
   X9.8312       Y20.0844      R0.2000    
   X9.8588       Y20.1253      R0.2000    
   X9.8960       Y20.1576      R0.2000    
   X9.9403       Y20.1791      R0.2000    
   X9.9887       Y20.1884      R0.2000    
   X10.0379      Y20.1849      R0.2000    
   X10.0844      Y20.1688      R0.2000    
   X10.1253      Y20.1412      R0.2000    
   X10.1576      Y20.1040      R0.2000    
   X10.1791      Y20.0597      R0.2000    
   X10.1884      Y20.0113      R0.2000    
(Pass: 2)
G1   Z-0.200     F1000
G17 G2   X10.1849      Y19.9621      R0.2000     F2000
   X10.1688      Y19.9156      R0.2000    
   X10.1412      Y19.8747      R0.2000    
   X10.1040      Y19.8424      R0.2000    
   X10.0597      Y19.8209      R0.2000    
   X10.0113      Y19.8116      R0.2000    
   X9.9621       Y19.8151      R0.2000    
   X9.9156       Y19.8312      R0.2000    
   X9.8747       Y19.8588      R0.2000    
   X9.8424       Y19.8960      R0.2000    
   X9.8209       Y19.9403      R0.2000    
   X9.8116       Y19.9887      R0.2000    
   X9.8151       Y20.0379      R0.2000    
   X9.8312       Y20.0844      R0.2000    
   X9.8588       Y20.1253      R0.2000    
   X9.8960       Y20.1576      R0.2000    
   X9.9403       Y20.1791      R0.2000    
   X9.9887       Y20.1884      R0.2000    
   X10.0379      Y20.1849      R0.2000    
   X10.0844      Y20.1688      R0.2000    
   X10.1253      Y20.1412      R0.2000    
   X10.1576      Y20.1040      R0.2000    
   X10.1791      Y20.0597      R0.2000    
   X10.1884      Y20.0113      R0.2000    
(Pass: 3)
G1   Z-0.300     F1000
G17 G2   X10.1849      Y19.9621      R0.2000     F2000
   X10.1688      Y19.9156      R0.2000    
   X10.1412      Y19.8747      R0.2000    
   X10.1040      Y19.8424      R0.2000    
   X10.0597      Y19.8209      R0.2000    
   X10.0113      Y19.8116      R0.2000    
   X9.9621       Y19.8151      R0.2000    
   X9.9156       Y19.8312      R0.2000    
   X9.8747       Y19.8588      R0.2000    
   X9.8424       Y19.8960      R0.2000    
   X9.8209       Y19.9403      R0.2000    
   X9.8116       Y19.9887      R0.2000    
   X9.8151       Y20.0379      R0.2000    
   X9.8312       Y20.0844      R0.2000    
   X9.8588       Y20.1253      R0.2000    
   X9.8960       Y20.1576      R0.2000    
   X9.9403       Y20.1791      R0.2000    
   X9.9887       Y20.1884      R0.2000    
   X10.0379      Y20.1849      R0.2000    
   X10.0844      Y20.1688      R0.2000    
   X10.1253      Y20.1412      R0.2000    
   X10.1576      Y20.1040      R0.2000    
   X10.1791      Y20.0597      R0.2000    
   X10.1884      Y20.0113      R0.2000    
(Pass: 4)
G1   Z-0.400     F1000
G17 G2   X10.1849      Y19.9621      R0.2000     F2000
   X10.1688      Y19.9156      R0.2000    
   X10.1412      Y19.8747      R0.2000    
   X10.1040      Y19.8424      R0.2000    
   X10.0597      Y19.8209      R0.2000    
   X10.0113      Y19.8116      R0.2000    
   X9.9621       Y19.8151      R0.2000    
   X9.9156       Y19.8312      R0.2000    
   X9.8747       Y19.8588      R0.2000    
   X9.8424       Y19.8960      R0.2000    
   X9.8209       Y19.9403      R0.2000    
   X9.8116       Y19.9887      R0.2000    
   X9.8151       Y20.0379      R0.2000    
   X9.8312       Y20.0844      R0.2000    
   X9.8588       Y20.1253      R0.2000    
   X9.8960       Y20.1576      R0.2000    
   X9.9403       Y20.1791      R0.2000    
   X9.9887       Y20.1884      R0.2000    
   X10.0379      Y20.1849      R0.2000    
   X10.0844      Y20.1688      R0.2000    
   X10.1253      Y20.1412      R0.2000    
   X10.1576      Y20.1040      R0.2000    
   X10.1791      Y20.0597      R0.2000    
   X10.1884      Y20.0113      R0.2000    
(Pass: 5)
G1   Z-0.500     F1000
G17 G2   X10.1849      Y19.9621      R0.2000     F2000
   X10.1688      Y19.9156      R0.2000    
   X10.1412      Y19.8747      R0.2000    
   X10.1040      Y19.8424      R0.2000    
   X10.0597      Y19.8209      R0.2000    
   X10.0113      Y19.8116      R0.2000    
   X9.9621       Y19.8151      R0.2000    
   X9.9156       Y19.8312      R0.2000    
   X9.8747       Y19.8588      R0.2000    
   X9.8424       Y19.8960      R0.2000    
   X9.8209       Y19.9403      R0.2000    
   X9.8116       Y19.9887      R0.2000    
   X9.8151       Y20.0379      R0.2000    
   X9.8312       Y20.0844      R0.2000    
   X9.8588       Y20.1253      R0.2000    
   X9.8960       Y20.1576      R0.2000    
   X9.9403       Y20.1791      R0.2000    
   X9.9887       Y20.1884      R0.2000    
   X10.0379      Y20.1849      R0.2000    
   X10.0844      Y20.1688      R0.2000    
   X10.1253      Y20.1412      R0.2000    
   X10.1576      Y20.1040      R0.2000    
   X10.1791      Y20.0597      R0.2000    
   X10.1884      Y20.0113      R0.2000    
(Pass: 6)
G1   Z-0.600     F1000
G17 G2   X10.1849      Y19.9621      R0.2000     F2000
   X10.1688      Y19.9156      R0.2000    
   X10.1412      Y19.8747      R0.2000    
   X10.1040      Y19.8424      R0.2000    
   X10.0597      Y19.8209      R0.2000    
   X10.0113      Y19.8116      R0.2000    
   X9.9621       Y19.8151      R0.2000    
   X9.9156       Y19.8312      R0.2000    
   X9.8747       Y19.8588      R0.2000    
   X9.8424       Y19.8960      R0.2000    
   X9.8209       Y19.9403      R0.2000    
   X9.8116       Y19.9887      R0.2000    
   X9.8151       Y20.0379      R0.2000    
   X9.8312       Y20.0844      R0.2000    
   X9.8588       Y20.1253      R0.2000    
   X9.8960       Y20.1576      R0.2000    
   X9.9403       Y20.1791      R0.2000    
   X9.9887       Y20.1884      R0.2000    
   X10.0379      Y20.1849      R0.2000    
   X10.0844      Y20.1688      R0.2000    
   X10.1253      Y20.1412      R0.2000    
   X10.1576      Y20.1040      R0.2000    
   X10.1791      Y20.0597      R0.2000    
   X10.1884      Y20.0113      R0.2000    
(Pass: 7)
G1   Z-0.700     F1000
G17 G2   X10.1849      Y19.9621      R0.2000     F2000
   X10.1688      Y19.9156      R0.2000    
   X10.1412      Y19.8747      R0.2000    
   X10.1040      Y19.8424      R0.2000    
   X10.0597      Y19.8209      R0.2000    
   X10.0113      Y19.8116      R0.2000    
   X9.9621       Y19.8151      R0.2000    
   X9.9156       Y19.8312      R0.2000    
   X9.8747       Y19.8588      R0.2000    
   X9.8424       Y19.8960      R0.2000    
   X9.8209       Y19.9403      R0.2000    
   X9.8116       Y19.9887      R0.2000    
   X9.8151       Y20.0379      R0.2000    
   X9.8312       Y20.0844      R0.2000    
   X9.8588       Y20.1253      R0.2000    
   X9.8960       Y20.1576      R0.2000    
   X9.9403       Y20.1791      R0.2000    
   X9.9887       Y20.1884      R0.2000    
   X10.0379      Y20.1849      R0.2000    
   X10.0844      Y20.1688      R0.2000    
   X10.1253      Y20.1412      R0.2000    
   X10.1576      Y20.1040      R0.2000    
   X10.1791      Y20.0597      R0.2000    
   X10.1884      Y20.0113      R0.2000    
(Pass: 8)
G1   Z-0.800     F1000
G17 G2   X10.1849      Y19.9621      R0.2000     F2000
   X10.1688      Y19.9156      R0.2000    
   X10.1412      Y19.8747      R0.2000    
   X10.1040      Y19.8424      R0.2000    
   X10.0597      Y19.8209      R0.2000    
   X10.0113      Y19.8116      R0.2000    
   X9.9621       Y19.8151      R0.2000    
   X9.9156       Y19.8312      R0.2000    
   X9.8747       Y19.8588      R0.2000    
   X9.8424       Y19.8960      R0.2000    
   X9.8209       Y19.9403      R0.2000    
   X9.8116       Y19.9887      R0.2000    
   X9.8151       Y20.0379      R0.2000    
   X9.8312       Y20.0844      R0.2000    
   X9.8588       Y20.1253      R0.2000    
   X9.8960       Y20.1576      R0.2000    
   X9.9403       Y20.1791      R0.2000    
   X9.9887       Y20.1884      R0.2000    
   X10.0379      Y20.1849      R0.2000    
   X10.0844      Y20.1688      R0.2000    
   X10.1253      Y20.1412      R0.2000    
   X10.1576      Y20.1040      R0.2000    
   X10.1791      Y20.0597      R0.2000    
   X10.1884      Y20.0113      R0.2000    
(Pass: 9)
G1   Z-0.900     F1000
G17 G2   X10.1849      Y19.9621      R0.2000     F2000
   X10.1688      Y19.9156      R0.2000    
   X10.1412      Y19.8747      R0.2000    
   X10.1040      Y19.8424      R0.2000    
   X10.0597      Y19.8209      R0.2000    
   X10.0113      Y19.8116      R0.2000    
   X9.9621       Y19.8151      R0.2000    
   X9.9156       Y19.8312      R0.2000    
   X9.8747       Y19.8588      R0.2000    
   X9.8424       Y19.8960      R0.2000    
   X9.8209       Y19.9403      R0.2000    
   X9.8116       Y19.9887      R0.2000    
   X9.8151       Y20.0379      R0.2000    
   X9.8312       Y20.0844      R0.2000    
   X9.8588       Y20.1253      R0.2000    
   X9.8960       Y20.1576      R0.2000    
   X9.9403       Y20.1791      R0.2000    
   X9.9887       Y20.1884      R0.2000    
   X10.0379      Y20.1849      R0.2000    
   X10.0844      Y20.1688      R0.2000    
   X10.1253      Y20.1412      R0.2000    
   X10.1576      Y20.1040      R0.2000    
   X10.1791      Y20.0597      R0.2000    
   X10.1884      Y20.0113      R0.2000    
(Pass: 10)
G1   Z-1.000     F1000
G17 G2   X10.1849      Y19.9621      R0.2000     F2000
   X10.1688      Y19.9156      R0.2000    
   X10.1412      Y19.8747      R0.2000    
   X10.1040      Y19.8424      R0.2000    
   X10.0597      Y19.8209      R0.2000    
   X10.0113      Y19.8116      R0.2000    
   X9.9621       Y19.8151      R0.2000    
   X9.9156       Y19.8312      R0.2000    
   X9.8747       Y19.8588      R0.2000    
   X9.8424       Y19.8960      R0.2000    
   X9.8209       Y19.9403      R0.2000    
   X9.8116       Y19.9887      R0.2000    
   X9.8151       Y20.0379      R0.2000    
   X9.8312       Y20.0844      R0.2000    
   X9.8588       Y20.1253      R0.2000    
   X9.8960       Y20.1576      R0.2000    
   X9.9403       Y20.1791      R0.2000    
   X9.9887       Y20.1884      R0.2000    
   X10.0379      Y20.1849      R0.2000    
   X10.0844      Y20.1688      R0.2000    
   X10.1253      Y20.1412      R0.2000    
   X10.1576      Y20.1040      R0.2000    
   X10.1791      Y20.0597      R0.2000    
   X10.1884      Y20.0113      R0.2000    
(Pass: 11)
G1   Z-1.100     F1000
G17 G2   X10.1849      Y19.9621      R0.2000     F2000
   X10.1688      Y19.9156      R0.2000    
   X10.1412      Y19.8747      R0.2000    
   X10.1040      Y19.8424      R0.2000    
   X10.0597      Y19.8209      R0.2000    
   X10.0113      Y19.8116      R0.2000    
   X9.9621       Y19.8151      R0.2000    
   X9.9156       Y19.8312      R0.2000    
   X9.8747       Y19.8588      R0.2000    
   X9.8424       Y19.8960      R0.2000    
   X9.8209       Y19.9403      R0.2000    
   X9.8116       Y19.9887      R0.2000    
   X9.8151       Y20.0379      R0.2000    
   X9.8312       Y20.0844      R0.2000    
   X9.8588       Y20.1253      R0.2000    
   X9.8960       Y20.1576      R0.2000    
   X9.9403       Y20.1791      R0.2000    
   X9.9887       Y20.1884      R0.2000    
   X10.0379      Y20.1849      R0.2000    
   X10.0844      Y20.1688      R0.2000    
   X10.1253      Y20.1412      R0.2000    
   X10.1576      Y20.1040      R0.2000    
   X10.1791      Y20.0597      R0.2000    
   X10.1884      Y20.0113      R0.2000    
(Pass: 12)
G1   Z-1.200     F1000
G17 G2   X10.1849      Y19.9621      R0.2000     F2000
   X10.1688      Y19.9156      R0.2000    
   X10.1412      Y19.8747      R0.2000    
   X10.1040      Y19.8424      R0.2000    
   X10.0597      Y19.8209      R0.2000    
   X10.0113      Y19.8116      R0.2000    
   X9.9621       Y19.8151      R0.2000    
   X9.9156       Y19.8312      R0.2000    
   X9.8747       Y19.8588      R0.2000    
   X9.8424       Y19.8960      R0.2000    
   X9.8209       Y19.9403      R0.2000    
   X9.8116       Y19.9887      R0.2000    
   X9.8151       Y20.0379      R0.2000    
   X9.8312       Y20.0844      R0.2000    
   X9.8588       Y20.1253      R0.2000    
   X9.8960       Y20.1576      R0.2000    
   X9.9403       Y20.1791      R0.2000    
   X9.9887       Y20.1884      R0.2000    
   X10.0379      Y20.1849      R0.2000    
   X10.0844      Y20.1688      R0.2000    
   X10.1253      Y20.1412      R0.2000    
   X10.1576      Y20.1040      R0.2000    
   X10.1791      Y20.0597      R0.2000    
   X10.1884      Y20.0113      R0.2000    
(Pass: 13)
G1   Z-1.300     F1000
G17 G2   X10.1849      Y19.9621      R0.2000     F2000
   X10.1688      Y19.9156      R0.2000    
   X10.1412      Y19.8747      R0.2000    
   X10.1040      Y19.8424      R0.2000    
   X10.0597      Y19.8209      R0.2000    
   X10.0113      Y19.8116      R0.2000    
   X9.9621       Y19.8151      R0.2000    
   X9.9156       Y19.8312      R0.2000    
   X9.8747       Y19.8588      R0.2000    
   X9.8424       Y19.8960      R0.2000    
   X9.8209       Y19.9403      R0.2000    
   X9.8116       Y19.9887      R0.2000    
   X9.8151       Y20.0379      R0.2000    
   X9.8312       Y20.0844      R0.2000    
   X9.8588       Y20.1253      R0.2000    
   X9.8960       Y20.1576      R0.2000    
   X9.9403       Y20.1791      R0.2000    
   X9.9887       Y20.1884      R0.2000    
   X10.0379      Y20.1849      R0.2000    
   X10.0844      Y20.1688      R0.2000    
   X10.1253      Y20.1412      R0.2000    
   X10.1576      Y20.1040      R0.2000    
   X10.1791      Y20.0597      R0.2000    
   X10.1884      Y20.0113      R0.2000    
(Pass: 14)
G1   Z-1.400     F1000
G17 G2   X10.1849      Y19.9621      R0.2000     F2000
   X10.1688      Y19.9156      R0.2000    
   X10.1412      Y19.8747      R0.2000    
   X10.1040      Y19.8424      R0.2000    
   X10.0597      Y19.8209      R0.2000    
   X10.0113      Y19.8116      R0.2000    
   X9.9621       Y19.8151      R0.2000    
   X9.9156       Y19.8312      R0.2000    
   X9.8747       Y19.8588      R0.2000    
   X9.8424       Y19.8960      R0.2000    
   X9.8209       Y19.9403      R0.2000    
   X9.8116       Y19.9887      R0.2000    
   X9.8151       Y20.0379      R0.2000    
   X9.8312       Y20.0844      R0.2000    
   X9.8588       Y20.1253      R0.2000    
   X9.8960       Y20.1576      R0.2000    
   X9.9403       Y20.1791      R0.2000    
   X9.9887       Y20.1884      R0.2000    
   X10.0379      Y20.1849      R0.2000    
   X10.0844      Y20.1688      R0.2000    
   X10.1253      Y20.1412      R0.2000    
   X10.1576      Y20.1040      R0.2000    
   X10.1791      Y20.0597      R0.2000    
   X10.1884      Y20.0113      R0.2000    
(Pass: 15)
G1   Z-1.500     F1000
G17 G2   X10.1849      Y19.9621      R0.2000     F2000
   X10.1688      Y19.9156      R0.2000    
   X10.1412      Y19.8747      R0.2000    
   X10.1040      Y19.8424      R0.2000    
   X10.0597      Y19.8209      R0.2000    
   X10.0113      Y19.8116      R0.2000    
   X9.9621       Y19.8151      R0.2000    
   X9.9156       Y19.8312      R0.2000    
   X9.8747       Y19.8588      R0.2000    
   X9.8424       Y19.8960      R0.2000    
   X9.8209       Y19.9403      R0.2000    
   X9.8116       Y19.9887      R0.2000    
   X9.8151       Y20.0379      R0.2000    
   X9.8312       Y20.0844      R0.2000    
   X9.8588       Y20.1253      R0.2000    
   X9.8960       Y20.1576      R0.2000    
   X9.9403       Y20.1791      R0.2000    
   X9.9887       Y20.1884      R0.2000    
   X10.0379      Y20.1849      R0.2000    
   X10.0844      Y20.1688      R0.2000    
   X10.1253      Y20.1412      R0.2000    
   X10.1576      Y20.1040      R0.2000    
   X10.1791      Y20.0597      R0.2000    
   X10.1884      Y20.0113      R0.2000    
(Pass: 16)
G1   Z-1.600     F1000
G17 G2   X10.1849      Y19.9621      R0.2000     F2000
   X10.1688      Y19.9156      R0.2000    
   X10.1412      Y19.8747      R0.2000    
   X10.1040      Y19.8424      R0.2000    
   X10.0597      Y19.8209      R0.2000    
   X10.0113      Y19.8116      R0.2000    
   X9.9621       Y19.8151      R0.2000    
   X9.9156       Y19.8312      R0.2000    
   X9.8747       Y19.8588      R0.2000    
   X9.8424       Y19.8960      R0.2000    
   X9.8209       Y19.9403      R0.2000    
   X9.8116       Y19.9887      R0.2000    
   X9.8151       Y20.0379      R0.2000    
   X9.8312       Y20.0844      R0.2000    
   X9.8588       Y20.1253      R0.2000    
   X9.8960       Y20.1576      R0.2000    
   X9.9403       Y20.1791      R0.2000    
   X9.9887       Y20.1884      R0.2000    
   X10.0379      Y20.1849      R0.2000    
   X10.0844      Y20.1688      R0.2000    
   X10.1253      Y20.1412      R0.2000    
   X10.1576      Y20.1040      R0.2000    
   X10.1791      Y20.0597      R0.2000    
   X10.1884      Y20.0113      R0.2000    
(Pass: 17)
G1   Z-1.700     F1000
G17 G2   X10.1849      Y19.9621      R0.2000     F2000
   X10.1688      Y19.9156      R0.2000    
   X10.1412      Y19.8747      R0.2000    
   X10.1040      Y19.8424      R0.2000    
   X10.0597      Y19.8209      R0.2000    
   X10.0113      Y19.8116      R0.2000    
   X9.9621       Y19.8151      R0.2000    
   X9.9156       Y19.8312      R0.2000    
   X9.8747       Y19.8588      R0.2000    
   X9.8424       Y19.8960      R0.2000    
   X9.8209       Y19.9403      R0.2000    
   X9.8116       Y19.9887      R0.2000    
   X9.8151       Y20.0379      R0.2000    
   X9.8312       Y20.0844      R0.2000    
   X9.8588       Y20.1253      R0.2000    
   X9.8960       Y20.1576      R0.2000    
   X9.9403       Y20.1791      R0.2000    
   X9.9887       Y20.1884      R0.2000    
   X10.0379      Y20.1849      R0.2000    
   X10.0844      Y20.1688      R0.2000    
   X10.1253      Y20.1412      R0.2000    
   X10.1576      Y20.1040      R0.2000    
   X10.1791      Y20.0597      R0.2000    
   X10.1884      Y20.0113      R0.2000    
(Pass: 18)
G1   Z-1.800     F1000
G17 G2   X10.1849      Y19.9621      R0.2000     F2000
   X10.1688      Y19.9156      R0.2000    
   X10.1412      Y19.8747      R0.2000    
   X10.1040      Y19.8424      R0.2000    
   X10.0597      Y19.8209      R0.2000    
   X10.0113      Y19.8116      R0.2000    
   X9.9621       Y19.8151      R0.2000    
   X9.9156       Y19.8312      R0.2000    
   X9.8747       Y19.8588      R0.2000    
   X9.8424       Y19.8960      R0.2000    
   X9.8209       Y19.9403      R0.2000    
   X9.8116       Y19.9887      R0.2000    
   X9.8151       Y20.0379      R0.2000    
   X9.8312       Y20.0844      R0.2000    
   X9.8588       Y20.1253      R0.2000    
   X9.8960       Y20.1576      R0.2000    
   X9.9403       Y20.1791      R0.2000    
   X9.9887       Y20.1884      R0.2000    
   X10.0379      Y20.1849      R0.2000    
   X10.0844      Y20.1688      R0.2000    
   X10.1253      Y20.1412      R0.2000    
   X10.1576      Y20.1040      R0.2000    
   X10.1791      Y20.0597      R0.2000    
   X10.1884      Y20.0113      R0.2000    
(Pass: 19)
G1   Z-1.900     F1000
G17 G2   X10.1849      Y19.9621      R0.2000     F2000
   X10.1688      Y19.9156      R0.2000    
   X10.1412      Y19.8747      R0.2000    
   X10.1040      Y19.8424      R0.2000    
   X10.0597      Y19.8209      R0.2000    
   X10.0113      Y19.8116      R0.2000    
   X9.9621       Y19.8151      R0.2000    
   X9.9156       Y19.8312      R0.2000    
   X9.8747       Y19.8588      R0.2000    
   X9.8424       Y19.8960      R0.2000    
   X9.8209       Y19.9403      R0.2000    
   X9.8116       Y19.9887      R0.2000    
   X9.8151       Y20.0379      R0.2000    
   X9.8312       Y20.0844      R0.2000    
   X9.8588       Y20.1253      R0.2000    
   X9.8960       Y20.1576      R0.2000    
   X9.9403       Y20.1791      R0.2000    
   X9.9887       Y20.1884      R0.2000    
   X10.0379      Y20.1849      R0.2000    
   X10.0844      Y20.1688      R0.2000    
   X10.1253      Y20.1412      R0.2000    
   X10.1576      Y20.1040      R0.2000    
   X10.1791      Y20.0597      R0.2000    
   X10.1884      Y20.0113      R0.2000    
(Pass: 20)
G1   Z-2.000     F1000
G17 G2   X10.1849      Y19.9621      R0.2000     F2000
   X10.1688      Y19.9156      R0.2000    
   X10.1412      Y19.8747      R0.2000    
   X10.1040      Y19.8424      R0.2000    
   X10.0597      Y19.8209      R0.2000    
   X10.0113      Y19.8116      R0.2000    
   X9.9621       Y19.8151      R0.2000    
   X9.9156       Y19.8312      R0.2000    
   X9.8747       Y19.8588      R0.2000    
   X9.8424       Y19.8960      R0.2000    
   X9.8209       Y19.9403      R0.2000    
   X9.8116       Y19.9887      R0.2000    
   X9.8151       Y20.0379      R0.2000    
   X9.8312       Y20.0844      R0.2000    
   X9.8588       Y20.1253      R0.2000    
   X9.8960       Y20.1576      R0.2000    
   X9.9403       Y20.1791      R0.2000    
   X9.9887       Y20.1884      R0.2000    
   X10.0379      Y20.1849      R0.2000    
   X10.0844      Y20.1688      R0.2000    
   X10.1253      Y20.1412      R0.2000    
   X10.1576      Y20.1040      R0.2000    
   X10.1791      Y20.0597      R0.2000    
   X10.1884      Y20.0113      R0.2000    
(Pass: 21)
G1   Z-2.100     F1000
G17 G2   X10.1849      Y19.9621      R0.2000     F2000
   X10.1688      Y19.9156      R0.2000    
   X10.1412      Y19.8747      R0.2000    
   X10.1040      Y19.8424      R0.2000    
   X10.0597      Y19.8209      R0.2000    
   X10.0113      Y19.8116      R0.2000    
   X9.9621       Y19.8151      R0.2000    
   X9.9156       Y19.8312      R0.2000    
   X9.8747       Y19.8588      R0.2000    
   X9.8424       Y19.8960      R0.2000    
   X9.8209       Y19.9403      R0.2000    
   X9.8116       Y19.9887      R0.2000    
   X9.8151       Y20.0379      R0.2000    
   X9.8312       Y20.0844      R0.2000    
   X9.8588       Y20.1253      R0.2000    
   X9.8960       Y20.1576      R0.2000    
   X9.9403       Y20.1791      R0.2000    
   X9.9887       Y20.1884      R0.2000    
   X10.0379      Y20.1849      R0.2000    
   X10.0844      Y20.1688      R0.2000    
   X10.1253      Y20.1412      R0.2000    
   X10.1576      Y20.1040      R0.2000    
   X10.1791      Y20.0597      R0.2000    
   X10.1884      Y20.0113      R0.2000    
(Pass: 22)
G1   Z-2.200     F1000
G17 G2   X10.1849      Y19.9621      R0.2000     F2000
   X10.1688      Y19.9156      R0.2000    
   X10.1412      Y19.8747      R0.2000    
   X10.1040      Y19.8424      R0.2000    
   X10.0597      Y19.8209      R0.2000    
   X10.0113      Y19.8116      R0.2000    
   X9.9621       Y19.8151      R0.2000    
   X9.9156       Y19.8312      R0.2000    
   X9.8747       Y19.8588      R0.2000    
   X9.8424       Y19.8960      R0.2000    
   X9.8209       Y19.9403      R0.2000    
   X9.8116       Y19.9887      R0.2000    
   X9.8151       Y20.0379      R0.2000    
   X9.8312       Y20.0844      R0.2000    
   X9.8588       Y20.1253      R0.2000    
   X9.8960       Y20.1576      R0.2000    
   X9.9403       Y20.1791      R0.2000    
   X9.9887       Y20.1884      R0.2000    
   X10.0379      Y20.1849      R0.2000    
   X10.0844      Y20.1688      R0.2000    
   X10.1253      Y20.1412      R0.2000    
   X10.1576      Y20.1040      R0.2000    
   X10.1791      Y20.0597      R0.2000    
   X10.1884      Y20.0113      R0.2000    
(Pass: 23)
G1   Z-2.300     F1000
G17 G2   X10.1849      Y19.9621      R0.2000     F2000
   X10.1688      Y19.9156      R0.2000    
   X10.1412      Y19.8747      R0.2000    
   X10.1040      Y19.8424      R0.2000    
   X10.0597      Y19.8209      R0.2000    
   X10.0113      Y19.8116      R0.2000    
   X9.9621       Y19.8151      R0.2000    
   X9.9156       Y19.8312      R0.2000    
   X9.8747       Y19.8588      R0.2000    
   X9.8424       Y19.8960      R0.2000    
   X9.8209       Y19.9403      R0.2000    
   X9.8116       Y19.9887      R0.2000    
   X9.8151       Y20.0379      R0.2000    
   X9.8312       Y20.0844      R0.2000    
   X9.8588       Y20.1253      R0.2000    
   X9.8960       Y20.1576      R0.2000    
   X9.9403       Y20.1791      R0.2000    
   X9.9887       Y20.1884      R0.2000    
   X10.0379      Y20.1849      R0.2000    
   X10.0844      Y20.1688      R0.2000    
   X10.1253      Y20.1412      R0.2000    
   X10.1576      Y20.1040      R0.2000    
   X10.1791      Y20.0597      R0.2000    
   X10.1884      Y20.0113      R0.2000    
(Pass: 24)
G1   Z-2.400     F1000
G17 G2   X10.1849      Y19.9621      R0.2000     F2000
   X10.1688      Y19.9156      R0.2000    
   X10.1412      Y19.8747      R0.2000    
   X10.1040      Y19.8424      R0.2000    
   X10.0597      Y19.8209      R0.2000    
   X10.0113      Y19.8116      R0.2000    
   X9.9621       Y19.8151      R0.2000    
   X9.9156       Y19.8312      R0.2000    
   X9.8747       Y19.8588      R0.2000    
   X9.8424       Y19.8960      R0.2000    
   X9.8209       Y19.9403      R0.2000    
   X9.8116       Y19.9887      R0.2000    
   X9.8151       Y20.0379      R0.2000    
   X9.8312       Y20.0844      R0.2000    
   X9.8588       Y20.1253      R0.2000    
   X9.8960       Y20.1576      R0.2000    
   X9.9403       Y20.1791      R0.2000    
   X9.9887       Y20.1884      R0.2000    
   X10.0379      Y20.1849      R0.2000    
   X10.0844      Y20.1688      R0.2000    
   X10.1253      Y20.1412      R0.2000    
   X10.1576      Y20.1040      R0.2000    
   X10.1791      Y20.0597      R0.2000    
   X10.1884      Y20.0113      R0.2000    
(Pass: 25)
G1   Z-2.500     F1000
G17 G2   X10.1849      Y19.9621      R0.2000     F2000
   X10.1688      Y19.9156      R0.2000    
   X10.1412      Y19.8747      R0.2000    
   X10.1040      Y19.8424      R0.2000    
   X10.0597      Y19.8209      R0.2000    
   X10.0113      Y19.8116      R0.2000    
   X9.9621       Y19.8151      R0.2000    
   X9.9156       Y19.8312      R0.2000    
   X9.8747       Y19.8588      R0.2000    
   X9.8424       Y19.8960      R0.2000    
   X9.8209       Y19.9403      R0.2000    
   X9.8116       Y19.9887      R0.2000    
   X9.8151       Y20.0379      R0.2000    
   X9.8312       Y20.0844      R0.2000    
   X9.8588       Y20.1253      R0.2000    
   X9.8960       Y20.1576      R0.2000    
   X9.9403       Y20.1791      R0.2000    
   X9.9887       Y20.1884      R0.2000    
   X10.0379      Y20.1849      R0.2000    
   X10.0844      Y20.1688      R0.2000    
   X10.1253      Y20.1412      R0.2000    
   X10.1576      Y20.1040      R0.2000    
   X10.1791      Y20.0597      R0.2000    
   X10.1884      Y20.0113      R0.2000    
(Pass: 26)
G1   Z-2.600     F1000
G17 G2   X10.1849      Y19.9621      R0.2000     F2000
   X10.1688      Y19.9156      R0.2000    
   X10.1412      Y19.8747      R0.2000    
   X10.1040      Y19.8424      R0.2000    
   X10.0597      Y19.8209      R0.2000    
   X10.0113      Y19.8116      R0.2000    
   X9.9621       Y19.8151      R0.2000    
   X9.9156       Y19.8312      R0.2000    
   X9.8747       Y19.8588      R0.2000    
   X9.8424       Y19.8960      R0.2000    
   X9.8209       Y19.9403      R0.2000    
   X9.8116       Y19.9887      R0.2000    
   X9.8151       Y20.0379      R0.2000    
   X9.8312       Y20.0844      R0.2000    
   X9.8588       Y20.1253      R0.2000    
   X9.8960       Y20.1576      R0.2000    
   X9.9403       Y20.1791      R0.2000    
   X9.9887       Y20.1884      R0.2000    
   X10.0379      Y20.1849      R0.2000    
   X10.0844      Y20.1688      R0.2000    
   X10.1253      Y20.1412      R0.2000    
   X10.1576      Y20.1040      R0.2000    
   X10.1791      Y20.0597      R0.2000    
   X10.1884      Y20.0113      R0.2000    
(Pass: 27)
G1   Z-2.700     F1000
G17 G2   X10.1849      Y19.9621      R0.2000     F2000
   X10.1688      Y19.9156      R0.2000    
   X10.1412      Y19.8747      R0.2000    
   X10.1040      Y19.8424      R0.2000    
   X10.0597      Y19.8209      R0.2000    
   X10.0113      Y19.8116      R0.2000    
   X9.9621       Y19.8151      R0.2000    
   X9.9156       Y19.8312      R0.2000    
   X9.8747       Y19.8588      R0.2000    
   X9.8424       Y19.8960      R0.2000    
   X9.8209       Y19.9403      R0.2000    
   X9.8116       Y19.9887      R0.2000    
   X9.8151       Y20.0379      R0.2000    
   X9.8312       Y20.0844      R0.2000    
   X9.8588       Y20.1253      R0.2000    
   X9.8960       Y20.1576      R0.2000    
   X9.9403       Y20.1791      R0.2000    
   X9.9887       Y20.1884      R0.2000    
   X10.0379      Y20.1849      R0.2000    
   X10.0844      Y20.1688      R0.2000    
   X10.1253      Y20.1412      R0.2000    
   X10.1576      Y20.1040      R0.2000    
   X10.1791      Y20.0597      R0.2000    
   X10.1884      Y20.0113      R0.2000    
(Pass: 28)
G1   Z-2.800     F1000
G17 G2   X10.1849      Y19.9621      R0.2000     F2000
   X10.1688      Y19.9156      R0.2000    
   X10.1412      Y19.8747      R0.2000    
   X10.1040      Y19.8424      R0.2000    
   X10.0597      Y19.8209      R0.2000    
   X10.0113      Y19.8116      R0.2000    
   X9.9621       Y19.8151      R0.2000    
   X9.9156       Y19.8312      R0.2000    
   X9.8747       Y19.8588      R0.2000    
   X9.8424       Y19.8960      R0.2000    
   X9.8209       Y19.9403      R0.2000    
   X9.8116       Y19.9887      R0.2000    
   X9.8151       Y20.0379      R0.2000    
   X9.8312       Y20.0844      R0.2000    
   X9.8588       Y20.1253      R0.2000    
   X9.8960       Y20.1576      R0.2000    
   X9.9403       Y20.1791      R0.2000    
   X9.9887       Y20.1884      R0.2000    
   X10.0379      Y20.1849      R0.2000    
   X10.0844      Y20.1688      R0.2000    
   X10.1253      Y20.1412      R0.2000    
   X10.1576      Y20.1040      R0.2000    
   X10.1791      Y20.0597      R0.2000    
   X10.1884      Y20.0113      R0.2000    
(Pass: 29)
G1   Z-2.900     F1000
G17 G2   X10.1849      Y19.9621      R0.2000     F2000
   X10.1688      Y19.9156      R0.2000    
   X10.1412      Y19.8747      R0.2000    
   X10.1040      Y19.8424      R0.2000    
   X10.0597      Y19.8209      R0.2000    
   X10.0113      Y19.8116      R0.2000    
   X9.9621       Y19.8151      R0.2000    
   X9.9156       Y19.8312      R0.2000    
   X9.8747       Y19.8588      R0.2000    
   X9.8424       Y19.8960      R0.2000    
   X9.8209       Y19.9403      R0.2000    
   X9.8116       Y19.9887      R0.2000    
   X9.8151       Y20.0379      R0.2000    
   X9.8312       Y20.0844      R0.2000    
   X9.8588       Y20.1253      R0.2000    
   X9.8960       Y20.1576      R0.2000    
   X9.9403       Y20.1791      R0.2000    
   X9.9887       Y20.1884      R0.2000    
   X10.0379      Y20.1849      R0.2000    
   X10.0844      Y20.1688      R0.2000    
   X10.1253      Y20.1412      R0.2000    
   X10.1576      Y20.1040      R0.2000    
   X10.1791      Y20.0597      R0.2000    
   X10.1884      Y20.0113      R0.2000    
(Pass: 30)
G1   Z-3.000     F1000
G17 G2   X10.1849      Y19.9621      R0.2000     F2000
   X10.1688      Y19.9156      R0.2000    
   X10.1412      Y19.8747      R0.2000    
   X10.1040      Y19.8424      R0.2000    
   X10.0597      Y19.8209      R0.2000    
   X10.0113      Y19.8116      R0.2000    
   X9.9621       Y19.8151      R0.2000    
   X9.9156       Y19.8312      R0.2000    
   X9.8747       Y19.8588      R0.2000    
   X9.8424       Y19.8960      R0.2000    
   X9.8209       Y19.9403      R0.2000    
   X9.8116       Y19.9887      R0.2000    
   X9.8151       Y20.0379      R0.2000    
   X9.8312       Y20.0844      R0.2000    
   X9.8588       Y20.1253      R0.2000    
   X9.8960       Y20.1576      R0.2000    
   X9.9403       Y20.1791      R0.2000    
   X9.9887       Y20.1884      R0.2000    
   X10.0379      Y20.1849      R0.2000    
   X10.0844      Y20.1688      R0.2000    
   X10.1253      Y20.1412      R0.2000    
   X10.1576      Y20.1040      R0.2000    
   X10.1791      Y20.0597      R0.2000    
   X10.1884      Y20.0113      R0.2000    
(Pass: 31)
G1   Z-3.100     F1000
G17 G2   X10.1849      Y19.9621      R0.2000     F2000
   X10.1688      Y19.9156      R0.2000    
   X10.1412      Y19.8747      R0.2000    
   X10.1040      Y19.8424      R0.2000    
   X10.0597      Y19.8209      R0.2000    
   X10.0113      Y19.8116      R0.2000    
   X9.9621       Y19.8151      R0.2000    
   X9.9156       Y19.8312      R0.2000    
   X9.8747       Y19.8588      R0.2000    
   X9.8424       Y19.8960      R0.2000    
   X9.8209       Y19.9403      R0.2000    
   X9.8116       Y19.9887      R0.2000    
   X9.8151       Y20.0379      R0.2000    
   X9.8312       Y20.0844      R0.2000    
   X9.8588       Y20.1253      R0.2000    
   X9.8960       Y20.1576      R0.2000    
   X9.9403       Y20.1791      R0.2000    
   X9.9887       Y20.1884      R0.2000    
   X10.0379      Y20.1849      R0.2000    
   X10.0844      Y20.1688      R0.2000    
   X10.1253      Y20.1412      R0.2000    
   X10.1576      Y20.1040      R0.2000    
   X10.1791      Y20.0597      R0.2000    
   X10.1884      Y20.0113      R0.2000    
(Pass: 32)
G1   Z-3.200     F1000
G17 G2   X10.1849      Y19.9621      R0.2000     F2000
   X10.1688      Y19.9156      R0.2000    
   X10.1412      Y19.8747      R0.2000    
   X10.1040      Y19.8424      R0.2000    
   X10.0597      Y19.8209      R0.2000    
   X10.0113      Y19.8116      R0.2000    
   X9.9621       Y19.8151      R0.2000    
   X9.9156       Y19.8312      R0.2000    
   X9.8747       Y19.8588      R0.2000    
   X9.8424       Y19.8960      R0.2000    
   X9.8209       Y19.9403      R0.2000    
   X9.8116       Y19.9887      R0.2000    
   X9.8151       Y20.0379      R0.2000    
   X9.8312       Y20.0844      R0.2000    
   X9.8588       Y20.1253      R0.2000    
   X9.8960       Y20.1576      R0.2000    
   X9.9403       Y20.1791      R0.2000    
   X9.9887       Y20.1884      R0.2000    
   X10.0379      Y20.1849      R0.2000    
   X10.0844      Y20.1688      R0.2000    
   X10.1253      Y20.1412      R0.2000    
   X10.1576      Y20.1040      R0.2000    
   X10.1791      Y20.0597      R0.2000    
   X10.1884      Y20.0113      R0.2000    
(Pass: 33)
G1   Z-3.300     F1000
G17 G2   X10.1849      Y19.9621      R0.2000     F2000
   X10.1688      Y19.9156      R0.2000    
   X10.1412      Y19.8747      R0.2000    
   X10.1040      Y19.8424      R0.2000    
   X10.0597      Y19.8209      R0.2000    
   X10.0113      Y19.8116      R0.2000    
   X9.9621       Y19.8151      R0.2000    
   X9.9156       Y19.8312      R0.2000    
   X9.8747       Y19.8588      R0.2000    
   X9.8424       Y19.8960      R0.2000    
   X9.8209       Y19.9403      R0.2000    
   X9.8116       Y19.9887      R0.2000    
   X9.8151       Y20.0379      R0.2000    
   X9.8312       Y20.0844      R0.2000    
   X9.8588       Y20.1253      R0.2000    
   X9.8960       Y20.1576      R0.2000    
   X9.9403       Y20.1791      R0.2000    
   X9.9887       Y20.1884      R0.2000    
   X10.0379      Y20.1849      R0.2000    
   X10.0844      Y20.1688      R0.2000    
   X10.1253      Y20.1412      R0.2000    
   X10.1576      Y20.1040      R0.2000    
   X10.1791      Y20.0597      R0.2000    
   X10.1884      Y20.0113      R0.2000    
(Pass: 34)
G1   Z-3.400     F1000
G17 G2   X10.1849      Y19.9621      R0.2000     F2000
   X10.1688      Y19.9156      R0.2000    
   X10.1412      Y19.8747      R0.2000    
   X10.1040      Y19.8424      R0.2000    
   X10.0597      Y19.8209      R0.2000    
   X10.0113      Y19.8116      R0.2000    
   X9.9621       Y19.8151      R0.2000    
   X9.9156       Y19.8312      R0.2000    
   X9.8747       Y19.8588      R0.2000    
   X9.8424       Y19.8960      R0.2000    
   X9.8209       Y19.9403      R0.2000    
   X9.8116       Y19.9887      R0.2000    
   X9.8151       Y20.0379      R0.2000    
   X9.8312       Y20.0844      R0.2000    
   X9.8588       Y20.1253      R0.2000    
   X9.8960       Y20.1576      R0.2000    
   X9.9403       Y20.1791      R0.2000    
   X9.9887       Y20.1884      R0.2000    
   X10.0379      Y20.1849      R0.2000    
   X10.0844      Y20.1688      R0.2000    
   X10.1253      Y20.1412      R0.2000    
   X10.1576      Y20.1040      R0.2000    
   X10.1791      Y20.0597      R0.2000    
   X10.1884      Y20.0113      R0.2000    
G0   Z5.000     
(Pass: 1)
   X18.811    
G1   Z-0.100     F1000
G17 G2   X18.8564      Y20.3245      R1.2000     F2000
   X18.9793      Y20.6094      R1.2000    
   X19.1718      Y20.8528      R1.2000    
   X19.4208      Y21.0381      R1.2000    
   X19.7092      Y21.1527      R1.2000    
   X20.0174      Y21.1887      R1.2000    
   X20.3245      Y21.1436      R1.2000    
   X20.6094      Y21.0207      R1.2000    
   X20.8528      Y20.8282      R1.2000    
   X21.0381      Y20.5792      R1.2000    
   X21.1527      Y20.2908      R1.2000    
   X21.1887      Y19.9826      R1.2000    
   X21.1436      Y19.6755      R1.2000    
   X21.0207      Y19.3906      R1.2000    
   X20.8282      Y19.1472      R1.2000    
   X20.5792      Y18.9619      R1.2000    
   X20.2908      Y18.8473      R1.2000    
   X19.9826      Y18.8113      R1.2000    
   X19.6755      Y18.8564      R1.2000    
   X19.3906      Y18.9793      R1.2000    
   X19.1472      Y19.1718      R1.2000    
   X18.9619      Y19.4208      R1.2000    
   X18.8473      Y19.7092      R1.2000    
   X18.8113      Y20.0174      R1.2000    
(Pass: 2)
G1   Z-0.200     F1000
G17 G2   X18.8564      Y20.3245      R1.2000     F2000
   X18.9793      Y20.6094      R1.2000    
   X19.1718      Y20.8528      R1.2000    
   X19.4208      Y21.0381      R1.2000    
   X19.7092      Y21.1527      R1.2000    
   X20.0174      Y21.1887      R1.2000    
   X20.3245      Y21.1436      R1.2000    
   X20.6094      Y21.0207      R1.2000    
   X20.8528      Y20.8282      R1.2000    
   X21.0381      Y20.5792      R1.2000    
   X21.1527      Y20.2908      R1.2000    
   X21.1887      Y19.9826      R1.2000    
   X21.1436      Y19.6755      R1.2000    
   X21.0207      Y19.3906      R1.2000    
   X20.8282      Y19.1472      R1.2000    
   X20.5792      Y18.9619      R1.2000    
   X20.2908      Y18.8473      R1.2000    
   X19.9826      Y18.8113      R1.2000    
   X19.6755      Y18.8564      R1.2000    
   X19.3906      Y18.9793      R1.2000    
   X19.1472      Y19.1718      R1.2000    
   X18.9619      Y19.4208      R1.2000    
   X18.8473      Y19.7092      R1.2000    
   X18.8113      Y20.0174      R1.2000    
(Pass: 3)
G1   Z-0.300     F1000
G17 G2   X18.8564      Y20.3245      R1.2000     F2000
   X18.9793      Y20.6094      R1.2000    
   X19.1718      Y20.8528      R1.2000    
   X19.4208      Y21.0381      R1.2000    
   X19.7092      Y21.1527      R1.2000    
   X20.0174      Y21.1887      R1.2000    
   X20.3245      Y21.1436      R1.2000    
   X20.6094      Y21.0207      R1.2000    
   X20.8528      Y20.8282      R1.2000    
   X21.0381      Y20.5792      R1.2000    
   X21.1527      Y20.2908      R1.2000    
   X21.1887      Y19.9826      R1.2000    
   X21.1436      Y19.6755      R1.2000    
   X21.0207      Y19.3906      R1.2000    
   X20.8282      Y19.1472      R1.2000    
   X20.5792      Y18.9619      R1.2000    
   X20.2908      Y18.8473      R1.2000    
   X19.9826      Y18.8113      R1.2000    
   X19.6755      Y18.8564      R1.2000    
   X19.3906      Y18.9793      R1.2000    
   X19.1472      Y19.1718      R1.2000    
   X18.9619      Y19.4208      R1.2000    
   X18.8473      Y19.7092      R1.2000    
   X18.8113      Y20.0174      R1.2000    
(Pass: 4)
G1   Z-0.400     F1000
G17 G2   X18.8564      Y20.3245      R1.2000     F2000
   X18.9793      Y20.6094      R1.2000    
   X19.1718      Y20.8528      R1.2000    
   X19.4208      Y21.0381      R1.2000    
   X19.7092      Y21.1527      R1.2000    
   X20.0174      Y21.1887      R1.2000    
   X20.3245      Y21.1436      R1.2000    
   X20.6094      Y21.0207      R1.2000    
   X20.8528      Y20.8282      R1.2000    
   X21.0381      Y20.5792      R1.2000    
   X21.1527      Y20.2908      R1.2000    
   X21.1887      Y19.9826      R1.2000    
   X21.1436      Y19.6755      R1.2000    
   X21.0207      Y19.3906      R1.2000    
   X20.8282      Y19.1472      R1.2000    
   X20.5792      Y18.9619      R1.2000    
   X20.2908      Y18.8473      R1.2000    
   X19.9826      Y18.8113      R1.2000    
   X19.6755      Y18.8564      R1.2000    
   X19.3906      Y18.9793      R1.2000    
   X19.1472      Y19.1718      R1.2000    
   X18.9619      Y19.4208      R1.2000    
   X18.8473      Y19.7092      R1.2000    
   X18.8113      Y20.0174      R1.2000    
(Pass: 5)
G1   Z-0.500     F1000
G17 G2   X18.8564      Y20.3245      R1.2000     F2000
   X18.9793      Y20.6094      R1.2000    
   X19.1718      Y20.8528      R1.2000    
   X19.4208      Y21.0381      R1.2000    
   X19.7092      Y21.1527      R1.2000    
   X20.0174      Y21.1887      R1.2000    
   X20.3245      Y21.1436      R1.2000    
   X20.6094      Y21.0207      R1.2000    
   X20.8528      Y20.8282      R1.2000    
   X21.0381      Y20.5792      R1.2000    
   X21.1527      Y20.2908      R1.2000    
   X21.1887      Y19.9826      R1.2000    
   X21.1436      Y19.6755      R1.2000    
   X21.0207      Y19.3906      R1.2000    
   X20.8282      Y19.1472      R1.2000    
   X20.5792      Y18.9619      R1.2000    
   X20.2908      Y18.8473      R1.2000    
   X19.9826      Y18.8113      R1.2000    
   X19.6755      Y18.8564      R1.2000    
   X19.3906      Y18.9793      R1.2000    
   X19.1472      Y19.1718      R1.2000    
   X18.9619      Y19.4208      R1.2000    
   X18.8473      Y19.7092      R1.2000    
   X18.8113      Y20.0174      R1.2000    
(Pass: 6)
G1   Z-0.600     F1000
G17 G2   X18.8564      Y20.3245      R1.2000     F2000
   X18.9793      Y20.6094      R1.2000    
   X19.1718      Y20.8528      R1.2000    
   X19.4208      Y21.0381      R1.2000    
   X19.7092      Y21.1527      R1.2000    
   X20.0174      Y21.1887      R1.2000    
   X20.3245      Y21.1436      R1.2000    
   X20.6094      Y21.0207      R1.2000    
   X20.8528      Y20.8282      R1.2000    
   X21.0381      Y20.5792      R1.2000    
   X21.1527      Y20.2908      R1.2000    
   X21.1887      Y19.9826      R1.2000    
   X21.1436      Y19.6755      R1.2000    
   X21.0207      Y19.3906      R1.2000    
   X20.8282      Y19.1472      R1.2000    
   X20.5792      Y18.9619      R1.2000    
   X20.2908      Y18.8473      R1.2000    
   X19.9826      Y18.8113      R1.2000    
   X19.6755      Y18.8564      R1.2000    
   X19.3906      Y18.9793      R1.2000    
   X19.1472      Y19.1718      R1.2000    
   X18.9619      Y19.4208      R1.2000    
   X18.8473      Y19.7092      R1.2000    
   X18.8113      Y20.0174      R1.2000    
(Pass: 7)
G1   Z-0.700     F1000
G17 G2   X18.8564      Y20.3245      R1.2000     F2000
   X18.9793      Y20.6094      R1.2000    
   X19.1718      Y20.8528      R1.2000    
   X19.4208      Y21.0381      R1.2000    
   X19.7092      Y21.1527      R1.2000    
   X20.0174      Y21.1887      R1.2000    
   X20.3245      Y21.1436      R1.2000    
   X20.6094      Y21.0207      R1.2000    
   X20.8528      Y20.8282      R1.2000    
   X21.0381      Y20.5792      R1.2000    
   X21.1527      Y20.2908      R1.2000    
   X21.1887      Y19.9826      R1.2000    
   X21.1436      Y19.6755      R1.2000    
   X21.0207      Y19.3906      R1.2000    
   X20.8282      Y19.1472      R1.2000    
   X20.5792      Y18.9619      R1.2000    
   X20.2908      Y18.8473      R1.2000    
   X19.9826      Y18.8113      R1.2000    
   X19.6755      Y18.8564      R1.2000    
   X19.3906      Y18.9793      R1.2000    
   X19.1472      Y19.1718      R1.2000    
   X18.9619      Y19.4208      R1.2000    
   X18.8473      Y19.7092      R1.2000    
   X18.8113      Y20.0174      R1.2000    
(Pass: 8)
G1   Z-0.800     F1000
G17 G2   X18.8564      Y20.3245      R1.2000     F2000
   X18.9793      Y20.6094      R1.2000    
   X19.1718      Y20.8528      R1.2000    
   X19.4208      Y21.0381      R1.2000    
   X19.7092      Y21.1527      R1.2000    
   X20.0174      Y21.1887      R1.2000    
   X20.3245      Y21.1436      R1.2000    
   X20.6094      Y21.0207      R1.2000    
   X20.8528      Y20.8282      R1.2000    
   X21.0381      Y20.5792      R1.2000    
   X21.1527      Y20.2908      R1.2000    
   X21.1887      Y19.9826      R1.2000    
   X21.1436      Y19.6755      R1.2000    
   X21.0207      Y19.3906      R1.2000    
   X20.8282      Y19.1472      R1.2000    
   X20.5792      Y18.9619      R1.2000    
   X20.2908      Y18.8473      R1.2000    
   X19.9826      Y18.8113      R1.2000    
   X19.6755      Y18.8564      R1.2000    
   X19.3906      Y18.9793      R1.2000    
   X19.1472      Y19.1718      R1.2000    
   X18.9619      Y19.4208      R1.2000    
   X18.8473      Y19.7092      R1.2000    
   X18.8113      Y20.0174      R1.2000    
(Pass: 9)
G1   Z-0.900     F1000
G17 G2   X18.8564      Y20.3245      R1.2000     F2000
   X18.9793      Y20.6094      R1.2000    
   X19.1718      Y20.8528      R1.2000    
   X19.4208      Y21.0381      R1.2000    
   X19.7092      Y21.1527      R1.2000    
   X20.0174      Y21.1887      R1.2000    
   X20.3245      Y21.1436      R1.2000    
   X20.6094      Y21.0207      R1.2000    
   X20.8528      Y20.8282      R1.2000    
   X21.0381      Y20.5792      R1.2000    
   X21.1527      Y20.2908      R1.2000    
   X21.1887      Y19.9826      R1.2000    
   X21.1436      Y19.6755      R1.2000    
   X21.0207      Y19.3906      R1.2000    
   X20.8282      Y19.1472      R1.2000    
   X20.5792      Y18.9619      R1.2000    
   X20.2908      Y18.8473      R1.2000    
   X19.9826      Y18.8113      R1.2000    
   X19.6755      Y18.8564      R1.2000    
   X19.3906      Y18.9793      R1.2000    
   X19.1472      Y19.1718      R1.2000    
   X18.9619      Y19.4208      R1.2000    
   X18.8473      Y19.7092      R1.2000    
   X18.8113      Y20.0174      R1.2000    
(Pass: 10)
G1   Z-1.000     F1000
G17 G2   X18.8564      Y20.3245      R1.2000     F2000
   X18.9793      Y20.6094      R1.2000    
   X19.1718      Y20.8528      R1.2000    
   X19.4208      Y21.0381      R1.2000    
   X19.7092      Y21.1527      R1.2000    
   X20.0174      Y21.1887      R1.2000    
   X20.3245      Y21.1436      R1.2000    
   X20.6094      Y21.0207      R1.2000    
   X20.8528      Y20.8282      R1.2000    
   X21.0381      Y20.5792      R1.2000    
   X21.1527      Y20.2908      R1.2000    
   X21.1887      Y19.9826      R1.2000    
   X21.1436      Y19.6755      R1.2000    
   X21.0207      Y19.3906      R1.2000    
   X20.8282      Y19.1472      R1.2000    
   X20.5792      Y18.9619      R1.2000    
   X20.2908      Y18.8473      R1.2000    
   X19.9826      Y18.8113      R1.2000    
   X19.6755      Y18.8564      R1.2000    
   X19.3906      Y18.9793      R1.2000    
   X19.1472      Y19.1718      R1.2000    
   X18.9619      Y19.4208      R1.2000    
   X18.8473      Y19.7092      R1.2000    
   X18.8113      Y20.0174      R1.2000    
(Pass: 11)
G1   Z-1.100     F1000
G17 G2   X18.8564      Y20.3245      R1.2000     F2000
   X18.9793      Y20.6094      R1.2000    
   X19.1718      Y20.8528      R1.2000    
   X19.4208      Y21.0381      R1.2000    
   X19.7092      Y21.1527      R1.2000    
   X20.0174      Y21.1887      R1.2000    
   X20.3245      Y21.1436      R1.2000    
   X20.6094      Y21.0207      R1.2000    
   X20.8528      Y20.8282      R1.2000    
   X21.0381      Y20.5792      R1.2000    
   X21.1527      Y20.2908      R1.2000    
   X21.1887      Y19.9826      R1.2000    
   X21.1436      Y19.6755      R1.2000    
   X21.0207      Y19.3906      R1.2000    
   X20.8282      Y19.1472      R1.2000    
   X20.5792      Y18.9619      R1.2000    
   X20.2908      Y18.8473      R1.2000    
   X19.9826      Y18.8113      R1.2000    
   X19.6755      Y18.8564      R1.2000    
   X19.3906      Y18.9793      R1.2000    
   X19.1472      Y19.1718      R1.2000    
   X18.9619      Y19.4208      R1.2000    
   X18.8473      Y19.7092      R1.2000    
   X18.8113      Y20.0174      R1.2000    
(Pass: 12)
G1   Z-1.200     F1000
G17 G2   X18.8564      Y20.3245      R1.2000     F2000
   X18.9793      Y20.6094      R1.2000    
   X19.1718      Y20.8528      R1.2000    
   X19.4208      Y21.0381      R1.2000    
   X19.7092      Y21.1527      R1.2000    
   X20.0174      Y21.1887      R1.2000    
   X20.3245      Y21.1436      R1.2000    
   X20.6094      Y21.0207      R1.2000    
   X20.8528      Y20.8282      R1.2000    
   X21.0381      Y20.5792      R1.2000    
   X21.1527      Y20.2908      R1.2000    
   X21.1887      Y19.9826      R1.2000    
   X21.1436      Y19.6755      R1.2000    
   X21.0207      Y19.3906      R1.2000    
   X20.8282      Y19.1472      R1.2000    
   X20.5792      Y18.9619      R1.2000    
   X20.2908      Y18.8473      R1.2000    
   X19.9826      Y18.8113      R1.2000    
   X19.6755      Y18.8564      R1.2000    
   X19.3906      Y18.9793      R1.2000    
   X19.1472      Y19.1718      R1.2000    
   X18.9619      Y19.4208      R1.2000    
   X18.8473      Y19.7092      R1.2000    
   X18.8113      Y20.0174      R1.2000    
(Pass: 13)
G1   Z-1.300     F1000
G17 G2   X18.8564      Y20.3245      R1.2000     F2000
   X18.9793      Y20.6094      R1.2000    
   X19.1718      Y20.8528      R1.2000    
   X19.4208      Y21.0381      R1.2000    
   X19.7092      Y21.1527      R1.2000    
   X20.0174      Y21.1887      R1.2000    
   X20.3245      Y21.1436      R1.2000    
   X20.6094      Y21.0207      R1.2000    
   X20.8528      Y20.8282      R1.2000    
   X21.0381      Y20.5792      R1.2000    
   X21.1527      Y20.2908      R1.2000    
   X21.1887      Y19.9826      R1.2000    
   X21.1436      Y19.6755      R1.2000    
   X21.0207      Y19.3906      R1.2000    
   X20.8282      Y19.1472      R1.2000    
   X20.5792      Y18.9619      R1.2000    
   X20.2908      Y18.8473      R1.2000    
   X19.9826      Y18.8113      R1.2000    
   X19.6755      Y18.8564      R1.2000    
   X19.3906      Y18.9793      R1.2000    
   X19.1472      Y19.1718      R1.2000    
   X18.9619      Y19.4208      R1.2000    
   X18.8473      Y19.7092      R1.2000    
   X18.8113      Y20.0174      R1.2000    
(Pass: 14)
G1   Z-1.400     F1000
G17 G2   X18.8564      Y20.3245      R1.2000     F2000
   X18.9793      Y20.6094      R1.2000    
   X19.1718      Y20.8528      R1.2000    
   X19.4208      Y21.0381      R1.2000    
   X19.7092      Y21.1527      R1.2000    
   X20.0174      Y21.1887      R1.2000    
   X20.3245      Y21.1436      R1.2000    
   X20.6094      Y21.0207      R1.2000    
   X20.8528      Y20.8282      R1.2000    
   X21.0381      Y20.5792      R1.2000    
   X21.1527      Y20.2908      R1.2000    
   X21.1887      Y19.9826      R1.2000    
   X21.1436      Y19.6755      R1.2000    
   X21.0207      Y19.3906      R1.2000    
   X20.8282      Y19.1472      R1.2000    
   X20.5792      Y18.9619      R1.2000    
   X20.2908      Y18.8473      R1.2000    
   X19.9826      Y18.8113      R1.2000    
   X19.6755      Y18.8564      R1.2000    
   X19.3906      Y18.9793      R1.2000    
   X19.1472      Y19.1718      R1.2000    
   X18.9619      Y19.4208      R1.2000    
   X18.8473      Y19.7092      R1.2000    
   X18.8113      Y20.0174      R1.2000    
(Pass: 15)
G1   Z-1.500     F1000
G17 G2   X18.8564      Y20.3245      R1.2000     F2000
   X18.9793      Y20.6094      R1.2000    
   X19.1718      Y20.8528      R1.2000    
   X19.4208      Y21.0381      R1.2000    
   X19.7092      Y21.1527      R1.2000    
   X20.0174      Y21.1887      R1.2000    
   X20.3245      Y21.1436      R1.2000    
   X20.6094      Y21.0207      R1.2000    
   X20.8528      Y20.8282      R1.2000    
   X21.0381      Y20.5792      R1.2000    
   X21.1527      Y20.2908      R1.2000    
   X21.1887      Y19.9826      R1.2000    
   X21.1436      Y19.6755      R1.2000    
   X21.0207      Y19.3906      R1.2000    
   X20.8282      Y19.1472      R1.2000    
   X20.5792      Y18.9619      R1.2000    
   X20.2908      Y18.8473      R1.2000    
   X19.9826      Y18.8113      R1.2000    
   X19.6755      Y18.8564      R1.2000    
   X19.3906      Y18.9793      R1.2000    
   X19.1472      Y19.1718      R1.2000    
   X18.9619      Y19.4208      R1.2000    
   X18.8473      Y19.7092      R1.2000    
   X18.8113      Y20.0174      R1.2000    
(Pass: 16)
G1   Z-1.600     F1000
G17 G2   X18.8564      Y20.3245      R1.2000     F2000
   X18.9793      Y20.6094      R1.2000    
   X19.1718      Y20.8528      R1.2000    
   X19.4208      Y21.0381      R1.2000    
   X19.7092      Y21.1527      R1.2000    
   X20.0174      Y21.1887      R1.2000    
   X20.3245      Y21.1436      R1.2000    
   X20.6094      Y21.0207      R1.2000    
   X20.8528      Y20.8282      R1.2000    
   X21.0381      Y20.5792      R1.2000    
   X21.1527      Y20.2908      R1.2000    
   X21.1887      Y19.9826      R1.2000    
   X21.1436      Y19.6755      R1.2000    
   X21.0207      Y19.3906      R1.2000    
   X20.8282      Y19.1472      R1.2000    
   X20.5792      Y18.9619      R1.2000    
   X20.2908      Y18.8473      R1.2000    
   X19.9826      Y18.8113      R1.2000    
   X19.6755      Y18.8564      R1.2000    
   X19.3906      Y18.9793      R1.2000    
   X19.1472      Y19.1718      R1.2000    
   X18.9619      Y19.4208      R1.2000    
   X18.8473      Y19.7092      R1.2000    
   X18.8113      Y20.0174      R1.2000    
(Pass: 17)
G1   Z-1.700     F1000
G17 G2   X18.8564      Y20.3245      R1.2000     F2000
   X18.9793      Y20.6094      R1.2000    
   X19.1718      Y20.8528      R1.2000    
   X19.4208      Y21.0381      R1.2000    
   X19.7092      Y21.1527      R1.2000    
   X20.0174      Y21.1887      R1.2000    
   X20.3245      Y21.1436      R1.2000    
   X20.6094      Y21.0207      R1.2000    
   X20.8528      Y20.8282      R1.2000    
   X21.0381      Y20.5792      R1.2000    
   X21.1527      Y20.2908      R1.2000    
   X21.1887      Y19.9826      R1.2000    
   X21.1436      Y19.6755      R1.2000    
   X21.0207      Y19.3906      R1.2000    
   X20.8282      Y19.1472      R1.2000    
   X20.5792      Y18.9619      R1.2000    
   X20.2908      Y18.8473      R1.2000    
   X19.9826      Y18.8113      R1.2000    
   X19.6755      Y18.8564      R1.2000    
   X19.3906      Y18.9793      R1.2000    
   X19.1472      Y19.1718      R1.2000    
   X18.9619      Y19.4208      R1.2000    
   X18.8473      Y19.7092      R1.2000    
   X18.8113      Y20.0174      R1.2000    
(Pass: 18)
G1   Z-1.800     F1000
G17 G2   X18.8564      Y20.3245      R1.2000     F2000
   X18.9793      Y20.6094      R1.2000    
   X19.1718      Y20.8528      R1.2000    
   X19.4208      Y21.0381      R1.2000    
   X19.7092      Y21.1527      R1.2000    
   X20.0174      Y21.1887      R1.2000    
   X20.3245      Y21.1436      R1.2000    
   X20.6094      Y21.0207      R1.2000    
   X20.8528      Y20.8282      R1.2000    
   X21.0381      Y20.5792      R1.2000    
   X21.1527      Y20.2908      R1.2000    
   X21.1887      Y19.9826      R1.2000    
   X21.1436      Y19.6755      R1.2000    
   X21.0207      Y19.3906      R1.2000    
   X20.8282      Y19.1472      R1.2000    
   X20.5792      Y18.9619      R1.2000    
   X20.2908      Y18.8473      R1.2000    
   X19.9826      Y18.8113      R1.2000    
   X19.6755      Y18.8564      R1.2000    
   X19.3906      Y18.9793      R1.2000    
   X19.1472      Y19.1718      R1.2000    
   X18.9619      Y19.4208      R1.2000    
   X18.8473      Y19.7092      R1.2000    
   X18.8113      Y20.0174      R1.2000    
(Pass: 19)
G1   Z-1.900     F1000
G17 G2   X18.8564      Y20.3245      R1.2000     F2000
   X18.9793      Y20.6094      R1.2000    
   X19.1718      Y20.8528      R1.2000    
   X19.4208      Y21.0381      R1.2000    
   X19.7092      Y21.1527      R1.2000    
   X20.0174      Y21.1887      R1.2000    
   X20.3245      Y21.1436      R1.2000    
   X20.6094      Y21.0207      R1.2000    
   X20.8528      Y20.8282      R1.2000    
   X21.0381      Y20.5792      R1.2000    
   X21.1527      Y20.2908      R1.2000    
   X21.1887      Y19.9826      R1.2000    
   X21.1436      Y19.6755      R1.2000    
   X21.0207      Y19.3906      R1.2000    
   X20.8282      Y19.1472      R1.2000    
   X20.5792      Y18.9619      R1.2000    
   X20.2908      Y18.8473      R1.2000    
   X19.9826      Y18.8113      R1.2000    
   X19.6755      Y18.8564      R1.2000    
   X19.3906      Y18.9793      R1.2000    
   X19.1472      Y19.1718      R1.2000    
   X18.9619      Y19.4208      R1.2000    
   X18.8473      Y19.7092      R1.2000    
   X18.8113      Y20.0174      R1.2000    
(Pass: 20)
G1   Z-2.000     F1000
G17 G2   X18.8564      Y20.3245      R1.2000     F2000
   X18.9793      Y20.6094      R1.2000    
   X19.1718      Y20.8528      R1.2000    
   X19.4208      Y21.0381      R1.2000    
   X19.7092      Y21.1527      R1.2000    
   X20.0174      Y21.1887      R1.2000    
   X20.3245      Y21.1436      R1.2000    
   X20.6094      Y21.0207      R1.2000    
   X20.8528      Y20.8282      R1.2000    
   X21.0381      Y20.5792      R1.2000    
   X21.1527      Y20.2908      R1.2000    
   X21.1887      Y19.9826      R1.2000    
   X21.1436      Y19.6755      R1.2000    
   X21.0207      Y19.3906      R1.2000    
   X20.8282      Y19.1472      R1.2000    
   X20.5792      Y18.9619      R1.2000    
   X20.2908      Y18.8473      R1.2000    
   X19.9826      Y18.8113      R1.2000    
   X19.6755      Y18.8564      R1.2000    
   X19.3906      Y18.9793      R1.2000    
   X19.1472      Y19.1718      R1.2000    
   X18.9619      Y19.4208      R1.2000    
   X18.8473      Y19.7092      R1.2000    
   X18.8113      Y20.0174      R1.2000    
(Pass: 21)
G1   Z-2.100     F1000
G17 G2   X18.8564      Y20.3245      R1.2000     F2000
   X18.9793      Y20.6094      R1.2000    
   X19.1718      Y20.8528      R1.2000    
   X19.4208      Y21.0381      R1.2000    
   X19.7092      Y21.1527      R1.2000    
   X20.0174      Y21.1887      R1.2000    
   X20.3245      Y21.1436      R1.2000    
   X20.6094      Y21.0207      R1.2000    
   X20.8528      Y20.8282      R1.2000    
   X21.0381      Y20.5792      R1.2000    
   X21.1527      Y20.2908      R1.2000    
   X21.1887      Y19.9826      R1.2000    
   X21.1436      Y19.6755      R1.2000    
   X21.0207      Y19.3906      R1.2000    
   X20.8282      Y19.1472      R1.2000    
   X20.5792      Y18.9619      R1.2000    
   X20.2908      Y18.8473      R1.2000    
   X19.9826      Y18.8113      R1.2000    
   X19.6755      Y18.8564      R1.2000    
   X19.3906      Y18.9793      R1.2000    
   X19.1472      Y19.1718      R1.2000    
   X18.9619      Y19.4208      R1.2000    
   X18.8473      Y19.7092      R1.2000    
   X18.8113      Y20.0174      R1.2000    
(Pass: 22)
G1   Z-2.200     F1000
G17 G2   X18.8564      Y20.3245      R1.2000     F2000
   X18.9793      Y20.6094      R1.2000    
   X19.1718      Y20.8528      R1.2000    
   X19.4208      Y21.0381      R1.2000    
   X19.7092      Y21.1527      R1.2000    
   X20.0174      Y21.1887      R1.2000    
   X20.3245      Y21.1436      R1.2000    
   X20.6094      Y21.0207      R1.2000    
   X20.8528      Y20.8282      R1.2000    
   X21.0381      Y20.5792      R1.2000    
   X21.1527      Y20.2908      R1.2000    
   X21.1887      Y19.9826      R1.2000    
   X21.1436      Y19.6755      R1.2000    
   X21.0207      Y19.3906      R1.2000    
   X20.8282      Y19.1472      R1.2000    
   X20.5792      Y18.9619      R1.2000    
   X20.2908      Y18.8473      R1.2000    
   X19.9826      Y18.8113      R1.2000    
   X19.6755      Y18.8564      R1.2000    
   X19.3906      Y18.9793      R1.2000    
   X19.1472      Y19.1718      R1.2000    
   X18.9619      Y19.4208      R1.2000    
   X18.8473      Y19.7092      R1.2000    
   X18.8113      Y20.0174      R1.2000    
(Pass: 23)
G1   Z-2.300     F1000
G17 G2   X18.8564      Y20.3245      R1.2000     F2000
   X18.9793      Y20.6094      R1.2000    
   X19.1718      Y20.8528      R1.2000    
   X19.4208      Y21.0381      R1.2000    
   X19.7092      Y21.1527      R1.2000    
   X20.0174      Y21.1887      R1.2000    
   X20.3245      Y21.1436      R1.2000    
   X20.6094      Y21.0207      R1.2000    
   X20.8528      Y20.8282      R1.2000    
   X21.0381      Y20.5792      R1.2000    
   X21.1527      Y20.2908      R1.2000    
   X21.1887      Y19.9826      R1.2000    
   X21.1436      Y19.6755      R1.2000    
   X21.0207      Y19.3906      R1.2000    
   X20.8282      Y19.1472      R1.2000    
   X20.5792      Y18.9619      R1.2000    
   X20.2908      Y18.8473      R1.2000    
   X19.9826      Y18.8113      R1.2000    
   X19.6755      Y18.8564      R1.2000    
   X19.3906      Y18.9793      R1.2000    
   X19.1472      Y19.1718      R1.2000    
   X18.9619      Y19.4208      R1.2000    
   X18.8473      Y19.7092      R1.2000    
   X18.8113      Y20.0174      R1.2000    
(Pass: 24)
G1   Z-2.400     F1000
G17 G2   X18.8564      Y20.3245      R1.2000     F2000
   X18.9793      Y20.6094      R1.2000    
   X19.1718      Y20.8528      R1.2000    
   X19.4208      Y21.0381      R1.2000    
   X19.7092      Y21.1527      R1.2000    
   X20.0174      Y21.1887      R1.2000    
   X20.3245      Y21.1436      R1.2000    
   X20.6094      Y21.0207      R1.2000    
   X20.8528      Y20.8282      R1.2000    
   X21.0381      Y20.5792      R1.2000    
   X21.1527      Y20.2908      R1.2000    
   X21.1887      Y19.9826      R1.2000    
   X21.1436      Y19.6755      R1.2000    
   X21.0207      Y19.3906      R1.2000    
   X20.8282      Y19.1472      R1.2000    
   X20.5792      Y18.9619      R1.2000    
   X20.2908      Y18.8473      R1.2000    
   X19.9826      Y18.8113      R1.2000    
   X19.6755      Y18.8564      R1.2000    
   X19.3906      Y18.9793      R1.2000    
   X19.1472      Y19.1718      R1.2000    
   X18.9619      Y19.4208      R1.2000    
   X18.8473      Y19.7092      R1.2000    
   X18.8113      Y20.0174      R1.2000    
(Pass: 25)
G1   Z-2.500     F1000
G17 G2   X18.8564      Y20.3245      R1.2000     F2000
   X18.9793      Y20.6094      R1.2000    
   X19.1718      Y20.8528      R1.2000    
   X19.4208      Y21.0381      R1.2000    
   X19.7092      Y21.1527      R1.2000    
   X20.0174      Y21.1887      R1.2000    
   X20.3245      Y21.1436      R1.2000    
   X20.6094      Y21.0207      R1.2000    
   X20.8528      Y20.8282      R1.2000    
   X21.0381      Y20.5792      R1.2000    
   X21.1527      Y20.2908      R1.2000    
   X21.1887      Y19.9826      R1.2000    
   X21.1436      Y19.6755      R1.2000    
   X21.0207      Y19.3906      R1.2000    
   X20.8282      Y19.1472      R1.2000    
   X20.5792      Y18.9619      R1.2000    
   X20.2908      Y18.8473      R1.2000    
   X19.9826      Y18.8113      R1.2000    
   X19.6755      Y18.8564      R1.2000    
   X19.3906      Y18.9793      R1.2000    
   X19.1472      Y19.1718      R1.2000    
   X18.9619      Y19.4208      R1.2000    
   X18.8473      Y19.7092      R1.2000    
   X18.8113      Y20.0174      R1.2000    
(Pass: 26)
G1   Z-2.600     F1000
G17 G2   X18.8564      Y20.3245      R1.2000     F2000
   X18.9793      Y20.6094      R1.2000    
   X19.1718      Y20.8528      R1.2000    
   X19.4208      Y21.0381      R1.2000    
   X19.7092      Y21.1527      R1.2000    
   X20.0174      Y21.1887      R1.2000    
   X20.3245      Y21.1436      R1.2000    
   X20.6094      Y21.0207      R1.2000    
   X20.8528      Y20.8282      R1.2000    
   X21.0381      Y20.5792      R1.2000    
   X21.1527      Y20.2908      R1.2000    
   X21.1887      Y19.9826      R1.2000    
   X21.1436      Y19.6755      R1.2000    
   X21.0207      Y19.3906      R1.2000    
   X20.8282      Y19.1472      R1.2000    
   X20.5792      Y18.9619      R1.2000    
   X20.2908      Y18.8473      R1.2000    
   X19.9826      Y18.8113      R1.2000    
   X19.6755      Y18.8564      R1.2000    
   X19.3906      Y18.9793      R1.2000    
   X19.1472      Y19.1718      R1.2000    
   X18.9619      Y19.4208      R1.2000    
   X18.8473      Y19.7092      R1.2000    
   X18.8113      Y20.0174      R1.2000    
(Pass: 27)
G1   Z-2.700     F1000
G17 G2   X18.8564      Y20.3245      R1.2000     F2000
   X18.9793      Y20.6094      R1.2000    
   X19.1718      Y20.8528      R1.2000    
   X19.4208      Y21.0381      R1.2000    
   X19.7092      Y21.1527      R1.2000    
   X20.0174      Y21.1887      R1.2000    
   X20.3245      Y21.1436      R1.2000    
   X20.6094      Y21.0207      R1.2000    
   X20.8528      Y20.8282      R1.2000    
   X21.0381      Y20.5792      R1.2000    
   X21.1527      Y20.2908      R1.2000    
   X21.1887      Y19.9826      R1.2000    
   X21.1436      Y19.6755      R1.2000    
   X21.0207      Y19.3906      R1.2000    
   X20.8282      Y19.1472      R1.2000    
   X20.5792      Y18.9619      R1.2000    
   X20.2908      Y18.8473      R1.2000    
   X19.9826      Y18.8113      R1.2000    
   X19.6755      Y18.8564      R1.2000    
   X19.3906      Y18.9793      R1.2000    
   X19.1472      Y19.1718      R1.2000    
   X18.9619      Y19.4208      R1.2000    
   X18.8473      Y19.7092      R1.2000    
   X18.8113      Y20.0174      R1.2000    
(Pass: 28)
G1   Z-2.800     F1000
G17 G2   X18.8564      Y20.3245      R1.2000     F2000
   X18.9793      Y20.6094      R1.2000    
   X19.1718      Y20.8528      R1.2000    
   X19.4208      Y21.0381      R1.2000    
   X19.7092      Y21.1527      R1.2000    
   X20.0174      Y21.1887      R1.2000    
   X20.3245      Y21.1436      R1.2000    
   X20.6094      Y21.0207      R1.2000    
   X20.8528      Y20.8282      R1.2000    
   X21.0381      Y20.5792      R1.2000    
   X21.1527      Y20.2908      R1.2000    
   X21.1887      Y19.9826      R1.2000    
   X21.1436      Y19.6755      R1.2000    
   X21.0207      Y19.3906      R1.2000    
   X20.8282      Y19.1472      R1.2000    
   X20.5792      Y18.9619      R1.2000    
   X20.2908      Y18.8473      R1.2000    
   X19.9826      Y18.8113      R1.2000    
   X19.6755      Y18.8564      R1.2000    
   X19.3906      Y18.9793      R1.2000    
   X19.1472      Y19.1718      R1.2000    
   X18.9619      Y19.4208      R1.2000    
   X18.8473      Y19.7092      R1.2000    
   X18.8113      Y20.0174      R1.2000    
(Pass: 29)
G1   Z-2.900     F1000
G17 G2   X18.8564      Y20.3245      R1.2000     F2000
   X18.9793      Y20.6094      R1.2000    
   X19.1718      Y20.8528      R1.2000    
   X19.4208      Y21.0381      R1.2000    
   X19.7092      Y21.1527      R1.2000    
   X20.0174      Y21.1887      R1.2000    
   X20.3245      Y21.1436      R1.2000    
   X20.6094      Y21.0207      R1.2000    
   X20.8528      Y20.8282      R1.2000    
   X21.0381      Y20.5792      R1.2000    
   X21.1527      Y20.2908      R1.2000    
   X21.1887      Y19.9826      R1.2000    
   X21.1436      Y19.6755      R1.2000    
   X21.0207      Y19.3906      R1.2000    
   X20.8282      Y19.1472      R1.2000    
   X20.5792      Y18.9619      R1.2000    
   X20.2908      Y18.8473      R1.2000    
   X19.9826      Y18.8113      R1.2000    
   X19.6755      Y18.8564      R1.2000    
   X19.3906      Y18.9793      R1.2000    
   X19.1472      Y19.1718      R1.2000    
   X18.9619      Y19.4208      R1.2000    
   X18.8473      Y19.7092      R1.2000    
   X18.8113      Y20.0174      R1.2000    
(Pass: 30)
G1   Z-3.000     F1000
G17 G2   X18.8564      Y20.3245      R1.2000     F2000
   X18.9793      Y20.6094      R1.2000    
   X19.1718      Y20.8528      R1.2000    
   X19.4208      Y21.0381      R1.2000    
   X19.7092      Y21.1527      R1.2000    
   X20.0174      Y21.1887      R1.2000    
   X20.3245      Y21.1436      R1.2000    
   X20.6094      Y21.0207      R1.2000    
   X20.8528      Y20.8282      R1.2000    
   X21.0381      Y20.5792      R1.2000    
   X21.1527      Y20.2908      R1.2000    
   X21.1887      Y19.9826      R1.2000    
   X21.1436      Y19.6755      R1.2000    
   X21.0207      Y19.3906      R1.2000    
   X20.8282      Y19.1472      R1.2000    
   X20.5792      Y18.9619      R1.2000    
   X20.2908      Y18.8473      R1.2000    
   X19.9826      Y18.8113      R1.2000    
   X19.6755      Y18.8564      R1.2000    
   X19.3906      Y18.9793      R1.2000    
   X19.1472      Y19.1718      R1.2000    
   X18.9619      Y19.4208      R1.2000    
   X18.8473      Y19.7092      R1.2000    
   X18.8113      Y20.0174      R1.2000    
(Pass: 31)
G1   Z-3.100     F1000
G17 G2   X18.8564      Y20.3245      R1.2000     F2000
   X18.9793      Y20.6094      R1.2000    
   X19.1718      Y20.8528      R1.2000    
   X19.4208      Y21.0381      R1.2000    
   X19.7092      Y21.1527      R1.2000    
   X20.0174      Y21.1887      R1.2000    
   X20.3245      Y21.1436      R1.2000    
   X20.6094      Y21.0207      R1.2000    
   X20.8528      Y20.8282      R1.2000    
   X21.0381      Y20.5792      R1.2000    
   X21.1527      Y20.2908      R1.2000    
   X21.1887      Y19.9826      R1.2000    
   X21.1436      Y19.6755      R1.2000    
   X21.0207      Y19.3906      R1.2000    
   X20.8282      Y19.1472      R1.2000    
   X20.5792      Y18.9619      R1.2000    
   X20.2908      Y18.8473      R1.2000    
   X19.9826      Y18.8113      R1.2000    
   X19.6755      Y18.8564      R1.2000    
   X19.3906      Y18.9793      R1.2000    
   X19.1472      Y19.1718      R1.2000    
   X18.9619      Y19.4208      R1.2000    
   X18.8473      Y19.7092      R1.2000    
   X18.8113      Y20.0174      R1.2000    
(Pass: 32)
G1   Z-3.200     F1000
G17 G2   X18.8564      Y20.3245      R1.2000     F2000
   X18.9793      Y20.6094      R1.2000    
   X19.1718      Y20.8528      R1.2000    
   X19.4208      Y21.0381      R1.2000    
   X19.7092      Y21.1527      R1.2000    
   X20.0174      Y21.1887      R1.2000    
   X20.3245      Y21.1436      R1.2000    
   X20.6094      Y21.0207      R1.2000    
   X20.8528      Y20.8282      R1.2000    
   X21.0381      Y20.5792      R1.2000    
   X21.1527      Y20.2908      R1.2000    
   X21.1887      Y19.9826      R1.2000    
   X21.1436      Y19.6755      R1.2000    
   X21.0207      Y19.3906      R1.2000    
   X20.8282      Y19.1472      R1.2000    
   X20.5792      Y18.9619      R1.2000    
   X20.2908      Y18.8473      R1.2000    
   X19.9826      Y18.8113      R1.2000    
   X19.6755      Y18.8564      R1.2000    
   X19.3906      Y18.9793      R1.2000    
   X19.1472      Y19.1718      R1.2000    
   X18.9619      Y19.4208      R1.2000    
   X18.8473      Y19.7092      R1.2000    
   X18.8113      Y20.0174      R1.2000    
(Pass: 33)
G1   Z-3.300     F1000
G17 G2   X18.8564      Y20.3245      R1.2000     F2000
   X18.9793      Y20.6094      R1.2000    
   X19.1718      Y20.8528      R1.2000    
   X19.4208      Y21.0381      R1.2000    
   X19.7092      Y21.1527      R1.2000    
   X20.0174      Y21.1887      R1.2000    
   X20.3245      Y21.1436      R1.2000    
   X20.6094      Y21.0207      R1.2000    
   X20.8528      Y20.8282      R1.2000    
   X21.0381      Y20.5792      R1.2000    
   X21.1527      Y20.2908      R1.2000    
   X21.1887      Y19.9826      R1.2000    
   X21.1436      Y19.6755      R1.2000    
   X21.0207      Y19.3906      R1.2000    
   X20.8282      Y19.1472      R1.2000    
   X20.5792      Y18.9619      R1.2000    
   X20.2908      Y18.8473      R1.2000    
   X19.9826      Y18.8113      R1.2000    
   X19.6755      Y18.8564      R1.2000    
   X19.3906      Y18.9793      R1.2000    
   X19.1472      Y19.1718      R1.2000    
   X18.9619      Y19.4208      R1.2000    
   X18.8473      Y19.7092      R1.2000    
   X18.8113      Y20.0174      R1.2000    
(Pass: 34)
G1   Z-3.400     F1000
G17 G2   X18.8564      Y20.3245      R1.2000     F2000
   X18.9793      Y20.6094      R1.2000    
   X19.1718      Y20.8528      R1.2000    
   X19.4208      Y21.0381      R1.2000    
   X19.7092      Y21.1527      R1.2000    
   X20.0174      Y21.1887      R1.2000    
   X20.3245      Y21.1436      R1.2000    
   X20.6094      Y21.0207      R1.2000    
   X20.8528      Y20.8282      R1.2000    
   X21.0381      Y20.5792      R1.2000    
   X21.1527      Y20.2908      R1.2000    
   X21.1887      Y19.9826      R1.2000    
   X21.1436      Y19.6755      R1.2000    
   X21.0207      Y19.3906      R1.2000    
   X20.8282      Y19.1472      R1.2000    
   X20.5792      Y18.9619      R1.2000    
   X20.2908      Y18.8473      R1.2000    
   X19.9826      Y18.8113      R1.2000    
   X19.6755      Y18.8564      R1.2000    
   X19.3906      Y18.9793      R1.2000    
   X19.1472      Y19.1718      R1.2000    
   X18.9619      Y19.4208      R1.2000    
   X18.8473      Y19.7092      R1.2000    
   X18.8113      Y20.0174      R1.2000    
G0   Z5.000     
(Pass: 1)
   X27.770       Y20.194    
G1   Z-0.100     F1000
G17 G2   X27.8960      Y20.7650      R2.2500     F2000
   X28.1657      Y21.2835      R2.2500    
   X28.5604      Y21.7145      R2.2500    
   X29.0532      Y22.0287      R2.2500    
   X29.6105      Y22.2046      R2.2500    
   X30.1944      Y22.2303      R2.2500    
   X30.7650      Y22.1040      R2.2500    
   X31.2835      Y21.8343      R2.2500    
   X31.7145      Y21.4396      R2.2500    
   X32.0287      Y20.9468      R2.2500    
   X32.2046      Y20.3895      R2.2500    
   X32.2303      Y19.8056      R2.2500    
   X32.1040      Y19.2350      R2.2500    
   X31.8343      Y18.7165      R2.2500    
   X31.4396      Y18.2855      R2.2500    
   X30.9468      Y17.9713      R2.2500    
   X30.3895      Y17.7954      R2.2500    
   X29.8056      Y17.7697      R2.2500    
   X29.2350      Y17.8960      R2.2500    
   X28.7165      Y18.1657      R2.2500    
   X28.2855      Y18.5604      R2.2500    
   X27.9713      Y19.0532      R2.2500    
   X27.7954      Y19.6105      R2.2500    
   X27.7697      Y20.1944      R2.2500    
(Pass: 2)
G1   Z-0.200     F1000
G17 G2   X27.8960      Y20.7650      R2.2500     F2000
   X28.1657      Y21.2835      R2.2500    
   X28.5604      Y21.7145      R2.2500    
   X29.0532      Y22.0287      R2.2500    
   X29.6105      Y22.2046      R2.2500    
   X30.1944      Y22.2303      R2.2500    
   X30.7650      Y22.1040      R2.2500    
   X31.2835      Y21.8343      R2.2500    
   X31.7145      Y21.4396      R2.2500    
   X32.0287      Y20.9468      R2.2500    
   X32.2046      Y20.3895      R2.2500    
   X32.2303      Y19.8056      R2.2500    
   X32.1040      Y19.2350      R2.2500    
   X31.8343      Y18.7165      R2.2500    
   X31.4396      Y18.2855      R2.2500    
   X30.9468      Y17.9713      R2.2500    
   X30.3895      Y17.7954      R2.2500    
   X29.8056      Y17.7697      R2.2500    
   X29.2350      Y17.8960      R2.2500    
   X28.7165      Y18.1657      R2.2500    
   X28.2855      Y18.5604      R2.2500    
   X27.9713      Y19.0532      R2.2500    
   X27.7954      Y19.6105      R2.2500    
   X27.7697      Y20.1944      R2.2500    
(Pass: 3)
G1   Z-0.300     F1000
G17 G2   X27.8960      Y20.7650      R2.2500     F2000
   X28.1657      Y21.2835      R2.2500    
   X28.5604      Y21.7145      R2.2500    
   X29.0532      Y22.0287      R2.2500    
   X29.6105      Y22.2046      R2.2500    
   X30.1944      Y22.2303      R2.2500    
   X30.7650      Y22.1040      R2.2500    
   X31.2835      Y21.8343      R2.2500    
   X31.7145      Y21.4396      R2.2500    
   X32.0287      Y20.9468      R2.2500    
   X32.2046      Y20.3895      R2.2500    
   X32.2303      Y19.8056      R2.2500    
   X32.1040      Y19.2350      R2.2500    
   X31.8343      Y18.7165      R2.2500    
   X31.4396      Y18.2855      R2.2500    
   X30.9468      Y17.9713      R2.2500    
   X30.3895      Y17.7954      R2.2500    
   X29.8056      Y17.7697      R2.2500    
   X29.2350      Y17.8960      R2.2500    
   X28.7165      Y18.1657      R2.2500    
   X28.2855      Y18.5604      R2.2500    
   X27.9713      Y19.0532      R2.2500    
   X27.7954      Y19.6105      R2.2500    
   X27.7697      Y20.1944      R2.2500    
(Pass: 4)
G1   Z-0.400     F1000
G17 G2   X27.8960      Y20.7650      R2.2500     F2000
   X28.1657      Y21.2835      R2.2500    
   X28.5604      Y21.7145      R2.2500    
   X29.0532      Y22.0287      R2.2500    
   X29.6105      Y22.2046      R2.2500    
   X30.1944      Y22.2303      R2.2500    
   X30.7650      Y22.1040      R2.2500    
   X31.2835      Y21.8343      R2.2500    
   X31.7145      Y21.4396      R2.2500    
   X32.0287      Y20.9468      R2.2500    
   X32.2046      Y20.3895      R2.2500    
   X32.2303      Y19.8056      R2.2500    
   X32.1040      Y19.2350      R2.2500    
   X31.8343      Y18.7165      R2.2500    
   X31.4396      Y18.2855      R2.2500    
   X30.9468      Y17.9713      R2.2500    
   X30.3895      Y17.7954      R2.2500    
   X29.8056      Y17.7697      R2.2500    
   X29.2350      Y17.8960      R2.2500    
   X28.7165      Y18.1657      R2.2500    
   X28.2855      Y18.5604      R2.2500    
   X27.9713      Y19.0532      R2.2500    
   X27.7954      Y19.6105      R2.2500    
   X27.7697      Y20.1944      R2.2500    
(Pass: 5)
G1   Z-0.500     F1000
G17 G2   X27.8960      Y20.7650      R2.2500     F2000
   X28.1657      Y21.2835      R2.2500    
   X28.5604      Y21.7145      R2.2500    
   X29.0532      Y22.0287      R2.2500    
   X29.6105      Y22.2046      R2.2500    
   X30.1944      Y22.2303      R2.2500    
   X30.7650      Y22.1040      R2.2500    
   X31.2835      Y21.8343      R2.2500    
   X31.7145      Y21.4396      R2.2500    
   X32.0287      Y20.9468      R2.2500    
   X32.2046      Y20.3895      R2.2500    
   X32.2303      Y19.8056      R2.2500    
   X32.1040      Y19.2350      R2.2500    
   X31.8343      Y18.7165      R2.2500    
   X31.4396      Y18.2855      R2.2500    
   X30.9468      Y17.9713      R2.2500    
   X30.3895      Y17.7954      R2.2500    
   X29.8056      Y17.7697      R2.2500    
   X29.2350      Y17.8960      R2.2500    
   X28.7165      Y18.1657      R2.2500    
   X28.2855      Y18.5604      R2.2500    
   X27.9713      Y19.0532      R2.2500    
   X27.7954      Y19.6105      R2.2500    
   X27.7697      Y20.1944      R2.2500    
(Pass: 6)
G1   Z-0.600     F1000
G17 G2   X27.8960      Y20.7650      R2.2500     F2000
   X28.1657      Y21.2835      R2.2500    
   X28.5604      Y21.7145      R2.2500    
   X29.0532      Y22.0287      R2.2500    
   X29.6105      Y22.2046      R2.2500    
   X30.1944      Y22.2303      R2.2500    
   X30.7650      Y22.1040      R2.2500    
   X31.2835      Y21.8343      R2.2500    
   X31.7145      Y21.4396      R2.2500    
   X32.0287      Y20.9468      R2.2500    
   X32.2046      Y20.3895      R2.2500    
   X32.2303      Y19.8056      R2.2500    
   X32.1040      Y19.2350      R2.2500    
   X31.8343      Y18.7165      R2.2500    
   X31.4396      Y18.2855      R2.2500    
   X30.9468      Y17.9713      R2.2500    
   X30.3895      Y17.7954      R2.2500    
   X29.8056      Y17.7697      R2.2500    
   X29.2350      Y17.8960      R2.2500    
   X28.7165      Y18.1657      R2.2500    
   X28.2855      Y18.5604      R2.2500    
   X27.9713      Y19.0532      R2.2500    
   X27.7954      Y19.6105      R2.2500    
   X27.7697      Y20.1944      R2.2500    
(Pass: 7)
G1   Z-0.700     F1000
G17 G2   X27.8960      Y20.7650      R2.2500     F2000
   X28.1657      Y21.2835      R2.2500    
   X28.5604      Y21.7145      R2.2500    
   X29.0532      Y22.0287      R2.2500    
   X29.6105      Y22.2046      R2.2500    
   X30.1944      Y22.2303      R2.2500    
   X30.7650      Y22.1040      R2.2500    
   X31.2835      Y21.8343      R2.2500    
   X31.7145      Y21.4396      R2.2500    
   X32.0287      Y20.9468      R2.2500    
   X32.2046      Y20.3895      R2.2500    
   X32.2303      Y19.8056      R2.2500    
   X32.1040      Y19.2350      R2.2500    
   X31.8343      Y18.7165      R2.2500    
   X31.4396      Y18.2855      R2.2500    
   X30.9468      Y17.9713      R2.2500    
   X30.3895      Y17.7954      R2.2500    
   X29.8056      Y17.7697      R2.2500    
   X29.2350      Y17.8960      R2.2500    
   X28.7165      Y18.1657      R2.2500    
   X28.2855      Y18.5604      R2.2500    
   X27.9713      Y19.0532      R2.2500    
   X27.7954      Y19.6105      R2.2500    
   X27.7697      Y20.1944      R2.2500    
(Pass: 8)
G1   Z-0.800     F1000
G17 G2   X27.8960      Y20.7650      R2.2500     F2000
   X28.1657      Y21.2835      R2.2500    
   X28.5604      Y21.7145      R2.2500    
   X29.0532      Y22.0287      R2.2500    
   X29.6105      Y22.2046      R2.2500    
   X30.1944      Y22.2303      R2.2500    
   X30.7650      Y22.1040      R2.2500    
   X31.2835      Y21.8343      R2.2500    
   X31.7145      Y21.4396      R2.2500    
   X32.0287      Y20.9468      R2.2500    
   X32.2046      Y20.3895      R2.2500    
   X32.2303      Y19.8056      R2.2500    
   X32.1040      Y19.2350      R2.2500    
   X31.8343      Y18.7165      R2.2500    
   X31.4396      Y18.2855      R2.2500    
   X30.9468      Y17.9713      R2.2500    
   X30.3895      Y17.7954      R2.2500    
   X29.8056      Y17.7697      R2.2500    
   X29.2350      Y17.8960      R2.2500    
   X28.7165      Y18.1657      R2.2500    
   X28.2855      Y18.5604      R2.2500    
   X27.9713      Y19.0532      R2.2500    
   X27.7954      Y19.6105      R2.2500    
   X27.7697      Y20.1944      R2.2500    
(Pass: 9)
G1   Z-0.900     F1000
G17 G2   X27.8960      Y20.7650      R2.2500     F2000
   X28.1657      Y21.2835      R2.2500    
   X28.5604      Y21.7145      R2.2500    
   X29.0532      Y22.0287      R2.2500    
   X29.6105      Y22.2046      R2.2500    
   X30.1944      Y22.2303      R2.2500    
   X30.7650      Y22.1040      R2.2500    
   X31.2835      Y21.8343      R2.2500    
   X31.7145      Y21.4396      R2.2500    
   X32.0287      Y20.9468      R2.2500    
   X32.2046      Y20.3895      R2.2500    
   X32.2303      Y19.8056      R2.2500    
   X32.1040      Y19.2350      R2.2500    
   X31.8343      Y18.7165      R2.2500    
   X31.4396      Y18.2855      R2.2500    
   X30.9468      Y17.9713      R2.2500    
   X30.3895      Y17.7954      R2.2500    
   X29.8056      Y17.7697      R2.2500    
   X29.2350      Y17.8960      R2.2500    
   X28.7165      Y18.1657      R2.2500    
   X28.2855      Y18.5604      R2.2500    
   X27.9713      Y19.0532      R2.2500    
   X27.7954      Y19.6105      R2.2500    
   X27.7697      Y20.1944      R2.2500    
(Pass: 10)
G1   Z-1.000     F1000
G17 G2   X27.8960      Y20.7650      R2.2500     F2000
   X28.1657      Y21.2835      R2.2500    
   X28.5604      Y21.7145      R2.2500    
   X29.0532      Y22.0287      R2.2500    
   X29.6105      Y22.2046      R2.2500    
   X30.1944      Y22.2303      R2.2500    
   X30.7650      Y22.1040      R2.2500    
   X31.2835      Y21.8343      R2.2500    
   X31.7145      Y21.4396      R2.2500    
   X32.0287      Y20.9468      R2.2500    
   X32.2046      Y20.3895      R2.2500    
   X32.2303      Y19.8056      R2.2500    
   X32.1040      Y19.2350      R2.2500    
   X31.8343      Y18.7165      R2.2500    
   X31.4396      Y18.2855      R2.2500    
   X30.9468      Y17.9713      R2.2500    
   X30.3895      Y17.7954      R2.2500    
   X29.8056      Y17.7697      R2.2500    
   X29.2350      Y17.8960      R2.2500    
   X28.7165      Y18.1657      R2.2500    
   X28.2855      Y18.5604      R2.2500    
   X27.9713      Y19.0532      R2.2500    
   X27.7954      Y19.6105      R2.2500    
   X27.7697      Y20.1944      R2.2500    
(Pass: 11)
G1   Z-1.100     F1000
G17 G2   X27.8960      Y20.7650      R2.2500     F2000
   X28.1657      Y21.2835      R2.2500    
   X28.5604      Y21.7145      R2.2500    
   X29.0532      Y22.0287      R2.2500    
   X29.6105      Y22.2046      R2.2500    
   X30.1944      Y22.2303      R2.2500    
   X30.7650      Y22.1040      R2.2500    
   X31.2835      Y21.8343      R2.2500    
   X31.7145      Y21.4396      R2.2500    
   X32.0287      Y20.9468      R2.2500    
   X32.2046      Y20.3895      R2.2500    
   X32.2303      Y19.8056      R2.2500    
   X32.1040      Y19.2350      R2.2500    
   X31.8343      Y18.7165      R2.2500    
   X31.4396      Y18.2855      R2.2500    
   X30.9468      Y17.9713      R2.2500    
   X30.3895      Y17.7954      R2.2500    
   X29.8056      Y17.7697      R2.2500    
   X29.2350      Y17.8960      R2.2500    
   X28.7165      Y18.1657      R2.2500    
   X28.2855      Y18.5604      R2.2500    
   X27.9713      Y19.0532      R2.2500    
   X27.7954      Y19.6105      R2.2500    
   X27.7697      Y20.1944      R2.2500    
(Pass: 12)
G1   Z-1.200     F1000
G17 G2   X27.8960      Y20.7650      R2.2500     F2000
   X28.1657      Y21.2835      R2.2500    
   X28.5604      Y21.7145      R2.2500    
   X29.0532      Y22.0287      R2.2500    
   X29.6105      Y22.2046      R2.2500    
   X30.1944      Y22.2303      R2.2500    
   X30.7650      Y22.1040      R2.2500    
   X31.2835      Y21.8343      R2.2500    
   X31.7145      Y21.4396      R2.2500    
   X32.0287      Y20.9468      R2.2500    
   X32.2046      Y20.3895      R2.2500    
   X32.2303      Y19.8056      R2.2500    
   X32.1040      Y19.2350      R2.2500    
   X31.8343      Y18.7165      R2.2500    
   X31.4396      Y18.2855      R2.2500    
   X30.9468      Y17.9713      R2.2500    
   X30.3895      Y17.7954      R2.2500    
   X29.8056      Y17.7697      R2.2500    
   X29.2350      Y17.8960      R2.2500    
   X28.7165      Y18.1657      R2.2500    
   X28.2855      Y18.5604      R2.2500    
   X27.9713      Y19.0532      R2.2500    
   X27.7954      Y19.6105      R2.2500    
   X27.7697      Y20.1944      R2.2500    
(Pass: 13)
G1   Z-1.300     F1000
G17 G2   X27.8960      Y20.7650      R2.2500     F2000
   X28.1657      Y21.2835      R2.2500    
   X28.5604      Y21.7145      R2.2500    
   X29.0532      Y22.0287      R2.2500    
   X29.6105      Y22.2046      R2.2500    
   X30.1944      Y22.2303      R2.2500    
   X30.7650      Y22.1040      R2.2500    
   X31.2835      Y21.8343      R2.2500    
   X31.7145      Y21.4396      R2.2500    
   X32.0287      Y20.9468      R2.2500    
   X32.2046      Y20.3895      R2.2500    
   X32.2303      Y19.8056      R2.2500    
   X32.1040      Y19.2350      R2.2500    
   X31.8343      Y18.7165      R2.2500    
   X31.4396      Y18.2855      R2.2500    
   X30.9468      Y17.9713      R2.2500    
   X30.3895      Y17.7954      R2.2500    
   X29.8056      Y17.7697      R2.2500    
   X29.2350      Y17.8960      R2.2500    
   X28.7165      Y18.1657      R2.2500    
   X28.2855      Y18.5604      R2.2500    
   X27.9713      Y19.0532      R2.2500    
   X27.7954      Y19.6105      R2.2500    
   X27.7697      Y20.1944      R2.2500    
(Pass: 14)
G1   Z-1.400     F1000
G17 G2   X27.8960      Y20.7650      R2.2500     F2000
   X28.1657      Y21.2835      R2.2500    
   X28.5604      Y21.7145      R2.2500    
   X29.0532      Y22.0287      R2.2500    
   X29.6105      Y22.2046      R2.2500    
   X30.1944      Y22.2303      R2.2500    
   X30.7650      Y22.1040      R2.2500    
   X31.2835      Y21.8343      R2.2500    
   X31.7145      Y21.4396      R2.2500    
   X32.0287      Y20.9468      R2.2500    
   X32.2046      Y20.3895      R2.2500    
   X32.2303      Y19.8056      R2.2500    
   X32.1040      Y19.2350      R2.2500    
   X31.8343      Y18.7165      R2.2500    
   X31.4396      Y18.2855      R2.2500    
   X30.9468      Y17.9713      R2.2500    
   X30.3895      Y17.7954      R2.2500    
   X29.8056      Y17.7697      R2.2500    
   X29.2350      Y17.8960      R2.2500    
   X28.7165      Y18.1657      R2.2500    
   X28.2855      Y18.5604      R2.2500    
   X27.9713      Y19.0532      R2.2500    
   X27.7954      Y19.6105      R2.2500    
   X27.7697      Y20.1944      R2.2500    
(Pass: 15)
G1   Z-1.500     F1000
G17 G2   X27.8960      Y20.7650      R2.2500     F2000
   X28.1657      Y21.2835      R2.2500    
   X28.5604      Y21.7145      R2.2500    
   X29.0532      Y22.0287      R2.2500    
   X29.6105      Y22.2046      R2.2500    
   X30.1944      Y22.2303      R2.2500    
   X30.7650      Y22.1040      R2.2500    
   X31.2835      Y21.8343      R2.2500    
   X31.7145      Y21.4396      R2.2500    
   X32.0287      Y20.9468      R2.2500    
   X32.2046      Y20.3895      R2.2500    
   X32.2303      Y19.8056      R2.2500    
   X32.1040      Y19.2350      R2.2500    
   X31.8343      Y18.7165      R2.2500    
   X31.4396      Y18.2855      R2.2500    
   X30.9468      Y17.9713      R2.2500    
   X30.3895      Y17.7954      R2.2500    
   X29.8056      Y17.7697      R2.2500    
   X29.2350      Y17.8960      R2.2500    
   X28.7165      Y18.1657      R2.2500    
   X28.2855      Y18.5604      R2.2500    
   X27.9713      Y19.0532      R2.2500    
   X27.7954      Y19.6105      R2.2500    
   X27.7697      Y20.1944      R2.2500    
(Pass: 16)
G1   Z-1.600     F1000
G17 G2   X27.8960      Y20.7650      R2.2500     F2000
   X28.1657      Y21.2835      R2.2500    
   X28.5604      Y21.7145      R2.2500    
   X29.0532      Y22.0287      R2.2500    
   X29.6105      Y22.2046      R2.2500    
   X30.1944      Y22.2303      R2.2500    
   X30.7650      Y22.1040      R2.2500    
   X31.2835      Y21.8343      R2.2500    
   X31.7145      Y21.4396      R2.2500    
   X32.0287      Y20.9468      R2.2500    
   X32.2046      Y20.3895      R2.2500    
   X32.2303      Y19.8056      R2.2500    
   X32.1040      Y19.2350      R2.2500    
   X31.8343      Y18.7165      R2.2500    
   X31.4396      Y18.2855      R2.2500    
   X30.9468      Y17.9713      R2.2500    
   X30.3895      Y17.7954      R2.2500    
   X29.8056      Y17.7697      R2.2500    
   X29.2350      Y17.8960      R2.2500    
   X28.7165      Y18.1657      R2.2500    
   X28.2855      Y18.5604      R2.2500    
   X27.9713      Y19.0532      R2.2500    
   X27.7954      Y19.6105      R2.2500    
   X27.7697      Y20.1944      R2.2500    
(Pass: 17)
G1   Z-1.700     F1000
G17 G2   X27.8960      Y20.7650      R2.2500     F2000
   X28.1657      Y21.2835      R2.2500    
   X28.5604      Y21.7145      R2.2500    
   X29.0532      Y22.0287      R2.2500    
   X29.6105      Y22.2046      R2.2500    
