%
(Generated by SketchUcam {1.2b1})
(File: Router Plates.skp)
(Bit diameter: 2.5mm)
(Feed rate: 2000.0mm/min)
(Plunge Feed rate: 1000.0mm/min)
(Material Thickness: 3.4mm)
(Material length: 600.0mm X width: 300.0mm)
(Overhead Gantry: true)
(Retract feed rate NOT limited to plunge feed rate)
(Multipass enabled, Depth = 0.1mm)
(Optimization is ON)
(www.PhlatBoyz.com)
G90 G21 G49 
M3 S11000
G0   Z5.000     
(Pass: 1)
   X9.893        Y9.786     
G1   Z-0.100     F1000
G17 G2   X9.8413       Y9.8210       R0.2500     F2000
   X9.8004       Y9.8682       R0.2500    
   X9.7731       Y9.9244       R0.2500    
   X9.7612       Y9.9857       R0.2500    
   X9.7656       Y10.0480      R0.2500    
   X9.7861       Y10.1070      R0.2500    
   X9.8210       Y10.1587      R0.2500    
   X9.8682       Y10.1996      R0.2500    
   X9.9244       Y10.2269      R0.2500    
   X9.9857       Y10.2388      R0.2500    
   X10.0480      Y10.2344      R0.2500    
   X10.1070      Y10.2139      R0.2500    
   X10.1587      Y10.1790      R0.2500    
   X10.1996      Y10.1318      R0.2500    
   X10.2269      Y10.0756      R0.2500    
   X10.2388      Y10.0143      R0.2500    
   X10.2344      Y9.9520       R0.2500    
   X10.2139      Y9.8930       R0.2500    
   X10.1790      Y9.8413       R0.2500    
   X10.1318      Y9.8004       R0.2500    
   X10.0756      Y9.7731       R0.2500    
   X10.0143      Y9.7612       R0.2500    
   X9.9520       Y9.7656       R0.2500    
   X9.8930       Y9.7861       R0.2500    
(Pass: 2)
G1   Z-0.200     F1000
G17 G2   X9.8413       Y9.8210       R0.2500     F2000
   X9.8004       Y9.8682       R0.2500    
   X9.7731       Y9.9244       R0.2500    
   X9.7612       Y9.9857       R0.2500    
   X9.7656       Y10.0480      R0.2500    
   X9.7861       Y10.1070      R0.2500    
   X9.8210       Y10.1587      R0.2500    
   X9.8682       Y10.1996      R0.2500    
   X9.9244       Y10.2269      R0.2500    
   X9.9857       Y10.2388      R0.2500    
   X10.0480      Y10.2344      R0.2500    
   X10.1070      Y10.2139      R0.2500    
   X10.1587      Y10.1790      R0.2500    
   X10.1996      Y10.1318      R0.2500    
   X10.2269      Y10.0756      R0.2500    
   X10.2388      Y10.0143      R0.2500    
   X10.2344      Y9.9520       R0.2500    
   X10.2139      Y9.8930       R0.2500    
   X10.1790      Y9.8413       R0.2500    
   X10.1318      Y9.8004       R0.2500    
   X10.0756      Y9.7731       R0.2500    
   X10.0143      Y9.7612       R0.2500    
   X9.9520       Y9.7656       R0.2500    
   X9.8930       Y9.7861       R0.2500    
(Pass: 3)
G1   Z-0.300     F1000
G17 G2   X9.8413       Y9.8210       R0.2500     F2000
   X9.8004       Y9.8682       R0.2500    
   X9.7731       Y9.9244       R0.2500    
   X9.7612       Y9.9857       R0.2500    
   X9.7656       Y10.0480      R0.2500    
   X9.7861       Y10.1070      R0.2500    
   X9.8210       Y10.1587      R0.2500    
   X9.8682       Y10.1996      R0.2500    
   X9.9244       Y10.2269      R0.2500    
   X9.9857       Y10.2388      R0.2500    
   X10.0480      Y10.2344      R0.2500    
   X10.1070      Y10.2139      R0.2500    
   X10.1587      Y10.1790      R0.2500    
   X10.1996      Y10.1318      R0.2500    
   X10.2269      Y10.0756      R0.2500    
   X10.2388      Y10.0143      R0.2500    
   X10.2344      Y9.9520       R0.2500    
   X10.2139      Y9.8930       R0.2500    
   X10.1790      Y9.8413       R0.2500    
   X10.1318      Y9.8004       R0.2500    
   X10.0756      Y9.7731       R0.2500    
   X10.0143      Y9.7612       R0.2500    
   X9.9520       Y9.7656       R0.2500    
   X9.8930       Y9.7861       R0.2500    
(Pass: 4)
G1   Z-0.400     F1000
G17 G2   X9.8413       Y9.8210       R0.2500     F2000
   X9.8004       Y9.8682       R0.2500    
   X9.7731       Y9.9244       R0.2500    
   X9.7612       Y9.9857       R0.2500    
   X9.7656       Y10.0480      R0.2500    
   X9.7861       Y10.1070      R0.2500    
   X9.8210       Y10.1587      R0.2500    
   X9.8682       Y10.1996      R0.2500    
   X9.9244       Y10.2269      R0.2500    
   X9.9857       Y10.2388      R0.2500    
   X10.0480      Y10.2344      R0.2500    
   X10.1070      Y10.2139      R0.2500    
   X10.1587      Y10.1790      R0.2500    
   X10.1996      Y10.1318      R0.2500    
   X10.2269      Y10.0756      R0.2500    
   X10.2388      Y10.0143      R0.2500    
   X10.2344      Y9.9520       R0.2500    
   X10.2139      Y9.8930       R0.2500    
   X10.1790      Y9.8413       R0.2500    
   X10.1318      Y9.8004       R0.2500    
   X10.0756      Y9.7731       R0.2500    
   X10.0143      Y9.7612       R0.2500    
   X9.9520       Y9.7656       R0.2500    
   X9.8930       Y9.7861       R0.2500    
(Pass: 5)
G1   Z-0.500     F1000
G17 G2   X9.8413       Y9.8210       R0.2500     F2000
   X9.8004       Y9.8682       R0.2500    
   X9.7731       Y9.9244       R0.2500    
   X9.7612       Y9.9857       R0.2500    
   X9.7656       Y10.0480      R0.2500    
   X9.7861       Y10.1070      R0.2500    
   X9.8210       Y10.1587      R0.2500    
   X9.8682       Y10.1996      R0.2500    
   X9.9244       Y10.2269      R0.2500    
   X9.9857       Y10.2388      R0.2500    
   X10.0480      Y10.2344      R0.2500    
   X10.1070      Y10.2139      R0.2500    
   X10.1587      Y10.1790      R0.2500    
   X10.1996      Y10.1318      R0.2500    
   X10.2269      Y10.0756      R0.2500    
   X10.2388      Y10.0143      R0.2500    
   X10.2344      Y9.9520       R0.2500    
   X10.2139      Y9.8930       R0.2500    
   X10.1790      Y9.8413       R0.2500    
   X10.1318      Y9.8004       R0.2500    
   X10.0756      Y9.7731       R0.2500    
   X10.0143      Y9.7612       R0.2500    
   X9.9520       Y9.7656       R0.2500    
   X9.8930       Y9.7861       R0.2500    
(Pass: 6)
G1   Z-0.600     F1000
G17 G2   X9.8413       Y9.8210       R0.2500     F2000
   X9.8004       Y9.8682       R0.2500    
   X9.7731       Y9.9244       R0.2500    
   X9.7612       Y9.9857       R0.2500    
   X9.7656       Y10.0480      R0.2500    
   X9.7861       Y10.1070      R0.2500    
   X9.8210       Y10.1587      R0.2500    
   X9.8682       Y10.1996      R0.2500    
   X9.9244       Y10.2269      R0.2500    
   X9.9857       Y10.2388      R0.2500    
   X10.0480      Y10.2344      R0.2500    
   X10.1070      Y10.2139      R0.2500    
   X10.1587      Y10.1790      R0.2500    
   X10.1996      Y10.1318      R0.2500    
   X10.2269      Y10.0756      R0.2500    
   X10.2388      Y10.0143      R0.2500    
   X10.2344      Y9.9520       R0.2500    
   X10.2139      Y9.8930       R0.2500    
   X10.1790      Y9.8413       R0.2500    
   X10.1318      Y9.8004       R0.2500    
   X10.0756      Y9.7731       R0.2500    
   X10.0143      Y9.7612       R0.2500    
   X9.9520       Y9.7656       R0.2500    
   X9.8930       Y9.7861       R0.2500    
(Pass: 7)
G1   Z-0.700     F1000
G17 G2   X9.8413       Y9.8210       R0.2500     F2000
   X9.8004       Y9.8682       R0.2500    
   X9.7731       Y9.9244       R0.2500    
   X9.7612       Y9.9857       R0.2500    
   X9.7656       Y10.0480      R0.2500    
   X9.7861       Y10.1070      R0.2500    
   X9.8210       Y10.1587      R0.2500    
   X9.8682       Y10.1996      R0.2500    
   X9.9244       Y10.2269      R0.2500    
   X9.9857       Y10.2388      R0.2500    
   X10.0480      Y10.2344      R0.2500    
   X10.1070      Y10.2139      R0.2500    
   X10.1587      Y10.1790      R0.2500    
   X10.1996      Y10.1318      R0.2500    
   X10.2269      Y10.0756      R0.2500    
   X10.2388      Y10.0143      R0.2500    
   X10.2344      Y9.9520       R0.2500    
   X10.2139      Y9.8930       R0.2500    
   X10.1790      Y9.8413       R0.2500    
   X10.1318      Y9.8004       R0.2500    
   X10.0756      Y9.7731       R0.2500    
   X10.0143      Y9.7612       R0.2500    
   X9.9520       Y9.7656       R0.2500    
   X9.8930       Y9.7861       R0.2500    
(Pass: 8)
G1   Z-0.800     F1000
G17 G2   X9.8413       Y9.8210       R0.2500     F2000
   X9.8004       Y9.8682       R0.2500    
   X9.7731       Y9.9244       R0.2500    
   X9.7612       Y9.9857       R0.2500    
   X9.7656       Y10.0480      R0.2500    
   X9.7861       Y10.1070      R0.2500    
   X9.8210       Y10.1587      R0.2500    
   X9.8682       Y10.1996      R0.2500    
   X9.9244       Y10.2269      R0.2500    
   X9.9857       Y10.2388      R0.2500    
   X10.0480      Y10.2344      R0.2500    
   X10.1070      Y10.2139      R0.2500    
   X10.1587      Y10.1790      R0.2500    
   X10.1996      Y10.1318      R0.2500    
   X10.2269      Y10.0756      R0.2500    
   X10.2388      Y10.0143      R0.2500    
   X10.2344      Y9.9520       R0.2500    
   X10.2139      Y9.8930       R0.2500    
   X10.1790      Y9.8413       R0.2500    
   X10.1318      Y9.8004       R0.2500    
   X10.0756      Y9.7731       R0.2500    
   X10.0143      Y9.7612       R0.2500    
   X9.9520       Y9.7656       R0.2500    
   X9.8930       Y9.7861       R0.2500    
(Pass: 9)
G1   Z-0.900     F1000
G17 G2   X9.8413       Y9.8210       R0.2500     F2000
   X9.8004       Y9.8682       R0.2500    
   X9.7731       Y9.9244       R0.2500    
   X9.7612       Y9.9857       R0.2500    
   X9.7656       Y10.0480      R0.2500    
   X9.7861       Y10.1070      R0.2500    
   X9.8210       Y10.1587      R0.2500    
   X9.8682       Y10.1996      R0.2500    
   X9.9244       Y10.2269      R0.2500    
   X9.9857       Y10.2388      R0.2500    
   X10.0480      Y10.2344      R0.2500    
   X10.1070      Y10.2139      R0.2500    
   X10.1587      Y10.1790      R0.2500    
   X10.1996      Y10.1318      R0.2500    
   X10.2269      Y10.0756      R0.2500    
   X10.2388      Y10.0143      R0.2500    
   X10.2344      Y9.9520       R0.2500    
   X10.2139      Y9.8930       R0.2500    
   X10.1790      Y9.8413       R0.2500    
   X10.1318      Y9.8004       R0.2500    
   X10.0756      Y9.7731       R0.2500    
   X10.0143      Y9.7612       R0.2500    
   X9.9520       Y9.7656       R0.2500    
   X9.8930       Y9.7861       R0.2500    
(Pass: 10)
G1   Z-1.000     F1000
G17 G2   X9.8413       Y9.8210       R0.2500     F2000
   X9.8004       Y9.8682       R0.2500    
   X9.7731       Y9.9244       R0.2500    
   X9.7612       Y9.9857       R0.2500    
   X9.7656       Y10.0480      R0.2500    
   X9.7861       Y10.1070      R0.2500    
   X9.8210       Y10.1587      R0.2500    
   X9.8682       Y10.1996      R0.2500    
   X9.9244       Y10.2269      R0.2500    
   X9.9857       Y10.2388      R0.2500    
   X10.0480      Y10.2344      R0.2500    
   X10.1070      Y10.2139      R0.2500    
   X10.1587      Y10.1790      R0.2500    
   X10.1996      Y10.1318      R0.2500    
   X10.2269      Y10.0756      R0.2500    
   X10.2388      Y10.0143      R0.2500    
   X10.2344      Y9.9520       R0.2500    
   X10.2139      Y9.8930       R0.2500    
   X10.1790      Y9.8413       R0.2500    
   X10.1318      Y9.8004       R0.2500    
   X10.0756      Y9.7731       R0.2500    
   X10.0143      Y9.7612       R0.2500    
   X9.9520       Y9.7656       R0.2500    
   X9.8930       Y9.7861       R0.2500    
(Pass: 11)
G1   Z-1.100     F1000
G17 G2   X9.8413       Y9.8210       R0.2500     F2000
   X9.8004       Y9.8682       R0.2500    
   X9.7731       Y9.9244       R0.2500    
   X9.7612       Y9.9857       R0.2500    
   X9.7656       Y10.0480      R0.2500    
   X9.7861       Y10.1070      R0.2500    
   X9.8210       Y10.1587      R0.2500    
   X9.8682       Y10.1996      R0.2500    
   X9.9244       Y10.2269      R0.2500    
   X9.9857       Y10.2388      R0.2500    
   X10.0480      Y10.2344      R0.2500    
   X10.1070      Y10.2139      R0.2500    
   X10.1587      Y10.1790      R0.2500    
   X10.1996      Y10.1318      R0.2500    
   X10.2269      Y10.0756      R0.2500    
   X10.2388      Y10.0143      R0.2500    
   X10.2344      Y9.9520       R0.2500    
   X10.2139      Y9.8930       R0.2500    
   X10.1790      Y9.8413       R0.2500    
   X10.1318      Y9.8004       R0.2500    
   X10.0756      Y9.7731       R0.2500    
   X10.0143      Y9.7612       R0.2500    
   X9.9520       Y9.7656       R0.2500    
   X9.8930       Y9.7861       R0.2500    
(Pass: 12)
G1   Z-1.200     F1000
G17 G2   X9.8413       Y9.8210       R0.2500     F2000
   X9.8004       Y9.8682       R0.2500    
   X9.7731       Y9.9244       R0.2500    
   X9.7612       Y9.9857       R0.2500    
   X9.7656       Y10.0480      R0.2500    
   X9.7861       Y10.1070      R0.2500    
   X9.8210       Y10.1587      R0.2500    
   X9.8682       Y10.1996      R0.2500    
   X9.9244       Y10.2269      R0.2500    
   X9.9857       Y10.2388      R0.2500    
   X10.0480      Y10.2344      R0.2500    
   X10.1070      Y10.2139      R0.2500    
   X10.1587      Y10.1790      R0.2500    
   X10.1996      Y10.1318      R0.2500    
   X10.2269      Y10.0756      R0.2500    
   X10.2388      Y10.0143      R0.2500    
   X10.2344      Y9.9520       R0.2500    
   X10.2139      Y9.8930       R0.2500    
   X10.1790      Y9.8413       R0.2500    
   X10.1318      Y9.8004       R0.2500    
   X10.0756      Y9.7731       R0.2500    
   X10.0143      Y9.7612       R0.2500    
   X9.9520       Y9.7656       R0.2500    
   X9.8930       Y9.7861       R0.2500    
(Pass: 13)
G1   Z-1.300     F1000
G17 G2   X9.8413       Y9.8210       R0.2500     F2000
   X9.8004       Y9.8682       R0.2500    
   X9.7731       Y9.9244       R0.2500    
   X9.7612       Y9.9857       R0.2500    
   X9.7656       Y10.0480      R0.2500    
   X9.7861       Y10.1070      R0.2500    
   X9.8210       Y10.1587      R0.2500    
   X9.8682       Y10.1996      R0.2500    
   X9.9244       Y10.2269      R0.2500    
   X9.9857       Y10.2388      R0.2500    
   X10.0480      Y10.2344      R0.2500    
   X10.1070      Y10.2139      R0.2500    
   X10.1587      Y10.1790      R0.2500    
   X10.1996      Y10.1318      R0.2500    
   X10.2269      Y10.0756      R0.2500    
   X10.2388      Y10.0143      R0.2500    
   X10.2344      Y9.9520       R0.2500    
   X10.2139      Y9.8930       R0.2500    
   X10.1790      Y9.8413       R0.2500    
   X10.1318      Y9.8004       R0.2500    
   X10.0756      Y9.7731       R0.2500    
   X10.0143      Y9.7612       R0.2500    
   X9.9520       Y9.7656       R0.2500    
   X9.8930       Y9.7861       R0.2500    
(Pass: 14)
G1   Z-1.400     F1000
G17 G2   X9.8413       Y9.8210       R0.2500     F2000
   X9.8004       Y9.8682       R0.2500    
   X9.7731       Y9.9244       R0.2500    
   X9.7612       Y9.9857       R0.2500    
   X9.7656       Y10.0480      R0.2500    
   X9.7861       Y10.1070      R0.2500    
   X9.8210       Y10.1587      R0.2500    
   X9.8682       Y10.1996      R0.2500    
   X9.9244       Y10.2269      R0.2500    
   X9.9857       Y10.2388      R0.2500    
   X10.0480      Y10.2344      R0.2500    
   X10.1070      Y10.2139      R0.2500    
   X10.1587      Y10.1790      R0.2500    
   X10.1996      Y10.1318      R0.2500    
   X10.2269      Y10.0756      R0.2500    
   X10.2388      Y10.0143      R0.2500    
   X10.2344      Y9.9520       R0.2500    
   X10.2139      Y9.8930       R0.2500    
   X10.1790      Y9.8413       R0.2500    
   X10.1318      Y9.8004       R0.2500    
   X10.0756      Y9.7731       R0.2500    
   X10.0143      Y9.7612       R0.2500    
   X9.9520       Y9.7656       R0.2500    
   X9.8930       Y9.7861       R0.2500    
(Pass: 15)
G1   Z-1.500     F1000
G17 G2   X9.8413       Y9.8210       R0.2500     F2000
   X9.8004       Y9.8682       R0.2500    
   X9.7731       Y9.9244       R0.2500    
   X9.7612       Y9.9857       R0.2500    
   X9.7656       Y10.0480      R0.2500    
   X9.7861       Y10.1070      R0.2500    
   X9.8210       Y10.1587      R0.2500    
   X9.8682       Y10.1996      R0.2500    
   X9.9244       Y10.2269      R0.2500    
   X9.9857       Y10.2388      R0.2500    
   X10.0480      Y10.2344      R0.2500    
   X10.1070      Y10.2139      R0.2500    
   X10.1587      Y10.1790      R0.2500    
   X10.1996      Y10.1318      R0.2500    
   X10.2269      Y10.0756      R0.2500    
   X10.2388      Y10.0143      R0.2500    
   X10.2344      Y9.9520       R0.2500    
   X10.2139      Y9.8930       R0.2500    
   X10.1790      Y9.8413       R0.2500    
   X10.1318      Y9.8004       R0.2500    
   X10.0756      Y9.7731       R0.2500    
   X10.0143      Y9.7612       R0.2500    
   X9.9520       Y9.7656       R0.2500    
   X9.8930       Y9.7861       R0.2500    
(Pass: 16)
G1   Z-1.600     F1000
G17 G2   X9.8413       Y9.8210       R0.2500     F2000
   X9.8004       Y9.8682       R0.2500    
   X9.7731       Y9.9244       R0.2500    
   X9.7612       Y9.9857       R0.2500    
   X9.7656       Y10.0480      R0.2500    
   X9.7861       Y10.1070      R0.2500    
   X9.8210       Y10.1587      R0.2500    
   X9.8682       Y10.1996      R0.2500    
   X9.9244       Y10.2269      R0.2500    
   X9.9857       Y10.2388      R0.2500    
   X10.0480      Y10.2344      R0.2500    
   X10.1070      Y10.2139      R0.2500    
   X10.1587      Y10.1790      R0.2500    
   X10.1996      Y10.1318      R0.2500    
   X10.2269      Y10.0756      R0.2500    
   X10.2388      Y10.0143      R0.2500    
   X10.2344      Y9.9520       R0.2500    
   X10.2139      Y9.8930       R0.2500    
   X10.1790      Y9.8413       R0.2500    
   X10.1318      Y9.8004       R0.2500    
   X10.0756      Y9.7731       R0.2500    
   X10.0143      Y9.7612       R0.2500    
   X9.9520       Y9.7656       R0.2500    
   X9.8930       Y9.7861       R0.2500    
(Pass: 17)
G1   Z-1.700     F1000
G17 G2   X9.8413       Y9.8210       R0.2500     F2000
   X9.8004       Y9.8682       R0.2500    
   X9.7731       Y9.9244       R0.2500    
   X9.7612       Y9.9857       R0.2500    
   X9.7656       Y10.0480      R0.2500    
   X9.7861       Y10.1070      R0.2500    
   X9.8210       Y10.1587      R0.2500    
   X9.8682       Y10.1996      R0.2500    
   X9.9244       Y10.2269      R0.2500    
   X9.9857       Y10.2388      R0.2500    
   X10.0480      Y10.2344      R0.2500    
   X10.1070      Y10.2139      R0.2500    
   X10.1587      Y10.1790      R0.2500    
   X10.1996      Y10.1318      R0.2500    
   X10.2269      Y10.0756      R0.2500    
   X10.2388      Y10.0143      R0.2500    
   X10.2344      Y9.9520       R0.2500    
   X10.2139      Y9.8930       R0.2500    
   X10.1790      Y9.8413       R0.2500    
   X10.1318      Y9.8004       R0.2500    
   X10.0756      Y9.7731       R0.2500    
   X10.0143      Y9.7612       R0.2500    
   X9.9520       Y9.7656       R0.2500    
   X9.8930       Y9.7861       R0.2500    
(Pass: 18)
G1   Z-1.800     F1000
G17 G2   X9.8413       Y9.8210       R0.2500     F2000
   X9.8004       Y9.8682       R0.2500    
   X9.7731       Y9.9244       R0.2500    
   X9.7612       Y9.9857       R0.2500    
   X9.7656       Y10.0480      R0.2500    
   X9.7861       Y10.1070      R0.2500    
   X9.8210       Y10.1587      R0.2500    
   X9.8682       Y10.1996      R0.2500    
   X9.9244       Y10.2269      R0.2500    
   X9.9857       Y10.2388      R0.2500    
   X10.0480      Y10.2344      R0.2500    
   X10.1070      Y10.2139      R0.2500    
   X10.1587      Y10.1790      R0.2500    
   X10.1996      Y10.1318      R0.2500    
   X10.2269      Y10.0756      R0.2500    
   X10.2388      Y10.0143      R0.2500    
   X10.2344      Y9.9520       R0.2500    
   X10.2139      Y9.8930       R0.2500    
   X10.1790      Y9.8413       R0.2500    
   X10.1318      Y9.8004       R0.2500    
   X10.0756      Y9.7731       R0.2500    
   X10.0143      Y9.7612       R0.2500    
   X9.9520       Y9.7656       R0.2500    
   X9.8930       Y9.7861       R0.2500    
(Pass: 19)
G1   Z-1.900     F1000
G17 G2   X9.8413       Y9.8210       R0.2500     F2000
   X9.8004       Y9.8682       R0.2500    
   X9.7731       Y9.9244       R0.2500    
   X9.7612       Y9.9857       R0.2500    
   X9.7656       Y10.0480      R0.2500    
   X9.7861       Y10.1070      R0.2500    
   X9.8210       Y10.1587      R0.2500    
   X9.8682       Y10.1996      R0.2500    
   X9.9244       Y10.2269      R0.2500    
   X9.9857       Y10.2388      R0.2500    
   X10.0480      Y10.2344      R0.2500    
   X10.1070      Y10.2139      R0.2500    
   X10.1587      Y10.1790      R0.2500    
   X10.1996      Y10.1318      R0.2500    
   X10.2269      Y10.0756      R0.2500    
   X10.2388      Y10.0143      R0.2500    
   X10.2344      Y9.9520       R0.2500    
   X10.2139      Y9.8930       R0.2500    
   X10.1790      Y9.8413       R0.2500    
   X10.1318      Y9.8004       R0.2500    
   X10.0756      Y9.7731       R0.2500    
   X10.0143      Y9.7612       R0.2500    
   X9.9520       Y9.7656       R0.2500    
   X9.8930       Y9.7861       R0.2500    
(Pass: 20)
G1   Z-2.000     F1000
G17 G2   X9.8413       Y9.8210       R0.2500     F2000
   X9.8004       Y9.8682       R0.2500    
   X9.7731       Y9.9244       R0.2500    
   X9.7612       Y9.9857       R0.2500    
   X9.7656       Y10.0480      R0.2500    
   X9.7861       Y10.1070      R0.2500    
   X9.8210       Y10.1587      R0.2500    
   X9.8682       Y10.1996      R0.2500    
   X9.9244       Y10.2269      R0.2500    
   X9.9857       Y10.2388      R0.2500    
   X10.0480      Y10.2344      R0.2500    
   X10.1070      Y10.2139      R0.2500    
   X10.1587      Y10.1790      R0.2500    
   X10.1996      Y10.1318      R0.2500    
   X10.2269      Y10.0756      R0.2500    
   X10.2388      Y10.0143      R0.2500    
   X10.2344      Y9.9520       R0.2500    
   X10.2139      Y9.8930       R0.2500    
   X10.1790      Y9.8413       R0.2500    
   X10.1318      Y9.8004       R0.2500    
   X10.0756      Y9.7731       R0.2500    
   X10.0143      Y9.7612       R0.2500    
   X9.9520       Y9.7656       R0.2500    
   X9.8930       Y9.7861       R0.2500    
(Pass: 21)
G1   Z-2.100     F1000
G17 G2   X9.8413       Y9.8210       R0.2500     F2000
   X9.8004       Y9.8682       R0.2500    
   X9.7731       Y9.9244       R0.2500    
   X9.7612       Y9.9857       R0.2500    
   X9.7656       Y10.0480      R0.2500    
   X9.7861       Y10.1070      R0.2500    
   X9.8210       Y10.1587      R0.2500    
   X9.8682       Y10.1996      R0.2500    
   X9.9244       Y10.2269      R0.2500    
   X9.9857       Y10.2388      R0.2500    
   X10.0480      Y10.2344      R0.2500    
   X10.1070      Y10.2139      R0.2500    
   X10.1587      Y10.1790      R0.2500    
   X10.1996      Y10.1318      R0.2500    
   X10.2269      Y10.0756      R0.2500    
   X10.2388      Y10.0143      R0.2500    
   X10.2344      Y9.9520       R0.2500    
   X10.2139      Y9.8930       R0.2500    
   X10.1790      Y9.8413       R0.2500    
   X10.1318      Y9.8004       R0.2500    
   X10.0756      Y9.7731       R0.2500    
   X10.0143      Y9.7612       R0.2500    
   X9.9520       Y9.7656       R0.2500    
   X9.8930       Y9.7861       R0.2500    
(Pass: 22)
G1   Z-2.200     F1000
G17 G2   X9.8413       Y9.8210       R0.2500     F2000
   X9.8004       Y9.8682       R0.2500    
   X9.7731       Y9.9244       R0.2500    
   X9.7612       Y9.9857       R0.2500    
   X9.7656       Y10.0480      R0.2500    
   X9.7861       Y10.1070      R0.2500    
   X9.8210       Y10.1587      R0.2500    
   X9.8682       Y10.1996      R0.2500    
   X9.9244       Y10.2269      R0.2500    
   X9.9857       Y10.2388      R0.2500    
   X10.0480      Y10.2344      R0.2500    
   X10.1070      Y10.2139      R0.2500    
   X10.1587      Y10.1790      R0.2500    
   X10.1996      Y10.1318      R0.2500    
   X10.2269      Y10.0756      R0.2500    
   X10.2388      Y10.0143      R0.2500    
   X10.2344      Y9.9520       R0.2500    
   X10.2139      Y9.8930       R0.2500    
   X10.1790      Y9.8413       R0.2500    
   X10.1318      Y9.8004       R0.2500    
   X10.0756      Y9.7731       R0.2500    
   X10.0143      Y9.7612       R0.2500    
   X9.9520       Y9.7656       R0.2500    
   X9.8930       Y9.7861       R0.2500    
(Pass: 23)
G1   Z-2.300     F1000
G17 G2   X9.8413       Y9.8210       R0.2500     F2000
   X9.8004       Y9.8682       R0.2500    
   X9.7731       Y9.9244       R0.2500    
   X9.7612       Y9.9857       R0.2500    
   X9.7656       Y10.0480      R0.2500    
   X9.7861       Y10.1070      R0.2500    
   X9.8210       Y10.1587      R0.2500    
   X9.8682       Y10.1996      R0.2500    
   X9.9244       Y10.2269      R0.2500    
   X9.9857       Y10.2388      R0.2500    
   X10.0480      Y10.2344      R0.2500    
   X10.1070      Y10.2139      R0.2500    
   X10.1587      Y10.1790      R0.2500    
   X10.1996      Y10.1318      R0.2500    
   X10.2269      Y10.0756      R0.2500    
   X10.2388      Y10.0143      R0.2500    
   X10.2344      Y9.9520       R0.2500    
   X10.2139      Y9.8930       R0.2500    
   X10.1790      Y9.8413       R0.2500    
   X10.1318      Y9.8004       R0.2500    
   X10.0756      Y9.7731       R0.2500    
   X10.0143      Y9.7612       R0.2500    
   X9.9520       Y9.7656       R0.2500    
   X9.8930       Y9.7861       R0.2500    
(Pass: 24)
G1   Z-2.400     F1000
G17 G2   X9.8413       Y9.8210       R0.2500     F2000
   X9.8004       Y9.8682       R0.2500    
   X9.7731       Y9.9244       R0.2500    
   X9.7612       Y9.9857       R0.2500    
   X9.7656       Y10.0480      R0.2500    
   X9.7861       Y10.1070      R0.2500    
   X9.8210       Y10.1587      R0.2500    
   X9.8682       Y10.1996      R0.2500    
   X9.9244       Y10.2269      R0.2500    
   X9.9857       Y10.2388      R0.2500    
   X10.0480      Y10.2344      R0.2500    
   X10.1070      Y10.2139      R0.2500    
   X10.1587      Y10.1790      R0.2500    
   X10.1996      Y10.1318      R0.2500    
   X10.2269      Y10.0756      R0.2500    
   X10.2388      Y10.0143      R0.2500    
   X10.2344      Y9.9520       R0.2500    
   X10.2139      Y9.8930       R0.2500    
   X10.1790      Y9.8413       R0.2500    
   X10.1318      Y9.8004       R0.2500    
   X10.0756      Y9.7731       R0.2500    
   X10.0143      Y9.7612       R0.2500    
   X9.9520       Y9.7656       R0.2500    
   X9.8930       Y9.7861       R0.2500    
(Pass: 25)
G1   Z-2.500     F1000
G17 G2   X9.8413       Y9.8210       R0.2500     F2000
   X9.8004       Y9.8682       R0.2500    
   X9.7731       Y9.9244       R0.2500    
   X9.7612       Y9.9857       R0.2500    
   X9.7656       Y10.0480      R0.2500    
   X9.7861       Y10.1070      R0.2500    
   X9.8210       Y10.1587      R0.2500    
   X9.8682       Y10.1996      R0.2500    
   X9.9244       Y10.2269      R0.2500    
   X9.9857       Y10.2388      R0.2500    
   X10.0480      Y10.2344      R0.2500    
   X10.1070      Y10.2139      R0.2500    
   X10.1587      Y10.1790      R0.2500    
   X10.1996      Y10.1318      R0.2500    
   X10.2269      Y10.0756      R0.2500    
   X10.2388      Y10.0143      R0.2500    
   X10.2344      Y9.9520       R0.2500    
   X10.2139      Y9.8930       R0.2500    
   X10.1790      Y9.8413       R0.2500    
   X10.1318      Y9.8004       R0.2500    
   X10.0756      Y9.7731       R0.2500    
   X10.0143      Y9.7612       R0.2500    
   X9.9520       Y9.7656       R0.2500    
   X9.8930       Y9.7861       R0.2500    
(Pass: 26)
G1   Z-2.600     F1000
G17 G2   X9.8413       Y9.8210       R0.2500     F2000
   X9.8004       Y9.8682       R0.2500    
   X9.7731       Y9.9244       R0.2500    
   X9.7612       Y9.9857       R0.2500    
   X9.7656       Y10.0480      R0.2500    
   X9.7861       Y10.1070      R0.2500    
   X9.8210       Y10.1587      R0.2500    
   X9.8682       Y10.1996      R0.2500    
   X9.9244       Y10.2269      R0.2500    
   X9.9857       Y10.2388      R0.2500    
   X10.0480      Y10.2344      R0.2500    
   X10.1070      Y10.2139      R0.2500    
   X10.1587      Y10.1790      R0.2500    
   X10.1996      Y10.1318      R0.2500    
   X10.2269      Y10.0756      R0.2500    
   X10.2388      Y10.0143      R0.2500    
   X10.2344      Y9.9520       R0.2500    
   X10.2139      Y9.8930       R0.2500    
   X10.1790      Y9.8413       R0.2500    
   X10.1318      Y9.8004       R0.2500    
   X10.0756      Y9.7731       R0.2500    
   X10.0143      Y9.7612       R0.2500    
   X9.9520       Y9.7656       R0.2500    
   X9.8930       Y9.7861       R0.2500    
(Pass: 27)
G1   Z-2.700     F1000
G17 G2   X9.8413       Y9.8210       R0.2500     F2000
   X9.8004       Y9.8682       R0.2500    
   X9.7731       Y9.9244       R0.2500    
   X9.7612       Y9.9857       R0.2500    
   X9.7656       Y10.0480      R0.2500    
   X9.7861       Y10.1070      R0.2500    
   X9.8210       Y10.1587      R0.2500    
   X9.8682       Y10.1996      R0.2500    
   X9.9244       Y10.2269      R0.2500    
   X9.9857       Y10.2388      R0.2500    
   X10.0480      Y10.2344      R0.2500    
   X10.1070      Y10.2139      R0.2500    
   X10.1587      Y10.1790      R0.2500    
   X10.1996      Y10.1318      R0.2500    
   X10.2269      Y10.0756      R0.2500    
   X10.2388      Y10.0143      R0.2500    
   X10.2344      Y9.9520       R0.2500    
   X10.2139      Y9.8930       R0.2500    
   X10.1790      Y9.8413       R0.2500    
   X10.1318      Y9.8004       R0.2500    
   X10.0756      Y9.7731       R0.2500    
   X10.0143      Y9.7612       R0.2500    
   X9.9520       Y9.7656       R0.2500    
   X9.8930       Y9.7861       R0.2500    
(Pass: 28)
G1   Z-2.800     F1000
G17 G2   X9.8413       Y9.8210       R0.2500     F2000
   X9.8004       Y9.8682       R0.2500    
   X9.7731       Y9.9244       R0.2500    
   X9.7612       Y9.9857       R0.2500    
   X9.7656       Y10.0480      R0.2500    
   X9.7861       Y10.1070      R0.2500    
   X9.8210       Y10.1587      R0.2500    
   X9.8682       Y10.1996      R0.2500    
   X9.9244       Y10.2269      R0.2500    
   X9.9857       Y10.2388      R0.2500    
   X10.0480      Y10.2344      R0.2500    
   X10.1070      Y10.2139      R0.2500    
   X10.1587      Y10.1790      R0.2500    
   X10.1996      Y10.1318      R0.2500    
   X10.2269      Y10.0756      R0.2500    
   X10.2388      Y10.0143      R0.2500    
   X10.2344      Y9.9520       R0.2500    
   X10.2139      Y9.8930       R0.2500    
   X10.1790      Y9.8413       R0.2500    
   X10.1318      Y9.8004       R0.2500    
   X10.0756      Y9.7731       R0.2500    
   X10.0143      Y9.7612       R0.2500    
   X9.9520       Y9.7656       R0.2500    
   X9.8930       Y9.7861       R0.2500    
(Pass: 29)
G1   Z-2.900     F1000
G17 G2   X9.8413       Y9.8210       R0.2500     F2000
   X9.8004       Y9.8682       R0.2500    
   X9.7731       Y9.9244       R0.2500    
   X9.7612       Y9.9857       R0.2500    
   X9.7656       Y10.0480      R0.2500    
   X9.7861       Y10.1070      R0.2500    
   X9.8210       Y10.1587      R0.2500    
   X9.8682       Y10.1996      R0.2500    
   X9.9244       Y10.2269      R0.2500    
   X9.9857       Y10.2388      R0.2500    
   X10.0480      Y10.2344      R0.2500    
   X10.1070      Y10.2139      R0.2500    
   X10.1587      Y10.1790      R0.2500    
   X10.1996      Y10.1318      R0.2500    
   X10.2269      Y10.0756      R0.2500    
   X10.2388      Y10.0143      R0.2500    
   X10.2344      Y9.9520       R0.2500    
   X10.2139      Y9.8930       R0.2500    
   X10.1790      Y9.8413       R0.2500    
   X10.1318      Y9.8004       R0.2500    
   X10.0756      Y9.7731       R0.2500    
   X10.0143      Y9.7612       R0.2500    
   X9.9520       Y9.7656       R0.2500    
   X9.8930       Y9.7861       R0.2500    
(Pass: 30)
G1   Z-3.000     F1000
G17 G2   X9.8413       Y9.8210       R0.2500     F2000
   X9.8004       Y9.8682       R0.2500    
   X9.7731       Y9.9244       R0.2500    
   X9.7612       Y9.9857       R0.2500    
   X9.7656       Y10.0480      R0.2500    
   X9.7861       Y10.1070      R0.2500    
   X9.8210       Y10.1587      R0.2500    
   X9.8682       Y10.1996      R0.2500    
   X9.9244       Y10.2269      R0.2500    
   X9.9857       Y10.2388      R0.2500    
   X10.0480      Y10.2344      R0.2500    
   X10.1070      Y10.2139      R0.2500    
   X10.1587      Y10.1790      R0.2500    
   X10.1996      Y10.1318      R0.2500    
   X10.2269      Y10.0756      R0.2500    
   X10.2388      Y10.0143      R0.2500    
   X10.2344      Y9.9520       R0.2500    
   X10.2139      Y9.8930       R0.2500    
   X10.1790      Y9.8413       R0.2500    
   X10.1318      Y9.8004       R0.2500    
   X10.0756      Y9.7731       R0.2500    
   X10.0143      Y9.7612       R0.2500    
   X9.9520       Y9.7656       R0.2500    
   X9.8930       Y9.7861       R0.2500    
(Pass: 31)
G1   Z-3.100     F1000
G17 G2   X9.8413       Y9.8210       R0.2500     F2000
   X9.8004       Y9.8682       R0.2500    
   X9.7731       Y9.9244       R0.2500    
   X9.7612       Y9.9857       R0.2500    
   X9.7656       Y10.0480      R0.2500    
   X9.7861       Y10.1070      R0.2500    
   X9.8210       Y10.1587      R0.2500    
   X9.8682       Y10.1996      R0.2500    
   X9.9244       Y10.2269      R0.2500    
   X9.9857       Y10.2388      R0.2500    
   X10.0480      Y10.2344      R0.2500    
   X10.1070      Y10.2139      R0.2500    
   X10.1587      Y10.1790      R0.2500    
   X10.1996      Y10.1318      R0.2500    
   X10.2269      Y10.0756      R0.2500    
   X10.2388      Y10.0143      R0.2500    
   X10.2344      Y9.9520       R0.2500    
   X10.2139      Y9.8930       R0.2500    
   X10.1790      Y9.8413       R0.2500    
   X10.1318      Y9.8004       R0.2500    
   X10.0756      Y9.7731       R0.2500    
   X10.0143      Y9.7612       R0.2500    
   X9.9520       Y9.7656       R0.2500    
   X9.8930       Y9.7861       R0.2500    
(Pass: 32)
G1   Z-3.200     F1000
G17 G2   X9.8413       Y9.8210       R0.2500     F2000
   X9.8004       Y9.8682       R0.2500    
   X9.7731       Y9.9244       R0.2500    
   X9.7612       Y9.9857       R0.2500    
   X9.7656       Y10.0480      R0.2500    
   X9.7861       Y10.1070      R0.2500    
   X9.8210       Y10.1587      R0.2500    
   X9.8682       Y10.1996      R0.2500    
   X9.9244       Y10.2269      R0.2500    
   X9.9857       Y10.2388      R0.2500    
   X10.0480      Y10.2344      R0.2500    
   X10.1070      Y10.2139      R0.2500    
   X10.1587      Y10.1790      R0.2500    
   X10.1996      Y10.1318      R0.2500    
   X10.2269      Y10.0756      R0.2500    
   X10.2388      Y10.0143      R0.2500    
   X10.2344      Y9.9520       R0.2500    
   X10.2139      Y9.8930       R0.2500    
   X10.1790      Y9.8413       R0.2500    
   X10.1318      Y9.8004       R0.2500    
   X10.0756      Y9.7731       R0.2500    
   X10.0143      Y9.7612       R0.2500    
   X9.9520       Y9.7656       R0.2500    
   X9.8930       Y9.7861       R0.2500    
(Pass: 33)
G1   Z-3.300     F1000
G17 G2   X9.8413       Y9.8210       R0.2500     F2000
   X9.8004       Y9.8682       R0.2500    
   X9.7731       Y9.9244       R0.2500    
   X9.7612       Y9.9857       R0.2500    
   X9.7656       Y10.0480      R0.2500    
   X9.7861       Y10.1070      R0.2500    
   X9.8210       Y10.1587      R0.2500    
   X9.8682       Y10.1996      R0.2500    
   X9.9244       Y10.2269      R0.2500    
   X9.9857       Y10.2388      R0.2500    
   X10.0480      Y10.2344      R0.2500    
   X10.1070      Y10.2139      R0.2500    
   X10.1587      Y10.1790      R0.2500    
   X10.1996      Y10.1318      R0.2500    
   X10.2269      Y10.0756      R0.2500    
   X10.2388      Y10.0143      R0.2500    
   X10.2344      Y9.9520       R0.2500    
   X10.2139      Y9.8930       R0.2500    
   X10.1790      Y9.8413       R0.2500    
   X10.1318      Y9.8004       R0.2500    
   X10.0756      Y9.7731       R0.2500    
   X10.0143      Y9.7612       R0.2500    
   X9.9520       Y9.7656       R0.2500    
   X9.8930       Y9.7861       R0.2500    
(Pass: 34)
G1   Z-3.400     F1000
G17 G2   X9.8413       Y9.8210       R0.2500     F2000
   X9.8004       Y9.8682       R0.2500    
   X9.7731       Y9.9244       R0.2500    
   X9.7612       Y9.9857       R0.2500    
   X9.7656       Y10.0480      R0.2500    
   X9.7861       Y10.1070      R0.2500    
   X9.8210       Y10.1587      R0.2500    
   X9.8682       Y10.1996      R0.2500    
   X9.9244       Y10.2269      R0.2500    
   X9.9857       Y10.2388      R0.2500    
   X10.0480      Y10.2344      R0.2500    
   X10.1070      Y10.2139      R0.2500    
   X10.1587      Y10.1790      R0.2500    
   X10.1996      Y10.1318      R0.2500    
   X10.2269      Y10.0756      R0.2500    
   X10.2388      Y10.0143      R0.2500    
   X10.2344      Y9.9520       R0.2500    
   X10.2139      Y9.8930       R0.2500    
   X10.1790      Y9.8413       R0.2500    
   X10.1318      Y9.8004       R0.2500    
   X10.0756      Y9.7731       R0.2500    
   X10.0143      Y9.7612       R0.2500    
   X9.9520       Y9.7656       R0.2500    
   X9.8930       Y9.7861       R0.2500    
G0   Z5.000     
(Pass: 1)
   X18.761       Y10.018    
G1   Z-0.100     F1000
G17 G2   X18.8078      Y10.3383      R1.2500     F2000
   X18.9360      Y10.6353      R1.2500    
   X19.1367      Y10.8890      R1.2500    
   X19.3962      Y11.0822      R1.2500    
   X19.6969      Y11.2016      R1.2500    
   X20.0182      Y11.2391      R1.2500    
   X20.3383      Y11.1922      R1.2500    
   X20.6353      Y11.0640      R1.2500    
   X20.8890      Y10.8633      R1.2500    
   X21.0822      Y10.6038      R1.2500    
   X21.2016      Y10.3031      R1.2500    
   X21.2391      Y9.9818       R1.2500    
   X21.1922      Y9.6617       R1.2500    
   X21.0640      Y9.3647       R1.2500    
   X20.8633      Y9.1110       R1.2500    
   X20.6038      Y8.9178       R1.2500    
   X20.3031      Y8.7984       R1.2500    
   X19.9818      Y8.7609       R1.2500    
   X19.6617      Y8.8078       R1.2500    
   X19.3647      Y8.9360       R1.2500    
   X19.1110      Y9.1367       R1.2500    
   X18.9178      Y9.3962       R1.2500    
   X18.7984      Y9.6969       R1.2500    
   X18.7609      Y10.0182      R1.2500    
(Pass: 2)
G1   Z-0.200     F1000
G17 G2   X18.8078      Y10.3383      R1.2500     F2000
   X18.9360      Y10.6353      R1.2500    
   X19.1367      Y10.8890      R1.2500    
   X19.3962      Y11.0822      R1.2500    
   X19.6969      Y11.2016      R1.2500    
   X20.0182      Y11.2391      R1.2500    
   X20.3383      Y11.1922      R1.2500    
   X20.6353      Y11.0640      R1.2500    
   X20.8890      Y10.8633      R1.2500    
   X21.0822      Y10.6038      R1.2500    
   X21.2016      Y10.3031      R1.2500    
   X21.2391      Y9.9818       R1.2500    
   X21.1922      Y9.6617       R1.2500    
   X21.0640      Y9.3647       R1.2500    
   X20.8633      Y9.1110       R1.2500    
   X20.6038      Y8.9178       R1.2500    
   X20.3031      Y8.7984       R1.2500    
   X19.9818      Y8.7609       R1.2500    
   X19.6617      Y8.8078       R1.2500    
   X19.3647      Y8.9360       R1.2500    
   X19.1110      Y9.1367       R1.2500    
   X18.9178      Y9.3962       R1.2500    
   X18.7984      Y9.6969       R1.2500    
   X18.7609      Y10.0182      R1.2500    
(Pass: 3)
G1   Z-0.300     F1000
G17 G2   X18.8078      Y10.3383      R1.2500     F2000
   X18.9360      Y10.6353      R1.2500    
   X19.1367      Y10.8890      R1.2500    
   X19.3962      Y11.0822      R1.2500    
   X19.6969      Y11.2016      R1.2500    
   X20.0182      Y11.2391      R1.2500    
   X20.3383      Y11.1922      R1.2500    
   X20.6353      Y11.0640      R1.2500    
   X20.8890      Y10.8633      R1.2500    
   X21.0822      Y10.6038      R1.2500    
   X21.2016      Y10.3031      R1.2500    
   X21.2391      Y9.9818       R1.2500    
   X21.1922      Y9.6617       R1.2500    
   X21.0640      Y9.3647       R1.2500    
   X20.8633      Y9.1110       R1.2500    
   X20.6038      Y8.9178       R1.2500    
   X20.3031      Y8.7984       R1.2500    
   X19.9818      Y8.7609       R1.2500    
   X19.6617      Y8.8078       R1.2500    
   X19.3647      Y8.9360       R1.2500    
   X19.1110      Y9.1367       R1.2500    
   X18.9178      Y9.3962       R1.2500    
   X18.7984      Y9.6969       R1.2500    
   X18.7609      Y10.0182      R1.2500    
(Pass: 4)
G1   Z-0.400     F1000
G17 G2   X18.8078      Y10.3383      R1.2500     F2000
   X18.9360      Y10.6353      R1.2500    
   X19.1367      Y10.8890      R1.2500    
   X19.3962      Y11.0822      R1.2500    
   X19.6969      Y11.2016      R1.2500    
   X20.0182      Y11.2391      R1.2500    
   X20.3383      Y11.1922      R1.2500    
   X20.6353      Y11.0640      R1.2500    
   X20.8890      Y10.8633      R1.2500    
   X21.0822      Y10.6038      R1.2500    
   X21.2016      Y10.3031      R1.2500    
   X21.2391      Y9.9818       R1.2500    
   X21.1922      Y9.6617       R1.2500    
   X21.0640      Y9.3647       R1.2500    
   X20.8633      Y9.1110       R1.2500    
   X20.6038      Y8.9178       R1.2500    
   X20.3031      Y8.7984       R1.2500    
   X19.9818      Y8.7609       R1.2500    
   X19.6617      Y8.8078       R1.2500    
   X19.3647      Y8.9360       R1.2500    
   X19.1110      Y9.1367       R1.2500    
   X18.9178      Y9.3962       R1.2500    
   X18.7984      Y9.6969       R1.2500    
   X18.7609      Y10.0182      R1.2500    
(Pass: 5)
G1   Z-0.500     F1000
G17 G2   X18.8078      Y10.3383      R1.2500     F2000
   X18.9360      Y10.6353      R1.2500    
   X19.1367      Y10.8890      R1.2500    
   X19.3962      Y11.0822      R1.2500    
   X19.6969      Y11.2016      R1.2500    
   X20.0182      Y11.2391      R1.2500    
   X20.3383      Y11.1922      R1.2500    
   X20.6353      Y11.0640      R1.2500    
   X20.8890      Y10.8633      R1.2500    
   X21.0822      Y10.6038      R1.2500    
   X21.2016      Y10.3031      R1.2500    
   X21.2391      Y9.9818       R1.2500    
   X21.1922      Y9.6617       R1.2500    
   X21.0640      Y9.3647       R1.2500    
   X20.8633      Y9.1110       R1.2500    
   X20.6038      Y8.9178       R1.2500    
   X20.3031      Y8.7984       R1.2500    
   X19.9818      Y8.7609       R1.2500    
   X19.6617      Y8.8078       R1.2500    
   X19.3647      Y8.9360       R1.2500    
   X19.1110      Y9.1367       R1.2500    
   X18.9178      Y9.3962       R1.2500    
   X18.7984      Y9.6969       R1.2500    
   X18.7609      Y10.0182      R1.2500    
(Pass: 6)
G1   Z-0.600     F1000
G17 G2   X18.8078      Y10.3383      R1.2500     F2000
   X18.9360      Y10.6353      R1.2500    
   X19.1367      Y10.8890      R1.2500    
   X19.3962      Y11.0822      R1.2500    
   X19.6969      Y11.2016      R1.2500    
   X20.0182      Y11.2391      R1.2500    
   X20.3383      Y11.1922      R1.2500    
   X20.6353      Y11.0640      R1.2500    
   X20.8890      Y10.8633      R1.2500    
   X21.0822      Y10.6038      R1.2500    
   X21.2016      Y10.3031      R1.2500    
   X21.2391      Y9.9818       R1.2500    
   X21.1922      Y9.6617       R1.2500    
   X21.0640      Y9.3647       R1.2500    
   X20.8633      Y9.1110       R1.2500    
   X20.6038      Y8.9178       R1.2500    
   X20.3031      Y8.7984       R1.2500    
   X19.9818      Y8.7609       R1.2500    
   X19.6617      Y8.8078       R1.2500    
   X19.3647      Y8.9360       R1.2500    
   X19.1110      Y9.1367       R1.2500    
   X18.9178      Y9.3962       R1.2500    
   X18.7984      Y9.6969       R1.2500    
   X18.7609      Y10.0182      R1.2500    
(Pass: 7)
G1   Z-0.700     F1000
G17 G2   X18.8078      Y10.3383      R1.2500     F2000
   X18.9360      Y10.6353      R1.2500    
   X19.1367      Y10.8890      R1.2500    
   X19.3962      Y11.0822      R1.2500    
   X19.6969      Y11.2016      R1.2500    
   X20.0182      Y11.2391      R1.2500    
   X20.3383      Y11.1922      R1.2500    
   X20.6353      Y11.0640      R1.2500    
   X20.8890      Y10.8633      R1.2500    
   X21.0822      Y10.6038      R1.2500    
   X21.2016      Y10.3031      R1.2500    
   X21.2391      Y9.9818       R1.2500    
   X21.1922      Y9.6617       R1.2500    
   X21.0640      Y9.3647       R1.2500    
   X20.8633      Y9.1110       R1.2500    
   X20.6038      Y8.9178       R1.2500    
   X20.3031      Y8.7984       R1.2500    
   X19.9818      Y8.7609       R1.2500    
   X19.6617      Y8.8078       R1.2500    
   X19.3647      Y8.9360       R1.2500    
   X19.1110      Y9.1367       R1.2500    
   X18.9178      Y9.3962       R1.2500    
   X18.7984      Y9.6969       R1.2500    
   X18.7609      Y10.0182      R1.2500    
(Pass: 8)
G1   Z-0.800     F1000
G17 G2   X18.8078      Y10.3383      R1.2500     F2000
   X18.9360      Y10.6353      R1.2500    
   X19.1367      Y10.8890      R1.2500    
   X19.3962      Y11.0822      R1.2500    
   X19.6969      Y11.2016      R1.2500    
   X20.0182      Y11.2391      R1.2500    
   X20.3383      Y11.1922      R1.2500    
   X20.6353      Y11.0640      R1.2500    
   X20.8890      Y10.8633      R1.2500    
   X21.0822      Y10.6038      R1.2500    
   X21.2016      Y10.3031      R1.2500    
   X21.2391      Y9.9818       R1.2500    
   X21.1922      Y9.6617       R1.2500    
   X21.0640      Y9.3647       R1.2500    
   X20.8633      Y9.1110       R1.2500    
   X20.6038      Y8.9178       R1.2500    
   X20.3031      Y8.7984       R1.2500    
   X19.9818      Y8.7609       R1.2500    
   X19.6617      Y8.8078       R1.2500    
   X19.3647      Y8.9360       R1.2500    
   X19.1110      Y9.1367       R1.2500    
   X18.9178      Y9.3962       R1.2500    
   X18.7984      Y9.6969       R1.2500    
   X18.7609      Y10.0182      R1.2500    
(Pass: 9)
G1   Z-0.900     F1000
G17 G2   X18.8078      Y10.3383      R1.2500     F2000
   X18.9360      Y10.6353      R1.2500    
   X19.1367      Y10.8890      R1.2500    
   X19.3962      Y11.0822      R1.2500    
   X19.6969      Y11.2016      R1.2500    
   X20.0182      Y11.2391      R1.2500    
   X20.3383      Y11.1922      R1.2500    
   X20.6353      Y11.0640      R1.2500    
   X20.8890      Y10.8633      R1.2500    
   X21.0822      Y10.6038      R1.2500    
   X21.2016      Y10.3031      R1.2500    
   X21.2391      Y9.9818       R1.2500    
   X21.1922      Y9.6617       R1.2500    
   X21.0640      Y9.3647       R1.2500    
   X20.8633      Y9.1110       R1.2500    
   X20.6038      Y8.9178       R1.2500    
   X20.3031      Y8.7984       R1.2500    
   X19.9818      Y8.7609       R1.2500    
   X19.6617      Y8.8078       R1.2500    
   X19.3647      Y8.9360       R1.2500    
   X19.1110      Y9.1367       R1.2500    
   X18.9178      Y9.3962       R1.2500    
   X18.7984      Y9.6969       R1.2500    
   X18.7609      Y10.0182      R1.2500    
(Pass: 10)
G1   Z-1.000     F1000
G17 G2   X18.8078      Y10.3383      R1.2500     F2000
   X18.9360      Y10.6353      R1.2500    
   X19.1367      Y10.8890      R1.2500    
   X19.3962      Y11.0822      R1.2500    
   X19.6969      Y11.2016      R1.2500    
   X20.0182      Y11.2391      R1.2500    
   X20.3383      Y11.1922      R1.2500    
   X20.6353      Y11.0640      R1.2500    
   X20.8890      Y10.8633      R1.2500    
   X21.0822      Y10.6038      R1.2500    
   X21.2016      Y10.3031      R1.2500    
   X21.2391      Y9.9818       R1.2500    
   X21.1922      Y9.6617       R1.2500    
   X21.0640      Y9.3647       R1.2500    
   X20.8633      Y9.1110       R1.2500    
   X20.6038      Y8.9178       R1.2500    
   X20.3031      Y8.7984       R1.2500    
   X19.9818      Y8.7609       R1.2500    
   X19.6617      Y8.8078       R1.2500    
   X19.3647      Y8.9360       R1.2500    
   X19.1110      Y9.1367       R1.2500    
   X18.9178      Y9.3962       R1.2500    
   X18.7984      Y9.6969       R1.2500    
   X18.7609      Y10.0182      R1.2500    
(Pass: 11)
G1   Z-1.100     F1000
G17 G2   X18.8078      Y10.3383      R1.2500     F2000
   X18.9360      Y10.6353      R1.2500    
   X19.1367      Y10.8890      R1.2500    
   X19.3962      Y11.0822      R1.2500    
   X19.6969      Y11.2016      R1.2500    
   X20.0182      Y11.2391      R1.2500    
   X20.3383      Y11.1922      R1.2500    
   X20.6353      Y11.0640      R1.2500    
   X20.8890      Y10.8633      R1.2500    
   X21.0822      Y10.6038      R1.2500    
   X21.2016      Y10.3031      R1.2500    
   X21.2391      Y9.9818       R1.2500    
   X21.1922      Y9.6617       R1.2500    
   X21.0640      Y9.3647       R1.2500    
   X20.8633      Y9.1110       R1.2500    
   X20.6038      Y8.9178       R1.2500    
   X20.3031      Y8.7984       R1.2500    
   X19.9818      Y8.7609       R1.2500    
   X19.6617      Y8.8078       R1.2500    
   X19.3647      Y8.9360       R1.2500    
   X19.1110      Y9.1367       R1.2500    
   X18.9178      Y9.3962       R1.2500    
   X18.7984      Y9.6969       R1.2500    
   X18.7609      Y10.0182      R1.2500    
(Pass: 12)
G1   Z-1.200     F1000
G17 G2   X18.8078      Y10.3383      R1.2500     F2000
   X18.9360      Y10.6353      R1.2500    
   X19.1367      Y10.8890      R1.2500    
   X19.3962      Y11.0822      R1.2500    
   X19.6969      Y11.2016      R1.2500    
   X20.0182      Y11.2391      R1.2500    
   X20.3383      Y11.1922      R1.2500    
   X20.6353      Y11.0640      R1.2500    
   X20.8890      Y10.8633      R1.2500    
   X21.0822      Y10.6038      R1.2500    
   X21.2016      Y10.3031      R1.2500    
   X21.2391      Y9.9818       R1.2500    
   X21.1922      Y9.6617       R1.2500    
   X21.0640      Y9.3647       R1.2500    
   X20.8633      Y9.1110       R1.2500    
   X20.6038      Y8.9178       R1.2500    
   X20.3031      Y8.7984       R1.2500    
   X19.9818      Y8.7609       R1.2500    
   X19.6617      Y8.8078       R1.2500    
   X19.3647      Y8.9360       R1.2500    
   X19.1110      Y9.1367       R1.2500    
   X18.9178      Y9.3962       R1.2500    
   X18.7984      Y9.6969       R1.2500    
   X18.7609      Y10.0182      R1.2500    
(Pass: 13)
G1   Z-1.300     F1000
G17 G2   X18.8078      Y10.3383      R1.2500     F2000
   X18.9360      Y10.6353      R1.2500    
   X19.1367      Y10.8890      R1.2500    
   X19.3962      Y11.0822      R1.2500    
   X19.6969      Y11.2016      R1.2500    
   X20.0182      Y11.2391      R1.2500    
   X20.3383      Y11.1922      R1.2500    
   X20.6353      Y11.0640      R1.2500    
   X20.8890      Y10.8633      R1.2500    
   X21.0822      Y10.6038      R1.2500    
   X21.2016      Y10.3031      R1.2500    
   X21.2391      Y9.9818       R1.2500    
   X21.1922      Y9.6617       R1.2500    
   X21.0640      Y9.3647       R1.2500    
   X20.8633      Y9.1110       R1.2500    
   X20.6038      Y8.9178       R1.2500    
   X20.3031      Y8.7984       R1.2500    
   X19.9818      Y8.7609       R1.2500    
   X19.6617      Y8.8078       R1.2500    
   X19.3647      Y8.9360       R1.2500    
   X19.1110      Y9.1367       R1.2500    
   X18.9178      Y9.3962       R1.2500    
   X18.7984      Y9.6969       R1.2500    
   X18.7609      Y10.0182      R1.2500    
(Pass: 14)
G1   Z-1.400     F1000
G17 G2   X18.8078      Y10.3383      R1.2500     F2000
   X18.9360      Y10.6353      R1.2500    
   X19.1367      Y10.8890      R1.2500    
   X19.3962      Y11.0822      R1.2500    
   X19.6969      Y11.2016      R1.2500    
   X20.0182      Y11.2391      R1.2500    
   X20.3383      Y11.1922      R1.2500    
   X20.6353      Y11.0640      R1.2500    
   X20.8890      Y10.8633      R1.2500    
   X21.0822      Y10.6038      R1.2500    
   X21.2016      Y10.3031      R1.2500    
   X21.2391      Y9.9818       R1.2500    
   X21.1922      Y9.6617       R1.2500    
   X21.0640      Y9.3647       R1.2500    
   X20.8633      Y9.1110       R1.2500    
   X20.6038      Y8.9178       R1.2500    
   X20.3031      Y8.7984       R1.2500    
   X19.9818      Y8.7609       R1.2500    
   X19.6617      Y8.8078       R1.2500    
   X19.3647      Y8.9360       R1.2500    
   X19.1110      Y9.1367       R1.2500    
   X18.9178      Y9.3962       R1.2500    
   X18.7984      Y9.6969       R1.2500    
   X18.7609      Y10.0182      R1.2500    
(Pass: 15)
G1   Z-1.500     F1000
G17 G2   X18.8078      Y10.3383      R1.2500     F2000
   X18.9360      Y10.6353      R1.2500    
   X19.1367      Y10.8890      R1.2500    
   X19.3962      Y11.0822      R1.2500    
   X19.6969      Y11.2016      R1.2500    
   X20.0182      Y11.2391      R1.2500    
   X20.3383      Y11.1922      R1.2500    
   X20.6353      Y11.0640      R1.2500    
   X20.8890      Y10.8633      R1.2500    
   X21.0822      Y10.6038      R1.2500    
   X21.2016      Y10.3031      R1.2500    
   X21.2391      Y9.9818       R1.2500    
   X21.1922      Y9.6617       R1.2500    
   X21.0640      Y9.3647       R1.2500    
   X20.8633      Y9.1110       R1.2500    
   X20.6038      Y8.9178       R1.2500    
   X20.3031      Y8.7984       R1.2500    
   X19.9818      Y8.7609       R1.2500    
   X19.6617      Y8.8078       R1.2500    
   X19.3647      Y8.9360       R1.2500    
   X19.1110      Y9.1367       R1.2500    
   X18.9178      Y9.3962       R1.2500    
   X18.7984      Y9.6969       R1.2500    
   X18.7609      Y10.0182      R1.2500    
(Pass: 16)
G1   Z-1.600     F1000
G17 G2   X18.8078      Y10.3383      R1.2500     F2000
   X18.9360      Y10.6353      R1.2500    
   X19.1367      Y10.8890      R1.2500    
   X19.3962      Y11.0822      R1.2500    
   X19.6969      Y11.2016      R1.2500    
   X20.0182      Y11.2391      R1.2500    
   X20.3383      Y11.1922      R1.2500    
   X20.6353      Y11.0640      R1.2500    
   X20.8890      Y10.8633      R1.2500    
   X21.0822      Y10.6038      R1.2500    
   X21.2016      Y10.3031      R1.2500    
   X21.2391      Y9.9818       R1.2500    
   X21.1922      Y9.6617       R1.2500    
   X21.0640      Y9.3647       R1.2500    
   X20.8633      Y9.1110       R1.2500    
   X20.6038      Y8.9178       R1.2500    
   X20.3031      Y8.7984       R1.2500    
   X19.9818      Y8.7609       R1.2500    
   X19.6617      Y8.8078       R1.2500    
   X19.3647      Y8.9360       R1.2500    
   X19.1110      Y9.1367       R1.2500    
   X18.9178      Y9.3962       R1.2500    
   X18.7984      Y9.6969       R1.2500    
   X18.7609      Y10.0182      R1.2500    
(Pass: 17)
G1   Z-1.700     F1000
G17 G2   X18.8078      Y10.3383      R1.2500     F2000
   X18.9360      Y10.6353      R1.2500    
   X19.1367      Y10.8890      R1.2500    
   X19.3962      Y11.0822      R1.2500    
   X19.6969      Y11.2016      R1.2500    
   X20.0182      Y11.2391      R1.2500    
   X20.3383      Y11.1922      R1.2500    
   X20.6353      Y11.0640      R1.2500    
   X20.8890      Y10.8633      R1.2500    
   X21.0822      Y10.6038      R1.2500    
   X21.2016      Y10.3031      R1.2500    
   X21.2391      Y9.9818       R1.2500    
   X21.1922      Y9.6617       R1.2500    
   X21.0640      Y9.3647       R1.2500    
   X20.8633      Y9.1110       R1.2500    
   X20.6038      Y8.9178       R1.2500    
   X20.3031      Y8.7984       R1.2500    
   X19.9818      Y8.7609       R1.2500    
   X19.6617      Y8.8078       R1.2500    
   X19.3647      Y8.9360       R1.2500    
   X19.1110      Y9.1367       R1.2500    
   X18.9178      Y9.3962       R1.2500    
   X18.7984      Y9.6969       R1.2500    
   X18.7609      Y10.0182      R1.2500    
(Pass: 18)
G1   Z-1.800     F1000
G17 G2   X18.8078      Y10.3383      R1.2500     F2000
   X18.9360      Y10.6353      R1.2500    
   X19.1367      Y10.8890      R1.2500    
   X19.3962      Y11.0822      R1.2500    
   X19.6969      Y11.2016      R1.2500    
   X20.0182      Y11.2391      R1.2500    
   X20.3383      Y11.1922      R1.2500    
   X20.6353      Y11.0640      R1.2500    
   X20.8890      Y10.8633      R1.2500    
   X21.0822      Y10.6038      R1.2500    
   X21.2016      Y10.3031      R1.2500    
   X21.2391      Y9.9818       R1.2500    
   X21.1922      Y9.6617       R1.2500    
   X21.0640      Y9.3647       R1.2500    
   X20.8633      Y9.1110       R1.2500    
   X20.6038      Y8.9178       R1.2500    
   X20.3031      Y8.7984       R1.2500    
   X19.9818      Y8.7609       R1.2500    
   X19.6617      Y8.8078       R1.2500    
   X19.3647      Y8.9360       R1.2500    
   X19.1110      Y9.1367       R1.2500    
   X18.9178      Y9.3962       R1.2500    
   X18.7984      Y9.6969       R1.2500    
   X18.7609      Y10.0182      R1.2500    
(Pass: 19)
G1   Z-1.900     F1000
G17 G2   X18.8078      Y10.3383      R1.2500     F2000
   X18.9360      Y10.6353      R1.2500    
   X19.1367      Y10.8890      R1.2500    
   X19.3962      Y11.0822      R1.2500    
   X19.6969      Y11.2016      R1.2500    
   X20.0182      Y11.2391      R1.2500    
   X20.3383      Y11.1922      R1.2500    
   X20.6353      Y11.0640      R1.2500    
   X20.8890      Y10.8633      R1.2500    
   X21.0822      Y10.6038      R1.2500    
   X21.2016      Y10.3031      R1.2500    
   X21.2391      Y9.9818       R1.2500    
   X21.1922      Y9.6617       R1.2500    
   X21.0640      Y9.3647       R1.2500    
   X20.8633      Y9.1110       R1.2500    
   X20.6038      Y8.9178       R1.2500    
   X20.3031      Y8.7984       R1.2500    
   X19.9818      Y8.7609       R1.2500    
   X19.6617      Y8.8078       R1.2500    
   X19.3647      Y8.9360       R1.2500    
   X19.1110      Y9.1367       R1.2500    
   X18.9178      Y9.3962       R1.2500    
   X18.7984      Y9.6969       R1.2500    
   X18.7609      Y10.0182      R1.2500    
(Pass: 20)
G1   Z-2.000     F1000
G17 G2   X18.8078      Y10.3383      R1.2500     F2000
   X18.9360      Y10.6353      R1.2500    
   X19.1367      Y10.8890      R1.2500    
   X19.3962      Y11.0822      R1.2500    
   X19.6969      Y11.2016      R1.2500    
   X20.0182      Y11.2391      R1.2500    
   X20.3383      Y11.1922      R1.2500    
   X20.6353      Y11.0640      R1.2500    
   X20.8890      Y10.8633      R1.2500    
   X21.0822      Y10.6038      R1.2500    
   X21.2016      Y10.3031      R1.2500    
   X21.2391      Y9.9818       R1.2500    
   X21.1922      Y9.6617       R1.2500    
   X21.0640      Y9.3647       R1.2500    
   X20.8633      Y9.1110       R1.2500    
   X20.6038      Y8.9178       R1.2500    
   X20.3031      Y8.7984       R1.2500    
   X19.9818      Y8.7609       R1.2500    
   X19.6617      Y8.8078       R1.2500    
   X19.3647      Y8.9360       R1.2500    
   X19.1110      Y9.1367       R1.2500    
   X18.9178      Y9.3962       R1.2500    
   X18.7984      Y9.6969       R1.2500    
   X18.7609      Y10.0182      R1.2500    
(Pass: 21)
G1   Z-2.100     F1000
G17 G2   X18.8078      Y10.3383      R1.2500     F2000
   X18.9360      Y10.6353      R1.2500    
   X19.1367      Y10.8890      R1.2500    
   X19.3962      Y11.0822      R1.2500    
   X19.6969      Y11.2016      R1.2500    
   X20.0182      Y11.2391      R1.2500    
   X20.3383      Y11.1922      R1.2500    
   X20.6353      Y11.0640      R1.2500    
   X20.8890      Y10.8633      R1.2500    
   X21.0822      Y10.6038      R1.2500    
   X21.2016      Y10.3031      R1.2500    
   X21.2391      Y9.9818       R1.2500    
   X21.1922      Y9.6617       R1.2500    
   X21.0640      Y9.3647       R1.2500    
   X20.8633      Y9.1110       R1.2500    
   X20.6038      Y8.9178       R1.2500    
   X20.3031      Y8.7984       R1.2500    
   X19.9818      Y8.7609       R1.2500    
   X19.6617      Y8.8078       R1.2500    
   X19.3647      Y8.9360       R1.2500    
   X19.1110      Y9.1367       R1.2500    
   X18.9178      Y9.3962       R1.2500    
   X18.7984      Y9.6969       R1.2500    
   X18.7609      Y10.0182      R1.2500    
(Pass: 22)
G1   Z-2.200     F1000
G17 G2   X18.8078      Y10.3383      R1.2500     F2000
   X18.9360      Y10.6353      R1.2500    
   X19.1367      Y10.8890      R1.2500    
   X19.3962      Y11.0822      R1.2500    
   X19.6969      Y11.2016      R1.2500    
   X20.0182      Y11.2391      R1.2500    
   X20.3383      Y11.1922      R1.2500    
   X20.6353      Y11.0640      R1.2500    
   X20.8890      Y10.8633      R1.2500    
   X21.0822      Y10.6038      R1.2500    
   X21.2016      Y10.3031      R1.2500    
   X21.2391      Y9.9818       R1.2500    
   X21.1922      Y9.6617       R1.2500    
   X21.0640      Y9.3647       R1.2500    
   X20.8633      Y9.1110       R1.2500    
   X20.6038      Y8.9178       R1.2500    
   X20.3031      Y8.7984       R1.2500    
   X19.9818      Y8.7609       R1.2500    
   X19.6617      Y8.8078       R1.2500    
   X19.3647      Y8.9360       R1.2500    
   X19.1110      Y9.1367       R1.2500    
   X18.9178      Y9.3962       R1.2500    
   X18.7984      Y9.6969       R1.2500    
   X18.7609      Y10.0182      R1.2500    
(Pass: 23)
G1   Z-2.300     F1000
G17 G2   X18.8078      Y10.3383      R1.2500     F2000
   X18.9360      Y10.6353      R1.2500    
   X19.1367      Y10.8890      R1.2500    
   X19.3962      Y11.0822      R1.2500    
   X19.6969      Y11.2016      R1.2500    
   X20.0182      Y11.2391      R1.2500    
   X20.3383      Y11.1922      R1.2500    
   X20.6353      Y11.0640      R1.2500    
   X20.8890      Y10.8633      R1.2500    
   X21.0822      Y10.6038      R1.2500    
   X21.2016      Y10.3031      R1.2500    
   X21.2391      Y9.9818       R1.2500    
   X21.1922      Y9.6617       R1.2500    
   X21.0640      Y9.3647       R1.2500    
   X20.8633      Y9.1110       R1.2500    
   X20.6038      Y8.9178       R1.2500    
   X20.3031      Y8.7984       R1.2500    
   X19.9818      Y8.7609       R1.2500    
   X19.6617      Y8.8078       R1.2500    
   X19.3647      Y8.9360       R1.2500    
   X19.1110      Y9.1367       R1.2500    
   X18.9178      Y9.3962       R1.2500    
   X18.7984      Y9.6969       R1.2500    
   X18.7609      Y10.0182      R1.2500    
(Pass: 24)
G1   Z-2.400     F1000
G17 G2   X18.8078      Y10.3383      R1.2500     F2000
   X18.9360      Y10.6353      R1.2500    
   X19.1367      Y10.8890      R1.2500    
   X19.3962      Y11.0822      R1.2500    
   X19.6969      Y11.2016      R1.2500    
   X20.0182      Y11.2391      R1.2500    
   X20.3383      Y11.1922      R1.2500    
   X20.6353      Y11.0640      R1.2500    
   X20.8890      Y10.8633      R1.2500    
   X21.0822      Y10.6038      R1.2500    
   X21.2016      Y10.3031      R1.2500    
   X21.2391      Y9.9818       R1.2500    
   X21.1922      Y9.6617       R1.2500    
   X21.0640      Y9.3647       R1.2500    
   X20.8633      Y9.1110       R1.2500    
   X20.6038      Y8.9178       R1.2500    
   X20.3031      Y8.7984       R1.2500    
   X19.9818      Y8.7609       R1.2500    
   X19.6617      Y8.8078       R1.2500    
   X19.3647      Y8.9360       R1.2500    
   X19.1110      Y9.1367       R1.2500    
   X18.9178      Y9.3962       R1.2500    
   X18.7984      Y9.6969       R1.2500    
   X18.7609      Y10.0182      R1.2500    
(Pass: 25)
G1   Z-2.500     F1000
G17 G2   X18.8078      Y10.3383      R1.2500     F2000
   X18.9360      Y10.6353      R1.2500    
   X19.1367      Y10.8890      R1.2500    
   X19.3962      Y11.0822      R1.2500    
   X19.6969      Y11.2016      R1.2500    
   X20.0182      Y11.2391      R1.2500    
   X20.3383      Y11.1922      R1.2500    
   X20.6353      Y11.0640      R1.2500    
   X20.8890      Y10.8633      R1.2500    
   X21.0822      Y10.6038      R1.2500    
   X21.2016      Y10.3031      R1.2500    
   X21.2391      Y9.9818       R1.2500    
   X21.1922      Y9.6617       R1.2500    
   X21.0640      Y9.3647       R1.2500    
   X20.8633      Y9.1110       R1.2500    
   X20.6038      Y8.9178       R1.2500    
   X20.3031      Y8.7984       R1.2500    
   X19.9818      Y8.7609       R1.2500    
   X19.6617      Y8.8078       R1.2500    
   X19.3647      Y8.9360       R1.2500    
   X19.1110      Y9.1367       R1.2500    
   X18.9178      Y9.3962       R1.2500    
   X18.7984      Y9.6969       R1.2500    
   X18.7609      Y10.0182      R1.2500    
(Pass: 26)
G1   Z-2.600     F1000
G17 G2   X18.8078      Y10.3383      R1.2500     F2000
   X18.9360      Y10.6353      R1.2500    
   X19.1367      Y10.8890      R1.2500    
   X19.3962      Y11.0822      R1.2500    
   X19.6969      Y11.2016      R1.2500    
   X20.0182      Y11.2391      R1.2500    
   X20.3383      Y11.1922      R1.2500    
   X20.6353      Y11.0640      R1.2500    
   X20.8890      Y10.8633      R1.2500    
   X21.0822      Y10.6038      R1.2500    
   X21.2016      Y10.3031      R1.2500    
   X21.2391      Y9.9818       R1.2500    
   X21.1922      Y9.6617       R1.2500    
   X21.0640      Y9.3647       R1.2500    
   X20.8633      Y9.1110       R1.2500    
   X20.6038      Y8.9178       R1.2500    
   X20.3031      Y8.7984       R1.2500    
   X19.9818      Y8.7609       R1.2500    
   X19.6617      Y8.8078       R1.2500    
   X19.3647      Y8.9360       R1.2500    
   X19.1110      Y9.1367       R1.2500    
   X18.9178      Y9.3962       R1.2500    
   X18.7984      Y9.6969       R1.2500    
   X18.7609      Y10.0182      R1.2500    
(Pass: 27)
G1   Z-2.700     F1000
G17 G2   X18.8078      Y10.3383      R1.2500     F2000
   X18.9360      Y10.6353      R1.2500    
   X19.1367      Y10.8890      R1.2500    
   X19.3962      Y11.0822      R1.2500    
   X19.6969      Y11.2016      R1.2500    
   X20.0182      Y11.2391      R1.2500    
   X20.3383      Y11.1922      R1.2500    
   X20.6353      Y11.0640      R1.2500    
   X20.8890      Y10.8633      R1.2500    
   X21.0822      Y10.6038      R1.2500    
   X21.2016      Y10.3031      R1.2500    
   X21.2391      Y9.9818       R1.2500    
   X21.1922      Y9.6617       R1.2500    
   X21.0640      Y9.3647       R1.2500    
   X20.8633      Y9.1110       R1.2500    
   X20.6038      Y8.9178       R1.2500    
   X20.3031      Y8.7984       R1.2500    
   X19.9818      Y8.7609       R1.2500    
   X19.6617      Y8.8078       R1.2500    
   X19.3647      Y8.9360       R1.2500    
   X19.1110      Y9.1367       R1.2500    
   X18.9178      Y9.3962       R1.2500    
   X18.7984      Y9.6969       R1.2500    
   X18.7609      Y10.0182      R1.2500    
(Pass: 28)
G1   Z-2.800     F1000
G17 G2   X18.8078      Y10.3383      R1.2500     F2000
   X18.9360      Y10.6353      R1.2500    
   X19.1367      Y10.8890      R1.2500    
   X19.3962      Y11.0822      R1.2500    
   X19.6969      Y11.2016      R1.2500    
   X20.0182      Y11.2391      R1.2500    
   X20.3383      Y11.1922      R1.2500    
   X20.6353      Y11.0640      R1.2500    
   X20.8890      Y10.8633      R1.2500    
   X21.0822      Y10.6038      R1.2500    
   X21.2016      Y10.3031      R1.2500    
   X21.2391      Y9.9818       R1.2500    
   X21.1922      Y9.6617       R1.2500    
   X21.0640      Y9.3647       R1.2500    
   X20.8633      Y9.1110       R1.2500    
   X20.6038      Y8.9178       R1.2500    
   X20.3031      Y8.7984       R1.2500    
   X19.9818      Y8.7609       R1.2500    
   X19.6617      Y8.8078       R1.2500    
   X19.3647      Y8.9360       R1.2500    
   X19.1110      Y9.1367       R1.2500    
   X18.9178      Y9.3962       R1.2500    
   X18.7984      Y9.6969       R1.2500    
   X18.7609      Y10.0182      R1.2500    
(Pass: 29)
G1   Z-2.900     F1000
G17 G2   X18.8078      Y10.3383      R1.2500     F2000
   X18.9360      Y10.6353      R1.2500    
   X19.1367      Y10.8890      R1.2500    
   X19.3962      Y11.0822      R1.2500    
   X19.6969      Y11.2016      R1.2500    
   X20.0182      Y11.2391      R1.2500    
   X20.3383      Y11.1922      R1.2500    
   X20.6353      Y11.0640      R1.2500    
   X20.8890      Y10.8633      R1.2500    
   X21.0822      Y10.6038      R1.2500    
   X21.2016      Y10.3031      R1.2500    
   X21.2391      Y9.9818       R1.2500    
   X21.1922      Y9.6617       R1.2500    
   X21.0640      Y9.3647       R1.2500    
   X20.8633      Y9.1110       R1.2500    
   X20.6038      Y8.9178       R1.2500    
   X20.3031      Y8.7984       R1.2500    
   X19.9818      Y8.7609       R1.2500    
   X19.6617      Y8.8078       R1.2500    
   X19.3647      Y8.9360       R1.2500    
   X19.1110      Y9.1367       R1.2500    
   X18.9178      Y9.3962       R1.2500    
   X18.7984      Y9.6969       R1.2500    
   X18.7609      Y10.0182      R1.2500    
(Pass: 30)
G1   Z-3.000     F1000
G17 G2   X18.8078      Y10.3383      R1.2500     F2000
   X18.9360      Y10.6353      R1.2500    
   X19.1367      Y10.8890      R1.2500    
   X19.3962      Y11.0822      R1.2500    
   X19.6969      Y11.2016      R1.2500    
   X20.0182      Y11.2391      R1.2500    
   X20.3383      Y11.1922      R1.2500    
   X20.6353      Y11.0640      R1.2500    
   X20.8890      Y10.8633      R1.2500    
   X21.0822      Y10.6038      R1.2500    
   X21.2016      Y10.3031      R1.2500    
   X21.2391      Y9.9818       R1.2500    
   X21.1922      Y9.6617       R1.2500    
   X21.0640      Y9.3647       R1.2500    
   X20.8633      Y9.1110       R1.2500    
   X20.6038      Y8.9178       R1.2500    
   X20.3031      Y8.7984       R1.2500    
   X19.9818      Y8.7609       R1.2500    
   X19.6617      Y8.8078       R1.2500    
   X19.3647      Y8.9360       R1.2500    
   X19.1110      Y9.1367       R1.2500    
   X18.9178      Y9.3962       R1.2500    
   X18.7984      Y9.6969       R1.2500    
   X18.7609      Y10.0182      R1.2500    
(Pass: 31)
G1   Z-3.100     F1000
G17 G2   X18.8078      Y10.3383      R1.2500     F2000
   X18.9360      Y10.6353      R1.2500    
   X19.1367      Y10.8890      R1.2500    
   X19.3962      Y11.0822      R1.2500    
   X19.6969      Y11.2016      R1.2500    
   X20.0182      Y11.2391      R1.2500    
   X20.3383      Y11.1922      R1.2500    
   X20.6353      Y11.0640      R1.2500    
   X20.8890      Y10.8633      R1.2500    
   X21.0822      Y10.6038      R1.2500    
   X21.2016      Y10.3031      R1.2500    
   X21.2391      Y9.9818       R1.2500    
   X21.1922      Y9.6617       R1.2500    
   X21.0640      Y9.3647       R1.2500    
   X20.8633      Y9.1110       R1.2500    
   X20.6038      Y8.9178       R1.2500    
   X20.3031      Y8.7984       R1.2500    
   X19.9818      Y8.7609       R1.2500    
   X19.6617      Y8.8078       R1.2500    
   X19.3647      Y8.9360       R1.2500    
   X19.1110      Y9.1367       R1.2500    
   X18.9178      Y9.3962       R1.2500    
   X18.7984      Y9.6969       R1.2500    
   X18.7609      Y10.0182      R1.2500    
(Pass: 32)
G1   Z-3.200     F1000
G17 G2   X18.8078      Y10.3383      R1.2500     F2000
   X18.9360      Y10.6353      R1.2500    
   X19.1367      Y10.8890      R1.2500    
   X19.3962      Y11.0822      R1.2500    
   X19.6969      Y11.2016      R1.2500    
   X20.0182      Y11.2391      R1.2500    
   X20.3383      Y11.1922      R1.2500    
   X20.6353      Y11.0640      R1.2500    
   X20.8890      Y10.8633      R1.2500    
   X21.0822      Y10.6038      R1.2500    
   X21.2016      Y10.3031      R1.2500    
   X21.2391      Y9.9818       R1.2500    
   X21.1922      Y9.6617       R1.2500    
   X21.0640      Y9.3647       R1.2500    
   X20.8633      Y9.1110       R1.2500    
   X20.6038      Y8.9178       R1.2500    
   X20.3031      Y8.7984       R1.2500    
   X19.9818      Y8.7609       R1.2500    
   X19.6617      Y8.8078       R1.2500    
   X19.3647      Y8.9360       R1.2500    
   X19.1110      Y9.1367       R1.2500    
   X18.9178      Y9.3962       R1.2500    
   X18.7984      Y9.6969       R1.2500    
   X18.7609      Y10.0182      R1.2500    
(Pass: 33)
G1   Z-3.300     F1000
G17 G2   X18.8078      Y10.3383      R1.2500     F2000
   X18.9360      Y10.6353      R1.2500    
   X19.1367      Y10.8890      R1.2500    
   X19.3962      Y11.0822      R1.2500    
   X19.6969      Y11.2016      R1.2500    
   X20.0182      Y11.2391      R1.2500    
   X20.3383      Y11.1922      R1.2500    
   X20.6353      Y11.0640      R1.2500    
   X20.8890      Y10.8633      R1.2500    
   X21.0822      Y10.6038      R1.2500    
   X21.2016      Y10.3031      R1.2500    
   X21.2391      Y9.9818       R1.2500    
   X21.1922      Y9.6617       R1.2500    
   X21.0640      Y9.3647       R1.2500    
   X20.8633      Y9.1110       R1.2500    
   X20.6038      Y8.9178       R1.2500    
   X20.3031      Y8.7984       R1.2500    
   X19.9818      Y8.7609       R1.2500    
   X19.6617      Y8.8078       R1.2500    
   X19.3647      Y8.9360       R1.2500    
   X19.1110      Y9.1367       R1.2500    
   X18.9178      Y9.3962       R1.2500    
   X18.7984      Y9.6969       R1.2500    
   X18.7609      Y10.0182      R1.2500    
(Pass: 34)
G1   Z-3.400     F1000
G17 G2   X18.8078      Y10.3383      R1.2500     F2000
   X18.9360      Y10.6353      R1.2500    
   X19.1367      Y10.8890      R1.2500    
   X19.3962      Y11.0822      R1.2500    
   X19.6969      Y11.2016      R1.2500    
   X20.0182      Y11.2391      R1.2500    
   X20.3383      Y11.1922      R1.2500    
   X20.6353      Y11.0640      R1.2500    
   X20.8890      Y10.8633      R1.2500    
   X21.0822      Y10.6038      R1.2500    
   X21.2016      Y10.3031      R1.2500    
   X21.2391      Y9.9818       R1.2500    
   X21.1922      Y9.6617       R1.2500    
   X21.0640      Y9.3647       R1.2500    
   X20.8633      Y9.1110       R1.2500    
   X20.6038      Y8.9178       R1.2500    
   X20.3031      Y8.7984       R1.2500    
   X19.9818      Y8.7609       R1.2500    
   X19.6617      Y8.8078       R1.2500    
   X19.3647      Y8.9360       R1.2500    
   X19.1110      Y9.1367       R1.2500    
   X18.9178      Y9.3962       R1.2500    
   X18.7984      Y9.6969       R1.2500    
   X18.7609      Y10.0182      R1.2500    
G0   Z5.000     
(Pass: 1)
   X27.719       Y10.199    
G1   Z-0.100     F1000
G17 G2   X27.8486      Y10.7823      R2.3000     F2000
   X28.1244      Y11.3124      R2.3000    
   X28.5280      Y11.7532      R2.3000    
   X29.0319      Y12.0744      R2.3000    
   X29.6018      Y12.2543      R2.3000    
   X30.1988      Y12.2806      R2.3000    
   X30.7823      Y12.1514      R2.3000    
   X31.3124      Y11.8756      R2.3000    
   X31.7532      Y11.4720      R2.3000    
   X32.0744      Y10.9681      R2.3000    
   X32.2543      Y10.3982      R2.3000    
   X32.2806      Y9.8012       R2.3000    
   X32.1514      Y9.2177       R2.3000    
   X31.8756      Y8.6876       R2.3000    
   X31.4720      Y8.2468       R2.3000    
   X30.9681      Y7.9256       R2.3000    
   X30.3982      Y7.7457       R2.3000    
   X29.8012      Y7.7194       R2.3000    
   X29.2177      Y7.8486       R2.3000    
   X28.6876      Y8.1244       R2.3000    
   X28.2468      Y8.5280       R2.3000    
   X27.9256      Y9.0319       R2.3000    
   X27.7457      Y9.6018       R2.3000    
   X27.7194      Y10.1988      R2.3000    
(Pass: 2)
G1   Z-0.200     F1000
G17 G2   X27.8486      Y10.7823      R2.3000     F2000
   X28.1244      Y11.3124      R2.3000    
   X28.5280      Y11.7532      R2.3000    
   X29.0319      Y12.0744      R2.3000    
   X29.6018      Y12.2543      R2.3000    
   X30.1988      Y12.2806      R2.3000    
   X30.7823      Y12.1514      R2.3000    
   X31.3124      Y11.8756      R2.3000    
   X31.7532      Y11.4720      R2.3000    
   X32.0744      Y10.9681      R2.3000    
   X32.2543      Y10.3982      R2.3000    
   X32.2806      Y9.8012       R2.3000    
   X32.1514      Y9.2177       R2.3000    
   X31.8756      Y8.6876       R2.3000    
   X31.4720      Y8.2468       R2.3000    
   X30.9681      Y7.9256       R2.3000    
   X30.3982      Y7.7457       R2.3000    
   X29.8012      Y7.7194       R2.3000    
   X29.2177      Y7.8486       R2.3000    
   X28.6876      Y8.1244       R2.3000    
   X28.2468      Y8.5280       R2.3000    
   X27.9256      Y9.0319       R2.3000    
   X27.7457      Y9.6018       R2.3000    
   X27.7194      Y10.1988      R2.3000    
(Pass: 3)
G1   Z-0.300     F1000
G17 G2   X27.8486      Y10.7823      R2.3000     F2000
   X28.1244      Y11.3124      R2.3000    
   X28.5280      Y11.7532      R2.3000    
   X29.0319      Y12.0744      R2.3000    
   X29.6018      Y12.2543      R2.3000    
   X30.1988      Y12.2806      R2.3000    
   X30.7823      Y12.1514      R2.3000    
   X31.3124      Y11.8756      R2.3000    
   X31.7532      Y11.4720      R2.3000    
   X32.0744      Y10.9681      R2.3000    
   X32.2543      Y10.3982      R2.3000    
   X32.2806      Y9.8012       R2.3000    
   X32.1514      Y9.2177       R2.3000    
   X31.8756      Y8.6876       R2.3000    
   X31.4720      Y8.2468       R2.3000    
   X30.9681      Y7.9256       R2.3000    
   X30.3982      Y7.7457       R2.3000    
   X29.8012      Y7.7194       R2.3000    
   X29.2177      Y7.8486       R2.3000    
   X28.6876      Y8.1244       R2.3000    
   X28.2468      Y8.5280       R2.3000    
   X27.9256      Y9.0319       R2.3000    
   X27.7457      Y9.6018       R2.3000    
   X27.7194      Y10.1988      R2.3000    
(Pass: 4)
G1   Z-0.400     F1000
G17 G2   X27.8486      Y10.7823      R2.3000     F2000
   X28.1244      Y11.3124      R2.3000    
   X28.5280      Y11.7532      R2.3000    
   X29.0319      Y12.0744      R2.3000    
   X29.6018      Y12.2543      R2.3000    
   X30.1988      Y12.2806      R2.3000    
   X30.7823      Y12.1514      R2.3000    
   X31.3124      Y11.8756      R2.3000    
   X31.7532      Y11.4720      R2.3000    
   X32.0744      Y10.9681      R2.3000    
   X32.2543      Y10.3982      R2.3000    
   X32.2806      Y9.8012       R2.3000    
   X32.1514      Y9.2177       R2.3000    
   X31.8756      Y8.6876       R2.3000    
   X31.4720      Y8.2468       R2.3000    
   X30.9681      Y7.9256       R2.3000    
   X30.3982      Y7.7457       R2.3000    
   X29.8012      Y7.7194       R2.3000    
   X29.2177      Y7.8486       R2.3000    
   X28.6876      Y8.1244       R2.3000    
   X28.2468      Y8.5280       R2.3000    
   X27.9256      Y9.0319       R2.3000    
   X27.7457      Y9.6018       R2.3000    
   X27.7194      Y10.1988      R2.3000    
(Pass: 5)
G1   Z-0.500     F1000
G17 G2   X27.8486      Y10.7823      R2.3000     F2000
   X28.1244      Y11.3124      R2.3000    
   X28.5280      Y11.7532      R2.3000    
   X29.0319      Y12.0744      R2.3000    
   X29.6018      Y12.2543      R2.3000    
   X30.1988      Y12.2806      R2.3000    
   X30.7823      Y12.1514      R2.3000    
   X31.3124      Y11.8756      R2.3000    
   X31.7532      Y11.4720      R2.3000    
   X32.0744      Y10.9681      R2.3000    
   X32.2543      Y10.3982      R2.3000    
   X32.2806      Y9.8012       R2.3000    
   X32.1514      Y9.2177       R2.3000    
   X31.8756      Y8.6876       R2.3000    
   X31.4720      Y8.2468       R2.3000    
   X30.9681      Y7.9256       R2.3000    
   X30.3982      Y7.7457       R2.3000    
   X29.8012      Y7.7194       R2.3000    
   X29.2177      Y7.8486       R2.3000    
   X28.6876      Y8.1244       R2.3000    
   X28.2468      Y8.5280       R2.3000    
   X27.9256      Y9.0319       R2.3000    
   X27.7457      Y9.6018       R2.3000    
   X27.7194      Y10.1988      R2.3000    
(Pass: 6)
G1   Z-0.600     F1000
G17 G2   X27.8486      Y10.7823      R2.3000     F2000
   X28.1244      Y11.3124      R2.3000    
   X28.5280      Y11.7532      R2.3000    
   X29.0319      Y12.0744      R2.3000    
   X29.6018      Y12.2543      R2.3000    
   X30.1988      Y12.2806      R2.3000    
   X30.7823      Y12.1514      R2.3000    
   X31.3124      Y11.8756      R2.3000    
   X31.7532      Y11.4720      R2.3000    
   X32.0744      Y10.9681      R2.3000    
   X32.2543      Y10.3982      R2.3000    
   X32.2806      Y9.8012       R2.3000    
   X32.1514      Y9.2177       R2.3000    
   X31.8756      Y8.6876       R2.3000    
   X31.4720      Y8.2468       R2.3000    
   X30.9681      Y7.9256       R2.3000    
   X30.3982      Y7.7457       R2.3000    
   X29.8012      Y7.7194       R2.3000    
   X29.2177      Y7.8486       R2.3000    
   X28.6876      Y8.1244       R2.3000    
   X28.2468      Y8.5280       R2.3000    
   X27.9256      Y9.0319       R2.3000    
   X27.7457      Y9.6018       R2.3000    
   X27.7194      Y10.1988      R2.3000    
(Pass: 7)
G1   Z-0.700     F1000
G17 G2   X27.8486      Y10.7823      R2.3000     F2000
   X28.1244      Y11.3124      R2.3000    
   X28.5280      Y11.7532      R2.3000    
   X29.0319      Y12.0744      R2.3000    
   X29.6018      Y12.2543      R2.3000    
   X30.1988      Y12.2806      R2.3000    
   X30.7823      Y12.1514      R2.3000    
   X31.3124      Y11.8756      R2.3000    
   X31.7532      Y11.4720      R2.3000    
   X32.0744      Y10.9681      R2.3000    
   X32.2543      Y10.3982      R2.3000    
   X32.2806      Y9.8012       R2.3000    
   X32.1514      Y9.2177       R2.3000    
   X31.8756      Y8.6876       R2.3000    
   X31.4720      Y8.2468       R2.3000    
   X30.9681      Y7.9256       R2.3000    
   X30.3982      Y7.7457       R2.3000    
   X29.8012      Y7.7194       R2.3000    
   X29.2177      Y7.8486       R2.3000    
   X28.6876      Y8.1244       R2.3000    
   X28.2468      Y8.5280       R2.3000    
   X27.9256      Y9.0319       R2.3000    
   X27.7457      Y9.6018       R2.3000    
   X27.7194      Y10.1988      R2.3000    
(Pass: 8)
G1   Z-0.800     F1000
G17 G2   X27.8486      Y10.7823      R2.3000     F2000
   X28.1244      Y11.3124      R2.3000    
   X28.5280      Y11.7532      R2.3000    
   X29.0319      Y12.0744      R2.3000    
   X29.6018      Y12.2543      R2.3000    
   X30.1988      Y12.2806      R2.3000    
   X30.7823      Y12.1514      R2.3000    
   X31.3124      Y11.8756      R2.3000    
   X31.7532      Y11.4720      R2.3000    
   X32.0744      Y10.9681      R2.3000    
   X32.2543      Y10.3982      R2.3000    
   X32.2806      Y9.8012       R2.3000    
   X32.1514      Y9.2177       R2.3000    
   X31.8756      Y8.6876       R2.3000    
   X31.4720      Y8.2468       R2.3000    
   X30.9681      Y7.9256       R2.3000    
   X30.3982      Y7.7457       R2.3000    
   X29.8012      Y7.7194       R2.3000    
   X29.2177      Y7.8486       R2.3000    
   X28.6876      Y8.1244       R2.3000    
   X28.2468      Y8.5280       R2.3000    
   X27.9256      Y9.0319       R2.3000    
   X27.7457      Y9.6018       R2.3000    
   X27.7194      Y10.1988      R2.3000    
(Pass: 9)
G1   Z-0.900     F1000
G17 G2   X27.8486      Y10.7823      R2.3000     F2000
   X28.1244      Y11.3124      R2.3000    
   X28.5280      Y11.7532      R2.3000    
   X29.0319      Y12.0744      R2.3000    
   X29.6018      Y12.2543      R2.3000    
   X30.1988      Y12.2806      R2.3000    
   X30.7823      Y12.1514      R2.3000    
   X31.3124      Y11.8756      R2.3000    
   X31.7532      Y11.4720      R2.3000    
   X32.0744      Y10.9681      R2.3000    
   X32.2543      Y10.3982      R2.3000    
   X32.2806      Y9.8012       R2.3000    
   X32.1514      Y9.2177       R2.3000    
   X31.8756      Y8.6876       R2.3000    
   X31.4720      Y8.2468       R2.3000    
   X30.9681      Y7.9256       R2.3000    
   X30.3982      Y7.7457       R2.3000    
   X29.8012      Y7.7194       R2.3000    
   X29.2177      Y7.8486       R2.3000    
   X28.6876      Y8.1244       R2.3000    
   X28.2468      Y8.5280       R2.3000    
   X27.9256      Y9.0319       R2.3000    
   X27.7457      Y9.6018       R2.3000    
   X27.7194      Y10.1988      R2.3000    
(Pass: 10)
G1   Z-1.000     F1000
G17 G2   X27.8486      Y10.7823      R2.3000     F2000
   X28.1244      Y11.3124      R2.3000    
   X28.5280      Y11.7532      R2.3000    
   X29.0319      Y12.0744      R2.3000    
   X29.6018      Y12.2543      R2.3000    
   X30.1988      Y12.2806      R2.3000    
   X30.7823      Y12.1514      R2.3000    
   X31.3124      Y11.8756      R2.3000    
   X31.7532      Y11.4720      R2.3000    
   X32.0744      Y10.9681      R2.3000    
   X32.2543      Y10.3982      R2.3000    
   X32.2806      Y9.8012       R2.3000    
   X32.1514      Y9.2177       R2.3000    
   X31.8756      Y8.6876       R2.3000    
   X31.4720      Y8.2468       R2.3000    
   X30.9681      Y7.9256       R2.3000    
   X30.3982      Y7.7457       R2.3000    
   X29.8012      Y7.7194       R2.3000    
   X29.2177      Y7.8486       R2.3000    
   X28.6876      Y8.1244       R2.3000    
   X28.2468      Y8.5280       R2.3000    
   X27.9256      Y9.0319       R2.3000    
   X27.7457      Y9.6018       R2.3000    
   X27.7194      Y10.1988      R2.3000    
(Pass: 11)
G1   Z-1.100     F1000
G17 G2   X27.8486      Y10.7823      R2.3000     F2000
   X28.1244      Y11.3124      R2.3000    
   X28.5280      Y11.7532      R2.3000    
   X29.0319      Y12.0744      R2.3000    
   X29.6018      Y12.2543      R2.3000    
   X30.1988      Y12.2806      R2.3000    
   X30.7823      Y12.1514      R2.3000    
   X31.3124      Y11.8756      R2.3000    
   X31.7532      Y11.4720      R2.3000    
   X32.0744      Y10.9681      R2.3000    
   X32.2543      Y10.3982      R2.3000    
   X32.2806      Y9.8012       R2.3000    
   X32.1514      Y9.2177       R2.3000    
   X31.8756      Y8.6876       R2.3000    
   X31.4720      Y8.2468       R2.3000    
   X30.9681      Y7.9256       R2.3000    
   X30.3982      Y7.7457       R2.3000    
   X29.8012      Y7.7194       R2.3000    
   X29.2177      Y7.8486       R2.3000    
   X28.6876      Y8.1244       R2.3000    
   X28.2468      Y8.5280       R2.3000    
   X27.9256      Y9.0319       R2.3000    
   X27.7457      Y9.6018       R2.3000    
   X27.7194      Y10.1988      R2.3000    
(Pass: 12)
G1   Z-1.200     F1000
G17 G2   X27.8486      Y10.7823      R2.3000     F2000
   X28.1244      Y11.3124      R2.3000    
   X28.5280      Y11.7532      R2.3000    
   X29.0319      Y12.0744      R2.3000    
   X29.6018      Y12.2543      R2.3000    
   X30.1988      Y12.2806      R2.3000    
   X30.7823      Y12.1514      R2.3000    
   X31.3124      Y11.8756      R2.3000    
   X31.7532      Y11.4720      R2.3000    
   X32.0744      Y10.9681      R2.3000    
   X32.2543      Y10.3982      R2.3000    
   X32.2806      Y9.8012       R2.3000    
   X32.1514      Y9.2177       R2.3000    
   X31.8756      Y8.6876       R2.3000    
   X31.4720      Y8.2468       R2.3000    
   X30.9681      Y7.9256       R2.3000    
   X30.3982      Y7.7457       R2.3000    
   X29.8012      Y7.7194       R2.3000    
   X29.2177      Y7.8486       R2.3000    
   X28.6876      Y8.1244       R2.3000    
   X28.2468      Y8.5280       R2.3000    
   X27.9256      Y9.0319       R2.3000    
   X27.7457      Y9.6018       R2.3000    
   X27.7194      Y10.1988      R2.3000    
(Pass: 13)
G1   Z-1.300     F1000
G17 G2   X27.8486      Y10.7823      R2.3000     F2000
   X28.1244      Y11.3124      R2.3000    
   X28.5280      Y11.7532      R2.3000    
   X29.0319      Y12.0744      R2.3000    
   X29.6018      Y12.2543      R2.3000    
   X30.1988      Y12.2806      R2.3000    
   X30.7823      Y12.1514      R2.3000    
   X31.3124      Y11.8756      R2.3000    
   X31.7532      Y11.4720      R2.3000    
   X32.0744      Y10.9681      R2.3000    
   X32.2543      Y10.3982      R2.3000    
   X32.2806      Y9.8012       R2.3000    
   X32.1514      Y9.2177       R2.3000    
   X31.8756      Y8.6876       R2.3000    
   X31.4720      Y8.2468       R2.3000    
   X30.9681      Y7.9256       R2.3000    
   X30.3982      Y7.7457       R2.3000    
   X29.8012      Y7.7194       R2.3000    
   X29.2177      Y7.8486       R2.3000    
   X28.6876      Y8.1244       R2.3000    
   X28.2468      Y8.5280       R2.3000    
   X27.9256      Y9.0319       R2.3000    
   X27.7457      Y9.6018       R2.3000    
   X27.7194      Y10.1988      R2.3000    
(Pass: 14)
G1   Z-1.400     F1000
G17 G2   X27.8486      Y10.7823      R2.3000     F2000
   X28.1244      Y11.3124      R2.3000    
   X28.5280      Y11.7532      R2.3000    
   X29.0319      Y12.0744      R2.3000    
   X29.6018      Y12.2543      R2.3000    
   X30.1988      Y12.2806      R2.3000    
   X30.7823      Y12.1514      R2.3000    
   X31.3124      Y11.8756      R2.3000    
   X31.7532      Y11.4720      R2.3000    
   X32.0744      Y10.9681      R2.3000    
   X32.2543      Y10.3982      R2.3000    
   X32.2806      Y9.8012       R2.3000    
   X32.1514      Y9.2177       R2.3000    
   X31.8756      Y8.6876       R2.3000    
   X31.4720      Y8.2468       R2.3000    
   X30.9681      Y7.9256       R2.3000    
   X30.3982      Y7.7457       R2.3000    
   X29.8012      Y7.7194       R2.3000    
   X29.2177      Y7.8486       R2.3000    
   X28.6876      Y8.1244       R2.3000    
   X28.2468      Y8.5280       R2.3000    
   X27.9256      Y9.0319       R2.3000    
   X27.7457      Y9.6018       R2.3000    
   X27.7194      Y10.1988      R2.3000    
(Pass: 15)
G1   Z-1.500     F1000
G17 G2   X27.8486      Y10.7823      R2.3000     F2000
   X28.1244      Y11.3124      R2.3000    
   X28.5280      Y11.7532      R2.3000    
   X29.0319      Y12.0744      R2.3000    
   X29.6018      Y12.2543      R2.3000    
   X30.1988      Y12.2806      R2.3000    
   X30.7823      Y12.1514      R2.3000    
   X31.3124      Y11.8756      R2.3000    
   X31.7532      Y11.4720      R2.3000    
   X32.0744      Y10.9681      R2.3000    
   X32.2543      Y10.3982      R2.3000    
   X32.2806      Y9.8012       R2.3000    
   X32.1514      Y9.2177       R2.3000    
   X31.8756      Y8.6876       R2.3000    
   X31.4720      Y8.2468       R2.3000    
   X30.9681      Y7.9256       R2.3000    
   X30.3982      Y7.7457       R2.3000    
   X29.8012      Y7.7194       R2.3000    
   X29.2177      Y7.8486       R2.3000    
   X28.6876      Y8.1244       R2.3000    
   X28.2468      Y8.5280       R2.3000    
   X27.9256      Y9.0319       R2.3000    
   X27.7457      Y9.6018       R2.3000    
   X27.7194      Y10.1988      R2.3000    
(Pass: 16)
G1   Z-1.600     F1000
G17 G2   X27.8486      Y10.7823      R2.3000     F2000
   X28.1244      Y11.3124      R2.3000    
   X28.5280      Y11.7532      R2.3000    
   X29.0319      Y12.0744      R2.3000    
   X29.6018      Y12.2543      R2.3000    
   X30.1988      Y12.2806      R2.3000    
   X30.7823      Y12.1514      R2.3000    
   X31.3124      Y11.8756      R2.3000    
   X31.7532      Y11.4720      R2.3000    
   X32.0744      Y10.9681      R2.3000    
   X32.2543      Y10.3982      R2.3000    
   X32.2806      Y9.8012       R2.3000    
   X32.1514      Y9.2177       R2.3000    
   X31.8756      Y8.6876       R2.3000    
   X31.4720      Y8.2468       R2.3000    
   X30.9681      Y7.9256       R2.3000    
   X30.3982      Y7.7457       R2.3000    
   X29.8012      Y7.7194       R2.3000    
   X29.2177      Y7.8486       R2.3000    
   X28.6876      Y8.1244       R2.3000    
   X28.2468      Y8.5280       R2.3000    
   X27.9256      Y9.0319       R2.3000    
   X27.7457      Y9.6018       R2.3000    
   X27.7194      Y10.1988      R2.3000    
(Pass: 17)
G1   Z-1.700     F1000
G17 G2   X27.8486      Y10.7823      R2.3000     F2000
   X28.1244      Y11.3124      R2.3000    
   X28.5280      Y11.7532      R2.3000    
   X29.0319      Y12.0744      R2.3000    
   X29.6018      Y12.2543      R2.3000    
   X30.1988      Y12.2806      R2.3000    
   X30.7823      Y12.1514      R2.3000    
   X31.3124      Y11.8756      R2.3000    
   X31.7532      Y11.4720      R2.3000    
   X32.0744      Y10.9681      R2.3000    
   X32.2543      Y10.3982      R2.3000    
   X32.2806      Y9.8012       R2.3000    
   X32.1514      Y9.2177       R2.3000    
   X31.8756      Y8.6876       R2.3000    
   X31.4720      Y8.2468       R2.3000    
   X30.9681      Y7.9256       R2.3000    
   X30.3982      Y7.7457       R2.3000    
   X29.8012      Y7.7194       R2.3000    
   X29.2177      Y7.8486       R2.3000    
   X28.6876      Y8.1244       R2.3000    
   X28.2468      Y8.5280       R2.3000    
   X27.9256      Y9.0319       R2.3000    
   X27.7457      Y9.6018       R2.3000    
   X27.7194      Y10.1988      R2.3000    
(Pass: 18)
G1   Z-1.800     F1000
G17 G2   X27.8486      Y10.7823      R2.3000     F2000
   X28.1244      Y11.3124      R2.3000    
   X28.5280      Y11.7532      R2.3000    
   X29.0319      Y12.0744      R2.3000    
   X29.6018      Y12.2543      R2.3000    
   X30.1988      Y12.2806      R2.3000    
   X30.7823      Y12.1514      R2.3000    
   X31.3124      Y11.8756      R2.3000    
   X31.7532      Y11.4720      R2.3000    
   X32.0744      Y10.9681      R2.3000    
   X32.2543      Y10.3982      R2.3000    
   X32.2806      Y9.8012       R2.3000    
   X32.1514      Y9.2177       R2.3000    
   X31.8756      Y8.6876       R2.3000    
   X31.4720      Y8.2468       R2.3000    
   X30.9681      Y7.9256       R2.3000    
   X30.3982      Y7.7457       R2.3000    
   X29.8012      Y7.7194       R2.3000    
   X29.2177      Y7.8486       R2.3000    
   X28.6876      Y8.1244       R2.3000    
   X28.2468      Y8.5280       R2.3000    
   X27.9256      Y9.0319       R2.3000    
   X27.7457      Y9.6018       R2.3000    
   X27.7194      Y10.1988      R2.3000    
(Pass: 19)
G1   Z-1.900     F1000
G17 G2   X27.8486      Y10.7823      R2.3000     F2000
   X28.1244      Y11.3124      R2.3000    
   X28.5280      Y11.7532      R2.3000    
   X29.0319      Y12.0744      R2.3000    
   X29.6018      Y12.2543      R2.3000    
   X30.1988      Y12.2806      R2.3000    
   X30.7823      Y12.1514      R2.3000    
   X31.3124      Y11.8756      R2.3000    
   X31.7532      Y11.4720      R2.3000    
   X32.0744      Y10.9681      R2.3000    
   X32.2543      Y10.3982      R2.3000    
   X32.2806      Y9.8012       R2.3000    
   X32.1514      Y9.2177       R2.3000    
   X31.8756      Y8.6876       R2.3000    
   X31.4720      Y8.2468       R2.3000    
   X30.9681      Y7.9256       R2.3000    
   X30.3982      Y7.7457       R2.3000    
   X29.8012      Y7.7194       R2.3000    
   X29.2177      Y7.8486       R2.3000    
   X28.6876      Y8.1244       R2.3000    
   X28.2468      Y8.5280       R2.3000    
   X27.9256      Y9.0319       R2.3000    
   X27.7457      Y9.6018       R2.3000    
   X27.7194      Y10.1988      R2.3000    
(Pass: 20)
G1   Z-2.000     F1000
G17 G2   X27.8486      Y10.7823      R2.3000     F2000
   X28.1244      Y11.3124      R2.3000    
   X28.5280      Y11.7532      R2.3000    
   X29.0319      Y12.0744      R2.3000    
   X29.6018      Y12.2543      R2.3000    
   X30.1988      Y12.2806      R2.3000    
   X30.7823      Y12.1514      R2.3000    
   X31.3124      Y11.8756      R2.3000    
   X31.7532      Y11.4720      R2.3000    
   X32.0744      Y10.9681      R2.3000    
   X32.2543      Y10.3982      R2.3000    
   X32.2806      Y9.8012       R2.3000    
   X32.1514      Y9.2177       R2.3000    
   X31.8756      Y8.6876       R2.3000    
   X31.4720      Y8.2468       R2.3000    
   X30.9681      Y7.9256       R2.3000    
   X30.3982      Y7.7457       R2.3000    
   X29.8012      Y7.7194       R2.3000    
   X29.2177      Y7.8486       R2.3000    
   X28.6876      Y8.1244       R2.3000    
   X28.2468      Y8.5280       R2.3000    
   X27.9256      Y9.0319       R2.3000    
   X27.7457      Y9.6018       R2.3000    
   X27.7194      Y10.1988      R2.3000    
(Pass: 21)
G1   Z-2.100     F1000
G17 G2   X27.8486      Y10.7823      R2.3000     F2000
   X28.1244      Y11.3124      R2.3000    
   X28.5280      Y11.7532      R2.3000    
   X29.0319      Y12.0744      R2.3000    
   X29.6018      Y12.2543      R2.3000    
   X30.1988      Y12.2806      R2.3000    
   X30.7823      Y12.1514      R2.3000    
   X31.3124      Y11.8756      R2.3000    
   X31.7532      Y11.4720      R2.3000    
   X32.0744      Y10.9681      R2.3000    
   X32.2543      Y10.3982      R2.3000    
   X32.2806      Y9.8012       R2.3000    
   X32.1514      Y9.2177       R2.3000    
   X31.8756      Y8.6876       R2.3000    
   X31.4720      Y8.2468       R2.3000    
   X30.9681      Y7.9256       R2.3000    
   X30.3982      Y7.7457       R2.3000    
   X29.8012      Y7.7194       R2.3000    
   X29.2177      Y7.8486       R2.3000    
   X28.6876      Y8.1244       R2.3000    
   X28.2468      Y8.5280       R2.3000    
   X27.9256      Y9.0319       R2.3000    
   X27.7457      Y9.6018       R2.3000    
   X27.7194      Y10.1988      R2.3000    
(Pass: 22)
G1   Z-2.200     F1000
G17 G2   X27.8486      Y10.7823      R2.3000     F2000
   X28.1244      Y11.3124      R2.3000    
   X28.5280      Y11.7532      R2.3000    
   X29.0319      Y12.0744      R2.3000    
   X29.6018      Y12.2543      R2.3000    
   X30.1988      Y12.2806      R2.3000    
   X30.7823      Y12.1514      R2.3000    
   X31.3124      Y11.8756      R2.3000    
   X31.7532      Y11.4720      R2.3000    
   X32.0744      Y10.9681      R2.3000    
   X32.2543      Y10.3982      R2.3000    
   X32.2806      Y9.8012       R2.3000    
   X32.1514      Y9.2177       R2.3000    
   X31.8756      Y8.6876       R2.3000    
   X31.4720      Y8.2468       R2.3000    
   X30.9681      Y7.9256       R2.3000    
   X30.3982      Y7.7457       R2.3000    
   X29.8012      Y7.7194       R2.3000    
   X29.2177      Y7.8486       R2.3000    
   X28.6876      Y8.1244       R2.3000    
   X28.2468      Y8.5280       R2.3000    
   X27.9256      Y9.0319       R2.3000    
   X27.7457      Y9.6018       R2.3000    
   X27.7194      Y10.1988      R2.3000    
(Pass: 23)
G1   Z-2.300     F1000
G17 G2   X27.8486      Y10.7823      R2.3000     F2000
   X28.1244      Y11.3124      R2.3000    
   X28.5280      Y11.7532      R2.3000    
   X29.0319      Y12.0744      R2.3000    
   X29.6018      Y12.2543      R2.3000    
   X30.1988      Y12.2806      R2.3000    
   X30.7823      Y12.1514      R2.3000    
   X31.3124      Y11.8756      R2.3000    
   X31.7532      Y11.4720      R2.3000    
   X32.0744      Y10.9681      R2.3000    
   X32.2543      Y10.3982      R2.3000    
   X32.2806      Y9.8012       R2.3000    
   X32.1514      Y9.2177       R2.3000    
   X31.8756      Y8.6876       R2.3000    
   X31.4720      Y8.2468       R2.3000    
   X30.9681      Y7.9256       R2.3000    
   X30.3982      Y7.7457       R2.3000    
   X29.8012      Y7.7194       R2.3000    
   X29.2177      Y7.8486       R2.3000    
   X28.6876      Y8.1244       R2.3000    
   X28.2468      Y8.5280       R2.3000    
   X27.9256      Y9.0319       R2.3000    
   X27.7457      Y9.6018       R2.3000    
   X27.7194      Y10.1988      R2.3000    
(Pass: 24)
G1   Z-2.400     F1000
G17 G2   X27.8486      Y10.7823      R2.3000     F2000
   X28.1244      Y11.3124      R2.3000    
   X28.5280      Y11.7532      R2.3000    
   X29.0319      Y12.0744      R2.3000    
   X29.6018      Y12.2543      R2.3000    
   X30.1988      Y12.2806      R2.3000    
   X30.7823      Y12.1514      R2.3000    
   X31.3124      Y11.8756      R2.3000    
   X31.7532      Y11.4720      R2.3000    
   X32.0744      Y10.9681      R2.3000    
   X32.2543      Y10.3982      R2.3000    
   X32.2806      Y9.8012       R2.3000    
   X32.1514      Y9.2177       R2.3000    
   X31.8756      Y8.6876       R2.3000    
   X31.4720      Y8.2468       R2.3000    
   X30.9681      Y7.9256       R2.3000    
   X30.3982      Y7.7457       R2.3000    
   X29.8012      Y7.7194       R2.3000    
   X29.2177      Y7.8486       R2.3000    
   X28.6876      Y8.1244       R2.3000    
   X28.2468      Y8.5280       R2.3000    
   X27.9256      Y9.0319       R2.3000    
   X27.7457      Y9.6018       R2.3000    
   X27.7194      Y10.1988      R2.3000    
(Pass: 25)
G1   Z-2.500     F1000
G17 G2   X27.8486      Y10.7823      R2.3000     F2000
   X28.1244      Y11.3124      R2.3000    
   X28.5280      Y11.7532      R2.3000    
   X29.0319      Y12.0744      R2.3000    
   X29.6018      Y12.2543      R2.3000    
   X30.1988      Y12.2806      R2.3000    
