%
(Generated by SketchUcam {1.2})
(Bit diameter: ~ 2.5mm)
(Feed rate: 400.0mm/min)
(Material Thickness: 3.5mm)
(Material length: 300.0mm X width: 600.0mm)
(Overhead Gantry: true)
(Retract feed rate NOT limited to plunge feed rate)
(Multipass enabled, Depth = 0.1mm)
(Optimization is ON)
(www.PhlatBoyz.com)
G90 G21 G49 
M3 S11000
G0   Z5.000     
(Pass: 1)
   X9.335        Y8.465     
G1   Z-0.100     F400 
G17 G2   X8.9947       Y8.9482       R2.2750    
   X8.7908       Y9.5030       R2.2750    
   X8.7374       Y10.0917      R2.2750    
   X8.8383       Y10.6742      R2.2750    
   X9.0864       Y11.2107      R2.2750    
   X9.4650       Y11.6647      R2.2750    
   X9.9482       Y12.0053      R2.2750    
   X10.5030      Y12.2092      R2.2750    
   X11.0917      Y12.2626      R2.2750    
   X11.6742      Y12.1617      R2.2750    
   X12.2107      Y11.9136      R2.2750    
   X12.6647      Y11.5350      R2.2750    
   X13.0053      Y11.0518      R2.2750    
   X13.2092      Y10.4970      R2.2750    
   X13.2626      Y9.9083       R2.2750    
   X13.1617      Y9.3258       R2.2750    
   X12.9136      Y8.7893       R2.2750    
   X12.5350      Y8.3353       R2.2750    
   X12.0518      Y7.9947       R2.2750    
   X11.4970      Y7.7908       R2.2750    
   X10.9083      Y7.7374       R2.2750    
   X10.3258      Y7.8383       R2.2750    
   X9.7893       Y8.0864       R2.2750    
   X9.3353       Y8.4650       R2.2750    
(Pass: 2)
G1   Z-0.200    
G17 G2   X8.9947       Y8.9482       R2.2750    
   X8.7908       Y9.5030       R2.2750    
   X8.7374       Y10.0917      R2.2750    
   X8.8383       Y10.6742      R2.2750    
   X9.0864       Y11.2107      R2.2750    
   X9.4650       Y11.6647      R2.2750    
   X9.9482       Y12.0053      R2.2750    
   X10.5030      Y12.2092      R2.2750    
   X11.0917      Y12.2626      R2.2750    
   X11.6742      Y12.1617      R2.2750    
   X12.2107      Y11.9136      R2.2750    
   X12.6647      Y11.5350      R2.2750    
   X13.0053      Y11.0518      R2.2750    
   X13.2092      Y10.4970      R2.2750    
   X13.2626      Y9.9083       R2.2750    
   X13.1617      Y9.3258       R2.2750    
   X12.9136      Y8.7893       R2.2750    
   X12.5350      Y8.3353       R2.2750    
   X12.0518      Y7.9947       R2.2750    
   X11.4970      Y7.7908       R2.2750    
   X10.9083      Y7.7374       R2.2750    
   X10.3258      Y7.8383       R2.2750    
   X9.7893       Y8.0864       R2.2750    
   X9.3353       Y8.4650       R2.2750    
(Pass: 3)
G1   Z-0.300    
G17 G2   X8.9947       Y8.9482       R2.2750    
   X8.7908       Y9.5030       R2.2750    
   X8.7374       Y10.0917      R2.2750    
   X8.8383       Y10.6742      R2.2750    
   X9.0864       Y11.2107      R2.2750    
   X9.4650       Y11.6647      R2.2750    
   X9.9482       Y12.0053      R2.2750    
   X10.5030      Y12.2092      R2.2750    
   X11.0917      Y12.2626      R2.2750    
   X11.6742      Y12.1617      R2.2750    
   X12.2107      Y11.9136      R2.2750    
   X12.6647      Y11.5350      R2.2750    
   X13.0053      Y11.0518      R2.2750    
   X13.2092      Y10.4970      R2.2750    
   X13.2626      Y9.9083       R2.2750    
   X13.1617      Y9.3258       R2.2750    
   X12.9136      Y8.7893       R2.2750    
   X12.5350      Y8.3353       R2.2750    
   X12.0518      Y7.9947       R2.2750    
   X11.4970      Y7.7908       R2.2750    
   X10.9083      Y7.7374       R2.2750    
   X10.3258      Y7.8383       R2.2750    
   X9.7893       Y8.0864       R2.2750    
   X9.3353       Y8.4650       R2.2750    
(Pass: 4)
G1   Z-0.400    
G17 G2   X8.9947       Y8.9482       R2.2750    
   X8.7908       Y9.5030       R2.2750    
   X8.7374       Y10.0917      R2.2750    
   X8.8383       Y10.6742      R2.2750    
   X9.0864       Y11.2107      R2.2750    
   X9.4650       Y11.6647      R2.2750    
   X9.9482       Y12.0053      R2.2750    
   X10.5030      Y12.2092      R2.2750    
   X11.0917      Y12.2626      R2.2750    
   X11.6742      Y12.1617      R2.2750    
   X12.2107      Y11.9136      R2.2750    
   X12.6647      Y11.5350      R2.2750    
   X13.0053      Y11.0518      R2.2750    
   X13.2092      Y10.4970      R2.2750    
   X13.2626      Y9.9083       R2.2750    
   X13.1617      Y9.3258       R2.2750    
   X12.9136      Y8.7893       R2.2750    
   X12.5350      Y8.3353       R2.2750    
   X12.0518      Y7.9947       R2.2750    
   X11.4970      Y7.7908       R2.2750    
   X10.9083      Y7.7374       R2.2750    
   X10.3258      Y7.8383       R2.2750    
   X9.7893       Y8.0864       R2.2750    
   X9.3353       Y8.4650       R2.2750    
(Pass: 5)
G1   Z-0.500    
G17 G2   X8.9947       Y8.9482       R2.2750    
   X8.7908       Y9.5030       R2.2750    
   X8.7374       Y10.0917      R2.2750    
   X8.8383       Y10.6742      R2.2750    
   X9.0864       Y11.2107      R2.2750    
   X9.4650       Y11.6647      R2.2750    
   X9.9482       Y12.0053      R2.2750    
   X10.5030      Y12.2092      R2.2750    
   X11.0917      Y12.2626      R2.2750    
   X11.6742      Y12.1617      R2.2750    
   X12.2107      Y11.9136      R2.2750    
   X12.6647      Y11.5350      R2.2750    
   X13.0053      Y11.0518      R2.2750    
   X13.2092      Y10.4970      R2.2750    
   X13.2626      Y9.9083       R2.2750    
   X13.1617      Y9.3258       R2.2750    
   X12.9136      Y8.7893       R2.2750    
   X12.5350      Y8.3353       R2.2750    
   X12.0518      Y7.9947       R2.2750    
   X11.4970      Y7.7908       R2.2750    
   X10.9083      Y7.7374       R2.2750    
   X10.3258      Y7.8383       R2.2750    
   X9.7893       Y8.0864       R2.2750    
   X9.3353       Y8.4650       R2.2750    
(Pass: 6)
G1   Z-0.600    
G17 G2   X8.9947       Y8.9482       R2.2750    
   X8.7908       Y9.5030       R2.2750    
   X8.7374       Y10.0917      R2.2750    
   X8.8383       Y10.6742      R2.2750    
   X9.0864       Y11.2107      R2.2750    
   X9.4650       Y11.6647      R2.2750    
   X9.9482       Y12.0053      R2.2750    
   X10.5030      Y12.2092      R2.2750    
   X11.0917      Y12.2626      R2.2750    
   X11.6742      Y12.1617      R2.2750    
   X12.2107      Y11.9136      R2.2750    
   X12.6647      Y11.5350      R2.2750    
   X13.0053      Y11.0518      R2.2750    
   X13.2092      Y10.4970      R2.2750    
   X13.2626      Y9.9083       R2.2750    
   X13.1617      Y9.3258       R2.2750    
   X12.9136      Y8.7893       R2.2750    
   X12.5350      Y8.3353       R2.2750    
   X12.0518      Y7.9947       R2.2750    
   X11.4970      Y7.7908       R2.2750    
   X10.9083      Y7.7374       R2.2750    
   X10.3258      Y7.8383       R2.2750    
   X9.7893       Y8.0864       R2.2750    
   X9.3353       Y8.4650       R2.2750    
(Pass: 7)
G1   Z-0.700    
G17 G2   X8.9947       Y8.9482       R2.2750    
   X8.7908       Y9.5030       R2.2750    
   X8.7374       Y10.0917      R2.2750    
   X8.8383       Y10.6742      R2.2750    
   X9.0864       Y11.2107      R2.2750    
   X9.4650       Y11.6647      R2.2750    
   X9.9482       Y12.0053      R2.2750    
   X10.5030      Y12.2092      R2.2750    
   X11.0917      Y12.2626      R2.2750    
   X11.6742      Y12.1617      R2.2750    
   X12.2107      Y11.9136      R2.2750    
   X12.6647      Y11.5350      R2.2750    
   X13.0053      Y11.0518      R2.2750    
   X13.2092      Y10.4970      R2.2750    
   X13.2626      Y9.9083       R2.2750    
   X13.1617      Y9.3258       R2.2750    
   X12.9136      Y8.7893       R2.2750    
   X12.5350      Y8.3353       R2.2750    
   X12.0518      Y7.9947       R2.2750    
   X11.4970      Y7.7908       R2.2750    
   X10.9083      Y7.7374       R2.2750    
   X10.3258      Y7.8383       R2.2750    
   X9.7893       Y8.0864       R2.2750    
   X9.3353       Y8.4650       R2.2750    
(Pass: 8)
G1   Z-0.800    
G17 G2   X8.9947       Y8.9482       R2.2750    
   X8.7908       Y9.5030       R2.2750    
   X8.7374       Y10.0917      R2.2750    
   X8.8383       Y10.6742      R2.2750    
   X9.0864       Y11.2107      R2.2750    
   X9.4650       Y11.6647      R2.2750    
   X9.9482       Y12.0053      R2.2750    
   X10.5030      Y12.2092      R2.2750    
   X11.0917      Y12.2626      R2.2750    
   X11.6742      Y12.1617      R2.2750    
   X12.2107      Y11.9136      R2.2750    
   X12.6647      Y11.5350      R2.2750    
   X13.0053      Y11.0518      R2.2750    
   X13.2092      Y10.4970      R2.2750    
   X13.2626      Y9.9083       R2.2750    
   X13.1617      Y9.3258       R2.2750    
   X12.9136      Y8.7893       R2.2750    
   X12.5350      Y8.3353       R2.2750    
   X12.0518      Y7.9947       R2.2750    
   X11.4970      Y7.7908       R2.2750    
   X10.9083      Y7.7374       R2.2750    
   X10.3258      Y7.8383       R2.2750    
   X9.7893       Y8.0864       R2.2750    
   X9.3353       Y8.4650       R2.2750    
(Pass: 9)
G1   Z-0.900    
G17 G2   X8.9947       Y8.9482       R2.2750    
   X8.7908       Y9.5030       R2.2750    
   X8.7374       Y10.0917      R2.2750    
   X8.8383       Y10.6742      R2.2750    
   X9.0864       Y11.2107      R2.2750    
   X9.4650       Y11.6647      R2.2750    
   X9.9482       Y12.0053      R2.2750    
   X10.5030      Y12.2092      R2.2750    
   X11.0917      Y12.2626      R2.2750    
   X11.6742      Y12.1617      R2.2750    
   X12.2107      Y11.9136      R2.2750    
   X12.6647      Y11.5350      R2.2750    
   X13.0053      Y11.0518      R2.2750    
   X13.2092      Y10.4970      R2.2750    
   X13.2626      Y9.9083       R2.2750    
   X13.1617      Y9.3258       R2.2750    
   X12.9136      Y8.7893       R2.2750    
   X12.5350      Y8.3353       R2.2750    
   X12.0518      Y7.9947       R2.2750    
   X11.4970      Y7.7908       R2.2750    
   X10.9083      Y7.7374       R2.2750    
   X10.3258      Y7.8383       R2.2750    
   X9.7893       Y8.0864       R2.2750    
   X9.3353       Y8.4650       R2.2750    
(Pass: 10)
G1   Z-1.000    
G17 G2   X8.9947       Y8.9482       R2.2750    
   X8.7908       Y9.5030       R2.2750    
   X8.7374       Y10.0917      R2.2750    
   X8.8383       Y10.6742      R2.2750    
   X9.0864       Y11.2107      R2.2750    
   X9.4650       Y11.6647      R2.2750    
   X9.9482       Y12.0053      R2.2750    
   X10.5030      Y12.2092      R2.2750    
   X11.0917      Y12.2626      R2.2750    
   X11.6742      Y12.1617      R2.2750    
   X12.2107      Y11.9136      R2.2750    
   X12.6647      Y11.5350      R2.2750    
   X13.0053      Y11.0518      R2.2750    
   X13.2092      Y10.4970      R2.2750    
   X13.2626      Y9.9083       R2.2750    
   X13.1617      Y9.3258       R2.2750    
   X12.9136      Y8.7893       R2.2750    
   X12.5350      Y8.3353       R2.2750    
   X12.0518      Y7.9947       R2.2750    
   X11.4970      Y7.7908       R2.2750    
   X10.9083      Y7.7374       R2.2750    
   X10.3258      Y7.8383       R2.2750    
   X9.7893       Y8.0864       R2.2750    
   X9.3353       Y8.4650       R2.2750    
(Pass: 11)
G1   Z-1.100    
G17 G2   X8.9947       Y8.9482       R2.2750    
   X8.7908       Y9.5030       R2.2750    
   X8.7374       Y10.0917      R2.2750    
   X8.8383       Y10.6742      R2.2750    
   X9.0864       Y11.2107      R2.2750    
   X9.4650       Y11.6647      R2.2750    
   X9.9482       Y12.0053      R2.2750    
   X10.5030      Y12.2092      R2.2750    
   X11.0917      Y12.2626      R2.2750    
   X11.6742      Y12.1617      R2.2750    
   X12.2107      Y11.9136      R2.2750    
   X12.6647      Y11.5350      R2.2750    
   X13.0053      Y11.0518      R2.2750    
   X13.2092      Y10.4970      R2.2750    
   X13.2626      Y9.9083       R2.2750    
   X13.1617      Y9.3258       R2.2750    
   X12.9136      Y8.7893       R2.2750    
   X12.5350      Y8.3353       R2.2750    
   X12.0518      Y7.9947       R2.2750    
   X11.4970      Y7.7908       R2.2750    
   X10.9083      Y7.7374       R2.2750    
   X10.3258      Y7.8383       R2.2750    
   X9.7893       Y8.0864       R2.2750    
   X9.3353       Y8.4650       R2.2750    
(Pass: 12)
G1   Z-1.200    
G17 G2   X8.9947       Y8.9482       R2.2750    
   X8.7908       Y9.5030       R2.2750    
   X8.7374       Y10.0917      R2.2750    
   X8.8383       Y10.6742      R2.2750    
   X9.0864       Y11.2107      R2.2750    
   X9.4650       Y11.6647      R2.2750    
   X9.9482       Y12.0053      R2.2750    
   X10.5030      Y12.2092      R2.2750    
   X11.0917      Y12.2626      R2.2750    
   X11.6742      Y12.1617      R2.2750    
   X12.2107      Y11.9136      R2.2750    
   X12.6647      Y11.5350      R2.2750    
   X13.0053      Y11.0518      R2.2750    
   X13.2092      Y10.4970      R2.2750    
   X13.2626      Y9.9083       R2.2750    
   X13.1617      Y9.3258       R2.2750    
   X12.9136      Y8.7893       R2.2750    
   X12.5350      Y8.3353       R2.2750    
   X12.0518      Y7.9947       R2.2750    
   X11.4970      Y7.7908       R2.2750    
   X10.9083      Y7.7374       R2.2750    
   X10.3258      Y7.8383       R2.2750    
   X9.7893       Y8.0864       R2.2750    
   X9.3353       Y8.4650       R2.2750    
(Pass: 13)
G1   Z-1.300    
G17 G2   X8.9947       Y8.9482       R2.2750    
   X8.7908       Y9.5030       R2.2750    
   X8.7374       Y10.0917      R2.2750    
   X8.8383       Y10.6742      R2.2750    
   X9.0864       Y11.2107      R2.2750    
   X9.4650       Y11.6647      R2.2750    
   X9.9482       Y12.0053      R2.2750    
   X10.5030      Y12.2092      R2.2750    
   X11.0917      Y12.2626      R2.2750    
   X11.6742      Y12.1617      R2.2750    
   X12.2107      Y11.9136      R2.2750    
   X12.6647      Y11.5350      R2.2750    
   X13.0053      Y11.0518      R2.2750    
   X13.2092      Y10.4970      R2.2750    
   X13.2626      Y9.9083       R2.2750    
   X13.1617      Y9.3258       R2.2750    
   X12.9136      Y8.7893       R2.2750    
   X12.5350      Y8.3353       R2.2750    
   X12.0518      Y7.9947       R2.2750    
   X11.4970      Y7.7908       R2.2750    
   X10.9083      Y7.7374       R2.2750    
   X10.3258      Y7.8383       R2.2750    
   X9.7893       Y8.0864       R2.2750    
   X9.3353       Y8.4650       R2.2750    
(Pass: 14)
G1   Z-1.400    
G17 G2   X8.9947       Y8.9482       R2.2750    
   X8.7908       Y9.5030       R2.2750    
   X8.7374       Y10.0917      R2.2750    
   X8.8383       Y10.6742      R2.2750    
   X9.0864       Y11.2107      R2.2750    
   X9.4650       Y11.6647      R2.2750    
   X9.9482       Y12.0053      R2.2750    
   X10.5030      Y12.2092      R2.2750    
   X11.0917      Y12.2626      R2.2750    
   X11.6742      Y12.1617      R2.2750    
   X12.2107      Y11.9136      R2.2750    
   X12.6647      Y11.5350      R2.2750    
   X13.0053      Y11.0518      R2.2750    
   X13.2092      Y10.4970      R2.2750    
   X13.2626      Y9.9083       R2.2750    
   X13.1617      Y9.3258       R2.2750    
   X12.9136      Y8.7893       R2.2750    
   X12.5350      Y8.3353       R2.2750    
   X12.0518      Y7.9947       R2.2750    
   X11.4970      Y7.7908       R2.2750    
   X10.9083      Y7.7374       R2.2750    
   X10.3258      Y7.8383       R2.2750    
   X9.7893       Y8.0864       R2.2750    
   X9.3353       Y8.4650       R2.2750    
(Pass: 15)
G1   Z-1.500    
G17 G2   X8.9947       Y8.9482       R2.2750    
   X8.7908       Y9.5030       R2.2750    
   X8.7374       Y10.0917      R2.2750    
   X8.8383       Y10.6742      R2.2750    
   X9.0864       Y11.2107      R2.2750    
   X9.4650       Y11.6647      R2.2750    
   X9.9482       Y12.0053      R2.2750    
   X10.5030      Y12.2092      R2.2750    
   X11.0917      Y12.2626      R2.2750    
   X11.6742      Y12.1617      R2.2750    
   X12.2107      Y11.9136      R2.2750    
   X12.6647      Y11.5350      R2.2750    
   X13.0053      Y11.0518      R2.2750    
   X13.2092      Y10.4970      R2.2750    
   X13.2626      Y9.9083       R2.2750    
   X13.1617      Y9.3258       R2.2750    
   X12.9136      Y8.7893       R2.2750    
   X12.5350      Y8.3353       R2.2750    
   X12.0518      Y7.9947       R2.2750    
   X11.4970      Y7.7908       R2.2750    
   X10.9083      Y7.7374       R2.2750    
   X10.3258      Y7.8383       R2.2750    
   X9.7893       Y8.0864       R2.2750    
   X9.3353       Y8.4650       R2.2750    
(Pass: 16)
G1   Z-1.600    
G17 G2   X8.9947       Y8.9482       R2.2750    
   X8.7908       Y9.5030       R2.2750    
   X8.7374       Y10.0917      R2.2750    
   X8.8383       Y10.6742      R2.2750    
   X9.0864       Y11.2107      R2.2750    
   X9.4650       Y11.6647      R2.2750    
   X9.9482       Y12.0053      R2.2750    
   X10.5030      Y12.2092      R2.2750    
   X11.0917      Y12.2626      R2.2750    
   X11.6742      Y12.1617      R2.2750    
   X12.2107      Y11.9136      R2.2750    
   X12.6647      Y11.5350      R2.2750    
   X13.0053      Y11.0518      R2.2750    
   X13.2092      Y10.4970      R2.2750    
   X13.2626      Y9.9083       R2.2750    
   X13.1617      Y9.3258       R2.2750    
   X12.9136      Y8.7893       R2.2750    
   X12.5350      Y8.3353       R2.2750    
   X12.0518      Y7.9947       R2.2750    
   X11.4970      Y7.7908       R2.2750    
   X10.9083      Y7.7374       R2.2750    
   X10.3258      Y7.8383       R2.2750    
   X9.7893       Y8.0864       R2.2750    
   X9.3353       Y8.4650       R2.2750    
(Pass: 17)
G1   Z-1.700    
G17 G2   X8.9947       Y8.9482       R2.2750    
   X8.7908       Y9.5030       R2.2750    
   X8.7374       Y10.0917      R2.2750    
   X8.8383       Y10.6742      R2.2750    
   X9.0864       Y11.2107      R2.2750    
   X9.4650       Y11.6647      R2.2750    
   X9.9482       Y12.0053      R2.2750    
   X10.5030      Y12.2092      R2.2750    
   X11.0917      Y12.2626      R2.2750    
   X11.6742      Y12.1617      R2.2750    
   X12.2107      Y11.9136      R2.2750    
   X12.6647      Y11.5350      R2.2750    
   X13.0053      Y11.0518      R2.2750    
   X13.2092      Y10.4970      R2.2750    
   X13.2626      Y9.9083       R2.2750    
   X13.1617      Y9.3258       R2.2750    
   X12.9136      Y8.7893       R2.2750    
   X12.5350      Y8.3353       R2.2750    
   X12.0518      Y7.9947       R2.2750    
   X11.4970      Y7.7908       R2.2750    
   X10.9083      Y7.7374       R2.2750    
   X10.3258      Y7.8383       R2.2750    
   X9.7893       Y8.0864       R2.2750    
   X9.3353       Y8.4650       R2.2750    
(Pass: 18)
G1   Z-1.800    
G17 G2   X8.9947       Y8.9482       R2.2750    
   X8.7908       Y9.5030       R2.2750    
   X8.7374       Y10.0917      R2.2750    
   X8.8383       Y10.6742      R2.2750    
   X9.0864       Y11.2107      R2.2750    
   X9.4650       Y11.6647      R2.2750    
   X9.9482       Y12.0053      R2.2750    
   X10.5030      Y12.2092      R2.2750    
   X11.0917      Y12.2626      R2.2750    
   X11.6742      Y12.1617      R2.2750    
   X12.2107      Y11.9136      R2.2750    
   X12.6647      Y11.5350      R2.2750    
   X13.0053      Y11.0518      R2.2750    
   X13.2092      Y10.4970      R2.2750    
   X13.2626      Y9.9083       R2.2750    
   X13.1617      Y9.3258       R2.2750    
   X12.9136      Y8.7893       R2.2750    
   X12.5350      Y8.3353       R2.2750    
   X12.0518      Y7.9947       R2.2750    
   X11.4970      Y7.7908       R2.2750    
   X10.9083      Y7.7374       R2.2750    
   X10.3258      Y7.8383       R2.2750    
   X9.7893       Y8.0864       R2.2750    
   X9.3353       Y8.4650       R2.2750    
(Pass: 19)
G1   Z-1.900    
G17 G2   X8.9947       Y8.9482       R2.2750    
   X8.7908       Y9.5030       R2.2750    
   X8.7374       Y10.0917      R2.2750    
   X8.8383       Y10.6742      R2.2750    
   X9.0864       Y11.2107      R2.2750    
   X9.4650       Y11.6647      R2.2750    
   X9.9482       Y12.0053      R2.2750    
   X10.5030      Y12.2092      R2.2750    
   X11.0917      Y12.2626      R2.2750    
   X11.6742      Y12.1617      R2.2750    
   X12.2107      Y11.9136      R2.2750    
   X12.6647      Y11.5350      R2.2750    
   X13.0053      Y11.0518      R2.2750    
   X13.2092      Y10.4970      R2.2750    
   X13.2626      Y9.9083       R2.2750    
   X13.1617      Y9.3258       R2.2750    
   X12.9136      Y8.7893       R2.2750    
   X12.5350      Y8.3353       R2.2750    
   X12.0518      Y7.9947       R2.2750    
   X11.4970      Y7.7908       R2.2750    
   X10.9083      Y7.7374       R2.2750    
   X10.3258      Y7.8383       R2.2750    
   X9.7893       Y8.0864       R2.2750    
   X9.3353       Y8.4650       R2.2750    
(Pass: 20)
G1   Z-2.000    
G17 G2   X8.9947       Y8.9482       R2.2750    
   X8.7908       Y9.5030       R2.2750    
   X8.7374       Y10.0917      R2.2750    
   X8.8383       Y10.6742      R2.2750    
   X9.0864       Y11.2107      R2.2750    
   X9.4650       Y11.6647      R2.2750    
   X9.9482       Y12.0053      R2.2750    
   X10.5030      Y12.2092      R2.2750    
   X11.0917      Y12.2626      R2.2750    
   X11.6742      Y12.1617      R2.2750    
   X12.2107      Y11.9136      R2.2750    
   X12.6647      Y11.5350      R2.2750    
   X13.0053      Y11.0518      R2.2750    
   X13.2092      Y10.4970      R2.2750    
   X13.2626      Y9.9083       R2.2750    
   X13.1617      Y9.3258       R2.2750    
   X12.9136      Y8.7893       R2.2750    
   X12.5350      Y8.3353       R2.2750    
   X12.0518      Y7.9947       R2.2750    
   X11.4970      Y7.7908       R2.2750    
   X10.9083      Y7.7374       R2.2750    
   X10.3258      Y7.8383       R2.2750    
   X9.7893       Y8.0864       R2.2750    
   X9.3353       Y8.4650       R2.2750    
(Pass: 21)
G1   Z-2.100    
G17 G2   X8.9947       Y8.9482       R2.2750    
   X8.7908       Y9.5030       R2.2750    
   X8.7374       Y10.0917      R2.2750    
   X8.8383       Y10.6742      R2.2750    
   X9.0864       Y11.2107      R2.2750    
   X9.4650       Y11.6647      R2.2750    
   X9.9482       Y12.0053      R2.2750    
   X10.5030      Y12.2092      R2.2750    
   X11.0917      Y12.2626      R2.2750    
   X11.6742      Y12.1617      R2.2750    
   X12.2107      Y11.9136      R2.2750    
   X12.6647      Y11.5350      R2.2750    
   X13.0053      Y11.0518      R2.2750    
   X13.2092      Y10.4970      R2.2750    
   X13.2626      Y9.9083       R2.2750    
   X13.1617      Y9.3258       R2.2750    
   X12.9136      Y8.7893       R2.2750    
   X12.5350      Y8.3353       R2.2750    
   X12.0518      Y7.9947       R2.2750    
   X11.4970      Y7.7908       R2.2750    
   X10.9083      Y7.7374       R2.2750    
   X10.3258      Y7.8383       R2.2750    
   X9.7893       Y8.0864       R2.2750    
   X9.3353       Y8.4650       R2.2750    
(Pass: 22)
G1   Z-2.200    
G17 G2   X8.9947       Y8.9482       R2.2750    
   X8.7908       Y9.5030       R2.2750    
   X8.7374       Y10.0917      R2.2750    
   X8.8383       Y10.6742      R2.2750    
   X9.0864       Y11.2107      R2.2750    
   X9.4650       Y11.6647      R2.2750    
   X9.9482       Y12.0053      R2.2750    
   X10.5030      Y12.2092      R2.2750    
   X11.0917      Y12.2626      R2.2750    
   X11.6742      Y12.1617      R2.2750    
   X12.2107      Y11.9136      R2.2750    
   X12.6647      Y11.5350      R2.2750    
   X13.0053      Y11.0518      R2.2750    
   X13.2092      Y10.4970      R2.2750    
   X13.2626      Y9.9083       R2.2750    
   X13.1617      Y9.3258       R2.2750    
   X12.9136      Y8.7893       R2.2750    
   X12.5350      Y8.3353       R2.2750    
   X12.0518      Y7.9947       R2.2750    
   X11.4970      Y7.7908       R2.2750    
   X10.9083      Y7.7374       R2.2750    
   X10.3258      Y7.8383       R2.2750    
   X9.7893       Y8.0864       R2.2750    
   X9.3353       Y8.4650       R2.2750    
(Pass: 23)
G1   Z-2.300    
G17 G2   X8.9947       Y8.9482       R2.2750    
   X8.7908       Y9.5030       R2.2750    
   X8.7374       Y10.0917      R2.2750    
   X8.8383       Y10.6742      R2.2750    
   X9.0864       Y11.2107      R2.2750    
   X9.4650       Y11.6647      R2.2750    
   X9.9482       Y12.0053      R2.2750    
   X10.5030      Y12.2092      R2.2750    
   X11.0917      Y12.2626      R2.2750    
   X11.6742      Y12.1617      R2.2750    
   X12.2107      Y11.9136      R2.2750    
   X12.6647      Y11.5350      R2.2750    
   X13.0053      Y11.0518      R2.2750    
   X13.2092      Y10.4970      R2.2750    
   X13.2626      Y9.9083       R2.2750    
   X13.1617      Y9.3258       R2.2750    
   X12.9136      Y8.7893       R2.2750    
   X12.5350      Y8.3353       R2.2750    
   X12.0518      Y7.9947       R2.2750    
   X11.4970      Y7.7908       R2.2750    
   X10.9083      Y7.7374       R2.2750    
   X10.3258      Y7.8383       R2.2750    
   X9.7893       Y8.0864       R2.2750    
   X9.3353       Y8.4650       R2.2750    
(Pass: 24)
G1   Z-2.400    
G17 G2   X8.9947       Y8.9482       R2.2750    
   X8.7908       Y9.5030       R2.2750    
   X8.7374       Y10.0917      R2.2750    
   X8.8383       Y10.6742      R2.2750    
   X9.0864       Y11.2107      R2.2750    
   X9.4650       Y11.6647      R2.2750    
   X9.9482       Y12.0053      R2.2750    
   X10.5030      Y12.2092      R2.2750    
   X11.0917      Y12.2626      R2.2750    
   X11.6742      Y12.1617      R2.2750    
   X12.2107      Y11.9136      R2.2750    
   X12.6647      Y11.5350      R2.2750    
   X13.0053      Y11.0518      R2.2750    
   X13.2092      Y10.4970      R2.2750    
   X13.2626      Y9.9083       R2.2750    
   X13.1617      Y9.3258       R2.2750    
   X12.9136      Y8.7893       R2.2750    
   X12.5350      Y8.3353       R2.2750    
   X12.0518      Y7.9947       R2.2750    
   X11.4970      Y7.7908       R2.2750    
   X10.9083      Y7.7374       R2.2750    
   X10.3258      Y7.8383       R2.2750    
   X9.7893       Y8.0864       R2.2750    
   X9.3353       Y8.4650       R2.2750    
(Pass: 25)
G1   Z-2.500    
G17 G2   X8.9947       Y8.9482       R2.2750    
   X8.7908       Y9.5030       R2.2750    
   X8.7374       Y10.0917      R2.2750    
   X8.8383       Y10.6742      R2.2750    
   X9.0864       Y11.2107      R2.2750    
   X9.4650       Y11.6647      R2.2750    
   X9.9482       Y12.0053      R2.2750    
   X10.5030      Y12.2092      R2.2750    
   X11.0917      Y12.2626      R2.2750    
   X11.6742      Y12.1617      R2.2750    
   X12.2107      Y11.9136      R2.2750    
   X12.6647      Y11.5350      R2.2750    
   X13.0053      Y11.0518      R2.2750    
   X13.2092      Y10.4970      R2.2750    
   X13.2626      Y9.9083       R2.2750    
   X13.1617      Y9.3258       R2.2750    
   X12.9136      Y8.7893       R2.2750    
   X12.5350      Y8.3353       R2.2750    
   X12.0518      Y7.9947       R2.2750    
   X11.4970      Y7.7908       R2.2750    
   X10.9083      Y7.7374       R2.2750    
   X10.3258      Y7.8383       R2.2750    
   X9.7893       Y8.0864       R2.2750    
   X9.3353       Y8.4650       R2.2750    
(Pass: 26)
G1   Z-2.600    
G17 G2   X8.9947       Y8.9482       R2.2750    
   X8.7908       Y9.5030       R2.2750    
   X8.7374       Y10.0917      R2.2750    
   X8.8383       Y10.6742      R2.2750    
   X9.0864       Y11.2107      R2.2750    
   X9.4650       Y11.6647      R2.2750    
   X9.9482       Y12.0053      R2.2750    
   X10.5030      Y12.2092      R2.2750    
   X11.0917      Y12.2626      R2.2750    
   X11.6742      Y12.1617      R2.2750    
   X12.2107      Y11.9136      R2.2750    
   X12.6647      Y11.5350      R2.2750    
   X13.0053      Y11.0518      R2.2750    
   X13.2092      Y10.4970      R2.2750    
   X13.2626      Y9.9083       R2.2750    
   X13.1617      Y9.3258       R2.2750    
   X12.9136      Y8.7893       R2.2750    
   X12.5350      Y8.3353       R2.2750    
   X12.0518      Y7.9947       R2.2750    
   X11.4970      Y7.7908       R2.2750    
   X10.9083      Y7.7374       R2.2750    
   X10.3258      Y7.8383       R2.2750    
   X9.7893       Y8.0864       R2.2750    
   X9.3353       Y8.4650       R2.2750    
(Pass: 27)
G1   Z-2.700    
G17 G2   X8.9947       Y8.9482       R2.2750    
   X8.7908       Y9.5030       R2.2750    
   X8.7374       Y10.0917      R2.2750    
   X8.8383       Y10.6742      R2.2750    
   X9.0864       Y11.2107      R2.2750    
   X9.4650       Y11.6647      R2.2750    
   X9.9482       Y12.0053      R2.2750    
   X10.5030      Y12.2092      R2.2750    
   X11.0917      Y12.2626      R2.2750    
   X11.6742      Y12.1617      R2.2750    
   X12.2107      Y11.9136      R2.2750    
   X12.6647      Y11.5350      R2.2750    
   X13.0053      Y11.0518      R2.2750    
   X13.2092      Y10.4970      R2.2750    
   X13.2626      Y9.9083       R2.2750    
   X13.1617      Y9.3258       R2.2750    
   X12.9136      Y8.7893       R2.2750    
   X12.5350      Y8.3353       R2.2750    
   X12.0518      Y7.9947       R2.2750    
   X11.4970      Y7.7908       R2.2750    
   X10.9083      Y7.7374       R2.2750    
   X10.3258      Y7.8383       R2.2750    
   X9.7893       Y8.0864       R2.2750    
   X9.3353       Y8.4650       R2.2750    
(Pass: 28)
G1   Z-2.800    
G17 G2   X8.9947       Y8.9482       R2.2750    
   X8.7908       Y9.5030       R2.2750    
   X8.7374       Y10.0917      R2.2750    
   X8.8383       Y10.6742      R2.2750    
   X9.0864       Y11.2107      R2.2750    
   X9.4650       Y11.6647      R2.2750    
   X9.9482       Y12.0053      R2.2750    
   X10.5030      Y12.2092      R2.2750    
   X11.0917      Y12.2626      R2.2750    
   X11.6742      Y12.1617      R2.2750    
   X12.2107      Y11.9136      R2.2750    
   X12.6647      Y11.5350      R2.2750    
   X13.0053      Y11.0518      R2.2750    
   X13.2092      Y10.4970      R2.2750    
   X13.2626      Y9.9083       R2.2750    
   X13.1617      Y9.3258       R2.2750    
   X12.9136      Y8.7893       R2.2750    
   X12.5350      Y8.3353       R2.2750    
   X12.0518      Y7.9947       R2.2750    
   X11.4970      Y7.7908       R2.2750    
   X10.9083      Y7.7374       R2.2750    
   X10.3258      Y7.8383       R2.2750    
   X9.7893       Y8.0864       R2.2750    
   X9.3353       Y8.4650       R2.2750    
(Pass: 29)
G1   Z-2.900    
G17 G2   X8.9947       Y8.9482       R2.2750    
   X8.7908       Y9.5030       R2.2750    
   X8.7374       Y10.0917      R2.2750    
   X8.8383       Y10.6742      R2.2750    
   X9.0864       Y11.2107      R2.2750    
   X9.4650       Y11.6647      R2.2750    
   X9.9482       Y12.0053      R2.2750    
   X10.5030      Y12.2092      R2.2750    
   X11.0917      Y12.2626      R2.2750    
   X11.6742      Y12.1617      R2.2750    
   X12.2107      Y11.9136      R2.2750    
   X12.6647      Y11.5350      R2.2750    
   X13.0053      Y11.0518      R2.2750    
   X13.2092      Y10.4970      R2.2750    
   X13.2626      Y9.9083       R2.2750    
   X13.1617      Y9.3258       R2.2750    
   X12.9136      Y8.7893       R2.2750    
   X12.5350      Y8.3353       R2.2750    
   X12.0518      Y7.9947       R2.2750    
   X11.4970      Y7.7908       R2.2750    
   X10.9083      Y7.7374       R2.2750    
   X10.3258      Y7.8383       R2.2750    
   X9.7893       Y8.0864       R2.2750    
   X9.3353       Y8.4650       R2.2750    
(Pass: 30)
G1   Z-3.000    
G17 G2   X8.9947       Y8.9482       R2.2750    
   X8.7908       Y9.5030       R2.2750    
   X8.7374       Y10.0917      R2.2750    
   X8.8383       Y10.6742      R2.2750    
   X9.0864       Y11.2107      R2.2750    
   X9.4650       Y11.6647      R2.2750    
   X9.9482       Y12.0053      R2.2750    
   X10.5030      Y12.2092      R2.2750    
   X11.0917      Y12.2626      R2.2750    
   X11.6742      Y12.1617      R2.2750    
   X12.2107      Y11.9136      R2.2750    
   X12.6647      Y11.5350      R2.2750    
   X13.0053      Y11.0518      R2.2750    
   X13.2092      Y10.4970      R2.2750    
   X13.2626      Y9.9083       R2.2750    
   X13.1617      Y9.3258       R2.2750    
   X12.9136      Y8.7893       R2.2750    
   X12.5350      Y8.3353       R2.2750    
   X12.0518      Y7.9947       R2.2750    
   X11.4970      Y7.7908       R2.2750    
   X10.9083      Y7.7374       R2.2750    
   X10.3258      Y7.8383       R2.2750    
   X9.7893       Y8.0864       R2.2750    
   X9.3353       Y8.4650       R2.2750    
(Pass: 31)
G1   Z-3.100    
G17 G2   X8.9947       Y8.9482       R2.2750    
   X8.7908       Y9.5030       R2.2750    
   X8.7374       Y10.0917      R2.2750    
   X8.8383       Y10.6742      R2.2750    
   X9.0864       Y11.2107      R2.2750    
   X9.4650       Y11.6647      R2.2750    
   X9.9482       Y12.0053      R2.2750    
   X10.5030      Y12.2092      R2.2750    
   X11.0917      Y12.2626      R2.2750    
   X11.6742      Y12.1617      R2.2750    
   X12.2107      Y11.9136      R2.2750    
   X12.6647      Y11.5350      R2.2750    
   X13.0053      Y11.0518      R2.2750    
   X13.2092      Y10.4970      R2.2750    
   X13.2626      Y9.9083       R2.2750    
   X13.1617      Y9.3258       R2.2750    
   X12.9136      Y8.7893       R2.2750    
   X12.5350      Y8.3353       R2.2750    
   X12.0518      Y7.9947       R2.2750    
   X11.4970      Y7.7908       R2.2750    
   X10.9083      Y7.7374       R2.2750    
   X10.3258      Y7.8383       R2.2750    
   X9.7893       Y8.0864       R2.2750    
   X9.3353       Y8.4650       R2.2750    
(Pass: 32)
G1   Z-3.200    
G17 G2   X8.9947       Y8.9482       R2.2750    
   X8.7908       Y9.5030       R2.2750    
   X8.7374       Y10.0917      R2.2750    
   X8.8383       Y10.6742      R2.2750    
   X9.0864       Y11.2107      R2.2750    
   X9.4650       Y11.6647      R2.2750    
   X9.9482       Y12.0053      R2.2750    
   X10.5030      Y12.2092      R2.2750    
   X11.0917      Y12.2626      R2.2750    
   X11.6742      Y12.1617      R2.2750    
   X12.2107      Y11.9136      R2.2750    
   X12.6647      Y11.5350      R2.2750    
   X13.0053      Y11.0518      R2.2750    
   X13.2092      Y10.4970      R2.2750    
   X13.2626      Y9.9083       R2.2750    
   X13.1617      Y9.3258       R2.2750    
   X12.9136      Y8.7893       R2.2750    
   X12.5350      Y8.3353       R2.2750    
   X12.0518      Y7.9947       R2.2750    
   X11.4970      Y7.7908       R2.2750    
   X10.9083      Y7.7374       R2.2750    
   X10.3258      Y7.8383       R2.2750    
   X9.7893       Y8.0864       R2.2750    
   X9.3353       Y8.4650       R2.2750    
(Pass: 33)
G1   Z-3.300    
G17 G2   X8.9947       Y8.9482       R2.2750    
   X8.7908       Y9.5030       R2.2750    
   X8.7374       Y10.0917      R2.2750    
   X8.8383       Y10.6742      R2.2750    
   X9.0864       Y11.2107      R2.2750    
   X9.4650       Y11.6647      R2.2750    
   X9.9482       Y12.0053      R2.2750    
   X10.5030      Y12.2092      R2.2750    
   X11.0917      Y12.2626      R2.2750    
   X11.6742      Y12.1617      R2.2750    
   X12.2107      Y11.9136      R2.2750    
   X12.6647      Y11.5350      R2.2750    
   X13.0053      Y11.0518      R2.2750    
   X13.2092      Y10.4970      R2.2750    
   X13.2626      Y9.9083       R2.2750    
   X13.1617      Y9.3258       R2.2750    
   X12.9136      Y8.7893       R2.2750    
   X12.5350      Y8.3353       R2.2750    
   X12.0518      Y7.9947       R2.2750    
   X11.4970      Y7.7908       R2.2750    
   X10.9083      Y7.7374       R2.2750    
   X10.3258      Y7.8383       R2.2750    
   X9.7893       Y8.0864       R2.2750    
   X9.3353       Y8.4650       R2.2750    
(Pass: 34)
G1   Z-3.400    
G17 G2   X8.9947       Y8.9482       R2.2750    
   X8.7908       Y9.5030       R2.2750    
   X8.7374       Y10.0917      R2.2750    
   X8.8383       Y10.6742      R2.2750    
   X9.0864       Y11.2107      R2.2750    
   X9.4650       Y11.6647      R2.2750    
   X9.9482       Y12.0053      R2.2750    
   X10.5030      Y12.2092      R2.2750    
   X11.0917      Y12.2626      R2.2750    
   X11.6742      Y12.1617      R2.2750    
   X12.2107      Y11.9136      R2.2750    
   X12.6647      Y11.5350      R2.2750    
   X13.0053      Y11.0518      R2.2750    
   X13.2092      Y10.4970      R2.2750    
   X13.2626      Y9.9083       R2.2750    
   X13.1617      Y9.3258       R2.2750    
   X12.9136      Y8.7893       R2.2750    
   X12.5350      Y8.3353       R2.2750    
   X12.0518      Y7.9947       R2.2750    
   X11.4970      Y7.7908       R2.2750    
   X10.9083      Y7.7374       R2.2750    
   X10.3258      Y7.8383       R2.2750    
   X9.7893       Y8.0864       R2.2750    
   X9.3353       Y8.4650       R2.2750    
(Pass: 35)
G1   Z-3.500    
G17 G2   X8.9947       Y8.9482       R2.2750    
   X8.7908       Y9.5030       R2.2750    
   X8.7374       Y10.0917      R2.2750    
   X8.8383       Y10.6742      R2.2750    
   X9.0864       Y11.2107      R2.2750    
   X9.4650       Y11.6647      R2.2750    
   X9.9482       Y12.0053      R2.2750    
   X10.5030      Y12.2092      R2.2750    
   X11.0917      Y12.2626      R2.2750    
   X11.6742      Y12.1617      R2.2750    
   X12.2107      Y11.9136      R2.2750    
   X12.6647      Y11.5350      R2.2750    
   X13.0053      Y11.0518      R2.2750    
   X13.2092      Y10.4970      R2.2750    
   X13.2626      Y9.9083       R2.2750    
   X13.1617      Y9.3258       R2.2750    
   X12.9136      Y8.7893       R2.2750    
   X12.5350      Y8.3353       R2.2750    
   X12.0518      Y7.9947       R2.2750    
   X11.4970      Y7.7908       R2.2750    
   X10.9083      Y7.7374       R2.2750    
   X10.3258      Y7.8383       R2.2750    
   X9.7893       Y8.0864       R2.2750    
   X9.3353       Y8.4650       R2.2750    
G0   Z5.000     
(Pass: 1)
   X4.970        Y23.875    
G1   Z-0.100     F400 
   X4.520     
   X4.970        Y28.125    
   Y23.875    
   X4.520        Y28.125    
   X4.970     
   X4.520        Y23.875    
   Y28.125    
(Pass: 2)
   X4.970        Y23.875    
   Z-0.200    
   X4.520     
   X4.970        Y28.125    
   Y23.875    
   X4.520        Y28.125    
   X4.970     
   X4.520        Y23.875    
   Y28.125    
(Pass: 3)
   X4.970        Y23.875    
   Z-0.300    
   X4.520     
   X4.970        Y28.125    
   Y23.875    
   X4.520        Y28.125    
   X4.970     
   X4.520        Y23.875    
   Y28.125    
(Pass: 4)
   X4.970        Y23.875    
   Z-0.400    
   X4.520     
   X4.970        Y28.125    
   Y23.875    
   X4.520        Y28.125    
   X4.970     
   X4.520        Y23.875    
   Y28.125    
(Pass: 5)
   X4.970        Y23.875    
   Z-0.500    
   X4.520     
   X4.970        Y28.125    
   Y23.875    
   X4.520        Y28.125    
   X4.970     
   X4.520        Y23.875    
   Y28.125    
(Pass: 6)
   X4.970        Y23.875    
   Z-0.600    
   X4.520     
   X4.970        Y28.125    
   Y23.875    
   X4.520        Y28.125    
   X4.970     
   X4.520        Y23.875    
   Y28.125    
(Pass: 7)
   X4.970        Y23.875    
   Z-0.700    
   X4.520     
   X4.970        Y28.125    
   Y23.875    
   X4.520        Y28.125    
   X4.970     
   X4.520        Y23.875    
   Y28.125    
(Pass: 8)
   X4.970        Y23.875    
   Z-0.800    
   X4.520     
   X4.970        Y28.125    
   Y23.875    
   X4.520        Y28.125    
   X4.970     
   X4.520        Y23.875    
   Y28.125    
(Pass: 9)
   X4.970        Y23.875    
   Z-0.900    
   X4.520     
   X4.970        Y28.125    
   Y23.875    
   X4.520        Y28.125    
   X4.970     
   X4.520        Y23.875    
   Y28.125    
(Pass: 10)
   X4.970        Y23.875    
   Z-1.000    
   X4.520     
   X4.970        Y28.125    
   Y23.875    
   X4.520        Y28.125    
   X4.970     
   X4.520        Y23.875    
   Y28.125    
(Pass: 11)
   X4.970        Y23.875    
   Z-1.100    
   X4.520     
   X4.970        Y28.125    
   Y23.875    
   X4.520        Y28.125    
   X4.970     
   X4.520        Y23.875    
   Y28.125    
(Pass: 12)
   X4.970        Y23.875    
   Z-1.200    
   X4.520     
   X4.970        Y28.125    
   Y23.875    
   X4.520        Y28.125    
   X4.970     
   X4.520        Y23.875    
   Y28.125    
(Pass: 13)
   X4.970        Y23.875    
   Z-1.300    
   X4.520     
   X4.970        Y28.125    
   Y23.875    
   X4.520        Y28.125    
   X4.970     
   X4.520        Y23.875    
   Y28.125    
(Pass: 14)
   X4.970        Y23.875    
   Z-1.400    
   X4.520     
   X4.970        Y28.125    
   Y23.875    
   X4.520        Y28.125    
   X4.970     
   X4.520        Y23.875    
   Y28.125    
(Pass: 15)
   X4.970        Y23.875    
   Z-1.500    
   X4.520     
   X4.970        Y28.125    
   Y23.875    
   X4.520        Y28.125    
   X4.970     
   X4.520        Y23.875    
   Y28.125    
(Pass: 16)
   X4.970        Y23.875    
   Z-1.600    
   X4.520     
   X4.970        Y28.125    
   Y23.875    
   X4.520        Y28.125    
   X4.970     
   X4.520        Y23.875    
   Y28.125    
(Pass: 17)
   X4.970        Y23.875    
   Z-1.700    
   X4.520     
   X4.970        Y28.125    
   Y23.875    
   X4.520        Y28.125    
   X4.970     
   X4.520        Y23.875    
   Y28.125    
(Pass: 18)
   X4.970        Y23.875    
   Z-1.800    
   X4.520     
   X4.970        Y28.125    
   Y23.875    
   X4.520        Y28.125    
   X4.970     
   X4.520        Y23.875    
   Y28.125    
(Pass: 19)
   X4.970        Y23.875    
   Z-1.900    
   X4.520     
   X4.970        Y28.125    
   Y23.875    
   X4.520        Y28.125    
   X4.970     
   X4.520        Y23.875    
   Y28.125    
(Pass: 20)
   X4.970        Y23.875    
   Z-2.000    
   X4.520     
   X4.970        Y28.125    
   Y23.875    
   X4.520        Y28.125    
   X4.970     
   X4.520        Y23.875    
   Y28.125    
(Pass: 21)
   X4.970        Y23.875    
   Z-2.100    
   X4.520     
   X4.970        Y28.125    
   Y23.875    
   X4.520        Y28.125    
   X4.970     
   X4.520        Y23.875    
   Y28.125    
(Pass: 22)
   X4.970        Y23.875    
   Z-2.200    
   X4.520     
   X4.970        Y28.125    
   Y23.875    
   X4.520        Y28.125    
   X4.970     
   X4.520        Y23.875    
   Y28.125    
(Pass: 23)
   X4.970        Y23.875    
   Z-2.300    
   X4.520     
   X4.970        Y28.125    
   Y23.875    
   X4.520        Y28.125    
   X4.970     
   X4.520        Y23.875    
   Y28.125    
(Pass: 24)
   X4.970        Y23.875    
   Z-2.400    
   X4.520     
   X4.970        Y28.125    
   Y23.875    
   X4.520        Y28.125    
   X4.970     
   X4.520        Y23.875    
   Y28.125    
(Pass: 25)
   X4.970        Y23.875    
   Z-2.500    
   X4.520     
   X4.970        Y28.125    
   Y23.875    
   X4.520        Y28.125    
   X4.970     
   X4.520        Y23.875    
   Y28.125    
(Pass: 26)
   X4.970        Y23.875    
   Z-2.600    
   X4.520     
   X4.970        Y28.125    
   Y23.875    
   X4.520        Y28.125    
   X4.970     
   X4.520        Y23.875    
   Y28.125    
(Pass: 27)
   X4.970        Y23.875    
   Z-2.700    
   X4.520     
   X4.970        Y28.125    
   Y23.875    
   X4.520        Y28.125    
   X4.970     
   X4.520        Y23.875    
   Y28.125    
(Pass: 28)
   X4.970        Y23.875    
   Z-2.800    
   X4.520     
   X4.970        Y28.125    
   Y23.875    
   X4.520        Y28.125    
   X4.970     
   X4.520        Y23.875    
   Y28.125    
(Pass: 29)
   X4.970        Y23.875    
   Z-2.900    
   X4.520     
   X4.970        Y28.125    
   Y23.875    
   X4.520        Y28.125    
   X4.970     
   X4.520        Y23.875    
   Y28.125    
(Pass: 30)
   X4.970        Y23.875    
   Z-3.000    
   X4.520     
   X4.970        Y28.125    
   Y23.875    
   X4.520        Y28.125    
   X4.970     
   X4.520        Y23.875    
   Y28.125    
(Pass: 31)
   X4.970        Y23.875    
   Z-3.100    
   X4.520     
   X4.970        Y28.125    
   Y23.875    
   X4.520        Y28.125    
   X4.970     
   X4.520        Y23.875    
   Y28.125    
(Pass: 32)
   X4.970        Y23.875    
   Z-3.200    
   X4.520     
   X4.970        Y28.125    
   Y23.875    
   X4.520        Y28.125    
   X4.970     
   X4.520        Y23.875    
   Y28.125    
(Pass: 33)
   X4.970        Y23.875    
   Z-3.300    
   X4.520     
   X4.970        Y28.125    
   Y23.875    
   X4.520        Y28.125    
   X4.970     
   X4.520        Y23.875    
   Y28.125    
(Pass: 34)
   X4.970        Y23.875    
   Z-3.400    
   X4.520     
   X4.970        Y28.125    
   Y23.875    
   X4.520        Y28.125    
   X4.970     
   X4.520        Y23.875    
   Y28.125    
(Pass: 35)
   X4.970        Y23.875    
   Z-3.500    
   X4.520     
   X4.970        Y28.125    
   Y23.875    
   X4.520        Y28.125    
   X4.970     
   X4.520        Y23.875    
   Y28.125    
G0   Z5.000     
(Pass: 1)
   X14.726       Y26.000    
G1   Z-0.100     F400 
G17 G2   X14.7690      Y26.3298      R1.2850    
   X14.8963      Y26.6372      R1.2850    
   X15.0988      Y26.9012      R1.2850    
   X15.3628      Y27.1037      R1.2850    
   X15.6702      Y27.2310      R1.2850    
   X16.0000      Y27.2744      R1.2850    
   X16.3298      Y27.2310      R1.2850    
   X16.6372      Y27.1037      R1.2850    
   X16.9012      Y26.9012      R1.2850    
   X17.1037      Y26.6372      R1.2850    
   X17.2310      Y26.3298      R1.2850    
   X17.2744      Y26.0000      R1.2850    
   X17.2310      Y25.6702      R1.2850    
   X17.1037      Y25.3628      R1.2850    
   X16.9012      Y25.0988      R1.2850    
   X16.6372      Y24.8963      R1.2850    
   X16.3298      Y24.7690      R1.2850    
   X16.0000      Y24.7256      R1.2850    
   X15.6702      Y24.7690      R1.2850    
   X15.3628      Y24.8963      R1.2850    
   X15.0988      Y25.0988      R1.2850    
   X14.8963      Y25.3628      R1.2850    
   X14.7690      Y25.6702      R1.2850    
   X14.7256      Y26.0000      R1.2850    
(Pass: 2)
G1   Z-0.200    
G17 G2   X14.7690      Y26.3298      R1.2850    
   X14.8963      Y26.6372      R1.2850    
   X15.0988      Y26.9012      R1.2850    
   X15.3628      Y27.1037      R1.2850    
   X15.6702      Y27.2310      R1.2850    
   X16.0000      Y27.2744      R1.2850    
   X16.3298      Y27.2310      R1.2850    
   X16.6372      Y27.1037      R1.2850    
   X16.9012      Y26.9012      R1.2850    
   X17.1037      Y26.6372      R1.2850    
   X17.2310      Y26.3298      R1.2850    
   X17.2744      Y26.0000      R1.2850    
   X17.2310      Y25.6702      R1.2850    
   X17.1037      Y25.3628      R1.2850    
   X16.9012      Y25.0988      R1.2850    
   X16.6372      Y24.8963      R1.2850    
   X16.3298      Y24.7690      R1.2850    
   X16.0000      Y24.7256      R1.2850    
   X15.6702      Y24.7690      R1.2850    
   X15.3628      Y24.8963      R1.2850    
   X15.0988      Y25.0988      R1.2850    
   X14.8963      Y25.3628      R1.2850    
   X14.7690      Y25.6702      R1.2850    
   X14.7256      Y26.0000      R1.2850    
(Pass: 3)
G1   Z-0.300    
G17 G2   X14.7690      Y26.3298      R1.2850    
   X14.8963      Y26.6372      R1.2850    
   X15.0988      Y26.9012      R1.2850    
   X15.3628      Y27.1037      R1.2850    
   X15.6702      Y27.2310      R1.2850    
   X16.0000      Y27.2744      R1.2850    
   X16.3298      Y27.2310      R1.2850    
   X16.6372      Y27.1037      R1.2850    
   X16.9012      Y26.9012      R1.2850    
   X17.1037      Y26.6372      R1.2850    
   X17.2310      Y26.3298      R1.2850    
   X17.2744      Y26.0000      R1.2850    
   X17.2310      Y25.6702      R1.2850    
   X17.1037      Y25.3628      R1.2850    
   X16.9012      Y25.0988      R1.2850    
   X16.6372      Y24.8963      R1.2850    
   X16.3298      Y24.7690      R1.2850    
   X16.0000      Y24.7256      R1.2850    
   X15.6702      Y24.7690      R1.2850    
   X15.3628      Y24.8963      R1.2850    
   X15.0988      Y25.0988      R1.2850    
   X14.8963      Y25.3628      R1.2850    
   X14.7690      Y25.6702      R1.2850    
   X14.7256      Y26.0000      R1.2850    
(Pass: 4)
G1   Z-0.400    
G17 G2   X14.7690      Y26.3298      R1.2850    
   X14.8963      Y26.6372      R1.2850    
   X15.0988      Y26.9012      R1.2850    
   X15.3628      Y27.1037      R1.2850    
   X15.6702      Y27.2310      R1.2850    
   X16.0000      Y27.2744      R1.2850    
   X16.3298      Y27.2310      R1.2850    
   X16.6372      Y27.1037      R1.2850    
   X16.9012      Y26.9012      R1.2850    
   X17.1037      Y26.6372      R1.2850    
   X17.2310      Y26.3298      R1.2850    
   X17.2744      Y26.0000      R1.2850    
   X17.2310      Y25.6702      R1.2850    
   X17.1037      Y25.3628      R1.2850    
   X16.9012      Y25.0988      R1.2850    
   X16.6372      Y24.8963      R1.2850    
   X16.3298      Y24.7690      R1.2850    
   X16.0000      Y24.7256      R1.2850    
   X15.6702      Y24.7690      R1.2850    
   X15.3628      Y24.8963      R1.2850    
   X15.0988      Y25.0988      R1.2850    
   X14.8963      Y25.3628      R1.2850    
   X14.7690      Y25.6702      R1.2850    
   X14.7256      Y26.0000      R1.2850    
(Pass: 5)
G1   Z-0.500    
G17 G2   X14.7690      Y26.3298      R1.2850    
   X14.8963      Y26.6372      R1.2850    
   X15.0988      Y26.9012      R1.2850    
   X15.3628      Y27.1037      R1.2850    
   X15.6702      Y27.2310      R1.2850    
   X16.0000      Y27.2744      R1.2850    
   X16.3298      Y27.2310      R1.2850    
   X16.6372      Y27.1037      R1.2850    
   X16.9012      Y26.9012      R1.2850    
   X17.1037      Y26.6372      R1.2850    
   X17.2310      Y26.3298      R1.2850    
   X17.2744      Y26.0000      R1.2850    
   X17.2310      Y25.6702      R1.2850    
   X17.1037      Y25.3628      R1.2850    
   X16.9012      Y25.0988      R1.2850    
   X16.6372      Y24.8963      R1.2850    
   X16.3298      Y24.7690      R1.2850    
   X16.0000      Y24.7256      R1.2850    
   X15.6702      Y24.7690      R1.2850    
   X15.3628      Y24.8963      R1.2850    
   X15.0988      Y25.0988      R1.2850    
   X14.8963      Y25.3628      R1.2850    
   X14.7690      Y25.6702      R1.2850    
   X14.7256      Y26.0000      R1.2850    
(Pass: 6)
G1   Z-0.600    
G17 G2   X14.7690      Y26.3298      R1.2850    
   X14.8963      Y26.6372      R1.2850    
   X15.0988      Y26.9012      R1.2850    
   X15.3628      Y27.1037      R1.2850    
   X15.6702      Y27.2310      R1.2850    
   X16.0000      Y27.2744      R1.2850    
   X16.3298      Y27.2310      R1.2850    
   X16.6372      Y27.1037      R1.2850    
   X16.9012      Y26.9012      R1.2850    
   X17.1037      Y26.6372      R1.2850    
   X17.2310      Y26.3298      R1.2850    
   X17.2744      Y26.0000      R1.2850    
   X17.2310      Y25.6702      R1.2850    
   X17.1037      Y25.3628      R1.2850    
   X16.9012      Y25.0988      R1.2850    
   X16.6372      Y24.8963      R1.2850    
   X16.3298      Y24.7690      R1.2850    
   X16.0000      Y24.7256      R1.2850    
   X15.6702      Y24.7690      R1.2850    
   X15.3628      Y24.8963      R1.2850    
   X15.0988      Y25.0988      R1.2850    
   X14.8963      Y25.3628      R1.2850    
   X14.7690      Y25.6702      R1.2850    
   X14.7256      Y26.0000      R1.2850    
(Pass: 7)
G1   Z-0.700    
G17 G2   X14.7690      Y26.3298      R1.2850    
   X14.8963      Y26.6372      R1.2850    
   X15.0988      Y26.9012      R1.2850    
   X15.3628      Y27.1037      R1.2850    
   X15.6702      Y27.2310      R1.2850    
   X16.0000      Y27.2744      R1.2850    
   X16.3298      Y27.2310      R1.2850    
   X16.6372      Y27.1037      R1.2850    
   X16.9012      Y26.9012      R1.2850    
   X17.1037      Y26.6372      R1.2850    
   X17.2310      Y26.3298      R1.2850    
   X17.2744      Y26.0000      R1.2850    
   X17.2310      Y25.6702      R1.2850    
   X17.1037      Y25.3628      R1.2850    
   X16.9012      Y25.0988      R1.2850    
   X16.6372      Y24.8963      R1.2850    
   X16.3298      Y24.7690      R1.2850    
   X16.0000      Y24.7256      R1.2850    
   X15.6702      Y24.7690      R1.2850    
   X15.3628      Y24.8963      R1.2850    
   X15.0988      Y25.0988      R1.2850    
   X14.8963      Y25.3628      R1.2850    
   X14.7690      Y25.6702      R1.2850    
   X14.7256      Y26.0000      R1.2850    
(Pass: 8)
G1   Z-0.800    
G17 G2   X14.7690      Y26.3298      R1.2850    
   X14.8963      Y26.6372      R1.2850    
   X15.0988      Y26.9012      R1.2850    
   X15.3628      Y27.1037      R1.2850    
   X15.6702      Y27.2310      R1.2850    
   X16.0000      Y27.2744      R1.2850    
   X16.3298      Y27.2310      R1.2850    
   X16.6372      Y27.1037      R1.2850    
   X16.9012      Y26.9012      R1.2850    
   X17.1037      Y26.6372      R1.2850    
   X17.2310      Y26.3298      R1.2850    
   X17.2744      Y26.0000      R1.2850    
   X17.2310      Y25.6702      R1.2850    
   X17.1037      Y25.3628      R1.2850    
   X16.9012      Y25.0988      R1.2850    
   X16.6372      Y24.8963      R1.2850    
   X16.3298      Y24.7690      R1.2850    
   X16.0000      Y24.7256      R1.2850    
   X15.6702      Y24.7690      R1.2850    
   X15.3628      Y24.8963      R1.2850    
   X15.0988      Y25.0988      R1.2850    
   X14.8963      Y25.3628      R1.2850    
   X14.7690      Y25.6702      R1.2850    
   X14.7256      Y26.0000      R1.2850    
(Pass: 9)
G1   Z-0.900    
G17 G2   X14.7690      Y26.3298      R1.2850    
   X14.8963      Y26.6372      R1.2850    
   X15.0988      Y26.9012      R1.2850    
   X15.3628      Y27.1037      R1.2850    
   X15.6702      Y27.2310      R1.2850    
   X16.0000      Y27.2744      R1.2850    
   X16.3298      Y27.2310      R1.2850    
   X16.6372      Y27.1037      R1.2850    
   X16.9012      Y26.9012      R1.2850    
   X17.1037      Y26.6372      R1.2850    
   X17.2310      Y26.3298      R1.2850    
   X17.2744      Y26.0000      R1.2850    
   X17.2310      Y25.6702      R1.2850    
   X17.1037      Y25.3628      R1.2850    
   X16.9012      Y25.0988      R1.2850    
   X16.6372      Y24.8963      R1.2850    
   X16.3298      Y24.7690      R1.2850    
   X16.0000      Y24.7256      R1.2850    
   X15.6702      Y24.7690      R1.2850    
   X15.3628      Y24.8963      R1.2850    
   X15.0988      Y25.0988      R1.2850    
   X14.8963      Y25.3628      R1.2850    
   X14.7690      Y25.6702      R1.2850    
   X14.7256      Y26.0000      R1.2850    
(Pass: 10)
G1   Z-1.000    
G17 G2   X14.7690      Y26.3298      R1.2850    
   X14.8963      Y26.6372      R1.2850    
   X15.0988      Y26.9012      R1.2850    
   X15.3628      Y27.1037      R1.2850    
   X15.6702      Y27.2310      R1.2850    
   X16.0000      Y27.2744      R1.2850    
   X16.3298      Y27.2310      R1.2850    
   X16.6372      Y27.1037      R1.2850    
   X16.9012      Y26.9012      R1.2850    
   X17.1037      Y26.6372      R1.2850    
   X17.2310      Y26.3298      R1.2850    
   X17.2744      Y26.0000      R1.2850    
   X17.2310      Y25.6702      R1.2850    
   X17.1037      Y25.3628      R1.2850    
   X16.9012      Y25.0988      R1.2850    
   X16.6372      Y24.8963      R1.2850    
   X16.3298      Y24.7690      R1.2850    
   X16.0000      Y24.7256      R1.2850    
   X15.6702      Y24.7690      R1.2850    
   X15.3628      Y24.8963      R1.2850    
   X15.0988      Y25.0988      R1.2850    
   X14.8963      Y25.3628      R1.2850    
   X14.7690      Y25.6702      R1.2850    
   X14.7256      Y26.0000      R1.2850    
(Pass: 11)
G1   Z-1.100    
G17 G2   X14.7690      Y26.3298      R1.2850    
   X14.8963      Y26.6372      R1.2850    
   X15.0988      Y26.9012      R1.2850    
   X15.3628      Y27.1037      R1.2850    
   X15.6702      Y27.2310      R1.2850    
   X16.0000      Y27.2744      R1.2850    
   X16.3298      Y27.2310      R1.2850    
   X16.6372      Y27.1037      R1.2850    
   X16.9012      Y26.9012      R1.2850    
   X17.1037      Y26.6372      R1.2850    
   X17.2310      Y26.3298      R1.2850    
   X17.2744      Y26.0000      R1.2850    
   X17.2310      Y25.6702      R1.2850    
   X17.1037      Y25.3628      R1.2850    
   X16.9012      Y25.0988      R1.2850    
   X16.6372      Y24.8963      R1.2850    
   X16.3298      Y24.7690      R1.2850    
   X16.0000      Y24.7256      R1.2850    
   X15.6702      Y24.7690      R1.2850    
   X15.3628      Y24.8963      R1.2850    
   X15.0988      Y25.0988      R1.2850    
   X14.8963      Y25.3628      R1.2850    
   X14.7690      Y25.6702      R1.2850    
   X14.7256      Y26.0000      R1.2850    
(Pass: 12)
G1   Z-1.200    
G17 G2   X14.7690      Y26.3298      R1.2850    
   X14.8963      Y26.6372      R1.2850    
   X15.0988      Y26.9012      R1.2850    
   X15.3628      Y27.1037      R1.2850    
   X15.6702      Y27.2310      R1.2850    
   X16.0000      Y27.2744      R1.2850    
   X16.3298      Y27.2310      R1.2850    
   X16.6372      Y27.1037      R1.2850    
   X16.9012      Y26.9012      R1.2850    
   X17.1037      Y26.6372      R1.2850    
   X17.2310      Y26.3298      R1.2850    
   X17.2744      Y26.0000      R1.2850    
   X17.2310      Y25.6702      R1.2850    
   X17.1037      Y25.3628      R1.2850    
   X16.9012      Y25.0988      R1.2850    
   X16.6372      Y24.8963      R1.2850    
   X16.3298      Y24.7690      R1.2850    
   X16.0000      Y24.7256      R1.2850    
   X15.6702      Y24.7690      R1.2850    
   X15.3628      Y24.8963      R1.2850    
   X15.0988      Y25.0988      R1.2850    
   X14.8963      Y25.3628      R1.2850    
   X14.7690      Y25.6702      R1.2850    
   X14.7256      Y26.0000      R1.2850    
(Pass: 13)
G1   Z-1.300    
G17 G2   X14.7690      Y26.3298      R1.2850    
   X14.8963      Y26.6372      R1.2850    
   X15.0988      Y26.9012      R1.2850    
   X15.3628      Y27.1037      R1.2850    
   X15.6702      Y27.2310      R1.2850    
   X16.0000      Y27.2744      R1.2850    
   X16.3298      Y27.2310      R1.2850    
   X16.6372      Y27.1037      R1.2850    
   X16.9012      Y26.9012      R1.2850    
   X17.1037      Y26.6372      R1.2850    
   X17.2310      Y26.3298      R1.2850    
   X17.2744      Y26.0000      R1.2850    
   X17.2310      Y25.6702      R1.2850    
   X17.1037      Y25.3628      R1.2850    
   X16.9012      Y25.0988      R1.2850    
   X16.6372      Y24.8963      R1.2850    
   X16.3298      Y24.7690      R1.2850    
   X16.0000      Y24.7256      R1.2850    
   X15.6702      Y24.7690      R1.2850    
   X15.3628      Y24.8963      R1.2850    
   X15.0988      Y25.0988      R1.2850    
   X14.8963      Y25.3628      R1.2850    
   X14.7690      Y25.6702      R1.2850    
   X14.7256      Y26.0000      R1.2850    
(Pass: 14)
G1   Z-1.400    
G17 G2   X14.7690      Y26.3298      R1.2850    
   X14.8963      Y26.6372      R1.2850    
   X15.0988      Y26.9012      R1.2850    
   X15.3628      Y27.1037      R1.2850    
   X15.6702      Y27.2310      R1.2850    
   X16.0000      Y27.2744      R1.2850    
   X16.3298      Y27.2310      R1.2850    
   X16.6372      Y27.1037      R1.2850    
   X16.9012      Y26.9012      R1.2850    
   X17.1037      Y26.6372      R1.2850    
   X17.2310      Y26.3298      R1.2850    
   X17.2744      Y26.0000      R1.2850    
   X17.2310      Y25.6702      R1.2850    
   X17.1037      Y25.3628      R1.2850    
   X16.9012      Y25.0988      R1.2850    
   X16.6372      Y24.8963      R1.2850    
   X16.3298      Y24.7690      R1.2850    
   X16.0000      Y24.7256      R1.2850    
   X15.6702      Y24.7690      R1.2850    
   X15.3628      Y24.8963      R1.2850    
   X15.0988      Y25.0988      R1.2850    
   X14.8963      Y25.3628      R1.2850    
   X14.7690      Y25.6702      R1.2850    
   X14.7256      Y26.0000      R1.2850    
(Pass: 15)
G1   Z-1.500    
G17 G2   X14.7690      Y26.3298      R1.2850    
   X14.8963      Y26.6372      R1.2850    
   X15.0988      Y26.9012      R1.2850    
   X15.3628      Y27.1037      R1.2850    
   X15.6702      Y27.2310      R1.2850    
   X16.0000      Y27.2744      R1.2850    
   X16.3298      Y27.2310      R1.2850    
   X16.6372      Y27.1037      R1.2850    
   X16.9012      Y26.9012      R1.2850    
   X17.1037      Y26.6372      R1.2850    
   X17.2310      Y26.3298      R1.2850    
   X17.2744      Y26.0000      R1.2850    
   X17.2310      Y25.6702      R1.2850    
   X17.1037      Y25.3628      R1.2850    
   X16.9012      Y25.0988      R1.2850    
   X16.6372      Y24.8963      R1.2850    
   X16.3298      Y24.7690      R1.2850    
   X16.0000      Y24.7256      R1.2850    
   X15.6702      Y24.7690      R1.2850    
   X15.3628      Y24.8963      R1.2850    
   X15.0988      Y25.0988      R1.2850    
   X14.8963      Y25.3628      R1.2850    
   X14.7690      Y25.6702      R1.2850    
   X14.7256      Y26.0000      R1.2850    
(Pass: 16)
G1   Z-1.600    
G17 G2   X14.7690      Y26.3298      R1.2850    
   X14.8963      Y26.6372      R1.2850    
   X15.0988      Y26.9012      R1.2850    
   X15.3628      Y27.1037      R1.2850    
   X15.6702      Y27.2310      R1.2850    
   X16.0000      Y27.2744      R1.2850    
   X16.3298      Y27.2310      R1.2850    
   X16.6372      Y27.1037      R1.2850    
   X16.9012      Y26.9012      R1.2850    
   X17.1037      Y26.6372      R1.2850    
   X17.2310      Y26.3298      R1.2850    
   X17.2744      Y26.0000      R1.2850    
   X17.2310      Y25.6702      R1.2850    
   X17.1037      Y25.3628      R1.2850    
   X16.9012      Y25.0988      R1.2850    
   X16.6372      Y24.8963      R1.2850    
   X16.3298      Y24.7690      R1.2850    
   X16.0000      Y24.7256      R1.2850    
   X15.6702      Y24.7690      R1.2850    
   X15.3628      Y24.8963      R1.2850    
   X15.0988      Y25.0988      R1.2850    
   X14.8963      Y25.3628      R1.2850    
   X14.7690      Y25.6702      R1.2850    
   X14.7256      Y26.0000      R1.2850    
(Pass: 17)
G1   Z-1.700    
G17 G2   X14.7690      Y26.3298      R1.2850    
   X14.8963      Y26.6372      R1.2850    
   X15.0988      Y26.9012      R1.2850    
   X15.3628      Y27.1037      R1.2850    
   X15.6702      Y27.2310      R1.2850    
   X16.0000      Y27.2744      R1.2850    
   X16.3298      Y27.2310      R1.2850    
   X16.6372      Y27.1037      R1.2850    
   X16.9012      Y26.9012      R1.2850    
   X17.1037      Y26.6372      R1.2850    
   X17.2310      Y26.3298      R1.2850    
   X17.2744      Y26.0000      R1.2850    
   X17.2310      Y25.6702      R1.2850    
   X17.1037      Y25.3628      R1.2850    
   X16.9012      Y25.0988      R1.2850    
   X16.6372      Y24.8963      R1.2850    
   X16.3298      Y24.7690      R1.2850    
   X16.0000      Y24.7256      R1.2850    
   X15.6702      Y24.7690      R1.2850    
   X15.3628      Y24.8963      R1.2850    
   X15.0988      Y25.0988      R1.2850    
   X14.8963      Y25.3628      R1.2850    
   X14.7690      Y25.6702      R1.2850    
   X14.7256      Y26.0000      R1.2850    
(Pass: 18)
G1   Z-1.800    
G17 G2   X14.7690      Y26.3298      R1.2850    
   X14.8963      Y26.6372      R1.2850    
   X15.0988      Y26.9012      R1.2850    
   X15.3628      Y27.1037      R1.2850    
   X15.6702      Y27.2310      R1.2850    
   X16.0000      Y27.2744      R1.2850    
   X16.3298      Y27.2310      R1.2850    
   X16.6372      Y27.1037      R1.2850    
   X16.9012      Y26.9012      R1.2850    
   X17.1037      Y26.6372      R1.2850    
   X17.2310      Y26.3298      R1.2850    
   X17.2744      Y26.0000      R1.2850    
   X17.2310      Y25.6702      R1.2850    
   X17.1037      Y25.3628      R1.2850    
   X16.9012      Y25.0988      R1.2850    
   X16.6372      Y24.8963      R1.2850    
   X16.3298      Y24.7690      R1.2850    
   X16.0000      Y24.7256      R1.2850    
   X15.6702      Y24.7690      R1.2850    
   X15.3628      Y24.8963      R1.2850    
   X15.0988      Y25.0988      R1.2850    
   X14.8963      Y25.3628      R1.2850    
   X14.7690      Y25.6702      R1.2850    
   X14.7256      Y26.0000      R1.2850    
(Pass: 19)
G1   Z-1.900    
G17 G2   X14.7690      Y26.3298      R1.2850    
   X14.8963      Y26.6372      R1.2850    
   X15.0988      Y26.9012      R1.2850    
   X15.3628      Y27.1037      R1.2850    
   X15.6702      Y27.2310      R1.2850    
   X16.0000      Y27.2744      R1.2850    
   X16.3298      Y27.2310      R1.2850    
   X16.6372      Y27.1037      R1.2850    
   X16.9012      Y26.9012      R1.2850    
   X17.1037      Y26.6372      R1.2850    
   X17.2310      Y26.3298      R1.2850    
   X17.2744      Y26.0000      R1.2850    
   X17.2310      Y25.6702      R1.2850    
   X17.1037      Y25.3628      R1.2850    
   X16.9012      Y25.0988      R1.2850    
   X16.6372      Y24.8963      R1.2850    
   X16.3298      Y24.7690      R1.2850    
   X16.0000      Y24.7256      R1.2850    
   X15.6702      Y24.7690      R1.2850    
   X15.3628      Y24.8963      R1.2850    
   X15.0988      Y25.0988      R1.2850    
   X14.8963      Y25.3628      R1.2850    
   X14.7690      Y25.6702      R1.2850    
   X14.7256      Y26.0000      R1.2850    
(Pass: 20)
G1   Z-2.000    
G17 G2   X14.7690      Y26.3298      R1.2850    
   X14.8963      Y26.6372      R1.2850    
   X15.0988      Y26.9012      R1.2850    
   X15.3628      Y27.1037      R1.2850    
   X15.6702      Y27.2310      R1.2850    
   X16.0000      Y27.2744      R1.2850    
   X16.3298      Y27.2310      R1.2850    
   X16.6372      Y27.1037      R1.2850    
   X16.9012      Y26.9012      R1.2850    
   X17.1037      Y26.6372      R1.2850    
   X17.2310      Y26.3298      R1.2850    
   X17.2744      Y26.0000      R1.2850    
   X17.2310      Y25.6702      R1.2850    
   X17.1037      Y25.3628      R1.2850    
   X16.9012      Y25.0988      R1.2850    
   X16.6372      Y24.8963      R1.2850    
   X16.3298      Y24.7690      R1.2850    
   X16.0000      Y24.7256      R1.2850    
   X15.6702      Y24.7690      R1.2850    
   X15.3628      Y24.8963      R1.2850    
   X15.0988      Y25.0988      R1.2850    
   X14.8963      Y25.3628      R1.2850    
   X14.7690      Y25.6702      R1.2850    
   X14.7256      Y26.0000      R1.2850    
(Pass: 21)
G1   Z-2.100    
G17 G2   X14.7690      Y26.3298      R1.2850    
   X14.8963      Y26.6372      R1.2850    
   X15.0988      Y26.9012      R1.2850    
   X15.3628      Y27.1037      R1.2850    
   X15.6702      Y27.2310      R1.2850    
   X16.0000      Y27.2744      R1.2850    
   X16.3298      Y27.2310      R1.2850    
   X16.6372      Y27.1037      R1.2850    
   X16.9012      Y26.9012      R1.2850    
   X17.1037      Y26.6372      R1.2850    
   X17.2310      Y26.3298      R1.2850    
   X17.2744      Y26.0000      R1.2850    
   X17.2310      Y25.6702      R1.2850    
   X17.1037      Y25.3628      R1.2850    
   X16.9012      Y25.0988      R1.2850    
   X16.6372      Y24.8963      R1.2850    
   X16.3298      Y24.7690      R1.2850    
   X16.0000      Y24.7256      R1.2850    
   X15.6702      Y24.7690      R1.2850    
   X15.3628      Y24.8963      R1.2850    
   X15.0988      Y25.0988      R1.2850    
   X14.8963      Y25.3628      R1.2850    
   X14.7690      Y25.6702      R1.2850    
   X14.7256      Y26.0000      R1.2850    
(Pass: 22)
G1   Z-2.200    
G17 G2   X14.7690      Y26.3298      R1.2850    
   X14.8963      Y26.6372      R1.2850    
   X15.0988      Y26.9012      R1.2850    
   X15.3628      Y27.1037      R1.2850    
   X15.6702      Y27.2310      R1.2850    
   X16.0000      Y27.2744      R1.2850    
   X16.3298      Y27.2310      R1.2850    
   X16.6372      Y27.1037      R1.2850    
   X16.9012      Y26.9012      R1.2850    
   X17.1037      Y26.6372      R1.2850    
   X17.2310      Y26.3298      R1.2850    
   X17.2744      Y26.0000      R1.2850    
   X17.2310      Y25.6702      R1.2850    
   X17.1037      Y25.3628      R1.2850    
   X16.9012      Y25.0988      R1.2850    
   X16.6372      Y24.8963      R1.2850    
   X16.3298      Y24.7690      R1.2850    
   X16.0000      Y24.7256      R1.2850    
   X15.6702      Y24.7690      R1.2850    
   X15.3628      Y24.8963      R1.2850    
   X15.0988      Y25.0988      R1.2850    
   X14.8963      Y25.3628      R1.2850    
   X14.7690      Y25.6702      R1.2850    
   X14.7256      Y26.0000      R1.2850    
(Pass: 23)
G1   Z-2.300    
G17 G2   X14.7690      Y26.3298      R1.2850    
   X14.8963      Y26.6372      R1.2850    
   X15.0988      Y26.9012      R1.2850    
   X15.3628      Y27.1037      R1.2850    
   X15.6702      Y27.2310      R1.2850    
   X16.0000      Y27.2744      R1.2850    
   X16.3298      Y27.2310      R1.2850    
   X16.6372      Y27.1037      R1.2850    
   X16.9012      Y26.9012      R1.2850    
   X17.1037      Y26.6372      R1.2850    
   X17.2310      Y26.3298      R1.2850    
   X17.2744      Y26.0000      R1.2850    
   X17.2310      Y25.6702      R1.2850    
   X17.1037      Y25.3628      R1.2850    
   X16.9012      Y25.0988      R1.2850    
   X16.6372      Y24.8963      R1.2850    
   X16.3298      Y24.7690      R1.2850    
   X16.0000      Y24.7256      R1.2850    
   X15.6702      Y24.7690      R1.2850    
   X15.3628      Y24.8963      R1.2850    
   X15.0988      Y25.0988      R1.2850    
   X14.8963      Y25.3628      R1.2850    
   X14.7690      Y25.6702      R1.2850    
   X14.7256      Y26.0000      R1.2850    
(Pass: 24)
G1   Z-2.400    
G17 G2   X14.7690      Y26.3298      R1.2850    
   X14.8963      Y26.6372      R1.2850    
   X15.0988      Y26.9012      R1.2850    
   X15.3628      Y27.1037      R1.2850    
   X15.6702      Y27.2310      R1.2850    
   X16.0000      Y27.2744      R1.2850    
   X16.3298      Y27.2310      R1.2850    
   X16.6372      Y27.1037      R1.2850    
   X16.9012      Y26.9012      R1.2850    
   X17.1037      Y26.6372      R1.2850    
   X17.2310      Y26.3298      R1.2850    
   X17.2744      Y26.0000      R1.2850    
   X17.2310      Y25.6702      R1.2850    
   X17.1037      Y25.3628      R1.2850    
   X16.9012      Y25.0988      R1.2850    
   X16.6372      Y24.8963      R1.2850    
   X16.3298      Y24.7690      R1.2850    
   X16.0000      Y24.7256      R1.2850    
   X15.6702      Y24.7690      R1.2850    
   X15.3628      Y24.8963      R1.2850    
   X15.0988      Y25.0988      R1.2850    
   X14.8963      Y25.3628      R1.2850    
   X14.7690      Y25.6702      R1.2850    
   X14.7256      Y26.0000      R1.2850    
(Pass: 25)
G1   Z-2.500    
G17 G2   X14.7690      Y26.3298      R1.2850    
   X14.8963      Y26.6372      R1.2850    
   X15.0988      Y26.9012      R1.2850    
   X15.3628      Y27.1037      R1.2850    
   X15.6702      Y27.2310      R1.2850    
   X16.0000      Y27.2744      R1.2850    
   X16.3298      Y27.2310      R1.2850    
   X16.6372      Y27.1037      R1.2850    
   X16.9012      Y26.9012      R1.2850    
   X17.1037      Y26.6372      R1.2850    
   X17.2310      Y26.3298      R1.2850    
   X17.2744      Y26.0000      R1.2850    
   X17.2310      Y25.6702      R1.2850    
   X17.1037      Y25.3628      R1.2850    
   X16.9012      Y25.0988      R1.2850    
   X16.6372      Y24.8963      R1.2850    
   X16.3298      Y24.7690      R1.2850    
   X16.0000      Y24.7256      R1.2850    
   X15.6702      Y24.7690      R1.2850    
   X15.3628      Y24.8963      R1.2850    
   X15.0988      Y25.0988      R1.2850    
   X14.8963      Y25.3628      R1.2850    
   X14.7690      Y25.6702      R1.2850    
   X14.7256      Y26.0000      R1.2850    
(Pass: 26)
G1   Z-2.600    
G17 G2   X14.7690      Y26.3298      R1.2850    
   X14.8963      Y26.6372      R1.2850    
   X15.0988      Y26.9012      R1.2850    
   X15.3628      Y27.1037      R1.2850    
   X15.6702      Y27.2310      R1.2850    
   X16.0000      Y27.2744      R1.2850    
   X16.3298      Y27.2310      R1.2850    
   X16.6372      Y27.1037      R1.2850    
   X16.9012      Y26.9012      R1.2850    
   X17.1037      Y26.6372      R1.2850    
   X17.2310      Y26.3298      R1.2850    
   X17.2744      Y26.0000      R1.2850    
   X17.2310      Y25.6702      R1.2850    
   X17.1037      Y25.3628      R1.2850    
   X16.9012      Y25.0988      R1.2850    
   X16.6372      Y24.8963      R1.2850    
   X16.3298      Y24.7690      R1.2850    
   X16.0000      Y24.7256      R1.2850    
   X15.6702      Y24.7690      R1.2850    
   X15.3628      Y24.8963      R1.2850    
   X15.0988      Y25.0988      R1.2850    
   X14.8963      Y25.3628      R1.2850    
   X14.7690      Y25.6702      R1.2850    
   X14.7256      Y26.0000      R1.2850    
(Pass: 27)
G1   Z-2.700    
G17 G2   X14.7690      Y26.3298      R1.2850    
   X14.8963      Y26.6372      R1.2850    
   X15.0988      Y26.9012      R1.2850    
   X15.3628      Y27.1037      R1.2850    
   X15.6702      Y27.2310      R1.2850    
   X16.0000      Y27.2744      R1.2850    
   X16.3298      Y27.2310      R1.2850    
   X16.6372      Y27.1037      R1.2850    
   X16.9012      Y26.9012      R1.2850    
   X17.1037      Y26.6372      R1.2850    
   X17.2310      Y26.3298      R1.2850    
   X17.2744      Y26.0000      R1.2850    
   X17.2310      Y25.6702      R1.2850    
   X17.1037      Y25.3628      R1.2850    
   X16.9012      Y25.0988      R1.2850    
   X16.6372      Y24.8963      R1.2850    
   X16.3298      Y24.7690      R1.2850    
   X16.0000      Y24.7256      R1.2850    
   X15.6702      Y24.7690      R1.2850    
   X15.3628      Y24.8963      R1.2850    
   X15.0988      Y25.0988      R1.2850    
   X14.8963      Y25.3628      R1.2850    
   X14.7690      Y25.6702      R1.2850    
   X14.7256      Y26.0000      R1.2850    
(Pass: 28)
G1   Z-2.800    
G17 G2   X14.7690      Y26.3298      R1.2850    
   X14.8963      Y26.6372      R1.2850    
   X15.0988      Y26.9012      R1.2850    
   X15.3628      Y27.1037      R1.2850    
   X15.6702      Y27.2310      R1.2850    
   X16.0000      Y27.2744      R1.2850    
   X16.3298      Y27.2310      R1.2850    
   X16.6372      Y27.1037      R1.2850    
   X16.9012      Y26.9012      R1.2850    
   X17.1037      Y26.6372      R1.2850    
   X17.2310      Y26.3298      R1.2850    
   X17.2744      Y26.0000      R1.2850    
   X17.2310      Y25.6702      R1.2850    
   X17.1037      Y25.3628      R1.2850    
   X16.9012      Y25.0988      R1.2850    
   X16.6372      Y24.8963      R1.2850    
   X16.3298      Y24.7690      R1.2850    
   X16.0000      Y24.7256      R1.2850    
   X15.6702      Y24.7690      R1.2850    
   X15.3628      Y24.8963      R1.2850    
   X15.0988      Y25.0988      R1.2850    
   X14.8963      Y25.3628      R1.2850    
   X14.7690      Y25.6702      R1.2850    
   X14.7256      Y26.0000      R1.2850    
(Pass: 29)
G1   Z-2.900    
G17 G2   X14.7690      Y26.3298      R1.2850    
   X14.8963      Y26.6372      R1.2850    
   X15.0988      Y26.9012      R1.2850    
   X15.3628      Y27.1037      R1.2850    
   X15.6702      Y27.2310      R1.2850    
   X16.0000      Y27.2744      R1.2850    
   X16.3298      Y27.2310      R1.2850    
   X16.6372      Y27.1037      R1.2850    
   X16.9012      Y26.9012      R1.2850    
   X17.1037      Y26.6372      R1.2850    
   X17.2310      Y26.3298      R1.2850    
   X17.2744      Y26.0000      R1.2850    
   X17.2310      Y25.6702      R1.2850    
   X17.1037      Y25.3628      R1.2850    
   X16.9012      Y25.0988      R1.2850    
   X16.6372      Y24.8963      R1.2850    
   X16.3298      Y24.7690      R1.2850    
   X16.0000      Y24.7256      R1.2850    
   X15.6702      Y24.7690      R1.2850    
   X15.3628      Y24.8963      R1.2850    
   X15.0988      Y25.0988      R1.2850    
   X14.8963      Y25.3628      R1.2850    
   X14.7690      Y25.6702      R1.2850    
   X14.7256      Y26.0000      R1.2850    
(Pass: 30)
G1   Z-3.000    
G17 G2   X14.7690      Y26.3298      R1.2850    
   X14.8963      Y26.6372      R1.2850    
   X15.0988      Y26.9012      R1.2850    
   X15.3628      Y27.1037      R1.2850    
   X15.6702      Y27.2310      R1.2850    
   X16.0000      Y27.2744      R1.2850    
   X16.3298      Y27.2310      R1.2850    
   X16.6372      Y27.1037      R1.2850    
   X16.9012      Y26.9012      R1.2850    
   X17.1037      Y26.6372      R1.2850    
   X17.2310      Y26.3298      R1.2850    
   X17.2744      Y26.0000      R1.2850    
   X17.2310      Y25.6702      R1.2850    
   X17.1037      Y25.3628      R1.2850    
   X16.9012      Y25.0988      R1.2850    
   X16.6372      Y24.8963      R1.2850    
   X16.3298      Y24.7690      R1.2850    
   X16.0000      Y24.7256      R1.2850    
   X15.6702      Y24.7690      R1.2850    
   X15.3628      Y24.8963      R1.2850    
   X15.0988      Y25.0988      R1.2850    
   X14.8963      Y25.3628      R1.2850    
   X14.7690      Y25.6702      R1.2850    
   X14.7256      Y26.0000      R1.2850    
(Pass: 31)
G1   Z-3.100    
G17 G2   X14.7690      Y26.3298      R1.2850    
   X14.8963      Y26.6372      R1.2850    
   X15.0988      Y26.9012      R1.2850    
   X15.3628      Y27.1037      R1.2850    
   X15.6702      Y27.2310      R1.2850    
   X16.0000      Y27.2744      R1.2850    
   X16.3298      Y27.2310      R1.2850    
   X16.6372      Y27.1037      R1.2850    
   X16.9012      Y26.9012      R1.2850    
   X17.1037      Y26.6372      R1.2850    
   X17.2310      Y26.3298      R1.2850    
   X17.2744      Y26.0000      R1.2850    
   X17.2310      Y25.6702      R1.2850    
   X17.1037      Y25.3628      R1.2850    
   X16.9012      Y25.0988      R1.2850    
   X16.6372      Y24.8963      R1.2850    
   X16.3298      Y24.7690      R1.2850    
   X16.0000      Y24.7256      R1.2850    
   X15.6702      Y24.7690      R1.2850    
   X15.3628      Y24.8963      R1.2850    
   X15.0988      Y25.0988      R1.2850    
   X14.8963      Y25.3628      R1.2850    
   X14.7690      Y25.6702      R1.2850    
   X14.7256      Y26.0000      R1.2850    
(Pass: 32)
G1   Z-3.200    
G17 G2   X14.7690      Y26.3298      R1.2850    
   X14.8963      Y26.6372      R1.2850    
   X15.0988      Y26.9012      R1.2850    
   X15.3628      Y27.1037      R1.2850    
   X15.6702      Y27.2310      R1.2850    
   X16.0000      Y27.2744      R1.2850    
   X16.3298      Y27.2310      R1.2850    
   X16.6372      Y27.1037      R1.2850    
   X16.9012      Y26.9012      R1.2850    
   X17.1037      Y26.6372      R1.2850    
   X17.2310      Y26.3298      R1.2850    
   X17.2744      Y26.0000      R1.2850    
   X17.2310      Y25.6702      R1.2850    
   X17.1037      Y25.3628      R1.2850    
   X16.9012      Y25.0988      R1.2850    
   X16.6372      Y24.8963      R1.2850    
   X16.3298      Y24.7690      R1.2850    
   X16.0000      Y24.7256      R1.2850    
   X15.6702      Y24.7690      R1.2850    
   X15.3628      Y24.8963      R1.2850    
   X15.0988      Y25.0988      R1.2850    
   X14.8963      Y25.3628      R1.2850    
   X14.7690      Y25.6702      R1.2850    
   X14.7256      Y26.0000      R1.2850    
(Pass: 33)
G1   Z-3.300    
G17 G2   X14.7690      Y26.3298      R1.2850    
   X14.8963      Y26.6372      R1.2850    
   X15.0988      Y26.9012      R1.2850    
   X15.3628      Y27.1037      R1.2850    
   X15.6702      Y27.2310      R1.2850    
   X16.0000      Y27.2744      R1.2850    
   X16.3298      Y27.2310      R1.2850    
   X16.6372      Y27.1037      R1.2850    
   X16.9012      Y26.9012      R1.2850    
   X17.1037      Y26.6372      R1.2850    
   X17.2310      Y26.3298      R1.2850    
   X17.2744      Y26.0000      R1.2850    
   X17.2310      Y25.6702      R1.2850    
   X17.1037      Y25.3628      R1.2850    
   X16.9012      Y25.0988      R1.2850    
   X16.6372      Y24.8963      R1.2850    
   X16.3298      Y24.7690      R1.2850    
   X16.0000      Y24.7256      R1.2850    
   X15.6702      Y24.7690      R1.2850    
   X15.3628      Y24.8963      R1.2850    
   X15.0988      Y25.0988      R1.2850    
   X14.8963      Y25.3628      R1.2850    
   X14.7690      Y25.6702      R1.2850    
   X14.7256      Y26.0000      R1.2850    
(Pass: 34)
G1   Z-3.400    
G17 G2   X14.7690      Y26.3298      R1.2850    
   X14.8963      Y26.6372      R1.2850    
   X15.0988      Y26.9012      R1.2850    
   X15.3628      Y27.1037      R1.2850    
   X15.6702      Y27.2310      R1.2850    
   X16.0000      Y27.2744      R1.2850    
   X16.3298      Y27.2310      R1.2850    
   X16.6372      Y27.1037      R1.2850    
   X16.9012      Y26.9012      R1.2850    
   X17.1037      Y26.6372      R1.2850    
   X17.2310      Y26.3298      R1.2850    
   X17.2744      Y26.0000      R1.2850    
   X17.2310      Y25.6702      R1.2850    
   X17.1037      Y25.3628      R1.2850    
   X16.9012      Y25.0988      R1.2850    
   X16.6372      Y24.8963      R1.2850    
   X16.3298      Y24.7690      R1.2850    
   X16.0000      Y24.7256      R1.2850    
   X15.6702      Y24.7690      R1.2850    
   X15.3628      Y24.8963      R1.2850    
   X15.0988      Y25.0988      R1.2850    
   X14.8963      Y25.3628      R1.2850    
   X14.7690      Y25.6702      R1.2850    
   X14.7256      Y26.0000      R1.2850    
(Pass: 35)
G1   Z-3.500    
G17 G2   X14.7690      Y26.3298      R1.2850    
   X14.8963      Y26.6372      R1.2850    
   X15.0988      Y26.9012      R1.2850    
   X15.3628      Y27.1037      R1.2850    
   X15.6702      Y27.2310      R1.2850    
   X16.0000      Y27.2744      R1.2850    
   X16.3298      Y27.2310      R1.2850    
   X16.6372      Y27.1037      R1.2850    
   X16.9012      Y26.9012      R1.2850    
   X17.1037      Y26.6372      R1.2850    
   X17.2310      Y26.3298      R1.2850    
   X17.2744      Y26.0000      R1.2850    
   X17.2310      Y25.6702      R1.2850    
   X17.1037      Y25.3628      R1.2850    
   X16.9012      Y25.0988      R1.2850    
   X16.6372      Y24.8963      R1.2850    
   X16.3298      Y24.7690      R1.2850    
   X16.0000      Y24.7256      R1.2850    
   X15.6702      Y24.7690      R1.2850    
   X15.3628      Y24.8963      R1.2850    
   X15.0988      Y25.0988      R1.2850    
   X14.8963      Y25.3628      R1.2850    
   X14.7690      Y25.6702      R1.2850    
   X14.7256      Y26.0000      R1.2850    
G0   Z5.000     
(Pass: 1)
   X24.726    
G1   Z-0.100     F400 
G17 G2   X24.7690      Y26.3298      R1.2850    
   X24.8963      Y26.6372      R1.2850    
   X25.0988      Y26.9012      R1.2850    
   X25.3628      Y27.1037      R1.2850    
   X25.6702      Y27.2310      R1.2850    
   X26.0000      Y27.2744      R1.2850    
   X26.3298      Y27.2310      R1.2850    
   X26.6372      Y27.1037      R1.2850    
   X26.9012      Y26.9012      R1.2850    
   X27.1037      Y26.6372      R1.2850    
   X27.2310      Y26.3298      R1.2850    
   X27.2744      Y26.0000      R1.2850    
   X27.2310      Y25.6702      R1.2850    
   X27.1037      Y25.3628      R1.2850    
   X26.9012      Y25.0988      R1.2850    
   X26.6372      Y24.8963      R1.2850    
   X26.3298      Y24.7690      R1.2850    
   X26.0000      Y24.7256      R1.2850    
   X25.6702      Y24.7690      R1.2850    
   X25.3628      Y24.8963      R1.2850    
   X25.0988      Y25.0988      R1.2850    
   X24.8963      Y25.3628      R1.2850    
   X24.7690      Y25.6702      R1.2850    
   X24.7256      Y26.0000      R1.2850    
(Pass: 2)
G1   Z-0.200    
G17 G2   X24.7690      Y26.3298      R1.2850    
   X24.8963      Y26.6372      R1.2850    
   X25.0988      Y26.9012      R1.2850    
   X25.3628      Y27.1037      R1.2850    
   X25.6702      Y27.2310      R1.2850    
   X26.0000      Y27.2744      R1.2850    
   X26.3298      Y27.2310      R1.2850    
   X26.6372      Y27.1037      R1.2850    
   X26.9012      Y26.9012      R1.2850    
   X27.1037      Y26.6372      R1.2850    
   X27.2310      Y26.3298      R1.2850    
   X27.2744      Y26.0000      R1.2850    
   X27.2310      Y25.6702      R1.2850    
   X27.1037      Y25.3628      R1.2850    
   X26.9012      Y25.0988      R1.2850    
   X26.6372      Y24.8963      R1.2850    
   X26.3298      Y24.7690      R1.2850    
   X26.0000      Y24.7256      R1.2850    
   X25.6702      Y24.7690      R1.2850    
   X25.3628      Y24.8963      R1.2850    
   X25.0988      Y25.0988      R1.2850    
   X24.8963      Y25.3628      R1.2850    
   X24.7690      Y25.6702      R1.2850    
   X24.7256      Y26.0000      R1.2850    
(Pass: 3)
G1   Z-0.300    
G17 G2   X24.7690      Y26.3298      R1.2850    
   X24.8963      Y26.6372      R1.2850    
   X25.0988      Y26.9012      R1.2850    
   X25.3628      Y27.1037      R1.2850    
   X25.6702      Y27.2310      R1.2850    
   X26.0000      Y27.2744      R1.2850    
   X26.3298      Y27.2310      R1.2850    
   X26.6372      Y27.1037      R1.2850    
   X26.9012      Y26.9012      R1.2850    
   X27.1037      Y26.6372      R1.2850    
   X27.2310      Y26.3298      R1.2850    
   X27.2744      Y26.0000      R1.2850    
   X27.2310      Y25.6702      R1.2850    
   X27.1037      Y25.3628      R1.2850    
   X26.9012      Y25.0988      R1.2850    
   X26.6372      Y24.8963      R1.2850    
   X26.3298      Y24.7690      R1.2850    
   X26.0000      Y24.7256      R1.2850    
   X25.6702      Y24.7690      R1.2850    
   X25.3628      Y24.8963      R1.2850    
   X25.0988      Y25.0988      R1.2850    
   X24.8963      Y25.3628      R1.2850    
   X24.7690      Y25.6702      R1.2850    
   X24.7256      Y26.0000      R1.2850    
(Pass: 4)
G1   Z-0.400    
G17 G2   X24.7690      Y26.3298      R1.2850    
   X24.8963      Y26.6372      R1.2850    
   X25.0988      Y26.9012      R1.2850    
   X25.3628      Y27.1037      R1.2850    
   X25.6702      Y27.2310      R1.2850    
   X26.0000      Y27.2744      R1.2850    
   X26.3298      Y27.2310      R1.2850    
   X26.6372      Y27.1037      R1.2850    
   X26.9012      Y26.9012      R1.2850    
   X27.1037      Y26.6372      R1.2850    
   X27.2310      Y26.3298      R1.2850    
   X27.2744      Y26.0000      R1.2850    
   X27.2310      Y25.6702      R1.2850    
   X27.1037      Y25.3628      R1.2850    
   X26.9012      Y25.0988      R1.2850    
   X26.6372      Y24.8963      R1.2850    
   X26.3298      Y24.7690      R1.2850    
   X26.0000      Y24.7256      R1.2850    
   X25.6702      Y24.7690      R1.2850    
   X25.3628      Y24.8963      R1.2850    
   X25.0988      Y25.0988      R1.2850    
   X24.8963      Y25.3628      R1.2850    
   X24.7690      Y25.6702      R1.2850    
   X24.7256      Y26.0000      R1.2850    
(Pass: 5)
G1   Z-0.500    
G17 G2   X24.7690      Y26.3298      R1.2850    
   X24.8963      Y26.6372      R1.2850    
   X25.0988      Y26.9012      R1.2850    
   X25.3628      Y27.1037      R1.2850    
   X25.6702      Y27.2310      R1.2850    
   X26.0000      Y27.2744      R1.2850    
   X26.3298      Y27.2310      R1.2850    
   X26.6372      Y27.1037      R1.2850    
   X26.9012      Y26.9012      R1.2850    
   X27.1037      Y26.6372      R1.2850    
   X27.2310      Y26.3298      R1.2850    
   X27.2744      Y26.0000      R1.2850    
   X27.2310      Y25.6702      R1.2850    
   X27.1037      Y25.3628      R1.2850    
   X26.9012      Y25.0988      R1.2850    
   X26.6372      Y24.8963      R1.2850    
   X26.3298      Y24.7690      R1.2850    
   X26.0000      Y24.7256      R1.2850    
   X25.6702      Y24.7690      R1.2850    
   X25.3628      Y24.8963      R1.2850    
   X25.0988      Y25.0988      R1.2850    
   X24.8963      Y25.3628      R1.2850    
   X24.7690      Y25.6702      R1.2850    
   X24.7256      Y26.0000      R1.2850    
(Pass: 6)
G1   Z-0.600    
G17 G2   X24.7690      Y26.3298      R1.2850    
   X24.8963      Y26.6372      R1.2850    
   X25.0988      Y26.9012      R1.2850    
   X25.3628      Y27.1037      R1.2850    
   X25.6702      Y27.2310      R1.2850    
   X26.0000      Y27.2744      R1.2850    
   X26.3298      Y27.2310      R1.2850    
   X26.6372      Y27.1037      R1.2850    
   X26.9012      Y26.9012      R1.2850    
   X27.1037      Y26.6372      R1.2850    
   X27.2310      Y26.3298      R1.2850    
   X27.2744      Y26.0000      R1.2850    
   X27.2310      Y25.6702      R1.2850    
   X27.1037      Y25.3628      R1.2850    
   X26.9012      Y25.0988      R1.2850    
   X26.6372      Y24.8963      R1.2850    
   X26.3298      Y24.7690      R1.2850    
   X26.0000      Y24.7256      R1.2850    
   X25.6702      Y24.7690      R1.2850    
   X25.3628      Y24.8963      R1.2850    
   X25.0988      Y25.0988      R1.2850    
   X24.8963      Y25.3628      R1.2850    
   X24.7690      Y25.6702      R1.2850    
   X24.7256      Y26.0000      R1.2850    
(Pass: 7)
G1   Z-0.700    
G17 G2   X24.7690      Y26.3298      R1.2850    
   X24.8963      Y26.6372      R1.2850    
   X25.0988      Y26.9012      R1.2850    
   X25.3628      Y27.1037      R1.2850    
   X25.6702      Y27.2310      R1.2850    
   X26.0000      Y27.2744      R1.2850    
   X26.3298      Y27.2310      R1.2850    
   X26.6372      Y27.1037      R1.2850    
   X26.9012      Y26.9012      R1.2850    
   X27.1037      Y26.6372      R1.2850    
   X27.2310      Y26.3298      R1.2850    
   X27.2744      Y26.0000      R1.2850    
   X27.2310      Y25.6702      R1.2850    
   X27.1037      Y25.3628      R1.2850    
   X26.9012      Y25.0988      R1.2850    
   X26.6372      Y24.8963      R1.2850    
   X26.3298      Y24.7690      R1.2850    
   X26.0000      Y24.7256      R1.2850    
   X25.6702      Y24.7690      R1.2850    
   X25.3628      Y24.8963      R1.2850    
   X25.0988      Y25.0988      R1.2850    
   X24.8963      Y25.3628      R1.2850    
   X24.7690      Y25.6702      R1.2850    
   X24.7256      Y26.0000      R1.2850    
(Pass: 8)
G1   Z-0.800    
G17 G2   X24.7690      Y26.3298      R1.2850    
   X24.8963      Y26.6372      R1.2850    
   X25.0988      Y26.9012      R1.2850    
   X25.3628      Y27.1037      R1.2850    
   X25.6702      Y27.2310      R1.2850    
   X26.0000      Y27.2744      R1.2850    
   X26.3298      Y27.2310      R1.2850    
   X26.6372      Y27.1037      R1.2850    
   X26.9012      Y26.9012      R1.2850    
   X27.1037      Y26.6372      R1.2850    
   X27.2310      Y26.3298      R1.2850    
   X27.2744      Y26.0000      R1.2850    
   X27.2310      Y25.6702      R1.2850    
   X27.1037      Y25.3628      R1.2850    
   X26.9012      Y25.0988      R1.2850    
   X26.6372      Y24.8963      R1.2850    
   X26.3298      Y24.7690      R1.2850    
   X26.0000      Y24.7256      R1.2850    
   X25.6702      Y24.7690      R1.2850    
   X25.3628      Y24.8963      R1.2850    
   X25.0988      Y25.0988      R1.2850    
   X24.8963      Y25.3628      R1.2850    
   X24.7690      Y25.6702      R1.2850    
   X24.7256      Y26.0000      R1.2850    
(Pass: 9)
G1   Z-0.900    
G17 G2   X24.7690      Y26.3298      R1.2850    
   X24.8963      Y26.6372      R1.2850    
   X25.0988      Y26.9012      R1.2850    
   X25.3628      Y27.1037      R1.2850    
   X25.6702      Y27.2310      R1.2850    
   X26.0000      Y27.2744      R1.2850    
   X26.3298      Y27.2310      R1.2850    
   X26.6372      Y27.1037      R1.2850    
   X26.9012      Y26.9012      R1.2850    
   X27.1037      Y26.6372      R1.2850    
   X27.2310      Y26.3298      R1.2850    
   X27.2744      Y26.0000      R1.2850    
   X27.2310      Y25.6702      R1.2850    
   X27.1037      Y25.3628      R1.2850    
   X26.9012      Y25.0988      R1.2850    
   X26.6372      Y24.8963      R1.2850    
   X26.3298      Y24.7690      R1.2850    
   X26.0000      Y24.7256      R1.2850    
   X25.6702      Y24.7690      R1.2850    
   X25.3628      Y24.8963      R1.2850    
   X25.0988      Y25.0988      R1.2850    
   X24.8963      Y25.3628      R1.2850    
   X24.7690      Y25.6702      R1.2850    
   X24.7256      Y26.0000      R1.2850    
(Pass: 10)
G1   Z-1.000    
G17 G2   X24.7690      Y26.3298      R1.2850    
   X24.8963      Y26.6372      R1.2850    
   X25.0988      Y26.9012      R1.2850    
   X25.3628      Y27.1037      R1.2850    
   X25.6702      Y27.2310      R1.2850    
   X26.0000      Y27.2744      R1.2850    
   X26.3298      Y27.2310      R1.2850    
   X26.6372      Y27.1037      R1.2850    
   X26.9012      Y26.9012      R1.2850    
   X27.1037      Y26.6372      R1.2850    
   X27.2310      Y26.3298      R1.2850    
   X27.2744      Y26.0000      R1.2850    
   X27.2310      Y25.6702      R1.2850    
   X27.1037      Y25.3628      R1.2850    
   X26.9012      Y25.0988      R1.2850    
   X26.6372      Y24.8963      R1.2850    
   X26.3298      Y24.7690      R1.2850    
   X26.0000      Y24.7256      R1.2850    
   X25.6702      Y24.7690      R1.2850    
   X25.3628      Y24.8963      R1.2850    
   X25.0988      Y25.0988      R1.2850    
   X24.8963      Y25.3628      R1.2850    
   X24.7690      Y25.6702      R1.2850    
   X24.7256      Y26.0000      R1.2850    
(Pass: 11)
G1   Z-1.100    
G17 G2   X24.7690      Y26.3298      R1.2850    
   X24.8963      Y26.6372      R1.2850    
   X25.0988      Y26.9012      R1.2850    
   X25.3628      Y27.1037      R1.2850    
   X25.6702      Y27.2310      R1.2850    
   X26.0000      Y27.2744      R1.2850    
   X26.3298      Y27.2310      R1.2850    
   X26.6372      Y27.1037      R1.2850    
   X26.9012      Y26.9012      R1.2850    
   X27.1037      Y26.6372      R1.2850    
   X27.2310      Y26.3298      R1.2850    
   X27.2744      Y26.0000      R1.2850    
   X27.2310      Y25.6702      R1.2850    
   X27.1037      Y25.3628      R1.2850    
   X26.9012      Y25.0988      R1.2850    
   X26.6372      Y24.8963      R1.2850    
   X26.3298      Y24.7690      R1.2850    
   X26.0000      Y24.7256      R1.2850    
   X25.6702      Y24.7690      R1.2850    
   X25.3628      Y24.8963      R1.2850    
   X25.0988      Y25.0988      R1.2850    
   X24.8963      Y25.3628      R1.2850    
   X24.7690      Y25.6702      R1.2850    
   X24.7256      Y26.0000      R1.2850    
(Pass: 12)
G1   Z-1.200    
G17 G2   X24.7690      Y26.3298      R1.2850    
   X24.8963      Y26.6372      R1.2850    
   X25.0988      Y26.9012      R1.2850    
   X25.3628      Y27.1037      R1.2850    
   X25.6702      Y27.2310      R1.2850    
   X26.0000      Y27.2744      R1.2850    
   X26.3298      Y27.2310      R1.2850    
   X26.6372      Y27.1037      R1.2850    
   X26.9012      Y26.9012      R1.2850    
   X27.1037      Y26.6372      R1.2850    
   X27.2310      Y26.3298      R1.2850    
   X27.2744      Y26.0000      R1.2850    
   X27.2310      Y25.6702      R1.2850    
   X27.1037      Y25.3628      R1.2850    
   X26.9012      Y25.0988      R1.2850    
   X26.6372      Y24.8963      R1.2850    
   X26.3298      Y24.7690      R1.2850    
   X26.0000      Y24.7256      R1.2850    
   X25.6702      Y24.7690      R1.2850    
   X25.3628      Y24.8963      R1.2850    
   X25.0988      Y25.0988      R1.2850    
   X24.8963      Y25.3628      R1.2850    
   X24.7690      Y25.6702      R1.2850    
   X24.7256      Y26.0000      R1.2850    
(Pass: 13)
G1   Z-1.300    
G17 G2   X24.7690      Y26.3298      R1.2850    
   X24.8963      Y26.6372      R1.2850    
   X25.0988      Y26.9012      R1.2850    
   X25.3628      Y27.1037      R1.2850    
   X25.6702      Y27.2310      R1.2850    
   X26.0000      Y27.2744      R1.2850    
   X26.3298      Y27.2310      R1.2850    
   X26.6372      Y27.1037      R1.2850    
   X26.9012      Y26.9012      R1.2850    
   X27.1037      Y26.6372      R1.2850    
   X27.2310      Y26.3298      R1.2850    
   X27.2744      Y26.0000      R1.2850    
   X27.2310      Y25.6702      R1.2850    
   X27.1037      Y25.3628      R1.2850    
   X26.9012      Y25.0988      R1.2850    
   X26.6372      Y24.8963      R1.2850    
   X26.3298      Y24.7690      R1.2850    
   X26.0000      Y24.7256      R1.2850    
   X25.6702      Y24.7690      R1.2850    
   X25.3628      Y24.8963      R1.2850    
   X25.0988      Y25.0988      R1.2850    
   X24.8963      Y25.3628      R1.2850    
   X24.7690      Y25.6702      R1.2850    
   X24.7256      Y26.0000      R1.2850    
(Pass: 14)
G1   Z-1.400    
G17 G2   X24.7690      Y26.3298      R1.2850    
   X24.8963      Y26.6372      R1.2850    
   X25.0988      Y26.9012      R1.2850    
   X25.3628      Y27.1037      R1.2850    
   X25.6702      Y27.2310      R1.2850    
   X26.0000      Y27.2744      R1.2850    
   X26.3298      Y27.2310      R1.2850    
   X26.6372      Y27.1037      R1.2850    
   X26.9012      Y26.9012      R1.2850    
   X27.1037      Y26.6372      R1.2850    
   X27.2310      Y26.3298      R1.2850    
   X27.2744      Y26.0000      R1.2850    
   X27.2310      Y25.6702      R1.2850    
   X27.1037      Y25.3628      R1.2850    
   X26.9012      Y25.0988      R1.2850    
   X26.6372      Y24.8963      R1.2850    
   X26.3298      Y24.7690      R1.2850    
   X26.0000      Y24.7256      R1.2850    
   X25.6702      Y24.7690      R1.2850    
   X25.3628      Y24.8963      R1.2850    
   X25.0988      Y25.0988      R1.2850    
   X24.8963      Y25.3628      R1.2850    
   X24.7690      Y25.6702      R1.2850    
   X24.7256      Y26.0000      R1.2850    
(Pass: 15)
G1   Z-1.500    
G17 G2   X24.7690      Y26.3298      R1.2850    
   X24.8963      Y26.6372      R1.2850    
   X25.0988      Y26.9012      R1.2850    
   X25.3628      Y27.1037      R1.2850    
   X25.6702      Y27.2310      R1.2850    
   X26.0000      Y27.2744      R1.2850    
   X26.3298      Y27.2310      R1.2850    
   X26.6372      Y27.1037      R1.2850    
   X26.9012      Y26.9012      R1.2850    
   X27.1037      Y26.6372      R1.2850    
   X27.2310      Y26.3298      R1.2850    
   X27.2744      Y26.0000      R1.2850    
   X27.2310      Y25.6702      R1.2850    
   X27.1037      Y25.3628      R1.2850    
   X26.9012      Y25.0988      R1.2850    
   X26.6372      Y24.8963      R1.2850    
   X26.3298      Y24.7690      R1.2850    
   X26.0000      Y24.7256      R1.2850    
   X25.6702      Y24.7690      R1.2850    
   X25.3628      Y24.8963      R1.2850    
   X25.0988      Y25.0988      R1.2850    
   X24.8963      Y25.3628      R1.2850    
   X24.7690      Y25.6702      R1.2850    
   X24.7256      Y26.0000      R1.2850    
(Pass: 16)
G1   Z-1.600    
G17 G2   X24.7690      Y26.3298      R1.2850    
   X24.8963      Y26.6372      R1.2850    
   X25.0988      Y26.9012      R1.2850    
   X25.3628      Y27.1037      R1.2850    
   X25.6702      Y27.2310      R1.2850    
   X26.0000      Y27.2744      R1.2850    
   X26.3298      Y27.2310      R1.2850    
   X26.6372      Y27.1037      R1.2850    
   X26.9012      Y26.9012      R1.2850    
   X27.1037      Y26.6372      R1.2850    
   X27.2310      Y26.3298      R1.2850    
   X27.2744      Y26.0000      R1.2850    
   X27.2310      Y25.6702      R1.2850    
   X27.1037      Y25.3628      R1.2850    
   X26.9012      Y25.0988      R1.2850    
   X26.6372      Y24.8963      R1.2850    
   X26.3298      Y24.7690      R1.2850    
   X26.0000      Y24.7256      R1.2850    
   X25.6702      Y24.7690      R1.2850    
   X25.3628      Y24.8963      R1.2850    
   X25.0988      Y25.0988      R1.2850    
   X24.8963      Y25.3628      R1.2850    
   X24.7690      Y25.6702      R1.2850    
   X24.7256      Y26.0000      R1.2850    
(Pass: 17)
G1   Z-1.700    
G17 G2   X24.7690      Y26.3298      R1.2850    
   X24.8963      Y26.6372      R1.2850    
   X25.0988      Y26.9012      R1.2850    
   X25.3628      Y27.1037      R1.2850    
   X25.6702      Y27.2310      R1.2850    
   X26.0000      Y27.2744      R1.2850    
   X26.3298      Y27.2310      R1.2850    
   X26.6372      Y27.1037      R1.2850    
   X26.9012      Y26.9012      R1.2850    
   X27.1037      Y26.6372      R1.2850    
   X27.2310      Y26.3298      R1.2850    
   X27.2744      Y26.0000      R1.2850    
   X27.2310      Y25.6702      R1.2850    
   X27.1037      Y25.3628      R1.2850    
   X26.9012      Y25.0988      R1.2850    
   X26.6372      Y24.8963      R1.2850    
   X26.3298      Y24.7690      R1.2850    
