%
(Generated by SketchUcam {1.2})
(Bit diameter: 2.7mm)
(Feed rate: 400.0mm/min)
(Material Thickness: 3.5mm)
(Material length: 300.0mm X width: 600.0mm)
(Overhead Gantry: true)
(Retract feed rate NOT limited to plunge feed rate)
(Multipass enabled, Depth = 0.1mm)
(Optimization is ON)
(www.PhlatBoyz.com)
G90 G21 G49 
M3 S11000
G0   Z5.000     
(Pass: 1)
   X10.428       Y9.486     
G1   Z-0.100     F400 
G17 G2   X10.1063      Y9.9426       R2.1500    
   X9.9138       Y10.4666      R2.1500    
   X9.8634       Y11.0225      R2.1500    
   X9.9586       Y11.5726      R2.1500    
   X10.1930      Y12.0792      R2.1500    
   X10.5504      Y12.5080      R2.1500    
   X11.0067      Y12.8296      R2.1500    
   X11.5307      Y13.0221      R2.1500    
   X12.0866      Y13.0725      R2.1500    
   X12.6367      Y12.9773      R2.1500    
   X13.1433      Y12.7430      R2.1500    
   X13.5720      Y12.3855      R2.1500    
   X13.8937      Y11.9292      R2.1500    
   X14.0862      Y11.4052      R2.1500    
   X14.1366      Y10.8493      R2.1500    
   X14.0414      Y10.2993      R2.1500    
   X13.8070      Y9.7926       R2.1500    
   X13.4496      Y9.3639       R2.1500    
   X12.9933      Y9.0423       R2.1500    
   X12.4693      Y8.8497       R2.1500    
   X11.9134      Y8.7993       R2.1500    
   X11.3633      Y8.8945       R2.1500    
   X10.8567      Y9.1289       R2.1500    
   X10.4279      Y9.4864       R2.1500    
(Pass: 2)
G1   Z-0.200    
G17 G2   X10.1063      Y9.9426       R2.1500    
   X9.9138       Y10.4666      R2.1500    
   X9.8634       Y11.0225      R2.1500    
   X9.9586       Y11.5726      R2.1500    
   X10.1930      Y12.0792      R2.1500    
   X10.5504      Y12.5080      R2.1500    
   X11.0067      Y12.8296      R2.1500    
   X11.5307      Y13.0221      R2.1500    
   X12.0866      Y13.0725      R2.1500    
   X12.6367      Y12.9773      R2.1500    
   X13.1433      Y12.7430      R2.1500    
   X13.5720      Y12.3855      R2.1500    
   X13.8937      Y11.9292      R2.1500    
   X14.0862      Y11.4052      R2.1500    
   X14.1366      Y10.8493      R2.1500    
   X14.0414      Y10.2993      R2.1500    
   X13.8070      Y9.7926       R2.1500    
   X13.4496      Y9.3639       R2.1500    
   X12.9933      Y9.0423       R2.1500    
   X12.4693      Y8.8497       R2.1500    
   X11.9134      Y8.7993       R2.1500    
   X11.3633      Y8.8945       R2.1500    
   X10.8567      Y9.1289       R2.1500    
   X10.4279      Y9.4864       R2.1500    
(Pass: 3)
G1   Z-0.300    
G17 G2   X10.1063      Y9.9426       R2.1500    
   X9.9138       Y10.4666      R2.1500    
   X9.8634       Y11.0225      R2.1500    
   X9.9586       Y11.5726      R2.1500    
   X10.1930      Y12.0792      R2.1500    
   X10.5504      Y12.5080      R2.1500    
   X11.0067      Y12.8296      R2.1500    
   X11.5307      Y13.0221      R2.1500    
   X12.0866      Y13.0725      R2.1500    
   X12.6367      Y12.9773      R2.1500    
   X13.1433      Y12.7430      R2.1500    
   X13.5720      Y12.3855      R2.1500    
   X13.8937      Y11.9292      R2.1500    
   X14.0862      Y11.4052      R2.1500    
   X14.1366      Y10.8493      R2.1500    
   X14.0414      Y10.2993      R2.1500    
   X13.8070      Y9.7926       R2.1500    
   X13.4496      Y9.3639       R2.1500    
   X12.9933      Y9.0423       R2.1500    
   X12.4693      Y8.8497       R2.1500    
   X11.9134      Y8.7993       R2.1500    
   X11.3633      Y8.8945       R2.1500    
   X10.8567      Y9.1289       R2.1500    
   X10.4279      Y9.4864       R2.1500    
(Pass: 4)
G1   Z-0.400    
G17 G2   X10.1063      Y9.9426       R2.1500    
   X9.9138       Y10.4666      R2.1500    
   X9.8634       Y11.0225      R2.1500    
   X9.9586       Y11.5726      R2.1500    
   X10.1930      Y12.0792      R2.1500    
   X10.5504      Y12.5080      R2.1500    
   X11.0067      Y12.8296      R2.1500    
   X11.5307      Y13.0221      R2.1500    
   X12.0866      Y13.0725      R2.1500    
   X12.6367      Y12.9773      R2.1500    
   X13.1433      Y12.7430      R2.1500    
   X13.5720      Y12.3855      R2.1500    
   X13.8937      Y11.9292      R2.1500    
   X14.0862      Y11.4052      R2.1500    
   X14.1366      Y10.8493      R2.1500    
   X14.0414      Y10.2993      R2.1500    
   X13.8070      Y9.7926       R2.1500    
   X13.4496      Y9.3639       R2.1500    
   X12.9933      Y9.0423       R2.1500    
   X12.4693      Y8.8497       R2.1500    
   X11.9134      Y8.7993       R2.1500    
   X11.3633      Y8.8945       R2.1500    
   X10.8567      Y9.1289       R2.1500    
   X10.4279      Y9.4864       R2.1500    
(Pass: 5)
G1   Z-0.500    
G17 G2   X10.1063      Y9.9426       R2.1500    
   X9.9138       Y10.4666      R2.1500    
   X9.8634       Y11.0225      R2.1500    
   X9.9586       Y11.5726      R2.1500    
   X10.1930      Y12.0792      R2.1500    
   X10.5504      Y12.5080      R2.1500    
   X11.0067      Y12.8296      R2.1500    
   X11.5307      Y13.0221      R2.1500    
   X12.0866      Y13.0725      R2.1500    
   X12.6367      Y12.9773      R2.1500    
   X13.1433      Y12.7430      R2.1500    
   X13.5720      Y12.3855      R2.1500    
   X13.8937      Y11.9292      R2.1500    
   X14.0862      Y11.4052      R2.1500    
   X14.1366      Y10.8493      R2.1500    
   X14.0414      Y10.2993      R2.1500    
   X13.8070      Y9.7926       R2.1500    
   X13.4496      Y9.3639       R2.1500    
   X12.9933      Y9.0423       R2.1500    
   X12.4693      Y8.8497       R2.1500    
   X11.9134      Y8.7993       R2.1500    
   X11.3633      Y8.8945       R2.1500    
   X10.8567      Y9.1289       R2.1500    
   X10.4279      Y9.4864       R2.1500    
(Pass: 6)
G1   Z-0.600    
G17 G2   X10.1063      Y9.9426       R2.1500    
   X9.9138       Y10.4666      R2.1500    
   X9.8634       Y11.0225      R2.1500    
   X9.9586       Y11.5726      R2.1500    
   X10.1930      Y12.0792      R2.1500    
   X10.5504      Y12.5080      R2.1500    
   X11.0067      Y12.8296      R2.1500    
   X11.5307      Y13.0221      R2.1500    
   X12.0866      Y13.0725      R2.1500    
   X12.6367      Y12.9773      R2.1500    
   X13.1433      Y12.7430      R2.1500    
   X13.5720      Y12.3855      R2.1500    
   X13.8937      Y11.9292      R2.1500    
   X14.0862      Y11.4052      R2.1500    
   X14.1366      Y10.8493      R2.1500    
   X14.0414      Y10.2993      R2.1500    
   X13.8070      Y9.7926       R2.1500    
   X13.4496      Y9.3639       R2.1500    
   X12.9933      Y9.0423       R2.1500    
   X12.4693      Y8.8497       R2.1500    
   X11.9134      Y8.7993       R2.1500    
   X11.3633      Y8.8945       R2.1500    
   X10.8567      Y9.1289       R2.1500    
   X10.4279      Y9.4864       R2.1500    
(Pass: 7)
G1   Z-0.700    
G17 G2   X10.1063      Y9.9426       R2.1500    
   X9.9138       Y10.4666      R2.1500    
   X9.8634       Y11.0225      R2.1500    
   X9.9586       Y11.5726      R2.1500    
   X10.1930      Y12.0792      R2.1500    
   X10.5504      Y12.5080      R2.1500    
   X11.0067      Y12.8296      R2.1500    
   X11.5307      Y13.0221      R2.1500    
   X12.0866      Y13.0725      R2.1500    
   X12.6367      Y12.9773      R2.1500    
   X13.1433      Y12.7430      R2.1500    
   X13.5720      Y12.3855      R2.1500    
   X13.8937      Y11.9292      R2.1500    
   X14.0862      Y11.4052      R2.1500    
   X14.1366      Y10.8493      R2.1500    
   X14.0414      Y10.2993      R2.1500    
   X13.8070      Y9.7926       R2.1500    
   X13.4496      Y9.3639       R2.1500    
   X12.9933      Y9.0423       R2.1500    
   X12.4693      Y8.8497       R2.1500    
   X11.9134      Y8.7993       R2.1500    
   X11.3633      Y8.8945       R2.1500    
   X10.8567      Y9.1289       R2.1500    
   X10.4279      Y9.4864       R2.1500    
(Pass: 8)
G1   Z-0.800    
G17 G2   X10.1063      Y9.9426       R2.1500    
   X9.9138       Y10.4666      R2.1500    
   X9.8634       Y11.0225      R2.1500    
   X9.9586       Y11.5726      R2.1500    
   X10.1930      Y12.0792      R2.1500    
   X10.5504      Y12.5080      R2.1500    
   X11.0067      Y12.8296      R2.1500    
   X11.5307      Y13.0221      R2.1500    
   X12.0866      Y13.0725      R2.1500    
   X12.6367      Y12.9773      R2.1500    
   X13.1433      Y12.7430      R2.1500    
   X13.5720      Y12.3855      R2.1500    
   X13.8937      Y11.9292      R2.1500    
   X14.0862      Y11.4052      R2.1500    
   X14.1366      Y10.8493      R2.1500    
   X14.0414      Y10.2993      R2.1500    
   X13.8070      Y9.7926       R2.1500    
   X13.4496      Y9.3639       R2.1500    
   X12.9933      Y9.0423       R2.1500    
   X12.4693      Y8.8497       R2.1500    
   X11.9134      Y8.7993       R2.1500    
   X11.3633      Y8.8945       R2.1500    
   X10.8567      Y9.1289       R2.1500    
   X10.4279      Y9.4864       R2.1500    
(Pass: 9)
G1   Z-0.900    
G17 G2   X10.1063      Y9.9426       R2.1500    
   X9.9138       Y10.4666      R2.1500    
   X9.8634       Y11.0225      R2.1500    
   X9.9586       Y11.5726      R2.1500    
   X10.1930      Y12.0792      R2.1500    
   X10.5504      Y12.5080      R2.1500    
   X11.0067      Y12.8296      R2.1500    
   X11.5307      Y13.0221      R2.1500    
   X12.0866      Y13.0725      R2.1500    
   X12.6367      Y12.9773      R2.1500    
   X13.1433      Y12.7430      R2.1500    
   X13.5720      Y12.3855      R2.1500    
   X13.8937      Y11.9292      R2.1500    
   X14.0862      Y11.4052      R2.1500    
   X14.1366      Y10.8493      R2.1500    
   X14.0414      Y10.2993      R2.1500    
   X13.8070      Y9.7926       R2.1500    
   X13.4496      Y9.3639       R2.1500    
   X12.9933      Y9.0423       R2.1500    
   X12.4693      Y8.8497       R2.1500    
   X11.9134      Y8.7993       R2.1500    
   X11.3633      Y8.8945       R2.1500    
   X10.8567      Y9.1289       R2.1500    
   X10.4279      Y9.4864       R2.1500    
(Pass: 10)
G1   Z-1.000    
G17 G2   X10.1063      Y9.9426       R2.1500    
   X9.9138       Y10.4666      R2.1500    
   X9.8634       Y11.0225      R2.1500    
   X9.9586       Y11.5726      R2.1500    
   X10.1930      Y12.0792      R2.1500    
   X10.5504      Y12.5080      R2.1500    
   X11.0067      Y12.8296      R2.1500    
   X11.5307      Y13.0221      R2.1500    
   X12.0866      Y13.0725      R2.1500    
   X12.6367      Y12.9773      R2.1500    
   X13.1433      Y12.7430      R2.1500    
   X13.5720      Y12.3855      R2.1500    
   X13.8937      Y11.9292      R2.1500    
   X14.0862      Y11.4052      R2.1500    
   X14.1366      Y10.8493      R2.1500    
   X14.0414      Y10.2993      R2.1500    
   X13.8070      Y9.7926       R2.1500    
   X13.4496      Y9.3639       R2.1500    
   X12.9933      Y9.0423       R2.1500    
   X12.4693      Y8.8497       R2.1500    
   X11.9134      Y8.7993       R2.1500    
   X11.3633      Y8.8945       R2.1500    
   X10.8567      Y9.1289       R2.1500    
   X10.4279      Y9.4864       R2.1500    
(Pass: 11)
G1   Z-1.100    
G17 G2   X10.1063      Y9.9426       R2.1500    
   X9.9138       Y10.4666      R2.1500    
   X9.8634       Y11.0225      R2.1500    
   X9.9586       Y11.5726      R2.1500    
   X10.1930      Y12.0792      R2.1500    
   X10.5504      Y12.5080      R2.1500    
   X11.0067      Y12.8296      R2.1500    
   X11.5307      Y13.0221      R2.1500    
   X12.0866      Y13.0725      R2.1500    
   X12.6367      Y12.9773      R2.1500    
   X13.1433      Y12.7430      R2.1500    
   X13.5720      Y12.3855      R2.1500    
   X13.8937      Y11.9292      R2.1500    
   X14.0862      Y11.4052      R2.1500    
   X14.1366      Y10.8493      R2.1500    
   X14.0414      Y10.2993      R2.1500    
   X13.8070      Y9.7926       R2.1500    
   X13.4496      Y9.3639       R2.1500    
   X12.9933      Y9.0423       R2.1500    
   X12.4693      Y8.8497       R2.1500    
   X11.9134      Y8.7993       R2.1500    
   X11.3633      Y8.8945       R2.1500    
   X10.8567      Y9.1289       R2.1500    
   X10.4279      Y9.4864       R2.1500    
(Pass: 12)
G1   Z-1.200    
G17 G2   X10.1063      Y9.9426       R2.1500    
   X9.9138       Y10.4666      R2.1500    
   X9.8634       Y11.0225      R2.1500    
   X9.9586       Y11.5726      R2.1500    
   X10.1930      Y12.0792      R2.1500    
   X10.5504      Y12.5080      R2.1500    
   X11.0067      Y12.8296      R2.1500    
   X11.5307      Y13.0221      R2.1500    
   X12.0866      Y13.0725      R2.1500    
   X12.6367      Y12.9773      R2.1500    
   X13.1433      Y12.7430      R2.1500    
   X13.5720      Y12.3855      R2.1500    
   X13.8937      Y11.9292      R2.1500    
   X14.0862      Y11.4052      R2.1500    
   X14.1366      Y10.8493      R2.1500    
   X14.0414      Y10.2993      R2.1500    
   X13.8070      Y9.7926       R2.1500    
   X13.4496      Y9.3639       R2.1500    
   X12.9933      Y9.0423       R2.1500    
   X12.4693      Y8.8497       R2.1500    
   X11.9134      Y8.7993       R2.1500    
   X11.3633      Y8.8945       R2.1500    
   X10.8567      Y9.1289       R2.1500    
   X10.4279      Y9.4864       R2.1500    
(Pass: 13)
G1   Z-1.300    
G17 G2   X10.1063      Y9.9426       R2.1500    
   X9.9138       Y10.4666      R2.1500    
   X9.8634       Y11.0225      R2.1500    
   X9.9586       Y11.5726      R2.1500    
   X10.1930      Y12.0792      R2.1500    
   X10.5504      Y12.5080      R2.1500    
   X11.0067      Y12.8296      R2.1500    
   X11.5307      Y13.0221      R2.1500    
   X12.0866      Y13.0725      R2.1500    
   X12.6367      Y12.9773      R2.1500    
   X13.1433      Y12.7430      R2.1500    
   X13.5720      Y12.3855      R2.1500    
   X13.8937      Y11.9292      R2.1500    
   X14.0862      Y11.4052      R2.1500    
   X14.1366      Y10.8493      R2.1500    
   X14.0414      Y10.2993      R2.1500    
   X13.8070      Y9.7926       R2.1500    
   X13.4496      Y9.3639       R2.1500    
   X12.9933      Y9.0423       R2.1500    
   X12.4693      Y8.8497       R2.1500    
   X11.9134      Y8.7993       R2.1500    
   X11.3633      Y8.8945       R2.1500    
   X10.8567      Y9.1289       R2.1500    
   X10.4279      Y9.4864       R2.1500    
(Pass: 14)
G1   Z-1.400    
G17 G2   X10.1063      Y9.9426       R2.1500    
   X9.9138       Y10.4666      R2.1500    
   X9.8634       Y11.0225      R2.1500    
   X9.9586       Y11.5726      R2.1500    
   X10.1930      Y12.0792      R2.1500    
   X10.5504      Y12.5080      R2.1500    
   X11.0067      Y12.8296      R2.1500    
   X11.5307      Y13.0221      R2.1500    
   X12.0866      Y13.0725      R2.1500    
   X12.6367      Y12.9773      R2.1500    
   X13.1433      Y12.7430      R2.1500    
   X13.5720      Y12.3855      R2.1500    
   X13.8937      Y11.9292      R2.1500    
   X14.0862      Y11.4052      R2.1500    
   X14.1366      Y10.8493      R2.1500    
   X14.0414      Y10.2993      R2.1500    
   X13.8070      Y9.7926       R2.1500    
   X13.4496      Y9.3639       R2.1500    
   X12.9933      Y9.0423       R2.1500    
   X12.4693      Y8.8497       R2.1500    
   X11.9134      Y8.7993       R2.1500    
   X11.3633      Y8.8945       R2.1500    
   X10.8567      Y9.1289       R2.1500    
   X10.4279      Y9.4864       R2.1500    
(Pass: 15)
G1   Z-1.500    
G17 G2   X10.1063      Y9.9426       R2.1500    
   X9.9138       Y10.4666      R2.1500    
   X9.8634       Y11.0225      R2.1500    
   X9.9586       Y11.5726      R2.1500    
   X10.1930      Y12.0792      R2.1500    
   X10.5504      Y12.5080      R2.1500    
   X11.0067      Y12.8296      R2.1500    
   X11.5307      Y13.0221      R2.1500    
   X12.0866      Y13.0725      R2.1500    
   X12.6367      Y12.9773      R2.1500    
   X13.1433      Y12.7430      R2.1500    
   X13.5720      Y12.3855      R2.1500    
   X13.8937      Y11.9292      R2.1500    
   X14.0862      Y11.4052      R2.1500    
   X14.1366      Y10.8493      R2.1500    
   X14.0414      Y10.2993      R2.1500    
   X13.8070      Y9.7926       R2.1500    
   X13.4496      Y9.3639       R2.1500    
   X12.9933      Y9.0423       R2.1500    
   X12.4693      Y8.8497       R2.1500    
   X11.9134      Y8.7993       R2.1500    
   X11.3633      Y8.8945       R2.1500    
   X10.8567      Y9.1289       R2.1500    
   X10.4279      Y9.4864       R2.1500    
(Pass: 16)
G1   Z-1.600    
G17 G2   X10.1063      Y9.9426       R2.1500    
   X9.9138       Y10.4666      R2.1500    
   X9.8634       Y11.0225      R2.1500    
   X9.9586       Y11.5726      R2.1500    
   X10.1930      Y12.0792      R2.1500    
   X10.5504      Y12.5080      R2.1500    
   X11.0067      Y12.8296      R2.1500    
   X11.5307      Y13.0221      R2.1500    
   X12.0866      Y13.0725      R2.1500    
   X12.6367      Y12.9773      R2.1500    
   X13.1433      Y12.7430      R2.1500    
   X13.5720      Y12.3855      R2.1500    
   X13.8937      Y11.9292      R2.1500    
   X14.0862      Y11.4052      R2.1500    
   X14.1366      Y10.8493      R2.1500    
   X14.0414      Y10.2993      R2.1500    
   X13.8070      Y9.7926       R2.1500    
   X13.4496      Y9.3639       R2.1500    
   X12.9933      Y9.0423       R2.1500    
   X12.4693      Y8.8497       R2.1500    
   X11.9134      Y8.7993       R2.1500    
   X11.3633      Y8.8945       R2.1500    
   X10.8567      Y9.1289       R2.1500    
   X10.4279      Y9.4864       R2.1500    
(Pass: 17)
G1   Z-1.700    
G17 G2   X10.1063      Y9.9426       R2.1500    
   X9.9138       Y10.4666      R2.1500    
   X9.8634       Y11.0225      R2.1500    
   X9.9586       Y11.5726      R2.1500    
   X10.1930      Y12.0792      R2.1500    
   X10.5504      Y12.5080      R2.1500    
   X11.0067      Y12.8296      R2.1500    
   X11.5307      Y13.0221      R2.1500    
   X12.0866      Y13.0725      R2.1500    
   X12.6367      Y12.9773      R2.1500    
   X13.1433      Y12.7430      R2.1500    
   X13.5720      Y12.3855      R2.1500    
   X13.8937      Y11.9292      R2.1500    
   X14.0862      Y11.4052      R2.1500    
   X14.1366      Y10.8493      R2.1500    
   X14.0414      Y10.2993      R2.1500    
   X13.8070      Y9.7926       R2.1500    
   X13.4496      Y9.3639       R2.1500    
   X12.9933      Y9.0423       R2.1500    
   X12.4693      Y8.8497       R2.1500    
   X11.9134      Y8.7993       R2.1500    
   X11.3633      Y8.8945       R2.1500    
   X10.8567      Y9.1289       R2.1500    
   X10.4279      Y9.4864       R2.1500    
(Pass: 18)
G1   Z-1.800    
G17 G2   X10.1063      Y9.9426       R2.1500    
   X9.9138       Y10.4666      R2.1500    
   X9.8634       Y11.0225      R2.1500    
   X9.9586       Y11.5726      R2.1500    
   X10.1930      Y12.0792      R2.1500    
   X10.5504      Y12.5080      R2.1500    
   X11.0067      Y12.8296      R2.1500    
   X11.5307      Y13.0221      R2.1500    
   X12.0866      Y13.0725      R2.1500    
   X12.6367      Y12.9773      R2.1500    
   X13.1433      Y12.7430      R2.1500    
   X13.5720      Y12.3855      R2.1500    
   X13.8937      Y11.9292      R2.1500    
   X14.0862      Y11.4052      R2.1500    
   X14.1366      Y10.8493      R2.1500    
   X14.0414      Y10.2993      R2.1500    
   X13.8070      Y9.7926       R2.1500    
   X13.4496      Y9.3639       R2.1500    
   X12.9933      Y9.0423       R2.1500    
   X12.4693      Y8.8497       R2.1500    
   X11.9134      Y8.7993       R2.1500    
   X11.3633      Y8.8945       R2.1500    
   X10.8567      Y9.1289       R2.1500    
   X10.4279      Y9.4864       R2.1500    
(Pass: 19)
G1   Z-1.900    
G17 G2   X10.1063      Y9.9426       R2.1500    
   X9.9138       Y10.4666      R2.1500    
   X9.8634       Y11.0225      R2.1500    
   X9.9586       Y11.5726      R2.1500    
   X10.1930      Y12.0792      R2.1500    
   X10.5504      Y12.5080      R2.1500    
   X11.0067      Y12.8296      R2.1500    
   X11.5307      Y13.0221      R2.1500    
   X12.0866      Y13.0725      R2.1500    
   X12.6367      Y12.9773      R2.1500    
   X13.1433      Y12.7430      R2.1500    
   X13.5720      Y12.3855      R2.1500    
   X13.8937      Y11.9292      R2.1500    
   X14.0862      Y11.4052      R2.1500    
   X14.1366      Y10.8493      R2.1500    
   X14.0414      Y10.2993      R2.1500    
   X13.8070      Y9.7926       R2.1500    
   X13.4496      Y9.3639       R2.1500    
   X12.9933      Y9.0423       R2.1500    
   X12.4693      Y8.8497       R2.1500    
   X11.9134      Y8.7993       R2.1500    
   X11.3633      Y8.8945       R2.1500    
   X10.8567      Y9.1289       R2.1500    
   X10.4279      Y9.4864       R2.1500    
(Pass: 20)
G1   Z-2.000    
G17 G2   X10.1063      Y9.9426       R2.1500    
   X9.9138       Y10.4666      R2.1500    
   X9.8634       Y11.0225      R2.1500    
   X9.9586       Y11.5726      R2.1500    
   X10.1930      Y12.0792      R2.1500    
   X10.5504      Y12.5080      R2.1500    
   X11.0067      Y12.8296      R2.1500    
   X11.5307      Y13.0221      R2.1500    
   X12.0866      Y13.0725      R2.1500    
   X12.6367      Y12.9773      R2.1500    
   X13.1433      Y12.7430      R2.1500    
   X13.5720      Y12.3855      R2.1500    
   X13.8937      Y11.9292      R2.1500    
   X14.0862      Y11.4052      R2.1500    
   X14.1366      Y10.8493      R2.1500    
   X14.0414      Y10.2993      R2.1500    
   X13.8070      Y9.7926       R2.1500    
   X13.4496      Y9.3639       R2.1500    
   X12.9933      Y9.0423       R2.1500    
   X12.4693      Y8.8497       R2.1500    
   X11.9134      Y8.7993       R2.1500    
   X11.3633      Y8.8945       R2.1500    
   X10.8567      Y9.1289       R2.1500    
   X10.4279      Y9.4864       R2.1500    
(Pass: 21)
G1   Z-2.100    
G17 G2   X10.1063      Y9.9426       R2.1500    
   X9.9138       Y10.4666      R2.1500    
   X9.8634       Y11.0225      R2.1500    
   X9.9586       Y11.5726      R2.1500    
   X10.1930      Y12.0792      R2.1500    
   X10.5504      Y12.5080      R2.1500    
   X11.0067      Y12.8296      R2.1500    
   X11.5307      Y13.0221      R2.1500    
   X12.0866      Y13.0725      R2.1500    
   X12.6367      Y12.9773      R2.1500    
   X13.1433      Y12.7430      R2.1500    
   X13.5720      Y12.3855      R2.1500    
   X13.8937      Y11.9292      R2.1500    
   X14.0862      Y11.4052      R2.1500    
   X14.1366      Y10.8493      R2.1500    
   X14.0414      Y10.2993      R2.1500    
   X13.8070      Y9.7926       R2.1500    
   X13.4496      Y9.3639       R2.1500    
   X12.9933      Y9.0423       R2.1500    
   X12.4693      Y8.8497       R2.1500    
   X11.9134      Y8.7993       R2.1500    
   X11.3633      Y8.8945       R2.1500    
   X10.8567      Y9.1289       R2.1500    
   X10.4279      Y9.4864       R2.1500    
(Pass: 22)
G1   Z-2.200    
G17 G2   X10.1063      Y9.9426       R2.1500    
   X9.9138       Y10.4666      R2.1500    
   X9.8634       Y11.0225      R2.1500    
   X9.9586       Y11.5726      R2.1500    
   X10.1930      Y12.0792      R2.1500    
   X10.5504      Y12.5080      R2.1500    
   X11.0067      Y12.8296      R2.1500    
   X11.5307      Y13.0221      R2.1500    
   X12.0866      Y13.0725      R2.1500    
   X12.6367      Y12.9773      R2.1500    
   X13.1433      Y12.7430      R2.1500    
   X13.5720      Y12.3855      R2.1500    
   X13.8937      Y11.9292      R2.1500    
   X14.0862      Y11.4052      R2.1500    
   X14.1366      Y10.8493      R2.1500    
   X14.0414      Y10.2993      R2.1500    
   X13.8070      Y9.7926       R2.1500    
   X13.4496      Y9.3639       R2.1500    
   X12.9933      Y9.0423       R2.1500    
   X12.4693      Y8.8497       R2.1500    
   X11.9134      Y8.7993       R2.1500    
   X11.3633      Y8.8945       R2.1500    
   X10.8567      Y9.1289       R2.1500    
   X10.4279      Y9.4864       R2.1500    
(Pass: 23)
G1   Z-2.300    
G17 G2   X10.1063      Y9.9426       R2.1500    
   X9.9138       Y10.4666      R2.1500    
   X9.8634       Y11.0225      R2.1500    
   X9.9586       Y11.5726      R2.1500    
   X10.1930      Y12.0792      R2.1500    
   X10.5504      Y12.5080      R2.1500    
   X11.0067      Y12.8296      R2.1500    
   X11.5307      Y13.0221      R2.1500    
   X12.0866      Y13.0725      R2.1500    
   X12.6367      Y12.9773      R2.1500    
   X13.1433      Y12.7430      R2.1500    
   X13.5720      Y12.3855      R2.1500    
   X13.8937      Y11.9292      R2.1500    
   X14.0862      Y11.4052      R2.1500    
   X14.1366      Y10.8493      R2.1500    
   X14.0414      Y10.2993      R2.1500    
   X13.8070      Y9.7926       R2.1500    
   X13.4496      Y9.3639       R2.1500    
   X12.9933      Y9.0423       R2.1500    
   X12.4693      Y8.8497       R2.1500    
   X11.9134      Y8.7993       R2.1500    
   X11.3633      Y8.8945       R2.1500    
   X10.8567      Y9.1289       R2.1500    
   X10.4279      Y9.4864       R2.1500    
(Pass: 24)
G1   Z-2.400    
G17 G2   X10.1063      Y9.9426       R2.1500    
   X9.9138       Y10.4666      R2.1500    
   X9.8634       Y11.0225      R2.1500    
   X9.9586       Y11.5726      R2.1500    
   X10.1930      Y12.0792      R2.1500    
   X10.5504      Y12.5080      R2.1500    
   X11.0067      Y12.8296      R2.1500    
   X11.5307      Y13.0221      R2.1500    
   X12.0866      Y13.0725      R2.1500    
   X12.6367      Y12.9773      R2.1500    
   X13.1433      Y12.7430      R2.1500    
   X13.5720      Y12.3855      R2.1500    
   X13.8937      Y11.9292      R2.1500    
   X14.0862      Y11.4052      R2.1500    
   X14.1366      Y10.8493      R2.1500    
   X14.0414      Y10.2993      R2.1500    
   X13.8070      Y9.7926       R2.1500    
   X13.4496      Y9.3639       R2.1500    
   X12.9933      Y9.0423       R2.1500    
   X12.4693      Y8.8497       R2.1500    
   X11.9134      Y8.7993       R2.1500    
   X11.3633      Y8.8945       R2.1500    
   X10.8567      Y9.1289       R2.1500    
   X10.4279      Y9.4864       R2.1500    
(Pass: 25)
G1   Z-2.500    
G17 G2   X10.1063      Y9.9426       R2.1500    
   X9.9138       Y10.4666      R2.1500    
   X9.8634       Y11.0225      R2.1500    
   X9.9586       Y11.5726      R2.1500    
   X10.1930      Y12.0792      R2.1500    
   X10.5504      Y12.5080      R2.1500    
   X11.0067      Y12.8296      R2.1500    
   X11.5307      Y13.0221      R2.1500    
   X12.0866      Y13.0725      R2.1500    
   X12.6367      Y12.9773      R2.1500    
   X13.1433      Y12.7430      R2.1500    
   X13.5720      Y12.3855      R2.1500    
   X13.8937      Y11.9292      R2.1500    
   X14.0862      Y11.4052      R2.1500    
   X14.1366      Y10.8493      R2.1500    
   X14.0414      Y10.2993      R2.1500    
   X13.8070      Y9.7926       R2.1500    
   X13.4496      Y9.3639       R2.1500    
   X12.9933      Y9.0423       R2.1500    
   X12.4693      Y8.8497       R2.1500    
   X11.9134      Y8.7993       R2.1500    
   X11.3633      Y8.8945       R2.1500    
   X10.8567      Y9.1289       R2.1500    
   X10.4279      Y9.4864       R2.1500    
(Pass: 26)
G1   Z-2.600    
G17 G2   X10.1063      Y9.9426       R2.1500    
   X9.9138       Y10.4666      R2.1500    
   X9.8634       Y11.0225      R2.1500    
   X9.9586       Y11.5726      R2.1500    
   X10.1930      Y12.0792      R2.1500    
   X10.5504      Y12.5080      R2.1500    
   X11.0067      Y12.8296      R2.1500    
   X11.5307      Y13.0221      R2.1500    
   X12.0866      Y13.0725      R2.1500    
   X12.6367      Y12.9773      R2.1500    
   X13.1433      Y12.7430      R2.1500    
   X13.5720      Y12.3855      R2.1500    
   X13.8937      Y11.9292      R2.1500    
   X14.0862      Y11.4052      R2.1500    
   X14.1366      Y10.8493      R2.1500    
   X14.0414      Y10.2993      R2.1500    
   X13.8070      Y9.7926       R2.1500    
   X13.4496      Y9.3639       R2.1500    
   X12.9933      Y9.0423       R2.1500    
   X12.4693      Y8.8497       R2.1500    
   X11.9134      Y8.7993       R2.1500    
   X11.3633      Y8.8945       R2.1500    
   X10.8567      Y9.1289       R2.1500    
   X10.4279      Y9.4864       R2.1500    
(Pass: 27)
G1   Z-2.700    
G17 G2   X10.1063      Y9.9426       R2.1500    
   X9.9138       Y10.4666      R2.1500    
   X9.8634       Y11.0225      R2.1500    
   X9.9586       Y11.5726      R2.1500    
   X10.1930      Y12.0792      R2.1500    
   X10.5504      Y12.5080      R2.1500    
   X11.0067      Y12.8296      R2.1500    
   X11.5307      Y13.0221      R2.1500    
   X12.0866      Y13.0725      R2.1500    
   X12.6367      Y12.9773      R2.1500    
   X13.1433      Y12.7430      R2.1500    
   X13.5720      Y12.3855      R2.1500    
   X13.8937      Y11.9292      R2.1500    
   X14.0862      Y11.4052      R2.1500    
   X14.1366      Y10.8493      R2.1500    
   X14.0414      Y10.2993      R2.1500    
   X13.8070      Y9.7926       R2.1500    
   X13.4496      Y9.3639       R2.1500    
   X12.9933      Y9.0423       R2.1500    
   X12.4693      Y8.8497       R2.1500    
   X11.9134      Y8.7993       R2.1500    
   X11.3633      Y8.8945       R2.1500    
   X10.8567      Y9.1289       R2.1500    
   X10.4279      Y9.4864       R2.1500    
(Pass: 28)
G1   Z-2.800    
G17 G2   X10.1063      Y9.9426       R2.1500    
   X9.9138       Y10.4666      R2.1500    
   X9.8634       Y11.0225      R2.1500    
   X9.9586       Y11.5726      R2.1500    
   X10.1930      Y12.0792      R2.1500    
   X10.5504      Y12.5080      R2.1500    
   X11.0067      Y12.8296      R2.1500    
   X11.5307      Y13.0221      R2.1500    
   X12.0866      Y13.0725      R2.1500    
   X12.6367      Y12.9773      R2.1500    
   X13.1433      Y12.7430      R2.1500    
   X13.5720      Y12.3855      R2.1500    
   X13.8937      Y11.9292      R2.1500    
   X14.0862      Y11.4052      R2.1500    
   X14.1366      Y10.8493      R2.1500    
   X14.0414      Y10.2993      R2.1500    
   X13.8070      Y9.7926       R2.1500    
   X13.4496      Y9.3639       R2.1500    
   X12.9933      Y9.0423       R2.1500    
   X12.4693      Y8.8497       R2.1500    
   X11.9134      Y8.7993       R2.1500    
   X11.3633      Y8.8945       R2.1500    
   X10.8567      Y9.1289       R2.1500    
   X10.4279      Y9.4864       R2.1500    
(Pass: 29)
G1   Z-2.900    
G17 G2   X10.1063      Y9.9426       R2.1500    
   X9.9138       Y10.4666      R2.1500    
   X9.8634       Y11.0225      R2.1500    
   X9.9586       Y11.5726      R2.1500    
   X10.1930      Y12.0792      R2.1500    
   X10.5504      Y12.5080      R2.1500    
   X11.0067      Y12.8296      R2.1500    
   X11.5307      Y13.0221      R2.1500    
   X12.0866      Y13.0725      R2.1500    
   X12.6367      Y12.9773      R2.1500    
   X13.1433      Y12.7430      R2.1500    
   X13.5720      Y12.3855      R2.1500    
   X13.8937      Y11.9292      R2.1500    
   X14.0862      Y11.4052      R2.1500    
   X14.1366      Y10.8493      R2.1500    
   X14.0414      Y10.2993      R2.1500    
   X13.8070      Y9.7926       R2.1500    
   X13.4496      Y9.3639       R2.1500    
   X12.9933      Y9.0423       R2.1500    
   X12.4693      Y8.8497       R2.1500    
   X11.9134      Y8.7993       R2.1500    
   X11.3633      Y8.8945       R2.1500    
   X10.8567      Y9.1289       R2.1500    
   X10.4279      Y9.4864       R2.1500    
(Pass: 30)
G1   Z-3.000    
G17 G2   X10.1063      Y9.9426       R2.1500    
   X9.9138       Y10.4666      R2.1500    
   X9.8634       Y11.0225      R2.1500    
   X9.9586       Y11.5726      R2.1500    
   X10.1930      Y12.0792      R2.1500    
   X10.5504      Y12.5080      R2.1500    
   X11.0067      Y12.8296      R2.1500    
   X11.5307      Y13.0221      R2.1500    
   X12.0866      Y13.0725      R2.1500    
   X12.6367      Y12.9773      R2.1500    
   X13.1433      Y12.7430      R2.1500    
   X13.5720      Y12.3855      R2.1500    
   X13.8937      Y11.9292      R2.1500    
   X14.0862      Y11.4052      R2.1500    
   X14.1366      Y10.8493      R2.1500    
   X14.0414      Y10.2993      R2.1500    
   X13.8070      Y9.7926       R2.1500    
   X13.4496      Y9.3639       R2.1500    
   X12.9933      Y9.0423       R2.1500    
   X12.4693      Y8.8497       R2.1500    
   X11.9134      Y8.7993       R2.1500    
   X11.3633      Y8.8945       R2.1500    
   X10.8567      Y9.1289       R2.1500    
   X10.4279      Y9.4864       R2.1500    
(Pass: 31)
G1   Z-3.100    
G17 G2   X10.1063      Y9.9426       R2.1500    
   X9.9138       Y10.4666      R2.1500    
   X9.8634       Y11.0225      R2.1500    
   X9.9586       Y11.5726      R2.1500    
   X10.1930      Y12.0792      R2.1500    
   X10.5504      Y12.5080      R2.1500    
   X11.0067      Y12.8296      R2.1500    
   X11.5307      Y13.0221      R2.1500    
   X12.0866      Y13.0725      R2.1500    
   X12.6367      Y12.9773      R2.1500    
   X13.1433      Y12.7430      R2.1500    
   X13.5720      Y12.3855      R2.1500    
   X13.8937      Y11.9292      R2.1500    
   X14.0862      Y11.4052      R2.1500    
   X14.1366      Y10.8493      R2.1500    
   X14.0414      Y10.2993      R2.1500    
   X13.8070      Y9.7926       R2.1500    
   X13.4496      Y9.3639       R2.1500    
   X12.9933      Y9.0423       R2.1500    
   X12.4693      Y8.8497       R2.1500    
   X11.9134      Y8.7993       R2.1500    
   X11.3633      Y8.8945       R2.1500    
   X10.8567      Y9.1289       R2.1500    
   X10.4279      Y9.4864       R2.1500    
(Pass: 32)
G1   Z-3.200    
G17 G2   X10.1063      Y9.9426       R2.1500    
   X9.9138       Y10.4666      R2.1500    
   X9.8634       Y11.0225      R2.1500    
   X9.9586       Y11.5726      R2.1500    
   X10.1930      Y12.0792      R2.1500    
   X10.5504      Y12.5080      R2.1500    
   X11.0067      Y12.8296      R2.1500    
   X11.5307      Y13.0221      R2.1500    
   X12.0866      Y13.0725      R2.1500    
   X12.6367      Y12.9773      R2.1500    
   X13.1433      Y12.7430      R2.1500    
   X13.5720      Y12.3855      R2.1500    
   X13.8937      Y11.9292      R2.1500    
   X14.0862      Y11.4052      R2.1500    
   X14.1366      Y10.8493      R2.1500    
   X14.0414      Y10.2993      R2.1500    
   X13.8070      Y9.7926       R2.1500    
   X13.4496      Y9.3639       R2.1500    
   X12.9933      Y9.0423       R2.1500    
   X12.4693      Y8.8497       R2.1500    
   X11.9134      Y8.7993       R2.1500    
   X11.3633      Y8.8945       R2.1500    
   X10.8567      Y9.1289       R2.1500    
   X10.4279      Y9.4864       R2.1500    
(Pass: 33)
G1   Z-3.300    
G17 G2   X10.1063      Y9.9426       R2.1500    
   X9.9138       Y10.4666      R2.1500    
   X9.8634       Y11.0225      R2.1500    
   X9.9586       Y11.5726      R2.1500    
   X10.1930      Y12.0792      R2.1500    
   X10.5504      Y12.5080      R2.1500    
   X11.0067      Y12.8296      R2.1500    
   X11.5307      Y13.0221      R2.1500    
   X12.0866      Y13.0725      R2.1500    
   X12.6367      Y12.9773      R2.1500    
   X13.1433      Y12.7430      R2.1500    
   X13.5720      Y12.3855      R2.1500    
   X13.8937      Y11.9292      R2.1500    
   X14.0862      Y11.4052      R2.1500    
   X14.1366      Y10.8493      R2.1500    
   X14.0414      Y10.2993      R2.1500    
   X13.8070      Y9.7926       R2.1500    
   X13.4496      Y9.3639       R2.1500    
   X12.9933      Y9.0423       R2.1500    
   X12.4693      Y8.8497       R2.1500    
   X11.9134      Y8.7993       R2.1500    
   X11.3633      Y8.8945       R2.1500    
   X10.8567      Y9.1289       R2.1500    
   X10.4279      Y9.4864       R2.1500    
(Pass: 34)
G1   Z-3.400    
G17 G2   X10.1063      Y9.9426       R2.1500    
   X9.9138       Y10.4666      R2.1500    
   X9.8634       Y11.0225      R2.1500    
   X9.9586       Y11.5726      R2.1500    
   X10.1930      Y12.0792      R2.1500    
   X10.5504      Y12.5080      R2.1500    
   X11.0067      Y12.8296      R2.1500    
   X11.5307      Y13.0221      R2.1500    
   X12.0866      Y13.0725      R2.1500    
   X12.6367      Y12.9773      R2.1500    
   X13.1433      Y12.7430      R2.1500    
   X13.5720      Y12.3855      R2.1500    
   X13.8937      Y11.9292      R2.1500    
   X14.0862      Y11.4052      R2.1500    
   X14.1366      Y10.8493      R2.1500    
   X14.0414      Y10.2993      R2.1500    
   X13.8070      Y9.7926       R2.1500    
   X13.4496      Y9.3639       R2.1500    
   X12.9933      Y9.0423       R2.1500    
   X12.4693      Y8.8497       R2.1500    
   X11.9134      Y8.7993       R2.1500    
   X11.3633      Y8.8945       R2.1500    
   X10.8567      Y9.1289       R2.1500    
   X10.4279      Y9.4864       R2.1500    
(Pass: 35)
G1   Z-3.500    
G17 G2   X10.1063      Y9.9426       R2.1500    
   X9.9138       Y10.4666      R2.1500    
   X9.8634       Y11.0225      R2.1500    
   X9.9586       Y11.5726      R2.1500    
   X10.1930      Y12.0792      R2.1500    
   X10.5504      Y12.5080      R2.1500    
   X11.0067      Y12.8296      R2.1500    
   X11.5307      Y13.0221      R2.1500    
   X12.0866      Y13.0725      R2.1500    
   X12.6367      Y12.9773      R2.1500    
   X13.1433      Y12.7430      R2.1500    
   X13.5720      Y12.3855      R2.1500    
   X13.8937      Y11.9292      R2.1500    
   X14.0862      Y11.4052      R2.1500    
   X14.1366      Y10.8493      R2.1500    
   X14.0414      Y10.2993      R2.1500    
   X13.8070      Y9.7926       R2.1500    
   X13.4496      Y9.3639       R2.1500    
   X12.9933      Y9.0423       R2.1500    
   X12.4693      Y8.8497       R2.1500    
   X11.9134      Y8.7993       R2.1500    
   X11.3633      Y8.8945       R2.1500    
   X10.8567      Y9.1289       R2.1500    
   X10.4279      Y9.4864       R2.1500    
G0   Z5.000     
(Pass: 1)
   X6.095        Y24.936    
G1   Z-0.100     F400 
   X5.395     
   X6.095        Y28.936    
   Y24.936    
   X5.395        Y28.936    
   X6.095     
   X5.395        Y24.936    
   Y28.936    
(Pass: 2)
   X6.095        Y24.936    
   Z-0.200    
   X5.395     
   X6.095        Y28.936    
   Y24.936    
   X5.395        Y28.936    
   X6.095     
   X5.395        Y24.936    
   Y28.936    
(Pass: 3)
   X6.095        Y24.936    
   Z-0.300    
   X5.395     
   X6.095        Y28.936    
   Y24.936    
   X5.395        Y28.936    
   X6.095     
   X5.395        Y24.936    
   Y28.936    
(Pass: 4)
   X6.095        Y24.936    
   Z-0.400    
   X5.395     
   X6.095        Y28.936    
   Y24.936    
   X5.395        Y28.936    
   X6.095     
   X5.395        Y24.936    
   Y28.936    
(Pass: 5)
   X6.095        Y24.936    
   Z-0.500    
   X5.395     
   X6.095        Y28.936    
   Y24.936    
   X5.395        Y28.936    
   X6.095     
   X5.395        Y24.936    
   Y28.936    
(Pass: 6)
   X6.095        Y24.936    
   Z-0.600    
   X5.395     
   X6.095        Y28.936    
   Y24.936    
   X5.395        Y28.936    
   X6.095     
   X5.395        Y24.936    
   Y28.936    
(Pass: 7)
   X6.095        Y24.936    
   Z-0.700    
   X5.395     
   X6.095        Y28.936    
   Y24.936    
   X5.395        Y28.936    
   X6.095     
   X5.395        Y24.936    
   Y28.936    
(Pass: 8)
   X6.095        Y24.936    
   Z-0.800    
   X5.395     
   X6.095        Y28.936    
   Y24.936    
   X5.395        Y28.936    
   X6.095     
   X5.395        Y24.936    
   Y28.936    
(Pass: 9)
   X6.095        Y24.936    
   Z-0.900    
   X5.395     
   X6.095        Y28.936    
   Y24.936    
   X5.395        Y28.936    
   X6.095     
   X5.395        Y24.936    
   Y28.936    
(Pass: 10)
   X6.095        Y24.936    
   Z-1.000    
   X5.395     
   X6.095        Y28.936    
   Y24.936    
   X5.395        Y28.936    
   X6.095     
   X5.395        Y24.936    
   Y28.936    
(Pass: 11)
   X6.095        Y24.936    
   Z-1.100    
   X5.395     
   X6.095        Y28.936    
   Y24.936    
   X5.395        Y28.936    
   X6.095     
   X5.395        Y24.936    
   Y28.936    
(Pass: 12)
   X6.095        Y24.936    
   Z-1.200    
   X5.395     
   X6.095        Y28.936    
   Y24.936    
   X5.395        Y28.936    
   X6.095     
   X5.395        Y24.936    
   Y28.936    
(Pass: 13)
   X6.095        Y24.936    
   Z-1.300    
   X5.395     
   X6.095        Y28.936    
   Y24.936    
   X5.395        Y28.936    
   X6.095     
   X5.395        Y24.936    
   Y28.936    
(Pass: 14)
   X6.095        Y24.936    
   Z-1.400    
   X5.395     
   X6.095        Y28.936    
   Y24.936    
   X5.395        Y28.936    
   X6.095     
   X5.395        Y24.936    
   Y28.936    
(Pass: 15)
   X6.095        Y24.936    
   Z-1.500    
   X5.395     
   X6.095        Y28.936    
   Y24.936    
   X5.395        Y28.936    
   X6.095     
   X5.395        Y24.936    
   Y28.936    
(Pass: 16)
   X6.095        Y24.936    
   Z-1.600    
   X5.395     
   X6.095        Y28.936    
   Y24.936    
   X5.395        Y28.936    
   X6.095     
   X5.395        Y24.936    
   Y28.936    
(Pass: 17)
   X6.095        Y24.936    
   Z-1.700    
   X5.395     
   X6.095        Y28.936    
   Y24.936    
   X5.395        Y28.936    
   X6.095     
   X5.395        Y24.936    
   Y28.936    
(Pass: 18)
   X6.095        Y24.936    
   Z-1.800    
   X5.395     
   X6.095        Y28.936    
   Y24.936    
   X5.395        Y28.936    
   X6.095     
   X5.395        Y24.936    
   Y28.936    
(Pass: 19)
   X6.095        Y24.936    
   Z-1.900    
   X5.395     
   X6.095        Y28.936    
   Y24.936    
   X5.395        Y28.936    
   X6.095     
   X5.395        Y24.936    
   Y28.936    
(Pass: 20)
   X6.095        Y24.936    
   Z-2.000    
   X5.395     
   X6.095        Y28.936    
   Y24.936    
   X5.395        Y28.936    
   X6.095     
   X5.395        Y24.936    
   Y28.936    
(Pass: 21)
   X6.095        Y24.936    
   Z-2.100    
   X5.395     
   X6.095        Y28.936    
   Y24.936    
   X5.395        Y28.936    
   X6.095     
   X5.395        Y24.936    
   Y28.936    
(Pass: 22)
   X6.095        Y24.936    
   Z-2.200    
   X5.395     
   X6.095        Y28.936    
   Y24.936    
   X5.395        Y28.936    
   X6.095     
   X5.395        Y24.936    
   Y28.936    
(Pass: 23)
   X6.095        Y24.936    
   Z-2.300    
   X5.395     
   X6.095        Y28.936    
   Y24.936    
   X5.395        Y28.936    
   X6.095     
   X5.395        Y24.936    
   Y28.936    
(Pass: 24)
   X6.095        Y24.936    
   Z-2.400    
   X5.395     
   X6.095        Y28.936    
   Y24.936    
   X5.395        Y28.936    
   X6.095     
   X5.395        Y24.936    
   Y28.936    
(Pass: 25)
   X6.095        Y24.936    
   Z-2.500    
   X5.395     
   X6.095        Y28.936    
   Y24.936    
   X5.395        Y28.936    
   X6.095     
   X5.395        Y24.936    
   Y28.936    
(Pass: 26)
   X6.095        Y24.936    
   Z-2.600    
   X5.395     
   X6.095        Y28.936    
   Y24.936    
   X5.395        Y28.936    
   X6.095     
   X5.395        Y24.936    
   Y28.936    
(Pass: 27)
   X6.095        Y24.936    
   Z-2.700    
   X5.395     
   X6.095        Y28.936    
   Y24.936    
   X5.395        Y28.936    
   X6.095     
   X5.395        Y24.936    
   Y28.936    
(Pass: 28)
   X6.095        Y24.936    
   Z-2.800    
   X5.395     
   X6.095        Y28.936    
   Y24.936    
   X5.395        Y28.936    
   X6.095     
   X5.395        Y24.936    
   Y28.936    
(Pass: 29)
   X6.095        Y24.936    
   Z-2.900    
   X5.395     
   X6.095        Y28.936    
   Y24.936    
   X5.395        Y28.936    
   X6.095     
   X5.395        Y24.936    
   Y28.936    
(Pass: 30)
   X6.095        Y24.936    
   Z-3.000    
   X5.395     
   X6.095        Y28.936    
   Y24.936    
   X5.395        Y28.936    
   X6.095     
   X5.395        Y24.936    
   Y28.936    
(Pass: 31)
   X6.095        Y24.936    
   Z-3.100    
   X5.395     
   X6.095        Y28.936    
   Y24.936    
   X5.395        Y28.936    
   X6.095     
   X5.395        Y24.936    
   Y28.936    
(Pass: 32)
   X6.095        Y24.936    
   Z-3.200    
   X5.395     
   X6.095        Y28.936    
   Y24.936    
   X5.395        Y28.936    
   X6.095     
   X5.395        Y24.936    
   Y28.936    
(Pass: 33)
   X6.095        Y24.936    
   Z-3.300    
   X5.395     
   X6.095        Y28.936    
   Y24.936    
   X5.395        Y28.936    
   X6.095     
   X5.395        Y24.936    
   Y28.936    
(Pass: 34)
   X6.095        Y24.936    
   Z-3.400    
   X5.395     
   X6.095        Y28.936    
   Y24.936    
   X5.395        Y28.936    
   X6.095     
   X5.395        Y24.936    
   Y28.936    
(Pass: 35)
   X6.095        Y24.936    
   Z-3.500    
   X5.395     
   X6.095        Y28.936    
   Y24.936    
   X5.395        Y28.936    
   X6.095     
   X5.395        Y24.936    
   Y28.936    
G0   Z5.000     
(Pass: 1)
   X15.852       Y26.936    
G1   Z-0.100     F400 
G17 G2   X15.8908      Y27.2331      R1.1600    
   X16.0055      Y27.5101      R1.1600    
   X16.1880      Y27.7479      R1.1600    
   X16.4258      Y27.9304      R1.1600    
   X16.7028      Y28.0451      R1.1600    
   X17.0000      Y28.0843      R1.1600    
   X17.2972      Y28.0451      R1.1600    
   X17.5742      Y27.9304      R1.1600    
   X17.8120      Y27.7479      R1.1600    
   X17.9945      Y27.5101      R1.1600    
   X18.1092      Y27.2331      R1.1600    
   X18.1484      Y26.9359      R1.1600    
   X18.1092      Y26.6387      R1.1600    
   X17.9945      Y26.3617      R1.1600    
   X17.8120      Y26.1239      R1.1600    
   X17.5742      Y25.9414      R1.1600    
   X17.2972      Y25.8267      R1.1600    
   X17.0000      Y25.7876      R1.1600    
   X16.7028      Y25.8267      R1.1600    
   X16.4258      Y25.9414      R1.1600    
   X16.1880      Y26.1239      R1.1600    
   X16.0055      Y26.3617      R1.1600    
   X15.8908      Y26.6387      R1.1600    
   X15.8516      Y26.9359      R1.1600    
(Pass: 2)
G1   Z-0.200    
G17 G2   X15.8908      Y27.2331      R1.1600    
   X16.0055      Y27.5101      R1.1600    
   X16.1880      Y27.7479      R1.1600    
   X16.4258      Y27.9304      R1.1600    
   X16.7028      Y28.0451      R1.1600    
   X17.0000      Y28.0843      R1.1600    
   X17.2972      Y28.0451      R1.1600    
   X17.5742      Y27.9304      R1.1600    
   X17.8120      Y27.7479      R1.1600    
   X17.9945      Y27.5101      R1.1600    
   X18.1092      Y27.2331      R1.1600    
   X18.1484      Y26.9359      R1.1600    
   X18.1092      Y26.6387      R1.1600    
   X17.9945      Y26.3617      R1.1600    
   X17.8120      Y26.1239      R1.1600    
   X17.5742      Y25.9414      R1.1600    
   X17.2972      Y25.8267      R1.1600    
   X17.0000      Y25.7876      R1.1600    
   X16.7028      Y25.8267      R1.1600    
   X16.4258      Y25.9414      R1.1600    
   X16.1880      Y26.1239      R1.1600    
   X16.0055      Y26.3617      R1.1600    
   X15.8908      Y26.6387      R1.1600    
   X15.8516      Y26.9359      R1.1600    
(Pass: 3)
G1   Z-0.300    
G17 G2   X15.8908      Y27.2331      R1.1600    
   X16.0055      Y27.5101      R1.1600    
   X16.1880      Y27.7479      R1.1600    
   X16.4258      Y27.9304      R1.1600    
   X16.7028      Y28.0451      R1.1600    
   X17.0000      Y28.0843      R1.1600    
   X17.2972      Y28.0451      R1.1600    
   X17.5742      Y27.9304      R1.1600    
   X17.8120      Y27.7479      R1.1600    
   X17.9945      Y27.5101      R1.1600    
   X18.1092      Y27.2331      R1.1600    
   X18.1484      Y26.9359      R1.1600    
   X18.1092      Y26.6387      R1.1600    
   X17.9945      Y26.3617      R1.1600    
   X17.8120      Y26.1239      R1.1600    
   X17.5742      Y25.9414      R1.1600    
   X17.2972      Y25.8267      R1.1600    
   X17.0000      Y25.7876      R1.1600    
   X16.7028      Y25.8267      R1.1600    
   X16.4258      Y25.9414      R1.1600    
   X16.1880      Y26.1239      R1.1600    
   X16.0055      Y26.3617      R1.1600    
   X15.8908      Y26.6387      R1.1600    
   X15.8516      Y26.9359      R1.1600    
(Pass: 4)
G1   Z-0.400    
G17 G2   X15.8908      Y27.2331      R1.1600    
   X16.0055      Y27.5101      R1.1600    
   X16.1880      Y27.7479      R1.1600    
   X16.4258      Y27.9304      R1.1600    
   X16.7028      Y28.0451      R1.1600    
   X17.0000      Y28.0843      R1.1600    
   X17.2972      Y28.0451      R1.1600    
   X17.5742      Y27.9304      R1.1600    
   X17.8120      Y27.7479      R1.1600    
   X17.9945      Y27.5101      R1.1600    
   X18.1092      Y27.2331      R1.1600    
   X18.1484      Y26.9359      R1.1600    
   X18.1092      Y26.6387      R1.1600    
   X17.9945      Y26.3617      R1.1600    
   X17.8120      Y26.1239      R1.1600    
   X17.5742      Y25.9414      R1.1600    
   X17.2972      Y25.8267      R1.1600    
   X17.0000      Y25.7876      R1.1600    
   X16.7028      Y25.8267      R1.1600    
   X16.4258      Y25.9414      R1.1600    
   X16.1880      Y26.1239      R1.1600    
   X16.0055      Y26.3617      R1.1600    
   X15.8908      Y26.6387      R1.1600    
   X15.8516      Y26.9359      R1.1600    
(Pass: 5)
G1   Z-0.500    
G17 G2   X15.8908      Y27.2331      R1.1600    
   X16.0055      Y27.5101      R1.1600    
   X16.1880      Y27.7479      R1.1600    
   X16.4258      Y27.9304      R1.1600    
   X16.7028      Y28.0451      R1.1600    
   X17.0000      Y28.0843      R1.1600    
   X17.2972      Y28.0451      R1.1600    
   X17.5742      Y27.9304      R1.1600    
   X17.8120      Y27.7479      R1.1600    
   X17.9945      Y27.5101      R1.1600    
   X18.1092      Y27.2331      R1.1600    
   X18.1484      Y26.9359      R1.1600    
   X18.1092      Y26.6387      R1.1600    
   X17.9945      Y26.3617      R1.1600    
   X17.8120      Y26.1239      R1.1600    
   X17.5742      Y25.9414      R1.1600    
   X17.2972      Y25.8267      R1.1600    
   X17.0000      Y25.7876      R1.1600    
   X16.7028      Y25.8267      R1.1600    
   X16.4258      Y25.9414      R1.1600    
   X16.1880      Y26.1239      R1.1600    
   X16.0055      Y26.3617      R1.1600    
   X15.8908      Y26.6387      R1.1600    
   X15.8516      Y26.9359      R1.1600    
(Pass: 6)
G1   Z-0.600    
G17 G2   X15.8908      Y27.2331      R1.1600    
   X16.0055      Y27.5101      R1.1600    
   X16.1880      Y27.7479      R1.1600    
   X16.4258      Y27.9304      R1.1600    
   X16.7028      Y28.0451      R1.1600    
   X17.0000      Y28.0843      R1.1600    
   X17.2972      Y28.0451      R1.1600    
   X17.5742      Y27.9304      R1.1600    
   X17.8120      Y27.7479      R1.1600    
   X17.9945      Y27.5101      R1.1600    
   X18.1092      Y27.2331      R1.1600    
   X18.1484      Y26.9359      R1.1600    
   X18.1092      Y26.6387      R1.1600    
   X17.9945      Y26.3617      R1.1600    
   X17.8120      Y26.1239      R1.1600    
   X17.5742      Y25.9414      R1.1600    
   X17.2972      Y25.8267      R1.1600    
   X17.0000      Y25.7876      R1.1600    
   X16.7028      Y25.8267      R1.1600    
   X16.4258      Y25.9414      R1.1600    
   X16.1880      Y26.1239      R1.1600    
   X16.0055      Y26.3617      R1.1600    
   X15.8908      Y26.6387      R1.1600    
   X15.8516      Y26.9359      R1.1600    
(Pass: 7)
G1   Z-0.700    
G17 G2   X15.8908      Y27.2331      R1.1600    
   X16.0055      Y27.5101      R1.1600    
   X16.1880      Y27.7479      R1.1600    
   X16.4258      Y27.9304      R1.1600    
   X16.7028      Y28.0451      R1.1600    
   X17.0000      Y28.0843      R1.1600    
   X17.2972      Y28.0451      R1.1600    
   X17.5742      Y27.9304      R1.1600    
   X17.8120      Y27.7479      R1.1600    
   X17.9945      Y27.5101      R1.1600    
   X18.1092      Y27.2331      R1.1600    
   X18.1484      Y26.9359      R1.1600    
   X18.1092      Y26.6387      R1.1600    
   X17.9945      Y26.3617      R1.1600    
   X17.8120      Y26.1239      R1.1600    
   X17.5742      Y25.9414      R1.1600    
   X17.2972      Y25.8267      R1.1600    
   X17.0000      Y25.7876      R1.1600    
   X16.7028      Y25.8267      R1.1600    
   X16.4258      Y25.9414      R1.1600    
   X16.1880      Y26.1239      R1.1600    
   X16.0055      Y26.3617      R1.1600    
   X15.8908      Y26.6387      R1.1600    
   X15.8516      Y26.9359      R1.1600    
(Pass: 8)
G1   Z-0.800    
G17 G2   X15.8908      Y27.2331      R1.1600    
   X16.0055      Y27.5101      R1.1600    
   X16.1880      Y27.7479      R1.1600    
   X16.4258      Y27.9304      R1.1600    
   X16.7028      Y28.0451      R1.1600    
   X17.0000      Y28.0843      R1.1600    
   X17.2972      Y28.0451      R1.1600    
   X17.5742      Y27.9304      R1.1600    
   X17.8120      Y27.7479      R1.1600    
   X17.9945      Y27.5101      R1.1600    
   X18.1092      Y27.2331      R1.1600    
   X18.1484      Y26.9359      R1.1600    
   X18.1092      Y26.6387      R1.1600    
   X17.9945      Y26.3617      R1.1600    
   X17.8120      Y26.1239      R1.1600    
   X17.5742      Y25.9414      R1.1600    
   X17.2972      Y25.8267      R1.1600    
   X17.0000      Y25.7876      R1.1600    
   X16.7028      Y25.8267      R1.1600    
   X16.4258      Y25.9414      R1.1600    
   X16.1880      Y26.1239      R1.1600    
   X16.0055      Y26.3617      R1.1600    
   X15.8908      Y26.6387      R1.1600    
   X15.8516      Y26.9359      R1.1600    
(Pass: 9)
G1   Z-0.900    
G17 G2   X15.8908      Y27.2331      R1.1600    
   X16.0055      Y27.5101      R1.1600    
   X16.1880      Y27.7479      R1.1600    
   X16.4258      Y27.9304      R1.1600    
   X16.7028      Y28.0451      R1.1600    
   X17.0000      Y28.0843      R1.1600    
   X17.2972      Y28.0451      R1.1600    
   X17.5742      Y27.9304      R1.1600    
   X17.8120      Y27.7479      R1.1600    
   X17.9945      Y27.5101      R1.1600    
   X18.1092      Y27.2331      R1.1600    
   X18.1484      Y26.9359      R1.1600    
   X18.1092      Y26.6387      R1.1600    
   X17.9945      Y26.3617      R1.1600    
   X17.8120      Y26.1239      R1.1600    
   X17.5742      Y25.9414      R1.1600    
   X17.2972      Y25.8267      R1.1600    
   X17.0000      Y25.7876      R1.1600    
   X16.7028      Y25.8267      R1.1600    
   X16.4258      Y25.9414      R1.1600    
   X16.1880      Y26.1239      R1.1600    
   X16.0055      Y26.3617      R1.1600    
   X15.8908      Y26.6387      R1.1600    
   X15.8516      Y26.9359      R1.1600    
(Pass: 10)
G1   Z-1.000    
G17 G2   X15.8908      Y27.2331      R1.1600    
   X16.0055      Y27.5101      R1.1600    
   X16.1880      Y27.7479      R1.1600    
   X16.4258      Y27.9304      R1.1600    
   X16.7028      Y28.0451      R1.1600    
   X17.0000      Y28.0843      R1.1600    
   X17.2972      Y28.0451      R1.1600    
   X17.5742      Y27.9304      R1.1600    
   X17.8120      Y27.7479      R1.1600    
   X17.9945      Y27.5101      R1.1600    
   X18.1092      Y27.2331      R1.1600    
   X18.1484      Y26.9359      R1.1600    
   X18.1092      Y26.6387      R1.1600    
   X17.9945      Y26.3617      R1.1600    
   X17.8120      Y26.1239      R1.1600    
   X17.5742      Y25.9414      R1.1600    
   X17.2972      Y25.8267      R1.1600    
   X17.0000      Y25.7876      R1.1600    
   X16.7028      Y25.8267      R1.1600    
   X16.4258      Y25.9414      R1.1600    
   X16.1880      Y26.1239      R1.1600    
   X16.0055      Y26.3617      R1.1600    
   X15.8908      Y26.6387      R1.1600    
   X15.8516      Y26.9359      R1.1600    
(Pass: 11)
G1   Z-1.100    
G17 G2   X15.8908      Y27.2331      R1.1600    
   X16.0055      Y27.5101      R1.1600    
   X16.1880      Y27.7479      R1.1600    
   X16.4258      Y27.9304      R1.1600    
   X16.7028      Y28.0451      R1.1600    
   X17.0000      Y28.0843      R1.1600    
   X17.2972      Y28.0451      R1.1600    
   X17.5742      Y27.9304      R1.1600    
   X17.8120      Y27.7479      R1.1600    
   X17.9945      Y27.5101      R1.1600    
   X18.1092      Y27.2331      R1.1600    
   X18.1484      Y26.9359      R1.1600    
   X18.1092      Y26.6387      R1.1600    
   X17.9945      Y26.3617      R1.1600    
   X17.8120      Y26.1239      R1.1600    
   X17.5742      Y25.9414      R1.1600    
   X17.2972      Y25.8267      R1.1600    
   X17.0000      Y25.7876      R1.1600    
   X16.7028      Y25.8267      R1.1600    
   X16.4258      Y25.9414      R1.1600    
   X16.1880      Y26.1239      R1.1600    
   X16.0055      Y26.3617      R1.1600    
   X15.8908      Y26.6387      R1.1600    
   X15.8516      Y26.9359      R1.1600    
(Pass: 12)
G1   Z-1.200    
G17 G2   X15.8908      Y27.2331      R1.1600    
   X16.0055      Y27.5101      R1.1600    
   X16.1880      Y27.7479      R1.1600    
   X16.4258      Y27.9304      R1.1600    
   X16.7028      Y28.0451      R1.1600    
   X17.0000      Y28.0843      R1.1600    
   X17.2972      Y28.0451      R1.1600    
   X17.5742      Y27.9304      R1.1600    
   X17.8120      Y27.7479      R1.1600    
   X17.9945      Y27.5101      R1.1600    
   X18.1092      Y27.2331      R1.1600    
   X18.1484      Y26.9359      R1.1600    
   X18.1092      Y26.6387      R1.1600    
   X17.9945      Y26.3617      R1.1600    
   X17.8120      Y26.1239      R1.1600    
   X17.5742      Y25.9414      R1.1600    
   X17.2972      Y25.8267      R1.1600    
   X17.0000      Y25.7876      R1.1600    
   X16.7028      Y25.8267      R1.1600    
   X16.4258      Y25.9414      R1.1600    
   X16.1880      Y26.1239      R1.1600    
   X16.0055      Y26.3617      R1.1600    
   X15.8908      Y26.6387      R1.1600    
   X15.8516      Y26.9359      R1.1600    
(Pass: 13)
G1   Z-1.300    
G17 G2   X15.8908      Y27.2331      R1.1600    
   X16.0055      Y27.5101      R1.1600    
   X16.1880      Y27.7479      R1.1600    
   X16.4258      Y27.9304      R1.1600    
   X16.7028      Y28.0451      R1.1600    
   X17.0000      Y28.0843      R1.1600    
   X17.2972      Y28.0451      R1.1600    
   X17.5742      Y27.9304      R1.1600    
   X17.8120      Y27.7479      R1.1600    
   X17.9945      Y27.5101      R1.1600    
   X18.1092      Y27.2331      R1.1600    
   X18.1484      Y26.9359      R1.1600    
   X18.1092      Y26.6387      R1.1600    
   X17.9945      Y26.3617      R1.1600    
   X17.8120      Y26.1239      R1.1600    
   X17.5742      Y25.9414      R1.1600    
   X17.2972      Y25.8267      R1.1600    
   X17.0000      Y25.7876      R1.1600    
   X16.7028      Y25.8267      R1.1600    
   X16.4258      Y25.9414      R1.1600    
   X16.1880      Y26.1239      R1.1600    
   X16.0055      Y26.3617      R1.1600    
   X15.8908      Y26.6387      R1.1600    
   X15.8516      Y26.9359      R1.1600    
(Pass: 14)
G1   Z-1.400    
G17 G2   X15.8908      Y27.2331      R1.1600    
   X16.0055      Y27.5101      R1.1600    
   X16.1880      Y27.7479      R1.1600    
   X16.4258      Y27.9304      R1.1600    
   X16.7028      Y28.0451      R1.1600    
   X17.0000      Y28.0843      R1.1600    
   X17.2972      Y28.0451      R1.1600    
   X17.5742      Y27.9304      R1.1600    
   X17.8120      Y27.7479      R1.1600    
   X17.9945      Y27.5101      R1.1600    
   X18.1092      Y27.2331      R1.1600    
   X18.1484      Y26.9359      R1.1600    
   X18.1092      Y26.6387      R1.1600    
   X17.9945      Y26.3617      R1.1600    
   X17.8120      Y26.1239      R1.1600    
   X17.5742      Y25.9414      R1.1600    
   X17.2972      Y25.8267      R1.1600    
   X17.0000      Y25.7876      R1.1600    
   X16.7028      Y25.8267      R1.1600    
   X16.4258      Y25.9414      R1.1600    
   X16.1880      Y26.1239      R1.1600    
   X16.0055      Y26.3617      R1.1600    
   X15.8908      Y26.6387      R1.1600    
   X15.8516      Y26.9359      R1.1600    
(Pass: 15)
G1   Z-1.500    
G17 G2   X15.8908      Y27.2331      R1.1600    
   X16.0055      Y27.5101      R1.1600    
   X16.1880      Y27.7479      R1.1600    
   X16.4258      Y27.9304      R1.1600    
   X16.7028      Y28.0451      R1.1600    
   X17.0000      Y28.0843      R1.1600    
   X17.2972      Y28.0451      R1.1600    
   X17.5742      Y27.9304      R1.1600    
   X17.8120      Y27.7479      R1.1600    
   X17.9945      Y27.5101      R1.1600    
   X18.1092      Y27.2331      R1.1600    
   X18.1484      Y26.9359      R1.1600    
   X18.1092      Y26.6387      R1.1600    
   X17.9945      Y26.3617      R1.1600    
   X17.8120      Y26.1239      R1.1600    
   X17.5742      Y25.9414      R1.1600    
   X17.2972      Y25.8267      R1.1600    
   X17.0000      Y25.7876      R1.1600    
   X16.7028      Y25.8267      R1.1600    
   X16.4258      Y25.9414      R1.1600    
   X16.1880      Y26.1239      R1.1600    
   X16.0055      Y26.3617      R1.1600    
   X15.8908      Y26.6387      R1.1600    
   X15.8516      Y26.9359      R1.1600    
(Pass: 16)
G1   Z-1.600    
G17 G2   X15.8908      Y27.2331      R1.1600    
   X16.0055      Y27.5101      R1.1600    
   X16.1880      Y27.7479      R1.1600    
   X16.4258      Y27.9304      R1.1600    
   X16.7028      Y28.0451      R1.1600    
   X17.0000      Y28.0843      R1.1600    
   X17.2972      Y28.0451      R1.1600    
   X17.5742      Y27.9304      R1.1600    
   X17.8120      Y27.7479      R1.1600    
   X17.9945      Y27.5101      R1.1600    
   X18.1092      Y27.2331      R1.1600    
   X18.1484      Y26.9359      R1.1600    
   X18.1092      Y26.6387      R1.1600    
   X17.9945      Y26.3617      R1.1600    
   X17.8120      Y26.1239      R1.1600    
   X17.5742      Y25.9414      R1.1600    
   X17.2972      Y25.8267      R1.1600    
   X17.0000      Y25.7876      R1.1600    
   X16.7028      Y25.8267      R1.1600    
   X16.4258      Y25.9414      R1.1600    
   X16.1880      Y26.1239      R1.1600    
   X16.0055      Y26.3617      R1.1600    
   X15.8908      Y26.6387      R1.1600    
   X15.8516      Y26.9359      R1.1600    
(Pass: 17)
G1   Z-1.700    
G17 G2   X15.8908      Y27.2331      R1.1600    
   X16.0055      Y27.5101      R1.1600    
   X16.1880      Y27.7479      R1.1600    
   X16.4258      Y27.9304      R1.1600    
   X16.7028      Y28.0451      R1.1600    
   X17.0000      Y28.0843      R1.1600    
   X17.2972      Y28.0451      R1.1600    
   X17.5742      Y27.9304      R1.1600    
   X17.8120      Y27.7479      R1.1600    
   X17.9945      Y27.5101      R1.1600    
   X18.1092      Y27.2331      R1.1600    
   X18.1484      Y26.9359      R1.1600    
   X18.1092      Y26.6387      R1.1600    
   X17.9945      Y26.3617      R1.1600    
   X17.8120      Y26.1239      R1.1600    
   X17.5742      Y25.9414      R1.1600    
   X17.2972      Y25.8267      R1.1600    
   X17.0000      Y25.7876      R1.1600    
   X16.7028      Y25.8267      R1.1600    
   X16.4258      Y25.9414      R1.1600    
   X16.1880      Y26.1239      R1.1600    
   X16.0055      Y26.3617      R1.1600    
   X15.8908      Y26.6387      R1.1600    
   X15.8516      Y26.9359      R1.1600    
(Pass: 18)
G1   Z-1.800    
G17 G2   X15.8908      Y27.2331      R1.1600    
   X16.0055      Y27.5101      R1.1600    
   X16.1880      Y27.7479      R1.1600    
   X16.4258      Y27.9304      R1.1600    
   X16.7028      Y28.0451      R1.1600    
   X17.0000      Y28.0843      R1.1600    
   X17.2972      Y28.0451      R1.1600    
   X17.5742      Y27.9304      R1.1600    
   X17.8120      Y27.7479      R1.1600    
   X17.9945      Y27.5101      R1.1600    
   X18.1092      Y27.2331      R1.1600    
   X18.1484      Y26.9359      R1.1600    
   X18.1092      Y26.6387      R1.1600    
   X17.9945      Y26.3617      R1.1600    
   X17.8120      Y26.1239      R1.1600    
   X17.5742      Y25.9414      R1.1600    
   X17.2972      Y25.8267      R1.1600    
   X17.0000      Y25.7876      R1.1600    
   X16.7028      Y25.8267      R1.1600    
   X16.4258      Y25.9414      R1.1600    
   X16.1880      Y26.1239      R1.1600    
   X16.0055      Y26.3617      R1.1600    
   X15.8908      Y26.6387      R1.1600    
   X15.8516      Y26.9359      R1.1600    
(Pass: 19)
G1   Z-1.900    
G17 G2   X15.8908      Y27.2331      R1.1600    
   X16.0055      Y27.5101      R1.1600    
   X16.1880      Y27.7479      R1.1600    
   X16.4258      Y27.9304      R1.1600    
   X16.7028      Y28.0451      R1.1600    
   X17.0000      Y28.0843      R1.1600    
   X17.2972      Y28.0451      R1.1600    
   X17.5742      Y27.9304      R1.1600    
   X17.8120      Y27.7479      R1.1600    
   X17.9945      Y27.5101      R1.1600    
   X18.1092      Y27.2331      R1.1600    
   X18.1484      Y26.9359      R1.1600    
   X18.1092      Y26.6387      R1.1600    
   X17.9945      Y26.3617      R1.1600    
   X17.8120      Y26.1239      R1.1600    
   X17.5742      Y25.9414      R1.1600    
   X17.2972      Y25.8267      R1.1600    
   X17.0000      Y25.7876      R1.1600    
   X16.7028      Y25.8267      R1.1600    
   X16.4258      Y25.9414      R1.1600    
   X16.1880      Y26.1239      R1.1600    
   X16.0055      Y26.3617      R1.1600    
   X15.8908      Y26.6387      R1.1600    
   X15.8516      Y26.9359      R1.1600    
(Pass: 20)
G1   Z-2.000    
G17 G2   X15.8908      Y27.2331      R1.1600    
   X16.0055      Y27.5101      R1.1600    
   X16.1880      Y27.7479      R1.1600    
   X16.4258      Y27.9304      R1.1600    
   X16.7028      Y28.0451      R1.1600    
   X17.0000      Y28.0843      R1.1600    
   X17.2972      Y28.0451      R1.1600    
   X17.5742      Y27.9304      R1.1600    
   X17.8120      Y27.7479      R1.1600    
   X17.9945      Y27.5101      R1.1600    
   X18.1092      Y27.2331      R1.1600    
   X18.1484      Y26.9359      R1.1600    
   X18.1092      Y26.6387      R1.1600    
   X17.9945      Y26.3617      R1.1600    
   X17.8120      Y26.1239      R1.1600    
   X17.5742      Y25.9414      R1.1600    
   X17.2972      Y25.8267      R1.1600    
   X17.0000      Y25.7876      R1.1600    
   X16.7028      Y25.8267      R1.1600    
   X16.4258      Y25.9414      R1.1600    
   X16.1880      Y26.1239      R1.1600    
   X16.0055      Y26.3617      R1.1600    
   X15.8908      Y26.6387      R1.1600    
   X15.8516      Y26.9359      R1.1600    
(Pass: 21)
G1   Z-2.100    
G17 G2   X15.8908      Y27.2331      R1.1600    
   X16.0055      Y27.5101      R1.1600    
   X16.1880      Y27.7479      R1.1600    
   X16.4258      Y27.9304      R1.1600    
   X16.7028      Y28.0451      R1.1600    
   X17.0000      Y28.0843      R1.1600    
   X17.2972      Y28.0451      R1.1600    
   X17.5742      Y27.9304      R1.1600    
   X17.8120      Y27.7479      R1.1600    
   X17.9945      Y27.5101      R1.1600    
   X18.1092      Y27.2331      R1.1600    
   X18.1484      Y26.9359      R1.1600    
   X18.1092      Y26.6387      R1.1600    
   X17.9945      Y26.3617      R1.1600    
   X17.8120      Y26.1239      R1.1600    
   X17.5742      Y25.9414      R1.1600    
   X17.2972      Y25.8267      R1.1600    
   X17.0000      Y25.7876      R1.1600    
   X16.7028      Y25.8267      R1.1600    
   X16.4258      Y25.9414      R1.1600    
   X16.1880      Y26.1239      R1.1600    
   X16.0055      Y26.3617      R1.1600    
   X15.8908      Y26.6387      R1.1600    
   X15.8516      Y26.9359      R1.1600    
(Pass: 22)
G1   Z-2.200    
G17 G2   X15.8908      Y27.2331      R1.1600    
   X16.0055      Y27.5101      R1.1600    
   X16.1880      Y27.7479      R1.1600    
   X16.4258      Y27.9304      R1.1600    
   X16.7028      Y28.0451      R1.1600    
   X17.0000      Y28.0843      R1.1600    
   X17.2972      Y28.0451      R1.1600    
   X17.5742      Y27.9304      R1.1600    
   X17.8120      Y27.7479      R1.1600    
   X17.9945      Y27.5101      R1.1600    
   X18.1092      Y27.2331      R1.1600    
   X18.1484      Y26.9359      R1.1600    
   X18.1092      Y26.6387      R1.1600    
   X17.9945      Y26.3617      R1.1600    
   X17.8120      Y26.1239      R1.1600    
   X17.5742      Y25.9414      R1.1600    
   X17.2972      Y25.8267      R1.1600    
   X17.0000      Y25.7876      R1.1600    
   X16.7028      Y25.8267      R1.1600    
   X16.4258      Y25.9414      R1.1600    
   X16.1880      Y26.1239      R1.1600    
   X16.0055      Y26.3617      R1.1600    
   X15.8908      Y26.6387      R1.1600    
   X15.8516      Y26.9359      R1.1600    
(Pass: 23)
G1   Z-2.300    
G17 G2   X15.8908      Y27.2331      R1.1600    
   X16.0055      Y27.5101      R1.1600    
   X16.1880      Y27.7479      R1.1600    
   X16.4258      Y27.9304      R1.1600    
   X16.7028      Y28.0451      R1.1600    
   X17.0000      Y28.0843      R1.1600    
   X17.2972      Y28.0451      R1.1600    
   X17.5742      Y27.9304      R1.1600    
   X17.8120      Y27.7479      R1.1600    
   X17.9945      Y27.5101      R1.1600    
   X18.1092      Y27.2331      R1.1600    
   X18.1484      Y26.9359      R1.1600    
   X18.1092      Y26.6387      R1.1600    
   X17.9945      Y26.3617      R1.1600    
   X17.8120      Y26.1239      R1.1600    
   X17.5742      Y25.9414      R1.1600    
   X17.2972      Y25.8267      R1.1600    
   X17.0000      Y25.7876      R1.1600    
   X16.7028      Y25.8267      R1.1600    
   X16.4258      Y25.9414      R1.1600    
   X16.1880      Y26.1239      R1.1600    
   X16.0055      Y26.3617      R1.1600    
   X15.8908      Y26.6387      R1.1600    
   X15.8516      Y26.9359      R1.1600    
(Pass: 24)
G1   Z-2.400    
G17 G2   X15.8908      Y27.2331      R1.1600    
   X16.0055      Y27.5101      R1.1600    
   X16.1880      Y27.7479      R1.1600    
   X16.4258      Y27.9304      R1.1600    
   X16.7028      Y28.0451      R1.1600    
   X17.0000      Y28.0843      R1.1600    
   X17.2972      Y28.0451      R1.1600    
   X17.5742      Y27.9304      R1.1600    
   X17.8120      Y27.7479      R1.1600    
   X17.9945      Y27.5101      R1.1600    
   X18.1092      Y27.2331      R1.1600    
   X18.1484      Y26.9359      R1.1600    
   X18.1092      Y26.6387      R1.1600    
   X17.9945      Y26.3617      R1.1600    
   X17.8120      Y26.1239      R1.1600    
   X17.5742      Y25.9414      R1.1600    
   X17.2972      Y25.8267      R1.1600    
   X17.0000      Y25.7876      R1.1600    
   X16.7028      Y25.8267      R1.1600    
   X16.4258      Y25.9414      R1.1600    
   X16.1880      Y26.1239      R1.1600    
   X16.0055      Y26.3617      R1.1600    
   X15.8908      Y26.6387      R1.1600    
   X15.8516      Y26.9359      R1.1600    
(Pass: 25)
G1   Z-2.500    
G17 G2   X15.8908      Y27.2331      R1.1600    
   X16.0055      Y27.5101      R1.1600    
   X16.1880      Y27.7479      R1.1600    
   X16.4258      Y27.9304      R1.1600    
   X16.7028      Y28.0451      R1.1600    
   X17.0000      Y28.0843      R1.1600    
   X17.2972      Y28.0451      R1.1600    
   X17.5742      Y27.9304      R1.1600    
   X17.8120      Y27.7479      R1.1600    
   X17.9945      Y27.5101      R1.1600    
   X18.1092      Y27.2331      R1.1600    
   X18.1484      Y26.9359      R1.1600    
   X18.1092      Y26.6387      R1.1600    
   X17.9945      Y26.3617      R1.1600    
   X17.8120      Y26.1239      R1.1600    
   X17.5742      Y25.9414      R1.1600    
   X17.2972      Y25.8267      R1.1600    
   X17.0000      Y25.7876      R1.1600    
   X16.7028      Y25.8267      R1.1600    
   X16.4258      Y25.9414      R1.1600    
   X16.1880      Y26.1239      R1.1600    
   X16.0055      Y26.3617      R1.1600    
   X15.8908      Y26.6387      R1.1600    
   X15.8516      Y26.9359      R1.1600    
(Pass: 26)
G1   Z-2.600    
G17 G2   X15.8908      Y27.2331      R1.1600    
   X16.0055      Y27.5101      R1.1600    
   X16.1880      Y27.7479      R1.1600    
   X16.4258      Y27.9304      R1.1600    
   X16.7028      Y28.0451      R1.1600    
   X17.0000      Y28.0843      R1.1600    
   X17.2972      Y28.0451      R1.1600    
   X17.5742      Y27.9304      R1.1600    
   X17.8120      Y27.7479      R1.1600    
   X17.9945      Y27.5101      R1.1600    
   X18.1092      Y27.2331      R1.1600    
   X18.1484      Y26.9359      R1.1600    
   X18.1092      Y26.6387      R1.1600    
   X17.9945      Y26.3617      R1.1600    
   X17.8120      Y26.1239      R1.1600    
   X17.5742      Y25.9414      R1.1600    
   X17.2972      Y25.8267      R1.1600    
   X17.0000      Y25.7876      R1.1600    
   X16.7028      Y25.8267      R1.1600    
   X16.4258      Y25.9414      R1.1600    
   X16.1880      Y26.1239      R1.1600    
   X16.0055      Y26.3617      R1.1600    
   X15.8908      Y26.6387      R1.1600    
   X15.8516      Y26.9359      R1.1600    
(Pass: 27)
G1   Z-2.700    
G17 G2   X15.8908      Y27.2331      R1.1600    
   X16.0055      Y27.5101      R1.1600    
   X16.1880      Y27.7479      R1.1600    
   X16.4258      Y27.9304      R1.1600    
   X16.7028      Y28.0451      R1.1600    
   X17.0000      Y28.0843      R1.1600    
   X17.2972      Y28.0451      R1.1600    
   X17.5742      Y27.9304      R1.1600    
   X17.8120      Y27.7479      R1.1600    
   X17.9945      Y27.5101      R1.1600    
   X18.1092      Y27.2331      R1.1600    
   X18.1484      Y26.9359      R1.1600    
   X18.1092      Y26.6387      R1.1600    
   X17.9945      Y26.3617      R1.1600    
   X17.8120      Y26.1239      R1.1600    
   X17.5742      Y25.9414      R1.1600    
   X17.2972      Y25.8267      R1.1600    
   X17.0000      Y25.7876      R1.1600    
   X16.7028      Y25.8267      R1.1600    
   X16.4258      Y25.9414      R1.1600    
   X16.1880      Y26.1239      R1.1600    
   X16.0055      Y26.3617      R1.1600    
   X15.8908      Y26.6387      R1.1600    
   X15.8516      Y26.9359      R1.1600    
(Pass: 28)
G1   Z-2.800    
G17 G2   X15.8908      Y27.2331      R1.1600    
   X16.0055      Y27.5101      R1.1600    
   X16.1880      Y27.7479      R1.1600    
   X16.4258      Y27.9304      R1.1600    
   X16.7028      Y28.0451      R1.1600    
   X17.0000      Y28.0843      R1.1600    
   X17.2972      Y28.0451      R1.1600    
   X17.5742      Y27.9304      R1.1600    
   X17.8120      Y27.7479      R1.1600    
   X17.9945      Y27.5101      R1.1600    
   X18.1092      Y27.2331      R1.1600    
   X18.1484      Y26.9359      R1.1600    
   X18.1092      Y26.6387      R1.1600    
   X17.9945      Y26.3617      R1.1600    
   X17.8120      Y26.1239      R1.1600    
   X17.5742      Y25.9414      R1.1600    
   X17.2972      Y25.8267      R1.1600    
   X17.0000      Y25.7876      R1.1600    
   X16.7028      Y25.8267      R1.1600    
   X16.4258      Y25.9414      R1.1600    
   X16.1880      Y26.1239      R1.1600    
   X16.0055      Y26.3617      R1.1600    
   X15.8908      Y26.6387      R1.1600    
   X15.8516      Y26.9359      R1.1600    
(Pass: 29)
G1   Z-2.900    
G17 G2   X15.8908      Y27.2331      R1.1600    
   X16.0055      Y27.5101      R1.1600    
   X16.1880      Y27.7479      R1.1600    
   X16.4258      Y27.9304      R1.1600    
   X16.7028      Y28.0451      R1.1600    
   X17.0000      Y28.0843      R1.1600    
   X17.2972      Y28.0451      R1.1600    
   X17.5742      Y27.9304      R1.1600    
   X17.8120      Y27.7479      R1.1600    
   X17.9945      Y27.5101      R1.1600    
   X18.1092      Y27.2331      R1.1600    
   X18.1484      Y26.9359      R1.1600    
   X18.1092      Y26.6387      R1.1600    
   X17.9945      Y26.3617      R1.1600    
   X17.8120      Y26.1239      R1.1600    
   X17.5742      Y25.9414      R1.1600    
   X17.2972      Y25.8267      R1.1600    
   X17.0000      Y25.7876      R1.1600    
   X16.7028      Y25.8267      R1.1600    
   X16.4258      Y25.9414      R1.1600    
   X16.1880      Y26.1239      R1.1600    
   X16.0055      Y26.3617      R1.1600    
   X15.8908      Y26.6387      R1.1600    
   X15.8516      Y26.9359      R1.1600    
(Pass: 30)
G1   Z-3.000    
G17 G2   X15.8908      Y27.2331      R1.1600    
   X16.0055      Y27.5101      R1.1600    
   X16.1880      Y27.7479      R1.1600    
   X16.4258      Y27.9304      R1.1600    
   X16.7028      Y28.0451      R1.1600    
   X17.0000      Y28.0843      R1.1600    
   X17.2972      Y28.0451      R1.1600    
   X17.5742      Y27.9304      R1.1600    
   X17.8120      Y27.7479      R1.1600    
   X17.9945      Y27.5101      R1.1600    
   X18.1092      Y27.2331      R1.1600    
   X18.1484      Y26.9359      R1.1600    
   X18.1092      Y26.6387      R1.1600    
   X17.9945      Y26.3617      R1.1600    
   X17.8120      Y26.1239      R1.1600    
   X17.5742      Y25.9414      R1.1600    
   X17.2972      Y25.8267      R1.1600    
   X17.0000      Y25.7876      R1.1600    
   X16.7028      Y25.8267      R1.1600    
   X16.4258      Y25.9414      R1.1600    
   X16.1880      Y26.1239      R1.1600    
   X16.0055      Y26.3617      R1.1600    
   X15.8908      Y26.6387      R1.1600    
   X15.8516      Y26.9359      R1.1600    
(Pass: 31)
G1   Z-3.100    
G17 G2   X15.8908      Y27.2331      R1.1600    
   X16.0055      Y27.5101      R1.1600    
   X16.1880      Y27.7479      R1.1600    
   X16.4258      Y27.9304      R1.1600    
   X16.7028      Y28.0451      R1.1600    
   X17.0000      Y28.0843      R1.1600    
   X17.2972      Y28.0451      R1.1600    
   X17.5742      Y27.9304      R1.1600    
   X17.8120      Y27.7479      R1.1600    
   X17.9945      Y27.5101      R1.1600    
   X18.1092      Y27.2331      R1.1600    
   X18.1484      Y26.9359      R1.1600    
   X18.1092      Y26.6387      R1.1600    
   X17.9945      Y26.3617      R1.1600    
   X17.8120      Y26.1239      R1.1600    
   X17.5742      Y25.9414      R1.1600    
   X17.2972      Y25.8267      R1.1600    
   X17.0000      Y25.7876      R1.1600    
   X16.7028      Y25.8267      R1.1600    
   X16.4258      Y25.9414      R1.1600    
   X16.1880      Y26.1239      R1.1600    
   X16.0055      Y26.3617      R1.1600    
   X15.8908      Y26.6387      R1.1600    
   X15.8516      Y26.9359      R1.1600    
(Pass: 32)
G1   Z-3.200    
G17 G2   X15.8908      Y27.2331      R1.1600    
   X16.0055      Y27.5101      R1.1600    
   X16.1880      Y27.7479      R1.1600    
   X16.4258      Y27.9304      R1.1600    
   X16.7028      Y28.0451      R1.1600    
   X17.0000      Y28.0843      R1.1600    
   X17.2972      Y28.0451      R1.1600    
   X17.5742      Y27.9304      R1.1600    
   X17.8120      Y27.7479      R1.1600    
   X17.9945      Y27.5101      R1.1600    
   X18.1092      Y27.2331      R1.1600    
   X18.1484      Y26.9359      R1.1600    
   X18.1092      Y26.6387      R1.1600    
   X17.9945      Y26.3617      R1.1600    
   X17.8120      Y26.1239      R1.1600    
   X17.5742      Y25.9414      R1.1600    
   X17.2972      Y25.8267      R1.1600    
   X17.0000      Y25.7876      R1.1600    
   X16.7028      Y25.8267      R1.1600    
   X16.4258      Y25.9414      R1.1600    
   X16.1880      Y26.1239      R1.1600    
   X16.0055      Y26.3617      R1.1600    
   X15.8908      Y26.6387      R1.1600    
   X15.8516      Y26.9359      R1.1600    
(Pass: 33)
G1   Z-3.300    
G17 G2   X15.8908      Y27.2331      R1.1600    
   X16.0055      Y27.5101      R1.1600    
   X16.1880      Y27.7479      R1.1600    
   X16.4258      Y27.9304      R1.1600    
   X16.7028      Y28.0451      R1.1600    
   X17.0000      Y28.0843      R1.1600    
   X17.2972      Y28.0451      R1.1600    
   X17.5742      Y27.9304      R1.1600    
   X17.8120      Y27.7479      R1.1600    
   X17.9945      Y27.5101      R1.1600    
   X18.1092      Y27.2331      R1.1600    
   X18.1484      Y26.9359      R1.1600    
   X18.1092      Y26.6387      R1.1600    
   X17.9945      Y26.3617      R1.1600    
   X17.8120      Y26.1239      R1.1600    
   X17.5742      Y25.9414      R1.1600    
   X17.2972      Y25.8267      R1.1600    
   X17.0000      Y25.7876      R1.1600    
   X16.7028      Y25.8267      R1.1600    
   X16.4258      Y25.9414      R1.1600    
   X16.1880      Y26.1239      R1.1600    
   X16.0055      Y26.3617      R1.1600    
   X15.8908      Y26.6387      R1.1600    
   X15.8516      Y26.9359      R1.1600    
(Pass: 34)
G1   Z-3.400    
G17 G2   X15.8908      Y27.2331      R1.1600    
   X16.0055      Y27.5101      R1.1600    
   X16.1880      Y27.7479      R1.1600    
   X16.4258      Y27.9304      R1.1600    
   X16.7028      Y28.0451      R1.1600    
   X17.0000      Y28.0843      R1.1600    
   X17.2972      Y28.0451      R1.1600    
   X17.5742      Y27.9304      R1.1600    
   X17.8120      Y27.7479      R1.1600    
   X17.9945      Y27.5101      R1.1600    
   X18.1092      Y27.2331      R1.1600    
   X18.1484      Y26.9359      R1.1600    
   X18.1092      Y26.6387      R1.1600    
   X17.9945      Y26.3617      R1.1600    
   X17.8120      Y26.1239      R1.1600    
   X17.5742      Y25.9414      R1.1600    
   X17.2972      Y25.8267      R1.1600    
   X17.0000      Y25.7876      R1.1600    
   X16.7028      Y25.8267      R1.1600    
   X16.4258      Y25.9414      R1.1600    
   X16.1880      Y26.1239      R1.1600    
   X16.0055      Y26.3617      R1.1600    
   X15.8908      Y26.6387      R1.1600    
   X15.8516      Y26.9359      R1.1600    
(Pass: 35)
G1   Z-3.500    
G17 G2   X15.8908      Y27.2331      R1.1600    
   X16.0055      Y27.5101      R1.1600    
   X16.1880      Y27.7479      R1.1600    
   X16.4258      Y27.9304      R1.1600    
   X16.7028      Y28.0451      R1.1600    
   X17.0000      Y28.0843      R1.1600    
   X17.2972      Y28.0451      R1.1600    
   X17.5742      Y27.9304      R1.1600    
   X17.8120      Y27.7479      R1.1600    
   X17.9945      Y27.5101      R1.1600    
   X18.1092      Y27.2331      R1.1600    
   X18.1484      Y26.9359      R1.1600    
   X18.1092      Y26.6387      R1.1600    
   X17.9945      Y26.3617      R1.1600    
   X17.8120      Y26.1239      R1.1600    
   X17.5742      Y25.9414      R1.1600    
   X17.2972      Y25.8267      R1.1600    
   X17.0000      Y25.7876      R1.1600    
   X16.7028      Y25.8267      R1.1600    
   X16.4258      Y25.9414      R1.1600    
   X16.1880      Y26.1239      R1.1600    
   X16.0055      Y26.3617      R1.1600    
   X15.8908      Y26.6387      R1.1600    
   X15.8516      Y26.9359      R1.1600    
G0   Z5.000     
(Pass: 1)
   X25.852    
G1   Z-0.100     F400 
G17 G2   X25.8908      Y27.2331      R1.1600    
   X26.0055      Y27.5101      R1.1600    
   X26.1880      Y27.7479      R1.1600    
   X26.4258      Y27.9304      R1.1600    
   X26.7028      Y28.0451      R1.1600    
   X27.0000      Y28.0843      R1.1600    
   X27.2972      Y28.0451      R1.1600    
   X27.5742      Y27.9304      R1.1600    
   X27.8120      Y27.7479      R1.1600    
   X27.9945      Y27.5101      R1.1600    
   X28.1092      Y27.2331      R1.1600    
   X28.1484      Y26.9359      R1.1600    
   X28.1092      Y26.6387      R1.1600    
   X27.9945      Y26.3617      R1.1600    
   X27.8120      Y26.1239      R1.1600    
   X27.5742      Y25.9414      R1.1600    
   X27.2972      Y25.8267      R1.1600    
   X27.0000      Y25.7876      R1.1600    
   X26.7028      Y25.8267      R1.1600    
   X26.4258      Y25.9414      R1.1600    
   X26.1880      Y26.1239      R1.1600    
   X26.0055      Y26.3617      R1.1600    
   X25.8908      Y26.6387      R1.1600    
   X25.8516      Y26.9359      R1.1600    
(Pass: 2)
G1   Z-0.200    
G17 G2   X25.8908      Y27.2331      R1.1600    
   X26.0055      Y27.5101      R1.1600    
   X26.1880      Y27.7479      R1.1600    
   X26.4258      Y27.9304      R1.1600    
   X26.7028      Y28.0451      R1.1600    
   X27.0000      Y28.0843      R1.1600    
   X27.2972      Y28.0451      R1.1600    
   X27.5742      Y27.9304      R1.1600    
   X27.8120      Y27.7479      R1.1600    
   X27.9945      Y27.5101      R1.1600    
   X28.1092      Y27.2331      R1.1600    
   X28.1484      Y26.9359      R1.1600    
   X28.1092      Y26.6387      R1.1600    
   X27.9945      Y26.3617      R1.1600    
   X27.8120      Y26.1239      R1.1600    
   X27.5742      Y25.9414      R1.1600    
   X27.2972      Y25.8267      R1.1600    
   X27.0000      Y25.7876      R1.1600    
   X26.7028      Y25.8267      R1.1600    
   X26.4258      Y25.9414      R1.1600    
   X26.1880      Y26.1239      R1.1600    
   X26.0055      Y26.3617      R1.1600    
   X25.8908      Y26.6387      R1.1600    
   X25.8516      Y26.9359      R1.1600    
(Pass: 3)
G1   Z-0.300    
G17 G2   X25.8908      Y27.2331      R1.1600    
   X26.0055      Y27.5101      R1.1600    
   X26.1880      Y27.7479      R1.1600    
   X26.4258      Y27.9304      R1.1600    
   X26.7028      Y28.0451      R1.1600    
   X27.0000      Y28.0843      R1.1600    
   X27.2972      Y28.0451      R1.1600    
   X27.5742      Y27.9304      R1.1600    
   X27.8120      Y27.7479      R1.1600    
   X27.9945      Y27.5101      R1.1600    
   X28.1092      Y27.2331      R1.1600    
   X28.1484      Y26.9359      R1.1600    
   X28.1092      Y26.6387      R1.1600    
   X27.9945      Y26.3617      R1.1600    
   X27.8120      Y26.1239      R1.1600    
   X27.5742      Y25.9414      R1.1600    
   X27.2972      Y25.8267      R1.1600    
   X27.0000      Y25.7876      R1.1600    
   X26.7028      Y25.8267      R1.1600    
   X26.4258      Y25.9414      R1.1600    
   X26.1880      Y26.1239      R1.1600    
   X26.0055      Y26.3617      R1.1600    
   X25.8908      Y26.6387      R1.1600    
   X25.8516      Y26.9359      R1.1600    
(Pass: 4)
G1   Z-0.400    
G17 G2   X25.8908      Y27.2331      R1.1600    
   X26.0055      Y27.5101      R1.1600    
   X26.1880      Y27.7479      R1.1600    
   X26.4258      Y27.9304      R1.1600    
   X26.7028      Y28.0451      R1.1600    
   X27.0000      Y28.0843      R1.1600    
   X27.2972      Y28.0451      R1.1600    
   X27.5742      Y27.9304      R1.1600    
   X27.8120      Y27.7479      R1.1600    
   X27.9945      Y27.5101      R1.1600    
   X28.1092      Y27.2331      R1.1600    
   X28.1484      Y26.9359      R1.1600    
   X28.1092      Y26.6387      R1.1600    
   X27.9945      Y26.3617      R1.1600    
   X27.8120      Y26.1239      R1.1600    
   X27.5742      Y25.9414      R1.1600    
   X27.2972      Y25.8267      R1.1600    
   X27.0000      Y25.7876      R1.1600    
   X26.7028      Y25.8267      R1.1600    
   X26.4258      Y25.9414      R1.1600    
   X26.1880      Y26.1239      R1.1600    
   X26.0055      Y26.3617      R1.1600    
   X25.8908      Y26.6387      R1.1600    
   X25.8516      Y26.9359      R1.1600    
(Pass: 5)
G1   Z-0.500    
G17 G2   X25.8908      Y27.2331      R1.1600    
   X26.0055      Y27.5101      R1.1600    
   X26.1880      Y27.7479      R1.1600    
   X26.4258      Y27.9304      R1.1600    
   X26.7028      Y28.0451      R1.1600    
   X27.0000      Y28.0843      R1.1600    
   X27.2972      Y28.0451      R1.1600    
   X27.5742      Y27.9304      R1.1600    
   X27.8120      Y27.7479      R1.1600    
   X27.9945      Y27.5101      R1.1600    
   X28.1092      Y27.2331      R1.1600    
   X28.1484      Y26.9359      R1.1600    
   X28.1092      Y26.6387      R1.1600    
   X27.9945      Y26.3617      R1.1600    
   X27.8120      Y26.1239      R1.1600    
   X27.5742      Y25.9414      R1.1600    
   X27.2972      Y25.8267      R1.1600    
   X27.0000      Y25.7876      R1.1600    
   X26.7028      Y25.8267      R1.1600    
   X26.4258      Y25.9414      R1.1600    
   X26.1880      Y26.1239      R1.1600    
   X26.0055      Y26.3617      R1.1600    
   X25.8908      Y26.6387      R1.1600    
   X25.8516      Y26.9359      R1.1600    
(Pass: 6)
G1   Z-0.600    
G17 G2   X25.8908      Y27.2331      R1.1600    
   X26.0055      Y27.5101      R1.1600    
   X26.1880      Y27.7479      R1.1600    
   X26.4258      Y27.9304      R1.1600    
   X26.7028      Y28.0451      R1.1600    
   X27.0000      Y28.0843      R1.1600    
   X27.2972      Y28.0451      R1.1600    
   X27.5742      Y27.9304      R1.1600    
   X27.8120      Y27.7479      R1.1600    
   X27.9945      Y27.5101      R1.1600    
   X28.1092      Y27.2331      R1.1600    
   X28.1484      Y26.9359      R1.1600    
   X28.1092      Y26.6387      R1.1600    
   X27.9945      Y26.3617      R1.1600    
   X27.8120      Y26.1239      R1.1600    
   X27.5742      Y25.9414      R1.1600    
   X27.2972      Y25.8267      R1.1600    
   X27.0000      Y25.7876      R1.1600    
   X26.7028      Y25.8267      R1.1600    
   X26.4258      Y25.9414      R1.1600    
   X26.1880      Y26.1239      R1.1600    
   X26.0055      Y26.3617      R1.1600    
   X25.8908      Y26.6387      R1.1600    
   X25.8516      Y26.9359      R1.1600    
(Pass: 7)
G1   Z-0.700    
G17 G2   X25.8908      Y27.2331      R1.1600    
   X26.0055      Y27.5101      R1.1600    
   X26.1880      Y27.7479      R1.1600    
   X26.4258      Y27.9304      R1.1600    
   X26.7028      Y28.0451      R1.1600    
   X27.0000      Y28.0843      R1.1600    
   X27.2972      Y28.0451      R1.1600    
   X27.5742      Y27.9304      R1.1600    
   X27.8120      Y27.7479      R1.1600    
   X27.9945      Y27.5101      R1.1600    
   X28.1092      Y27.2331      R1.1600    
   X28.1484      Y26.9359      R1.1600    
   X28.1092      Y26.6387      R1.1600    
   X27.9945      Y26.3617      R1.1600    
   X27.8120      Y26.1239      R1.1600    
   X27.5742      Y25.9414      R1.1600    
   X27.2972      Y25.8267      R1.1600    
   X27.0000      Y25.7876      R1.1600    
   X26.7028      Y25.8267      R1.1600    
   X26.4258      Y25.9414      R1.1600    
   X26.1880      Y26.1239      R1.1600    
   X26.0055      Y26.3617      R1.1600    
   X25.8908      Y26.6387      R1.1600    
   X25.8516      Y26.9359      R1.1600    
(Pass: 8)
G1   Z-0.800    
G17 G2   X25.8908      Y27.2331      R1.1600    
   X26.0055      Y27.5101      R1.1600    
   X26.1880      Y27.7479      R1.1600    
   X26.4258      Y27.9304      R1.1600    
   X26.7028      Y28.0451      R1.1600    
   X27.0000      Y28.0843      R1.1600    
   X27.2972      Y28.0451      R1.1600    
   X27.5742      Y27.9304      R1.1600    
   X27.8120      Y27.7479      R1.1600    
   X27.9945      Y27.5101      R1.1600    
   X28.1092      Y27.2331      R1.1600    
   X28.1484      Y26.9359      R1.1600    
   X28.1092      Y26.6387      R1.1600    
   X27.9945      Y26.3617      R1.1600    
   X27.8120      Y26.1239      R1.1600    
   X27.5742      Y25.9414      R1.1600    
   X27.2972      Y25.8267      R1.1600    
   X27.0000      Y25.7876      R1.1600    
   X26.7028      Y25.8267      R1.1600    
   X26.4258      Y25.9414      R1.1600    
   X26.1880      Y26.1239      R1.1600    
   X26.0055      Y26.3617      R1.1600    
   X25.8908      Y26.6387      R1.1600    
   X25.8516      Y26.9359      R1.1600    
(Pass: 9)
G1   Z-0.900    
G17 G2   X25.8908      Y27.2331      R1.1600    
   X26.0055      Y27.5101      R1.1600    
   X26.1880      Y27.7479      R1.1600    
   X26.4258      Y27.9304      R1.1600    
   X26.7028      Y28.0451      R1.1600    
   X27.0000      Y28.0843      R1.1600    
   X27.2972      Y28.0451      R1.1600    
   X27.5742      Y27.9304      R1.1600    
   X27.8120      Y27.7479      R1.1600    
   X27.9945      Y27.5101      R1.1600    
   X28.1092      Y27.2331      R1.1600    
   X28.1484      Y26.9359      R1.1600    
   X28.1092      Y26.6387      R1.1600    
   X27.9945      Y26.3617      R1.1600    
   X27.8120      Y26.1239      R1.1600    
   X27.5742      Y25.9414      R1.1600    
   X27.2972      Y25.8267      R1.1600    
   X27.0000      Y25.7876      R1.1600    
   X26.7028      Y25.8267      R1.1600    
   X26.4258      Y25.9414      R1.1600    
   X26.1880      Y26.1239      R1.1600    
   X26.0055      Y26.3617      R1.1600    
   X25.8908      Y26.6387      R1.1600    
   X25.8516      Y26.9359      R1.1600    
(Pass: 10)
G1   Z-1.000    
G17 G2   X25.8908      Y27.2331      R1.1600    
   X26.0055      Y27.5101      R1.1600    
   X26.1880      Y27.7479      R1.1600    
   X26.4258      Y27.9304      R1.1600    
   X26.7028      Y28.0451      R1.1600    
   X27.0000      Y28.0843      R1.1600    
   X27.2972      Y28.0451      R1.1600    
   X27.5742      Y27.9304      R1.1600    
   X27.8120      Y27.7479      R1.1600    
   X27.9945      Y27.5101      R1.1600    
   X28.1092      Y27.2331      R1.1600    
   X28.1484      Y26.9359      R1.1600    
   X28.1092      Y26.6387      R1.1600    
   X27.9945      Y26.3617      R1.1600    
   X27.8120      Y26.1239      R1.1600    
   X27.5742      Y25.9414      R1.1600    
   X27.2972      Y25.8267      R1.1600    
   X27.0000      Y25.7876      R1.1600    
   X26.7028      Y25.8267      R1.1600    
   X26.4258      Y25.9414      R1.1600    
   X26.1880      Y26.1239      R1.1600    
   X26.0055      Y26.3617      R1.1600    
   X25.8908      Y26.6387      R1.1600    
   X25.8516      Y26.9359      R1.1600    
(Pass: 11)
G1   Z-1.100    
G17 G2   X25.8908      Y27.2331      R1.1600    
   X26.0055      Y27.5101      R1.1600    
   X26.1880      Y27.7479      R1.1600    
   X26.4258      Y27.9304      R1.1600    
   X26.7028      Y28.0451      R1.1600    
   X27.0000      Y28.0843      R1.1600    
   X27.2972      Y28.0451      R1.1600    
   X27.5742      Y27.9304      R1.1600    
   X27.8120      Y27.7479      R1.1600    
   X27.9945      Y27.5101      R1.1600    
   X28.1092      Y27.2331      R1.1600    
   X28.1484      Y26.9359      R1.1600    
   X28.1092      Y26.6387      R1.1600    
   X27.9945      Y26.3617      R1.1600    
   X27.8120      Y26.1239      R1.1600    
   X27.5742      Y25.9414      R1.1600    
   X27.2972      Y25.8267      R1.1600    
   X27.0000      Y25.7876      R1.1600    
   X26.7028      Y25.8267      R1.1600    
   X26.4258      Y25.9414      R1.1600    
   X26.1880      Y26.1239      R1.1600    
   X26.0055      Y26.3617      R1.1600    
   X25.8908      Y26.6387      R1.1600    
   X25.8516      Y26.9359      R1.1600    
(Pass: 12)
G1   Z-1.200    
G17 G2   X25.8908      Y27.2331      R1.1600    
   X26.0055      Y27.5101      R1.1600    
   X26.1880      Y27.7479      R1.1600    
   X26.4258      Y27.9304      R1.1600    
   X26.7028      Y28.0451      R1.1600    
   X27.0000      Y28.0843      R1.1600    
   X27.2972      Y28.0451      R1.1600    
   X27.5742      Y27.9304      R1.1600    
   X27.8120      Y27.7479      R1.1600    
   X27.9945      Y27.5101      R1.1600    
   X28.1092      Y27.2331      R1.1600    
   X28.1484      Y26.9359      R1.1600    
   X28.1092      Y26.6387      R1.1600    
   X27.9945      Y26.3617      R1.1600    
   X27.8120      Y26.1239      R1.1600    
   X27.5742      Y25.9414      R1.1600    
   X27.2972      Y25.8267      R1.1600    
   X27.0000      Y25.7876      R1.1600    
   X26.7028      Y25.8267      R1.1600    
   X26.4258      Y25.9414      R1.1600    
   X26.1880      Y26.1239      R1.1600    
   X26.0055      Y26.3617      R1.1600    
   X25.8908      Y26.6387      R1.1600    
   X25.8516      Y26.9359      R1.1600    
(Pass: 13)
G1   Z-1.300    
G17 G2   X25.8908      Y27.2331      R1.1600    
   X26.0055      Y27.5101      R1.1600    
   X26.1880      Y27.7479      R1.1600    
   X26.4258      Y27.9304      R1.1600    
   X26.7028      Y28.0451      R1.1600    
   X27.0000      Y28.0843      R1.1600    
   X27.2972      Y28.0451      R1.1600    
   X27.5742      Y27.9304      R1.1600    
   X27.8120      Y27.7479      R1.1600    
   X27.9945      Y27.5101      R1.1600    
   X28.1092      Y27.2331      R1.1600    
   X28.1484      Y26.9359      R1.1600    
   X28.1092      Y26.6387      R1.1600    
   X27.9945      Y26.3617      R1.1600    
   X27.8120      Y26.1239      R1.1600    
   X27.5742      Y25.9414      R1.1600    
   X27.2972      Y25.8267      R1.1600    
   X27.0000      Y25.7876      R1.1600    
   X26.7028      Y25.8267      R1.1600    
   X26.4258      Y25.9414      R1.1600    
   X26.1880      Y26.1239      R1.1600    
   X26.0055      Y26.3617      R1.1600    
   X25.8908      Y26.6387      R1.1600    
   X25.8516      Y26.9359      R1.1600    
(Pass: 14)
G1   Z-1.400    
G17 G2   X25.8908      Y27.2331      R1.1600    
   X26.0055      Y27.5101      R1.1600    
   X26.1880      Y27.7479      R1.1600    
   X26.4258      Y27.9304      R1.1600    
   X26.7028      Y28.0451      R1.1600    
   X27.0000      Y28.0843      R1.1600    
   X27.2972      Y28.0451      R1.1600    
   X27.5742      Y27.9304      R1.1600    
   X27.8120      Y27.7479      R1.1600    
   X27.9945      Y27.5101      R1.1600    
   X28.1092      Y27.2331      R1.1600    
   X28.1484      Y26.9359      R1.1600    
   X28.1092      Y26.6387      R1.1600    
   X27.9945      Y26.3617      R1.1600    
   X27.8120      Y26.1239      R1.1600    
   X27.5742      Y25.9414      R1.1600    
   X27.2972      Y25.8267      R1.1600    
   X27.0000      Y25.7876      R1.1600    
   X26.7028      Y25.8267      R1.1600    
   X26.4258      Y25.9414      R1.1600    
   X26.1880      Y26.1239      R1.1600    
   X26.0055      Y26.3617      R1.1600    
   X25.8908      Y26.6387      R1.1600    
   X25.8516      Y26.9359      R1.1600    
(Pass: 15)
G1   Z-1.500    
G17 G2   X25.8908      Y27.2331      R1.1600    
   X26.0055      Y27.5101      R1.1600    
   X26.1880      Y27.7479      R1.1600    
   X26.4258      Y27.9304      R1.1600    
   X26.7028      Y28.0451      R1.1600    
   X27.0000      Y28.0843      R1.1600    
   X27.2972      Y28.0451      R1.1600    
   X27.5742      Y27.9304      R1.1600    
   X27.8120      Y27.7479      R1.1600    
   X27.9945      Y27.5101      R1.1600    
   X28.1092      Y27.2331      R1.1600    
   X28.1484      Y26.9359      R1.1600    
   X28.1092      Y26.6387      R1.1600    
   X27.9945      Y26.3617      R1.1600    
   X27.8120      Y26.1239      R1.1600    
   X27.5742      Y25.9414      R1.1600    
   X27.2972      Y25.8267      R1.1600    
   X27.0000      Y25.7876      R1.1600    
   X26.7028      Y25.8267      R1.1600    
   X26.4258      Y25.9414      R1.1600    
   X26.1880      Y26.1239      R1.1600    
   X26.0055      Y26.3617      R1.1600    
   X25.8908      Y26.6387      R1.1600    
   X25.8516      Y26.9359      R1.1600    
(Pass: 16)
G1   Z-1.600    
G17 G2   X25.8908      Y27.2331      R1.1600    
   X26.0055      Y27.5101      R1.1600    
   X26.1880      Y27.7479      R1.1600    
   X26.4258      Y27.9304      R1.1600    
   X26.7028      Y28.0451      R1.1600    
   X27.0000      Y28.0843      R1.1600    
   X27.2972      Y28.0451      R1.1600    
   X27.5742      Y27.9304      R1.1600    
   X27.8120      Y27.7479      R1.1600    
   X27.9945      Y27.5101      R1.1600    
   X28.1092      Y27.2331      R1.1600    
   X28.1484      Y26.9359      R1.1600    
   X28.1092      Y26.6387      R1.1600    
   X27.9945      Y26.3617      R1.1600    
   X27.8120      Y26.1239      R1.1600    
   X27.5742      Y25.9414      R1.1600    
   X27.2972      Y25.8267      R1.1600    
   X27.0000      Y25.7876      R1.1600    
   X26.7028      Y25.8267      R1.1600    
   X26.4258      Y25.9414      R1.1600    
   X26.1880      Y26.1239      R1.1600    
   X26.0055      Y26.3617      R1.1600    
   X25.8908      Y26.6387      R1.1600    
   X25.8516      Y26.9359      R1.1600    
(Pass: 17)
G1   Z-1.700    
G17 G2   X25.8908      Y27.2331      R1.1600    
   X26.0055      Y27.5101      R1.1600    
   X26.1880      Y27.7479      R1.1600    
   X26.4258      Y27.9304      R1.1600    
   X26.7028      Y28.0451      R1.1600    
   X27.0000      Y28.0843      R1.1600    
   X27.2972      Y28.0451      R1.1600    
   X27.5742      Y27.9304      R1.1600    
   X27.8120      Y27.7479      R1.1600    
   X27.9945      Y27.5101      R1.1600    
   X28.1092      Y27.2331      R1.1600    
   X28.1484      Y26.9359      R1.1600    
   X28.1092      Y26.6387      R1.1600    
   X27.9945      Y26.3617      R1.1600    
   X27.8120      Y26.1239      R1.1600    
   X27.5742      Y25.9414      R1.1600    
   X27.2972      Y25.8267      R1.1600    
