%
(Generated by SketchUcam {1.2})
(Bit diameter: 3.0mm)
(Feed rate: 400.0mm/min)
(Material Thickness: 3.5mm)
(Material length: 300.0mm X width: 600.0mm)
(Overhead Gantry: true)
(Retract feed rate NOT limited to plunge feed rate)
(Multipass enabled, Depth = 0.1mm)
(Optimization is ON)
(www.PhlatBoyz.com)
G90 G21 G49 
M3 S11000
G0   Z5.000     
(Pass: 1)
   X10.539       Y9.589     
G1   Z-0.100     F400 
G17 G2   X10.2403      Y10.0129      R2.0000    
   X10.0614      Y10.4998      R2.0000    
   X10.0146      Y11.0164      R2.0000    
   X10.1031      Y11.5275      R2.0000    
   X10.3208      Y11.9983      R2.0000    
   X10.6530      Y12.3967      R2.0000    
   X11.0770      Y12.6956      R2.0000    
   X11.5639      Y12.8745      R2.0000    
   X12.0805      Y12.9213      R2.0000    
   X12.5916      Y12.8329      R2.0000    
   X13.0624      Y12.6151      R2.0000    
   X13.4608      Y12.2829      R2.0000    
   X13.7597      Y11.8589      R2.0000    
   X13.9386      Y11.3720      R2.0000    
   X13.9854      Y10.8554      R2.0000    
   X13.8969      Y10.3443      R2.0000    
   X13.6792      Y9.8735       R2.0000    
   X13.3470      Y9.4751       R2.0000    
   X12.9230      Y9.1762       R2.0000    
   X12.4361      Y8.9973       R2.0000    
   X11.9195      Y8.9505       R2.0000    
   X11.4084      Y9.0390       R2.0000    
   X10.9376      Y9.2567       R2.0000    
   X10.5392      Y9.5889       R2.0000    
(Pass: 2)
G1   Z-0.200    
G17 G2   X10.2403      Y10.0129      R2.0000    
   X10.0614      Y10.4998      R2.0000    
   X10.0146      Y11.0164      R2.0000    
   X10.1031      Y11.5275      R2.0000    
   X10.3208      Y11.9983      R2.0000    
   X10.6530      Y12.3967      R2.0000    
   X11.0770      Y12.6956      R2.0000    
   X11.5639      Y12.8745      R2.0000    
   X12.0805      Y12.9213      R2.0000    
   X12.5916      Y12.8329      R2.0000    
   X13.0624      Y12.6151      R2.0000    
   X13.4608      Y12.2829      R2.0000    
   X13.7597      Y11.8589      R2.0000    
   X13.9386      Y11.3720      R2.0000    
   X13.9854      Y10.8554      R2.0000    
   X13.8969      Y10.3443      R2.0000    
   X13.6792      Y9.8735       R2.0000    
   X13.3470      Y9.4751       R2.0000    
   X12.9230      Y9.1762       R2.0000    
   X12.4361      Y8.9973       R2.0000    
   X11.9195      Y8.9505       R2.0000    
   X11.4084      Y9.0390       R2.0000    
   X10.9376      Y9.2567       R2.0000    
   X10.5392      Y9.5889       R2.0000    
(Pass: 3)
G1   Z-0.300    
G17 G2   X10.2403      Y10.0129      R2.0000    
   X10.0614      Y10.4998      R2.0000    
   X10.0146      Y11.0164      R2.0000    
   X10.1031      Y11.5275      R2.0000    
   X10.3208      Y11.9983      R2.0000    
   X10.6530      Y12.3967      R2.0000    
   X11.0770      Y12.6956      R2.0000    
   X11.5639      Y12.8745      R2.0000    
   X12.0805      Y12.9213      R2.0000    
   X12.5916      Y12.8329      R2.0000    
   X13.0624      Y12.6151      R2.0000    
   X13.4608      Y12.2829      R2.0000    
   X13.7597      Y11.8589      R2.0000    
   X13.9386      Y11.3720      R2.0000    
   X13.9854      Y10.8554      R2.0000    
   X13.8969      Y10.3443      R2.0000    
   X13.6792      Y9.8735       R2.0000    
   X13.3470      Y9.4751       R2.0000    
   X12.9230      Y9.1762       R2.0000    
   X12.4361      Y8.9973       R2.0000    
   X11.9195      Y8.9505       R2.0000    
   X11.4084      Y9.0390       R2.0000    
   X10.9376      Y9.2567       R2.0000    
   X10.5392      Y9.5889       R2.0000    
(Pass: 4)
G1   Z-0.400    
G17 G2   X10.2403      Y10.0129      R2.0000    
   X10.0614      Y10.4998      R2.0000    
   X10.0146      Y11.0164      R2.0000    
   X10.1031      Y11.5275      R2.0000    
   X10.3208      Y11.9983      R2.0000    
   X10.6530      Y12.3967      R2.0000    
   X11.0770      Y12.6956      R2.0000    
   X11.5639      Y12.8745      R2.0000    
   X12.0805      Y12.9213      R2.0000    
   X12.5916      Y12.8329      R2.0000    
   X13.0624      Y12.6151      R2.0000    
   X13.4608      Y12.2829      R2.0000    
   X13.7597      Y11.8589      R2.0000    
   X13.9386      Y11.3720      R2.0000    
   X13.9854      Y10.8554      R2.0000    
   X13.8969      Y10.3443      R2.0000    
   X13.6792      Y9.8735       R2.0000    
   X13.3470      Y9.4751       R2.0000    
   X12.9230      Y9.1762       R2.0000    
   X12.4361      Y8.9973       R2.0000    
   X11.9195      Y8.9505       R2.0000    
   X11.4084      Y9.0390       R2.0000    
   X10.9376      Y9.2567       R2.0000    
   X10.5392      Y9.5889       R2.0000    
(Pass: 5)
G1   Z-0.500    
G17 G2   X10.2403      Y10.0129      R2.0000    
   X10.0614      Y10.4998      R2.0000    
   X10.0146      Y11.0164      R2.0000    
   X10.1031      Y11.5275      R2.0000    
   X10.3208      Y11.9983      R2.0000    
   X10.6530      Y12.3967      R2.0000    
   X11.0770      Y12.6956      R2.0000    
   X11.5639      Y12.8745      R2.0000    
   X12.0805      Y12.9213      R2.0000    
   X12.5916      Y12.8329      R2.0000    
   X13.0624      Y12.6151      R2.0000    
   X13.4608      Y12.2829      R2.0000    
   X13.7597      Y11.8589      R2.0000    
   X13.9386      Y11.3720      R2.0000    
   X13.9854      Y10.8554      R2.0000    
   X13.8969      Y10.3443      R2.0000    
   X13.6792      Y9.8735       R2.0000    
   X13.3470      Y9.4751       R2.0000    
   X12.9230      Y9.1762       R2.0000    
   X12.4361      Y8.9973       R2.0000    
   X11.9195      Y8.9505       R2.0000    
   X11.4084      Y9.0390       R2.0000    
   X10.9376      Y9.2567       R2.0000    
   X10.5392      Y9.5889       R2.0000    
(Pass: 6)
G1   Z-0.600    
G17 G2   X10.2403      Y10.0129      R2.0000    
   X10.0614      Y10.4998      R2.0000    
   X10.0146      Y11.0164      R2.0000    
   X10.1031      Y11.5275      R2.0000    
   X10.3208      Y11.9983      R2.0000    
   X10.6530      Y12.3967      R2.0000    
   X11.0770      Y12.6956      R2.0000    
   X11.5639      Y12.8745      R2.0000    
   X12.0805      Y12.9213      R2.0000    
   X12.5916      Y12.8329      R2.0000    
   X13.0624      Y12.6151      R2.0000    
   X13.4608      Y12.2829      R2.0000    
   X13.7597      Y11.8589      R2.0000    
   X13.9386      Y11.3720      R2.0000    
   X13.9854      Y10.8554      R2.0000    
   X13.8969      Y10.3443      R2.0000    
   X13.6792      Y9.8735       R2.0000    
   X13.3470      Y9.4751       R2.0000    
   X12.9230      Y9.1762       R2.0000    
   X12.4361      Y8.9973       R2.0000    
   X11.9195      Y8.9505       R2.0000    
   X11.4084      Y9.0390       R2.0000    
   X10.9376      Y9.2567       R2.0000    
   X10.5392      Y9.5889       R2.0000    
(Pass: 7)
G1   Z-0.700    
G17 G2   X10.2403      Y10.0129      R2.0000    
   X10.0614      Y10.4998      R2.0000    
   X10.0146      Y11.0164      R2.0000    
   X10.1031      Y11.5275      R2.0000    
   X10.3208      Y11.9983      R2.0000    
   X10.6530      Y12.3967      R2.0000    
   X11.0770      Y12.6956      R2.0000    
   X11.5639      Y12.8745      R2.0000    
   X12.0805      Y12.9213      R2.0000    
   X12.5916      Y12.8329      R2.0000    
   X13.0624      Y12.6151      R2.0000    
   X13.4608      Y12.2829      R2.0000    
   X13.7597      Y11.8589      R2.0000    
   X13.9386      Y11.3720      R2.0000    
   X13.9854      Y10.8554      R2.0000    
   X13.8969      Y10.3443      R2.0000    
   X13.6792      Y9.8735       R2.0000    
   X13.3470      Y9.4751       R2.0000    
   X12.9230      Y9.1762       R2.0000    
   X12.4361      Y8.9973       R2.0000    
   X11.9195      Y8.9505       R2.0000    
   X11.4084      Y9.0390       R2.0000    
   X10.9376      Y9.2567       R2.0000    
   X10.5392      Y9.5889       R2.0000    
(Pass: 8)
G1   Z-0.800    
G17 G2   X10.2403      Y10.0129      R2.0000    
   X10.0614      Y10.4998      R2.0000    
   X10.0146      Y11.0164      R2.0000    
   X10.1031      Y11.5275      R2.0000    
   X10.3208      Y11.9983      R2.0000    
   X10.6530      Y12.3967      R2.0000    
   X11.0770      Y12.6956      R2.0000    
   X11.5639      Y12.8745      R2.0000    
   X12.0805      Y12.9213      R2.0000    
   X12.5916      Y12.8329      R2.0000    
   X13.0624      Y12.6151      R2.0000    
   X13.4608      Y12.2829      R2.0000    
   X13.7597      Y11.8589      R2.0000    
   X13.9386      Y11.3720      R2.0000    
   X13.9854      Y10.8554      R2.0000    
   X13.8969      Y10.3443      R2.0000    
   X13.6792      Y9.8735       R2.0000    
   X13.3470      Y9.4751       R2.0000    
   X12.9230      Y9.1762       R2.0000    
   X12.4361      Y8.9973       R2.0000    
   X11.9195      Y8.9505       R2.0000    
   X11.4084      Y9.0390       R2.0000    
   X10.9376      Y9.2567       R2.0000    
   X10.5392      Y9.5889       R2.0000    
(Pass: 9)
G1   Z-0.900    
G17 G2   X10.2403      Y10.0129      R2.0000    
   X10.0614      Y10.4998      R2.0000    
   X10.0146      Y11.0164      R2.0000    
   X10.1031      Y11.5275      R2.0000    
   X10.3208      Y11.9983      R2.0000    
   X10.6530      Y12.3967      R2.0000    
   X11.0770      Y12.6956      R2.0000    
   X11.5639      Y12.8745      R2.0000    
   X12.0805      Y12.9213      R2.0000    
   X12.5916      Y12.8329      R2.0000    
   X13.0624      Y12.6151      R2.0000    
   X13.4608      Y12.2829      R2.0000    
   X13.7597      Y11.8589      R2.0000    
   X13.9386      Y11.3720      R2.0000    
   X13.9854      Y10.8554      R2.0000    
   X13.8969      Y10.3443      R2.0000    
   X13.6792      Y9.8735       R2.0000    
   X13.3470      Y9.4751       R2.0000    
   X12.9230      Y9.1762       R2.0000    
   X12.4361      Y8.9973       R2.0000    
   X11.9195      Y8.9505       R2.0000    
   X11.4084      Y9.0390       R2.0000    
   X10.9376      Y9.2567       R2.0000    
   X10.5392      Y9.5889       R2.0000    
(Pass: 10)
G1   Z-1.000    
G17 G2   X10.2403      Y10.0129      R2.0000    
   X10.0614      Y10.4998      R2.0000    
   X10.0146      Y11.0164      R2.0000    
   X10.1031      Y11.5275      R2.0000    
   X10.3208      Y11.9983      R2.0000    
   X10.6530      Y12.3967      R2.0000    
   X11.0770      Y12.6956      R2.0000    
   X11.5639      Y12.8745      R2.0000    
   X12.0805      Y12.9213      R2.0000    
   X12.5916      Y12.8329      R2.0000    
   X13.0624      Y12.6151      R2.0000    
   X13.4608      Y12.2829      R2.0000    
   X13.7597      Y11.8589      R2.0000    
   X13.9386      Y11.3720      R2.0000    
   X13.9854      Y10.8554      R2.0000    
   X13.8969      Y10.3443      R2.0000    
   X13.6792      Y9.8735       R2.0000    
   X13.3470      Y9.4751       R2.0000    
   X12.9230      Y9.1762       R2.0000    
   X12.4361      Y8.9973       R2.0000    
   X11.9195      Y8.9505       R2.0000    
   X11.4084      Y9.0390       R2.0000    
   X10.9376      Y9.2567       R2.0000    
   X10.5392      Y9.5889       R2.0000    
(Pass: 11)
G1   Z-1.100    
G17 G2   X10.2403      Y10.0129      R2.0000    
   X10.0614      Y10.4998      R2.0000    
   X10.0146      Y11.0164      R2.0000    
   X10.1031      Y11.5275      R2.0000    
   X10.3208      Y11.9983      R2.0000    
   X10.6530      Y12.3967      R2.0000    
   X11.0770      Y12.6956      R2.0000    
   X11.5639      Y12.8745      R2.0000    
   X12.0805      Y12.9213      R2.0000    
   X12.5916      Y12.8329      R2.0000    
   X13.0624      Y12.6151      R2.0000    
   X13.4608      Y12.2829      R2.0000    
   X13.7597      Y11.8589      R2.0000    
   X13.9386      Y11.3720      R2.0000    
   X13.9854      Y10.8554      R2.0000    
   X13.8969      Y10.3443      R2.0000    
   X13.6792      Y9.8735       R2.0000    
   X13.3470      Y9.4751       R2.0000    
   X12.9230      Y9.1762       R2.0000    
   X12.4361      Y8.9973       R2.0000    
   X11.9195      Y8.9505       R2.0000    
   X11.4084      Y9.0390       R2.0000    
   X10.9376      Y9.2567       R2.0000    
   X10.5392      Y9.5889       R2.0000    
(Pass: 12)
G1   Z-1.200    
G17 G2   X10.2403      Y10.0129      R2.0000    
   X10.0614      Y10.4998      R2.0000    
   X10.0146      Y11.0164      R2.0000    
   X10.1031      Y11.5275      R2.0000    
   X10.3208      Y11.9983      R2.0000    
   X10.6530      Y12.3967      R2.0000    
   X11.0770      Y12.6956      R2.0000    
   X11.5639      Y12.8745      R2.0000    
   X12.0805      Y12.9213      R2.0000    
   X12.5916      Y12.8329      R2.0000    
   X13.0624      Y12.6151      R2.0000    
   X13.4608      Y12.2829      R2.0000    
   X13.7597      Y11.8589      R2.0000    
   X13.9386      Y11.3720      R2.0000    
   X13.9854      Y10.8554      R2.0000    
   X13.8969      Y10.3443      R2.0000    
   X13.6792      Y9.8735       R2.0000    
   X13.3470      Y9.4751       R2.0000    
   X12.9230      Y9.1762       R2.0000    
   X12.4361      Y8.9973       R2.0000    
   X11.9195      Y8.9505       R2.0000    
   X11.4084      Y9.0390       R2.0000    
   X10.9376      Y9.2567       R2.0000    
   X10.5392      Y9.5889       R2.0000    
(Pass: 13)
G1   Z-1.300    
G17 G2   X10.2403      Y10.0129      R2.0000    
   X10.0614      Y10.4998      R2.0000    
   X10.0146      Y11.0164      R2.0000    
   X10.1031      Y11.5275      R2.0000    
   X10.3208      Y11.9983      R2.0000    
   X10.6530      Y12.3967      R2.0000    
   X11.0770      Y12.6956      R2.0000    
   X11.5639      Y12.8745      R2.0000    
   X12.0805      Y12.9213      R2.0000    
   X12.5916      Y12.8329      R2.0000    
   X13.0624      Y12.6151      R2.0000    
   X13.4608      Y12.2829      R2.0000    
   X13.7597      Y11.8589      R2.0000    
   X13.9386      Y11.3720      R2.0000    
   X13.9854      Y10.8554      R2.0000    
   X13.8969      Y10.3443      R2.0000    
   X13.6792      Y9.8735       R2.0000    
   X13.3470      Y9.4751       R2.0000    
   X12.9230      Y9.1762       R2.0000    
   X12.4361      Y8.9973       R2.0000    
   X11.9195      Y8.9505       R2.0000    
   X11.4084      Y9.0390       R2.0000    
   X10.9376      Y9.2567       R2.0000    
   X10.5392      Y9.5889       R2.0000    
(Pass: 14)
G1   Z-1.400    
G17 G2   X10.2403      Y10.0129      R2.0000    
   X10.0614      Y10.4998      R2.0000    
   X10.0146      Y11.0164      R2.0000    
   X10.1031      Y11.5275      R2.0000    
   X10.3208      Y11.9983      R2.0000    
   X10.6530      Y12.3967      R2.0000    
   X11.0770      Y12.6956      R2.0000    
   X11.5639      Y12.8745      R2.0000    
   X12.0805      Y12.9213      R2.0000    
   X12.5916      Y12.8329      R2.0000    
   X13.0624      Y12.6151      R2.0000    
   X13.4608      Y12.2829      R2.0000    
   X13.7597      Y11.8589      R2.0000    
   X13.9386      Y11.3720      R2.0000    
   X13.9854      Y10.8554      R2.0000    
   X13.8969      Y10.3443      R2.0000    
   X13.6792      Y9.8735       R2.0000    
   X13.3470      Y9.4751       R2.0000    
   X12.9230      Y9.1762       R2.0000    
   X12.4361      Y8.9973       R2.0000    
   X11.9195      Y8.9505       R2.0000    
   X11.4084      Y9.0390       R2.0000    
   X10.9376      Y9.2567       R2.0000    
   X10.5392      Y9.5889       R2.0000    
(Pass: 15)
G1   Z-1.500    
G17 G2   X10.2403      Y10.0129      R2.0000    
   X10.0614      Y10.4998      R2.0000    
   X10.0146      Y11.0164      R2.0000    
   X10.1031      Y11.5275      R2.0000    
   X10.3208      Y11.9983      R2.0000    
   X10.6530      Y12.3967      R2.0000    
   X11.0770      Y12.6956      R2.0000    
   X11.5639      Y12.8745      R2.0000    
   X12.0805      Y12.9213      R2.0000    
   X12.5916      Y12.8329      R2.0000    
   X13.0624      Y12.6151      R2.0000    
   X13.4608      Y12.2829      R2.0000    
   X13.7597      Y11.8589      R2.0000    
   X13.9386      Y11.3720      R2.0000    
   X13.9854      Y10.8554      R2.0000    
   X13.8969      Y10.3443      R2.0000    
   X13.6792      Y9.8735       R2.0000    
   X13.3470      Y9.4751       R2.0000    
   X12.9230      Y9.1762       R2.0000    
   X12.4361      Y8.9973       R2.0000    
   X11.9195      Y8.9505       R2.0000    
   X11.4084      Y9.0390       R2.0000    
   X10.9376      Y9.2567       R2.0000    
   X10.5392      Y9.5889       R2.0000    
(Pass: 16)
G1   Z-1.600    
G17 G2   X10.2403      Y10.0129      R2.0000    
   X10.0614      Y10.4998      R2.0000    
   X10.0146      Y11.0164      R2.0000    
   X10.1031      Y11.5275      R2.0000    
   X10.3208      Y11.9983      R2.0000    
   X10.6530      Y12.3967      R2.0000    
   X11.0770      Y12.6956      R2.0000    
   X11.5639      Y12.8745      R2.0000    
   X12.0805      Y12.9213      R2.0000    
   X12.5916      Y12.8329      R2.0000    
   X13.0624      Y12.6151      R2.0000    
   X13.4608      Y12.2829      R2.0000    
   X13.7597      Y11.8589      R2.0000    
   X13.9386      Y11.3720      R2.0000    
   X13.9854      Y10.8554      R2.0000    
   X13.8969      Y10.3443      R2.0000    
   X13.6792      Y9.8735       R2.0000    
   X13.3470      Y9.4751       R2.0000    
   X12.9230      Y9.1762       R2.0000    
   X12.4361      Y8.9973       R2.0000    
   X11.9195      Y8.9505       R2.0000    
   X11.4084      Y9.0390       R2.0000    
   X10.9376      Y9.2567       R2.0000    
   X10.5392      Y9.5889       R2.0000    
(Pass: 17)
G1   Z-1.700    
G17 G2   X10.2403      Y10.0129      R2.0000    
   X10.0614      Y10.4998      R2.0000    
   X10.0146      Y11.0164      R2.0000    
   X10.1031      Y11.5275      R2.0000    
   X10.3208      Y11.9983      R2.0000    
   X10.6530      Y12.3967      R2.0000    
   X11.0770      Y12.6956      R2.0000    
   X11.5639      Y12.8745      R2.0000    
   X12.0805      Y12.9213      R2.0000    
   X12.5916      Y12.8329      R2.0000    
   X13.0624      Y12.6151      R2.0000    
   X13.4608      Y12.2829      R2.0000    
   X13.7597      Y11.8589      R2.0000    
   X13.9386      Y11.3720      R2.0000    
   X13.9854      Y10.8554      R2.0000    
   X13.8969      Y10.3443      R2.0000    
   X13.6792      Y9.8735       R2.0000    
   X13.3470      Y9.4751       R2.0000    
   X12.9230      Y9.1762       R2.0000    
   X12.4361      Y8.9973       R2.0000    
   X11.9195      Y8.9505       R2.0000    
   X11.4084      Y9.0390       R2.0000    
   X10.9376      Y9.2567       R2.0000    
   X10.5392      Y9.5889       R2.0000    
(Pass: 18)
G1   Z-1.800    
G17 G2   X10.2403      Y10.0129      R2.0000    
   X10.0614      Y10.4998      R2.0000    
   X10.0146      Y11.0164      R2.0000    
   X10.1031      Y11.5275      R2.0000    
   X10.3208      Y11.9983      R2.0000    
   X10.6530      Y12.3967      R2.0000    
   X11.0770      Y12.6956      R2.0000    
   X11.5639      Y12.8745      R2.0000    
   X12.0805      Y12.9213      R2.0000    
   X12.5916      Y12.8329      R2.0000    
   X13.0624      Y12.6151      R2.0000    
   X13.4608      Y12.2829      R2.0000    
   X13.7597      Y11.8589      R2.0000    
   X13.9386      Y11.3720      R2.0000    
   X13.9854      Y10.8554      R2.0000    
   X13.8969      Y10.3443      R2.0000    
   X13.6792      Y9.8735       R2.0000    
   X13.3470      Y9.4751       R2.0000    
   X12.9230      Y9.1762       R2.0000    
   X12.4361      Y8.9973       R2.0000    
   X11.9195      Y8.9505       R2.0000    
   X11.4084      Y9.0390       R2.0000    
   X10.9376      Y9.2567       R2.0000    
   X10.5392      Y9.5889       R2.0000    
(Pass: 19)
G1   Z-1.900    
G17 G2   X10.2403      Y10.0129      R2.0000    
   X10.0614      Y10.4998      R2.0000    
   X10.0146      Y11.0164      R2.0000    
   X10.1031      Y11.5275      R2.0000    
   X10.3208      Y11.9983      R2.0000    
   X10.6530      Y12.3967      R2.0000    
   X11.0770      Y12.6956      R2.0000    
   X11.5639      Y12.8745      R2.0000    
   X12.0805      Y12.9213      R2.0000    
   X12.5916      Y12.8329      R2.0000    
   X13.0624      Y12.6151      R2.0000    
   X13.4608      Y12.2829      R2.0000    
   X13.7597      Y11.8589      R2.0000    
   X13.9386      Y11.3720      R2.0000    
   X13.9854      Y10.8554      R2.0000    
   X13.8969      Y10.3443      R2.0000    
   X13.6792      Y9.8735       R2.0000    
   X13.3470      Y9.4751       R2.0000    
   X12.9230      Y9.1762       R2.0000    
   X12.4361      Y8.9973       R2.0000    
   X11.9195      Y8.9505       R2.0000    
   X11.4084      Y9.0390       R2.0000    
   X10.9376      Y9.2567       R2.0000    
   X10.5392      Y9.5889       R2.0000    
(Pass: 20)
G1   Z-2.000    
G17 G2   X10.2403      Y10.0129      R2.0000    
   X10.0614      Y10.4998      R2.0000    
   X10.0146      Y11.0164      R2.0000    
   X10.1031      Y11.5275      R2.0000    
   X10.3208      Y11.9983      R2.0000    
   X10.6530      Y12.3967      R2.0000    
   X11.0770      Y12.6956      R2.0000    
   X11.5639      Y12.8745      R2.0000    
   X12.0805      Y12.9213      R2.0000    
   X12.5916      Y12.8329      R2.0000    
   X13.0624      Y12.6151      R2.0000    
   X13.4608      Y12.2829      R2.0000    
   X13.7597      Y11.8589      R2.0000    
   X13.9386      Y11.3720      R2.0000    
   X13.9854      Y10.8554      R2.0000    
   X13.8969      Y10.3443      R2.0000    
   X13.6792      Y9.8735       R2.0000    
   X13.3470      Y9.4751       R2.0000    
   X12.9230      Y9.1762       R2.0000    
   X12.4361      Y8.9973       R2.0000    
   X11.9195      Y8.9505       R2.0000    
   X11.4084      Y9.0390       R2.0000    
   X10.9376      Y9.2567       R2.0000    
   X10.5392      Y9.5889       R2.0000    
(Pass: 21)
G1   Z-2.100    
G17 G2   X10.2403      Y10.0129      R2.0000    
   X10.0614      Y10.4998      R2.0000    
   X10.0146      Y11.0164      R2.0000    
   X10.1031      Y11.5275      R2.0000    
   X10.3208      Y11.9983      R2.0000    
   X10.6530      Y12.3967      R2.0000    
   X11.0770      Y12.6956      R2.0000    
   X11.5639      Y12.8745      R2.0000    
   X12.0805      Y12.9213      R2.0000    
   X12.5916      Y12.8329      R2.0000    
   X13.0624      Y12.6151      R2.0000    
   X13.4608      Y12.2829      R2.0000    
   X13.7597      Y11.8589      R2.0000    
   X13.9386      Y11.3720      R2.0000    
   X13.9854      Y10.8554      R2.0000    
   X13.8969      Y10.3443      R2.0000    
   X13.6792      Y9.8735       R2.0000    
   X13.3470      Y9.4751       R2.0000    
   X12.9230      Y9.1762       R2.0000    
   X12.4361      Y8.9973       R2.0000    
   X11.9195      Y8.9505       R2.0000    
   X11.4084      Y9.0390       R2.0000    
   X10.9376      Y9.2567       R2.0000    
   X10.5392      Y9.5889       R2.0000    
(Pass: 22)
G1   Z-2.200    
G17 G2   X10.2403      Y10.0129      R2.0000    
   X10.0614      Y10.4998      R2.0000    
   X10.0146      Y11.0164      R2.0000    
   X10.1031      Y11.5275      R2.0000    
   X10.3208      Y11.9983      R2.0000    
   X10.6530      Y12.3967      R2.0000    
   X11.0770      Y12.6956      R2.0000    
   X11.5639      Y12.8745      R2.0000    
   X12.0805      Y12.9213      R2.0000    
   X12.5916      Y12.8329      R2.0000    
   X13.0624      Y12.6151      R2.0000    
   X13.4608      Y12.2829      R2.0000    
   X13.7597      Y11.8589      R2.0000    
   X13.9386      Y11.3720      R2.0000    
   X13.9854      Y10.8554      R2.0000    
   X13.8969      Y10.3443      R2.0000    
   X13.6792      Y9.8735       R2.0000    
   X13.3470      Y9.4751       R2.0000    
   X12.9230      Y9.1762       R2.0000    
   X12.4361      Y8.9973       R2.0000    
   X11.9195      Y8.9505       R2.0000    
   X11.4084      Y9.0390       R2.0000    
   X10.9376      Y9.2567       R2.0000    
   X10.5392      Y9.5889       R2.0000    
(Pass: 23)
G1   Z-2.300    
G17 G2   X10.2403      Y10.0129      R2.0000    
   X10.0614      Y10.4998      R2.0000    
   X10.0146      Y11.0164      R2.0000    
   X10.1031      Y11.5275      R2.0000    
   X10.3208      Y11.9983      R2.0000    
   X10.6530      Y12.3967      R2.0000    
   X11.0770      Y12.6956      R2.0000    
   X11.5639      Y12.8745      R2.0000    
   X12.0805      Y12.9213      R2.0000    
   X12.5916      Y12.8329      R2.0000    
   X13.0624      Y12.6151      R2.0000    
   X13.4608      Y12.2829      R2.0000    
   X13.7597      Y11.8589      R2.0000    
   X13.9386      Y11.3720      R2.0000    
   X13.9854      Y10.8554      R2.0000    
   X13.8969      Y10.3443      R2.0000    
   X13.6792      Y9.8735       R2.0000    
   X13.3470      Y9.4751       R2.0000    
   X12.9230      Y9.1762       R2.0000    
   X12.4361      Y8.9973       R2.0000    
   X11.9195      Y8.9505       R2.0000    
   X11.4084      Y9.0390       R2.0000    
   X10.9376      Y9.2567       R2.0000    
   X10.5392      Y9.5889       R2.0000    
(Pass: 24)
G1   Z-2.400    
G17 G2   X10.2403      Y10.0129      R2.0000    
   X10.0614      Y10.4998      R2.0000    
   X10.0146      Y11.0164      R2.0000    
   X10.1031      Y11.5275      R2.0000    
   X10.3208      Y11.9983      R2.0000    
   X10.6530      Y12.3967      R2.0000    
   X11.0770      Y12.6956      R2.0000    
   X11.5639      Y12.8745      R2.0000    
   X12.0805      Y12.9213      R2.0000    
   X12.5916      Y12.8329      R2.0000    
   X13.0624      Y12.6151      R2.0000    
   X13.4608      Y12.2829      R2.0000    
   X13.7597      Y11.8589      R2.0000    
   X13.9386      Y11.3720      R2.0000    
   X13.9854      Y10.8554      R2.0000    
   X13.8969      Y10.3443      R2.0000    
   X13.6792      Y9.8735       R2.0000    
   X13.3470      Y9.4751       R2.0000    
   X12.9230      Y9.1762       R2.0000    
   X12.4361      Y8.9973       R2.0000    
   X11.9195      Y8.9505       R2.0000    
   X11.4084      Y9.0390       R2.0000    
   X10.9376      Y9.2567       R2.0000    
   X10.5392      Y9.5889       R2.0000    
(Pass: 25)
G1   Z-2.500    
G17 G2   X10.2403      Y10.0129      R2.0000    
   X10.0614      Y10.4998      R2.0000    
   X10.0146      Y11.0164      R2.0000    
   X10.1031      Y11.5275      R2.0000    
   X10.3208      Y11.9983      R2.0000    
   X10.6530      Y12.3967      R2.0000    
   X11.0770      Y12.6956      R2.0000    
   X11.5639      Y12.8745      R2.0000    
   X12.0805      Y12.9213      R2.0000    
   X12.5916      Y12.8329      R2.0000    
   X13.0624      Y12.6151      R2.0000    
   X13.4608      Y12.2829      R2.0000    
   X13.7597      Y11.8589      R2.0000    
   X13.9386      Y11.3720      R2.0000    
   X13.9854      Y10.8554      R2.0000    
   X13.8969      Y10.3443      R2.0000    
   X13.6792      Y9.8735       R2.0000    
   X13.3470      Y9.4751       R2.0000    
   X12.9230      Y9.1762       R2.0000    
   X12.4361      Y8.9973       R2.0000    
   X11.9195      Y8.9505       R2.0000    
   X11.4084      Y9.0390       R2.0000    
   X10.9376      Y9.2567       R2.0000    
   X10.5392      Y9.5889       R2.0000    
(Pass: 26)
G1   Z-2.600    
G17 G2   X10.2403      Y10.0129      R2.0000    
   X10.0614      Y10.4998      R2.0000    
   X10.0146      Y11.0164      R2.0000    
   X10.1031      Y11.5275      R2.0000    
   X10.3208      Y11.9983      R2.0000    
   X10.6530      Y12.3967      R2.0000    
   X11.0770      Y12.6956      R2.0000    
   X11.5639      Y12.8745      R2.0000    
   X12.0805      Y12.9213      R2.0000    
   X12.5916      Y12.8329      R2.0000    
   X13.0624      Y12.6151      R2.0000    
   X13.4608      Y12.2829      R2.0000    
   X13.7597      Y11.8589      R2.0000    
   X13.9386      Y11.3720      R2.0000    
   X13.9854      Y10.8554      R2.0000    
   X13.8969      Y10.3443      R2.0000    
   X13.6792      Y9.8735       R2.0000    
   X13.3470      Y9.4751       R2.0000    
   X12.9230      Y9.1762       R2.0000    
   X12.4361      Y8.9973       R2.0000    
   X11.9195      Y8.9505       R2.0000    
   X11.4084      Y9.0390       R2.0000    
   X10.9376      Y9.2567       R2.0000    
   X10.5392      Y9.5889       R2.0000    
(Pass: 27)
G1   Z-2.700    
G17 G2   X10.2403      Y10.0129      R2.0000    
   X10.0614      Y10.4998      R2.0000    
   X10.0146      Y11.0164      R2.0000    
   X10.1031      Y11.5275      R2.0000    
   X10.3208      Y11.9983      R2.0000    
   X10.6530      Y12.3967      R2.0000    
   X11.0770      Y12.6956      R2.0000    
   X11.5639      Y12.8745      R2.0000    
   X12.0805      Y12.9213      R2.0000    
   X12.5916      Y12.8329      R2.0000    
   X13.0624      Y12.6151      R2.0000    
   X13.4608      Y12.2829      R2.0000    
   X13.7597      Y11.8589      R2.0000    
   X13.9386      Y11.3720      R2.0000    
   X13.9854      Y10.8554      R2.0000    
   X13.8969      Y10.3443      R2.0000    
   X13.6792      Y9.8735       R2.0000    
   X13.3470      Y9.4751       R2.0000    
   X12.9230      Y9.1762       R2.0000    
   X12.4361      Y8.9973       R2.0000    
   X11.9195      Y8.9505       R2.0000    
   X11.4084      Y9.0390       R2.0000    
   X10.9376      Y9.2567       R2.0000    
   X10.5392      Y9.5889       R2.0000    
(Pass: 28)
G1   Z-2.800    
G17 G2   X10.2403      Y10.0129      R2.0000    
   X10.0614      Y10.4998      R2.0000    
   X10.0146      Y11.0164      R2.0000    
   X10.1031      Y11.5275      R2.0000    
   X10.3208      Y11.9983      R2.0000    
   X10.6530      Y12.3967      R2.0000    
   X11.0770      Y12.6956      R2.0000    
   X11.5639      Y12.8745      R2.0000    
   X12.0805      Y12.9213      R2.0000    
   X12.5916      Y12.8329      R2.0000    
   X13.0624      Y12.6151      R2.0000    
   X13.4608      Y12.2829      R2.0000    
   X13.7597      Y11.8589      R2.0000    
   X13.9386      Y11.3720      R2.0000    
   X13.9854      Y10.8554      R2.0000    
   X13.8969      Y10.3443      R2.0000    
   X13.6792      Y9.8735       R2.0000    
   X13.3470      Y9.4751       R2.0000    
   X12.9230      Y9.1762       R2.0000    
   X12.4361      Y8.9973       R2.0000    
   X11.9195      Y8.9505       R2.0000    
   X11.4084      Y9.0390       R2.0000    
   X10.9376      Y9.2567       R2.0000    
   X10.5392      Y9.5889       R2.0000    
(Pass: 29)
G1   Z-2.900    
G17 G2   X10.2403      Y10.0129      R2.0000    
   X10.0614      Y10.4998      R2.0000    
   X10.0146      Y11.0164      R2.0000    
   X10.1031      Y11.5275      R2.0000    
   X10.3208      Y11.9983      R2.0000    
   X10.6530      Y12.3967      R2.0000    
   X11.0770      Y12.6956      R2.0000    
   X11.5639      Y12.8745      R2.0000    
   X12.0805      Y12.9213      R2.0000    
   X12.5916      Y12.8329      R2.0000    
   X13.0624      Y12.6151      R2.0000    
   X13.4608      Y12.2829      R2.0000    
   X13.7597      Y11.8589      R2.0000    
   X13.9386      Y11.3720      R2.0000    
   X13.9854      Y10.8554      R2.0000    
   X13.8969      Y10.3443      R2.0000    
   X13.6792      Y9.8735       R2.0000    
   X13.3470      Y9.4751       R2.0000    
   X12.9230      Y9.1762       R2.0000    
   X12.4361      Y8.9973       R2.0000    
   X11.9195      Y8.9505       R2.0000    
   X11.4084      Y9.0390       R2.0000    
   X10.9376      Y9.2567       R2.0000    
   X10.5392      Y9.5889       R2.0000    
(Pass: 30)
G1   Z-3.000    
G17 G2   X10.2403      Y10.0129      R2.0000    
   X10.0614      Y10.4998      R2.0000    
   X10.0146      Y11.0164      R2.0000    
   X10.1031      Y11.5275      R2.0000    
   X10.3208      Y11.9983      R2.0000    
   X10.6530      Y12.3967      R2.0000    
   X11.0770      Y12.6956      R2.0000    
   X11.5639      Y12.8745      R2.0000    
   X12.0805      Y12.9213      R2.0000    
   X12.5916      Y12.8329      R2.0000    
   X13.0624      Y12.6151      R2.0000    
   X13.4608      Y12.2829      R2.0000    
   X13.7597      Y11.8589      R2.0000    
   X13.9386      Y11.3720      R2.0000    
   X13.9854      Y10.8554      R2.0000    
   X13.8969      Y10.3443      R2.0000    
   X13.6792      Y9.8735       R2.0000    
   X13.3470      Y9.4751       R2.0000    
   X12.9230      Y9.1762       R2.0000    
   X12.4361      Y8.9973       R2.0000    
   X11.9195      Y8.9505       R2.0000    
   X11.4084      Y9.0390       R2.0000    
   X10.9376      Y9.2567       R2.0000    
   X10.5392      Y9.5889       R2.0000    
(Pass: 31)
G1   Z-3.100    
G17 G2   X10.2403      Y10.0129      R2.0000    
   X10.0614      Y10.4998      R2.0000    
   X10.0146      Y11.0164      R2.0000    
   X10.1031      Y11.5275      R2.0000    
   X10.3208      Y11.9983      R2.0000    
   X10.6530      Y12.3967      R2.0000    
   X11.0770      Y12.6956      R2.0000    
   X11.5639      Y12.8745      R2.0000    
   X12.0805      Y12.9213      R2.0000    
   X12.5916      Y12.8329      R2.0000    
   X13.0624      Y12.6151      R2.0000    
   X13.4608      Y12.2829      R2.0000    
   X13.7597      Y11.8589      R2.0000    
   X13.9386      Y11.3720      R2.0000    
   X13.9854      Y10.8554      R2.0000    
   X13.8969      Y10.3443      R2.0000    
   X13.6792      Y9.8735       R2.0000    
   X13.3470      Y9.4751       R2.0000    
   X12.9230      Y9.1762       R2.0000    
   X12.4361      Y8.9973       R2.0000    
   X11.9195      Y8.9505       R2.0000    
   X11.4084      Y9.0390       R2.0000    
   X10.9376      Y9.2567       R2.0000    
   X10.5392      Y9.5889       R2.0000    
(Pass: 32)
G1   Z-3.200    
G17 G2   X10.2403      Y10.0129      R2.0000    
   X10.0614      Y10.4998      R2.0000    
   X10.0146      Y11.0164      R2.0000    
   X10.1031      Y11.5275      R2.0000    
   X10.3208      Y11.9983      R2.0000    
   X10.6530      Y12.3967      R2.0000    
   X11.0770      Y12.6956      R2.0000    
   X11.5639      Y12.8745      R2.0000    
   X12.0805      Y12.9213      R2.0000    
   X12.5916      Y12.8329      R2.0000    
   X13.0624      Y12.6151      R2.0000    
   X13.4608      Y12.2829      R2.0000    
   X13.7597      Y11.8589      R2.0000    
   X13.9386      Y11.3720      R2.0000    
   X13.9854      Y10.8554      R2.0000    
   X13.8969      Y10.3443      R2.0000    
   X13.6792      Y9.8735       R2.0000    
   X13.3470      Y9.4751       R2.0000    
   X12.9230      Y9.1762       R2.0000    
   X12.4361      Y8.9973       R2.0000    
   X11.9195      Y8.9505       R2.0000    
   X11.4084      Y9.0390       R2.0000    
   X10.9376      Y9.2567       R2.0000    
   X10.5392      Y9.5889       R2.0000    
(Pass: 33)
G1   Z-3.300    
G17 G2   X10.2403      Y10.0129      R2.0000    
   X10.0614      Y10.4998      R2.0000    
   X10.0146      Y11.0164      R2.0000    
   X10.1031      Y11.5275      R2.0000    
   X10.3208      Y11.9983      R2.0000    
   X10.6530      Y12.3967      R2.0000    
   X11.0770      Y12.6956      R2.0000    
   X11.5639      Y12.8745      R2.0000    
   X12.0805      Y12.9213      R2.0000    
   X12.5916      Y12.8329      R2.0000    
   X13.0624      Y12.6151      R2.0000    
   X13.4608      Y12.2829      R2.0000    
   X13.7597      Y11.8589      R2.0000    
   X13.9386      Y11.3720      R2.0000    
   X13.9854      Y10.8554      R2.0000    
   X13.8969      Y10.3443      R2.0000    
   X13.6792      Y9.8735       R2.0000    
   X13.3470      Y9.4751       R2.0000    
   X12.9230      Y9.1762       R2.0000    
   X12.4361      Y8.9973       R2.0000    
   X11.9195      Y8.9505       R2.0000    
   X11.4084      Y9.0390       R2.0000    
   X10.9376      Y9.2567       R2.0000    
   X10.5392      Y9.5889       R2.0000    
(Pass: 34)
G1   Z-3.400    
G17 G2   X10.2403      Y10.0129      R2.0000    
   X10.0614      Y10.4998      R2.0000    
   X10.0146      Y11.0164      R2.0000    
   X10.1031      Y11.5275      R2.0000    
   X10.3208      Y11.9983      R2.0000    
   X10.6530      Y12.3967      R2.0000    
   X11.0770      Y12.6956      R2.0000    
   X11.5639      Y12.8745      R2.0000    
   X12.0805      Y12.9213      R2.0000    
   X12.5916      Y12.8329      R2.0000    
   X13.0624      Y12.6151      R2.0000    
   X13.4608      Y12.2829      R2.0000    
   X13.7597      Y11.8589      R2.0000    
   X13.9386      Y11.3720      R2.0000    
   X13.9854      Y10.8554      R2.0000    
   X13.8969      Y10.3443      R2.0000    
   X13.6792      Y9.8735       R2.0000    
   X13.3470      Y9.4751       R2.0000    
   X12.9230      Y9.1762       R2.0000    
   X12.4361      Y8.9973       R2.0000    
   X11.9195      Y8.9505       R2.0000    
   X11.4084      Y9.0390       R2.0000    
   X10.9376      Y9.2567       R2.0000    
   X10.5392      Y9.5889       R2.0000    
(Pass: 35)
G1   Z-3.500    
G17 G2   X10.2403      Y10.0129      R2.0000    
   X10.0614      Y10.4998      R2.0000    
   X10.0146      Y11.0164      R2.0000    
   X10.1031      Y11.5275      R2.0000    
   X10.3208      Y11.9983      R2.0000    
   X10.6530      Y12.3967      R2.0000    
   X11.0770      Y12.6956      R2.0000    
   X11.5639      Y12.8745      R2.0000    
   X12.0805      Y12.9213      R2.0000    
   X12.5916      Y12.8329      R2.0000    
   X13.0624      Y12.6151      R2.0000    
   X13.4608      Y12.2829      R2.0000    
   X13.7597      Y11.8589      R2.0000    
   X13.9386      Y11.3720      R2.0000    
   X13.9854      Y10.8554      R2.0000    
   X13.8969      Y10.3443      R2.0000    
   X13.6792      Y9.8735       R2.0000    
   X13.3470      Y9.4751       R2.0000    
   X12.9230      Y9.1762       R2.0000    
   X12.4361      Y8.9973       R2.0000    
   X11.9195      Y8.9505       R2.0000    
   X11.4084      Y9.0390       R2.0000    
   X10.9376      Y9.2567       R2.0000    
   X10.5392      Y9.5889       R2.0000    
G0   Z5.000     
(Pass: 1)
   X6.245        Y25.086    
G1   Z-0.100     F400 
   X5.245     
   X6.245        Y28.786    
   Y25.086    
   X5.245        Y28.786    
   X6.245     
   X5.245        Y25.086    
   Y28.786    
(Pass: 2)
   X6.245        Y25.086    
   Z-0.200    
   X5.245     
   X6.245        Y28.786    
   Y25.086    
   X5.245        Y28.786    
   X6.245     
   X5.245        Y25.086    
   Y28.786    
(Pass: 3)
   X6.245        Y25.086    
   Z-0.300    
   X5.245     
   X6.245        Y28.786    
   Y25.086    
   X5.245        Y28.786    
   X6.245     
   X5.245        Y25.086    
   Y28.786    
(Pass: 4)
   X6.245        Y25.086    
   Z-0.400    
   X5.245     
   X6.245        Y28.786    
   Y25.086    
   X5.245        Y28.786    
   X6.245     
   X5.245        Y25.086    
   Y28.786    
(Pass: 5)
   X6.245        Y25.086    
   Z-0.500    
   X5.245     
   X6.245        Y28.786    
   Y25.086    
   X5.245        Y28.786    
   X6.245     
   X5.245        Y25.086    
   Y28.786    
(Pass: 6)
   X6.245        Y25.086    
   Z-0.600    
   X5.245     
   X6.245        Y28.786    
   Y25.086    
   X5.245        Y28.786    
   X6.245     
   X5.245        Y25.086    
   Y28.786    
(Pass: 7)
   X6.245        Y25.086    
   Z-0.700    
   X5.245     
   X6.245        Y28.786    
   Y25.086    
   X5.245        Y28.786    
   X6.245     
   X5.245        Y25.086    
   Y28.786    
(Pass: 8)
   X6.245        Y25.086    
   Z-0.800    
   X5.245     
   X6.245        Y28.786    
   Y25.086    
   X5.245        Y28.786    
   X6.245     
   X5.245        Y25.086    
   Y28.786    
(Pass: 9)
   X6.245        Y25.086    
   Z-0.900    
   X5.245     
   X6.245        Y28.786    
   Y25.086    
   X5.245        Y28.786    
   X6.245     
   X5.245        Y25.086    
   Y28.786    
(Pass: 10)
   X6.245        Y25.086    
   Z-1.000    
   X5.245     
   X6.245        Y28.786    
   Y25.086    
   X5.245        Y28.786    
   X6.245     
   X5.245        Y25.086    
   Y28.786    
(Pass: 11)
   X6.245        Y25.086    
   Z-1.100    
   X5.245     
   X6.245        Y28.786    
   Y25.086    
   X5.245        Y28.786    
   X6.245     
   X5.245        Y25.086    
   Y28.786    
(Pass: 12)
   X6.245        Y25.086    
   Z-1.200    
   X5.245     
   X6.245        Y28.786    
   Y25.086    
   X5.245        Y28.786    
   X6.245     
   X5.245        Y25.086    
   Y28.786    
(Pass: 13)
   X6.245        Y25.086    
   Z-1.300    
   X5.245     
   X6.245        Y28.786    
   Y25.086    
   X5.245        Y28.786    
   X6.245     
   X5.245        Y25.086    
   Y28.786    
(Pass: 14)
   X6.245        Y25.086    
   Z-1.400    
   X5.245     
   X6.245        Y28.786    
   Y25.086    
   X5.245        Y28.786    
   X6.245     
   X5.245        Y25.086    
   Y28.786    
(Pass: 15)
   X6.245        Y25.086    
   Z-1.500    
   X5.245     
   X6.245        Y28.786    
   Y25.086    
   X5.245        Y28.786    
   X6.245     
   X5.245        Y25.086    
   Y28.786    
(Pass: 16)
   X6.245        Y25.086    
   Z-1.600    
   X5.245     
   X6.245        Y28.786    
   Y25.086    
   X5.245        Y28.786    
   X6.245     
   X5.245        Y25.086    
   Y28.786    
(Pass: 17)
   X6.245        Y25.086    
   Z-1.700    
   X5.245     
   X6.245        Y28.786    
   Y25.086    
   X5.245        Y28.786    
   X6.245     
   X5.245        Y25.086    
   Y28.786    
(Pass: 18)
   X6.245        Y25.086    
   Z-1.800    
   X5.245     
   X6.245        Y28.786    
   Y25.086    
   X5.245        Y28.786    
   X6.245     
   X5.245        Y25.086    
   Y28.786    
(Pass: 19)
   X6.245        Y25.086    
   Z-1.900    
   X5.245     
   X6.245        Y28.786    
   Y25.086    
   X5.245        Y28.786    
   X6.245     
   X5.245        Y25.086    
   Y28.786    
(Pass: 20)
   X6.245        Y25.086    
   Z-2.000    
   X5.245     
   X6.245        Y28.786    
   Y25.086    
   X5.245        Y28.786    
   X6.245     
   X5.245        Y25.086    
   Y28.786    
(Pass: 21)
   X6.245        Y25.086    
   Z-2.100    
   X5.245     
   X6.245        Y28.786    
   Y25.086    
   X5.245        Y28.786    
   X6.245     
   X5.245        Y25.086    
   Y28.786    
(Pass: 22)
   X6.245        Y25.086    
   Z-2.200    
   X5.245     
   X6.245        Y28.786    
   Y25.086    
   X5.245        Y28.786    
   X6.245     
   X5.245        Y25.086    
   Y28.786    
(Pass: 23)
   X6.245        Y25.086    
   Z-2.300    
   X5.245     
   X6.245        Y28.786    
   Y25.086    
   X5.245        Y28.786    
   X6.245     
   X5.245        Y25.086    
   Y28.786    
(Pass: 24)
   X6.245        Y25.086    
   Z-2.400    
   X5.245     
   X6.245        Y28.786    
   Y25.086    
   X5.245        Y28.786    
   X6.245     
   X5.245        Y25.086    
   Y28.786    
(Pass: 25)
   X6.245        Y25.086    
   Z-2.500    
   X5.245     
   X6.245        Y28.786    
   Y25.086    
   X5.245        Y28.786    
   X6.245     
   X5.245        Y25.086    
   Y28.786    
(Pass: 26)
   X6.245        Y25.086    
   Z-2.600    
   X5.245     
   X6.245        Y28.786    
   Y25.086    
   X5.245        Y28.786    
   X6.245     
   X5.245        Y25.086    
   Y28.786    
(Pass: 27)
   X6.245        Y25.086    
   Z-2.700    
   X5.245     
   X6.245        Y28.786    
   Y25.086    
   X5.245        Y28.786    
   X6.245     
   X5.245        Y25.086    
   Y28.786    
(Pass: 28)
   X6.245        Y25.086    
   Z-2.800    
   X5.245     
   X6.245        Y28.786    
   Y25.086    
   X5.245        Y28.786    
   X6.245     
   X5.245        Y25.086    
   Y28.786    
(Pass: 29)
   X6.245        Y25.086    
   Z-2.900    
   X5.245     
   X6.245        Y28.786    
   Y25.086    
   X5.245        Y28.786    
   X6.245     
   X5.245        Y25.086    
   Y28.786    
(Pass: 30)
   X6.245        Y25.086    
   Z-3.000    
   X5.245     
   X6.245        Y28.786    
   Y25.086    
   X5.245        Y28.786    
   X6.245     
   X5.245        Y25.086    
   Y28.786    
(Pass: 31)
   X6.245        Y25.086    
   Z-3.100    
   X5.245     
   X6.245        Y28.786    
   Y25.086    
   X5.245        Y28.786    
   X6.245     
   X5.245        Y25.086    
   Y28.786    
(Pass: 32)
   X6.245        Y25.086    
   Z-3.200    
   X5.245     
   X6.245        Y28.786    
   Y25.086    
   X5.245        Y28.786    
   X6.245     
   X5.245        Y25.086    
   Y28.786    
(Pass: 33)
   X6.245        Y25.086    
   Z-3.300    
   X5.245     
   X6.245        Y28.786    
   Y25.086    
   X5.245        Y28.786    
   X6.245     
   X5.245        Y25.086    
   Y28.786    
(Pass: 34)
   X6.245        Y25.086    
   Z-3.400    
   X5.245     
   X6.245        Y28.786    
   Y25.086    
   X5.245        Y28.786    
   X6.245     
   X5.245        Y25.086    
   Y28.786    
(Pass: 35)
   X6.245        Y25.086    
   Z-3.500    
   X5.245     
   X6.245        Y28.786    
   Y25.086    
   X5.245        Y28.786    
   X6.245     
   X5.245        Y25.086    
   Y28.786    
G0   Z5.000     
(Pass: 1)
   X16.003       Y26.936    
G1   Z-0.100     F400 
G17 G2   X16.0369      Y27.1940      R1.0100    
   X16.1365      Y27.4345      R1.0100    
   X16.2950      Y27.6409      R1.0100    
   X16.5015      Y27.7994      R1.0100    
   X16.7419      Y27.8990      R1.0100    
   X17.0000      Y27.9330      R1.0100    
   X17.2581      Y27.8990      R1.0100    
   X17.4985      Y27.7994      R1.0100    
   X17.7050      Y27.6409      R1.0100    
   X17.8635      Y27.4345      R1.0100    
   X17.9631      Y27.1940      R1.0100    
   X17.9971      Y26.9359      R1.0100    
   X17.9631      Y26.6779      R1.0100    
   X17.8635      Y26.4374      R1.0100    
   X17.7050      Y26.2309      R1.0100    
   X17.4985      Y26.0724      R1.0100    
   X17.2581      Y25.9728      R1.0100    
   X17.0000      Y25.9389      R1.0100    
   X16.7419      Y25.9728      R1.0100    
   X16.5015      Y26.0724      R1.0100    
   X16.2950      Y26.2309      R1.0100    
   X16.1365      Y26.4374      R1.0100    
   X16.0369      Y26.6779      R1.0100    
   X16.0029      Y26.9359      R1.0100    
(Pass: 2)
G1   Z-0.200    
G17 G2   X16.0369      Y27.1940      R1.0100    
   X16.1365      Y27.4345      R1.0100    
   X16.2950      Y27.6409      R1.0100    
   X16.5015      Y27.7994      R1.0100    
   X16.7419      Y27.8990      R1.0100    
   X17.0000      Y27.9330      R1.0100    
   X17.2581      Y27.8990      R1.0100    
   X17.4985      Y27.7994      R1.0100    
   X17.7050      Y27.6409      R1.0100    
   X17.8635      Y27.4345      R1.0100    
   X17.9631      Y27.1940      R1.0100    
   X17.9971      Y26.9359      R1.0100    
   X17.9631      Y26.6779      R1.0100    
   X17.8635      Y26.4374      R1.0100    
   X17.7050      Y26.2309      R1.0100    
   X17.4985      Y26.0724      R1.0100    
   X17.2581      Y25.9728      R1.0100    
   X17.0000      Y25.9389      R1.0100    
   X16.7419      Y25.9728      R1.0100    
   X16.5015      Y26.0724      R1.0100    
   X16.2950      Y26.2309      R1.0100    
   X16.1365      Y26.4374      R1.0100    
   X16.0369      Y26.6779      R1.0100    
   X16.0029      Y26.9359      R1.0100    
(Pass: 3)
G1   Z-0.300    
G17 G2   X16.0369      Y27.1940      R1.0100    
   X16.1365      Y27.4345      R1.0100    
   X16.2950      Y27.6409      R1.0100    
   X16.5015      Y27.7994      R1.0100    
   X16.7419      Y27.8990      R1.0100    
   X17.0000      Y27.9330      R1.0100    
   X17.2581      Y27.8990      R1.0100    
   X17.4985      Y27.7994      R1.0100    
   X17.7050      Y27.6409      R1.0100    
   X17.8635      Y27.4345      R1.0100    
   X17.9631      Y27.1940      R1.0100    
   X17.9971      Y26.9359      R1.0100    
   X17.9631      Y26.6779      R1.0100    
   X17.8635      Y26.4374      R1.0100    
   X17.7050      Y26.2309      R1.0100    
   X17.4985      Y26.0724      R1.0100    
   X17.2581      Y25.9728      R1.0100    
   X17.0000      Y25.9389      R1.0100    
   X16.7419      Y25.9728      R1.0100    
   X16.5015      Y26.0724      R1.0100    
   X16.2950      Y26.2309      R1.0100    
   X16.1365      Y26.4374      R1.0100    
   X16.0369      Y26.6779      R1.0100    
   X16.0029      Y26.9359      R1.0100    
(Pass: 4)
G1   Z-0.400    
G17 G2   X16.0369      Y27.1940      R1.0100    
   X16.1365      Y27.4345      R1.0100    
   X16.2950      Y27.6409      R1.0100    
   X16.5015      Y27.7994      R1.0100    
   X16.7419      Y27.8990      R1.0100    
   X17.0000      Y27.9330      R1.0100    
   X17.2581      Y27.8990      R1.0100    
   X17.4985      Y27.7994      R1.0100    
   X17.7050      Y27.6409      R1.0100    
   X17.8635      Y27.4345      R1.0100    
   X17.9631      Y27.1940      R1.0100    
   X17.9971      Y26.9359      R1.0100    
   X17.9631      Y26.6779      R1.0100    
   X17.8635      Y26.4374      R1.0100    
   X17.7050      Y26.2309      R1.0100    
   X17.4985      Y26.0724      R1.0100    
   X17.2581      Y25.9728      R1.0100    
   X17.0000      Y25.9389      R1.0100    
   X16.7419      Y25.9728      R1.0100    
   X16.5015      Y26.0724      R1.0100    
   X16.2950      Y26.2309      R1.0100    
   X16.1365      Y26.4374      R1.0100    
   X16.0369      Y26.6779      R1.0100    
   X16.0029      Y26.9359      R1.0100    
(Pass: 5)
G1   Z-0.500    
G17 G2   X16.0369      Y27.1940      R1.0100    
   X16.1365      Y27.4345      R1.0100    
   X16.2950      Y27.6409      R1.0100    
   X16.5015      Y27.7994      R1.0100    
   X16.7419      Y27.8990      R1.0100    
   X17.0000      Y27.9330      R1.0100    
   X17.2581      Y27.8990      R1.0100    
   X17.4985      Y27.7994      R1.0100    
   X17.7050      Y27.6409      R1.0100    
   X17.8635      Y27.4345      R1.0100    
   X17.9631      Y27.1940      R1.0100    
   X17.9971      Y26.9359      R1.0100    
   X17.9631      Y26.6779      R1.0100    
   X17.8635      Y26.4374      R1.0100    
   X17.7050      Y26.2309      R1.0100    
   X17.4985      Y26.0724      R1.0100    
   X17.2581      Y25.9728      R1.0100    
   X17.0000      Y25.9389      R1.0100    
   X16.7419      Y25.9728      R1.0100    
   X16.5015      Y26.0724      R1.0100    
   X16.2950      Y26.2309      R1.0100    
   X16.1365      Y26.4374      R1.0100    
   X16.0369      Y26.6779      R1.0100    
   X16.0029      Y26.9359      R1.0100    
(Pass: 6)
G1   Z-0.600    
G17 G2   X16.0369      Y27.1940      R1.0100    
   X16.1365      Y27.4345      R1.0100    
   X16.2950      Y27.6409      R1.0100    
   X16.5015      Y27.7994      R1.0100    
   X16.7419      Y27.8990      R1.0100    
   X17.0000      Y27.9330      R1.0100    
   X17.2581      Y27.8990      R1.0100    
   X17.4985      Y27.7994      R1.0100    
   X17.7050      Y27.6409      R1.0100    
   X17.8635      Y27.4345      R1.0100    
   X17.9631      Y27.1940      R1.0100    
   X17.9971      Y26.9359      R1.0100    
   X17.9631      Y26.6779      R1.0100    
   X17.8635      Y26.4374      R1.0100    
   X17.7050      Y26.2309      R1.0100    
   X17.4985      Y26.0724      R1.0100    
   X17.2581      Y25.9728      R1.0100    
   X17.0000      Y25.9389      R1.0100    
   X16.7419      Y25.9728      R1.0100    
   X16.5015      Y26.0724      R1.0100    
   X16.2950      Y26.2309      R1.0100    
   X16.1365      Y26.4374      R1.0100    
   X16.0369      Y26.6779      R1.0100    
   X16.0029      Y26.9359      R1.0100    
(Pass: 7)
G1   Z-0.700    
G17 G2   X16.0369      Y27.1940      R1.0100    
   X16.1365      Y27.4345      R1.0100    
   X16.2950      Y27.6409      R1.0100    
   X16.5015      Y27.7994      R1.0100    
   X16.7419      Y27.8990      R1.0100    
   X17.0000      Y27.9330      R1.0100    
   X17.2581      Y27.8990      R1.0100    
   X17.4985      Y27.7994      R1.0100    
   X17.7050      Y27.6409      R1.0100    
   X17.8635      Y27.4345      R1.0100    
   X17.9631      Y27.1940      R1.0100    
   X17.9971      Y26.9359      R1.0100    
   X17.9631      Y26.6779      R1.0100    
   X17.8635      Y26.4374      R1.0100    
   X17.7050      Y26.2309      R1.0100    
   X17.4985      Y26.0724      R1.0100    
   X17.2581      Y25.9728      R1.0100    
   X17.0000      Y25.9389      R1.0100    
   X16.7419      Y25.9728      R1.0100    
   X16.5015      Y26.0724      R1.0100    
   X16.2950      Y26.2309      R1.0100    
   X16.1365      Y26.4374      R1.0100    
   X16.0369      Y26.6779      R1.0100    
   X16.0029      Y26.9359      R1.0100    
(Pass: 8)
G1   Z-0.800    
G17 G2   X16.0369      Y27.1940      R1.0100    
   X16.1365      Y27.4345      R1.0100    
   X16.2950      Y27.6409      R1.0100    
   X16.5015      Y27.7994      R1.0100    
   X16.7419      Y27.8990      R1.0100    
   X17.0000      Y27.9330      R1.0100    
   X17.2581      Y27.8990      R1.0100    
   X17.4985      Y27.7994      R1.0100    
   X17.7050      Y27.6409      R1.0100    
   X17.8635      Y27.4345      R1.0100    
   X17.9631      Y27.1940      R1.0100    
   X17.9971      Y26.9359      R1.0100    
   X17.9631      Y26.6779      R1.0100    
   X17.8635      Y26.4374      R1.0100    
   X17.7050      Y26.2309      R1.0100    
   X17.4985      Y26.0724      R1.0100    
   X17.2581      Y25.9728      R1.0100    
   X17.0000      Y25.9389      R1.0100    
   X16.7419      Y25.9728      R1.0100    
   X16.5015      Y26.0724      R1.0100    
   X16.2950      Y26.2309      R1.0100    
   X16.1365      Y26.4374      R1.0100    
   X16.0369      Y26.6779      R1.0100    
   X16.0029      Y26.9359      R1.0100    
(Pass: 9)
G1   Z-0.900    
G17 G2   X16.0369      Y27.1940      R1.0100    
   X16.1365      Y27.4345      R1.0100    
   X16.2950      Y27.6409      R1.0100    
   X16.5015      Y27.7994      R1.0100    
   X16.7419      Y27.8990      R1.0100    
   X17.0000      Y27.9330      R1.0100    
   X17.2581      Y27.8990      R1.0100    
   X17.4985      Y27.7994      R1.0100    
   X17.7050      Y27.6409      R1.0100    
   X17.8635      Y27.4345      R1.0100    
   X17.9631      Y27.1940      R1.0100    
   X17.9971      Y26.9359      R1.0100    
   X17.9631      Y26.6779      R1.0100    
   X17.8635      Y26.4374      R1.0100    
   X17.7050      Y26.2309      R1.0100    
   X17.4985      Y26.0724      R1.0100    
   X17.2581      Y25.9728      R1.0100    
   X17.0000      Y25.9389      R1.0100    
   X16.7419      Y25.9728      R1.0100    
   X16.5015      Y26.0724      R1.0100    
   X16.2950      Y26.2309      R1.0100    
   X16.1365      Y26.4374      R1.0100    
   X16.0369      Y26.6779      R1.0100    
   X16.0029      Y26.9359      R1.0100    
(Pass: 10)
G1   Z-1.000    
G17 G2   X16.0369      Y27.1940      R1.0100    
   X16.1365      Y27.4345      R1.0100    
   X16.2950      Y27.6409      R1.0100    
   X16.5015      Y27.7994      R1.0100    
   X16.7419      Y27.8990      R1.0100    
   X17.0000      Y27.9330      R1.0100    
   X17.2581      Y27.8990      R1.0100    
   X17.4985      Y27.7994      R1.0100    
   X17.7050      Y27.6409      R1.0100    
   X17.8635      Y27.4345      R1.0100    
   X17.9631      Y27.1940      R1.0100    
   X17.9971      Y26.9359      R1.0100    
   X17.9631      Y26.6779      R1.0100    
   X17.8635      Y26.4374      R1.0100    
   X17.7050      Y26.2309      R1.0100    
   X17.4985      Y26.0724      R1.0100    
   X17.2581      Y25.9728      R1.0100    
   X17.0000      Y25.9389      R1.0100    
   X16.7419      Y25.9728      R1.0100    
   X16.5015      Y26.0724      R1.0100    
   X16.2950      Y26.2309      R1.0100    
   X16.1365      Y26.4374      R1.0100    
   X16.0369      Y26.6779      R1.0100    
   X16.0029      Y26.9359      R1.0100    
(Pass: 11)
G1   Z-1.100    
G17 G2   X16.0369      Y27.1940      R1.0100    
   X16.1365      Y27.4345      R1.0100    
   X16.2950      Y27.6409      R1.0100    
   X16.5015      Y27.7994      R1.0100    
   X16.7419      Y27.8990      R1.0100    
   X17.0000      Y27.9330      R1.0100    
   X17.2581      Y27.8990      R1.0100    
   X17.4985      Y27.7994      R1.0100    
   X17.7050      Y27.6409      R1.0100    
   X17.8635      Y27.4345      R1.0100    
   X17.9631      Y27.1940      R1.0100    
   X17.9971      Y26.9359      R1.0100    
   X17.9631      Y26.6779      R1.0100    
   X17.8635      Y26.4374      R1.0100    
   X17.7050      Y26.2309      R1.0100    
   X17.4985      Y26.0724      R1.0100    
   X17.2581      Y25.9728      R1.0100    
   X17.0000      Y25.9389      R1.0100    
   X16.7419      Y25.9728      R1.0100    
   X16.5015      Y26.0724      R1.0100    
   X16.2950      Y26.2309      R1.0100    
   X16.1365      Y26.4374      R1.0100    
   X16.0369      Y26.6779      R1.0100    
   X16.0029      Y26.9359      R1.0100    
(Pass: 12)
G1   Z-1.200    
G17 G2   X16.0369      Y27.1940      R1.0100    
   X16.1365      Y27.4345      R1.0100    
   X16.2950      Y27.6409      R1.0100    
   X16.5015      Y27.7994      R1.0100    
   X16.7419      Y27.8990      R1.0100    
   X17.0000      Y27.9330      R1.0100    
   X17.2581      Y27.8990      R1.0100    
   X17.4985      Y27.7994      R1.0100    
   X17.7050      Y27.6409      R1.0100    
   X17.8635      Y27.4345      R1.0100    
   X17.9631      Y27.1940      R1.0100    
   X17.9971      Y26.9359      R1.0100    
   X17.9631      Y26.6779      R1.0100    
   X17.8635      Y26.4374      R1.0100    
   X17.7050      Y26.2309      R1.0100    
   X17.4985      Y26.0724      R1.0100    
   X17.2581      Y25.9728      R1.0100    
   X17.0000      Y25.9389      R1.0100    
   X16.7419      Y25.9728      R1.0100    
   X16.5015      Y26.0724      R1.0100    
   X16.2950      Y26.2309      R1.0100    
   X16.1365      Y26.4374      R1.0100    
   X16.0369      Y26.6779      R1.0100    
   X16.0029      Y26.9359      R1.0100    
(Pass: 13)
G1   Z-1.300    
G17 G2   X16.0369      Y27.1940      R1.0100    
   X16.1365      Y27.4345      R1.0100    
   X16.2950      Y27.6409      R1.0100    
   X16.5015      Y27.7994      R1.0100    
   X16.7419      Y27.8990      R1.0100    
   X17.0000      Y27.9330      R1.0100    
   X17.2581      Y27.8990      R1.0100    
   X17.4985      Y27.7994      R1.0100    
   X17.7050      Y27.6409      R1.0100    
   X17.8635      Y27.4345      R1.0100    
   X17.9631      Y27.1940      R1.0100    
   X17.9971      Y26.9359      R1.0100    
   X17.9631      Y26.6779      R1.0100    
   X17.8635      Y26.4374      R1.0100    
   X17.7050      Y26.2309      R1.0100    
   X17.4985      Y26.0724      R1.0100    
   X17.2581      Y25.9728      R1.0100    
   X17.0000      Y25.9389      R1.0100    
   X16.7419      Y25.9728      R1.0100    
   X16.5015      Y26.0724      R1.0100    
   X16.2950      Y26.2309      R1.0100    
   X16.1365      Y26.4374      R1.0100    
   X16.0369      Y26.6779      R1.0100    
   X16.0029      Y26.9359      R1.0100    
(Pass: 14)
G1   Z-1.400    
G17 G2   X16.0369      Y27.1940      R1.0100    
   X16.1365      Y27.4345      R1.0100    
   X16.2950      Y27.6409      R1.0100    
   X16.5015      Y27.7994      R1.0100    
   X16.7419      Y27.8990      R1.0100    
   X17.0000      Y27.9330      R1.0100    
   X17.2581      Y27.8990      R1.0100    
   X17.4985      Y27.7994      R1.0100    
   X17.7050      Y27.6409      R1.0100    
   X17.8635      Y27.4345      R1.0100    
   X17.9631      Y27.1940      R1.0100    
   X17.9971      Y26.9359      R1.0100    
   X17.9631      Y26.6779      R1.0100    
   X17.8635      Y26.4374      R1.0100    
   X17.7050      Y26.2309      R1.0100    
   X17.4985      Y26.0724      R1.0100    
   X17.2581      Y25.9728      R1.0100    
   X17.0000      Y25.9389      R1.0100    
   X16.7419      Y25.9728      R1.0100    
   X16.5015      Y26.0724      R1.0100    
   X16.2950      Y26.2309      R1.0100    
   X16.1365      Y26.4374      R1.0100    
   X16.0369      Y26.6779      R1.0100    
   X16.0029      Y26.9359      R1.0100    
(Pass: 15)
G1   Z-1.500    
G17 G2   X16.0369      Y27.1940      R1.0100    
   X16.1365      Y27.4345      R1.0100    
   X16.2950      Y27.6409      R1.0100    
   X16.5015      Y27.7994      R1.0100    
   X16.7419      Y27.8990      R1.0100    
   X17.0000      Y27.9330      R1.0100    
   X17.2581      Y27.8990      R1.0100    
   X17.4985      Y27.7994      R1.0100    
   X17.7050      Y27.6409      R1.0100    
   X17.8635      Y27.4345      R1.0100    
   X17.9631      Y27.1940      R1.0100    
   X17.9971      Y26.9359      R1.0100    
   X17.9631      Y26.6779      R1.0100    
   X17.8635      Y26.4374      R1.0100    
   X17.7050      Y26.2309      R1.0100    
   X17.4985      Y26.0724      R1.0100    
   X17.2581      Y25.9728      R1.0100    
   X17.0000      Y25.9389      R1.0100    
   X16.7419      Y25.9728      R1.0100    
   X16.5015      Y26.0724      R1.0100    
   X16.2950      Y26.2309      R1.0100    
   X16.1365      Y26.4374      R1.0100    
   X16.0369      Y26.6779      R1.0100    
   X16.0029      Y26.9359      R1.0100    
(Pass: 16)
G1   Z-1.600    
G17 G2   X16.0369      Y27.1940      R1.0100    
   X16.1365      Y27.4345      R1.0100    
   X16.2950      Y27.6409      R1.0100    
   X16.5015      Y27.7994      R1.0100    
   X16.7419      Y27.8990      R1.0100    
   X17.0000      Y27.9330      R1.0100    
   X17.2581      Y27.8990      R1.0100    
   X17.4985      Y27.7994      R1.0100    
   X17.7050      Y27.6409      R1.0100    
   X17.8635      Y27.4345      R1.0100    
   X17.9631      Y27.1940      R1.0100    
   X17.9971      Y26.9359      R1.0100    
   X17.9631      Y26.6779      R1.0100    
   X17.8635      Y26.4374      R1.0100    
   X17.7050      Y26.2309      R1.0100    
   X17.4985      Y26.0724      R1.0100    
   X17.2581      Y25.9728      R1.0100    
   X17.0000      Y25.9389      R1.0100    
   X16.7419      Y25.9728      R1.0100    
   X16.5015      Y26.0724      R1.0100    
   X16.2950      Y26.2309      R1.0100    
   X16.1365      Y26.4374      R1.0100    
   X16.0369      Y26.6779      R1.0100    
   X16.0029      Y26.9359      R1.0100    
(Pass: 17)
G1   Z-1.700    
G17 G2   X16.0369      Y27.1940      R1.0100    
   X16.1365      Y27.4345      R1.0100    
   X16.2950      Y27.6409      R1.0100    
   X16.5015      Y27.7994      R1.0100    
   X16.7419      Y27.8990      R1.0100    
   X17.0000      Y27.9330      R1.0100    
   X17.2581      Y27.8990      R1.0100    
   X17.4985      Y27.7994      R1.0100    
   X17.7050      Y27.6409      R1.0100    
   X17.8635      Y27.4345      R1.0100    
   X17.9631      Y27.1940      R1.0100    
   X17.9971      Y26.9359      R1.0100    
   X17.9631      Y26.6779      R1.0100    
   X17.8635      Y26.4374      R1.0100    
   X17.7050      Y26.2309      R1.0100    
   X17.4985      Y26.0724      R1.0100    
   X17.2581      Y25.9728      R1.0100    
   X17.0000      Y25.9389      R1.0100    
   X16.7419      Y25.9728      R1.0100    
   X16.5015      Y26.0724      R1.0100    
   X16.2950      Y26.2309      R1.0100    
   X16.1365      Y26.4374      R1.0100    
   X16.0369      Y26.6779      R1.0100    
   X16.0029      Y26.9359      R1.0100    
(Pass: 18)
G1   Z-1.800    
G17 G2   X16.0369      Y27.1940      R1.0100    
   X16.1365      Y27.4345      R1.0100    
   X16.2950      Y27.6409      R1.0100    
   X16.5015      Y27.7994      R1.0100    
   X16.7419      Y27.8990      R1.0100    
   X17.0000      Y27.9330      R1.0100    
   X17.2581      Y27.8990      R1.0100    
   X17.4985      Y27.7994      R1.0100    
   X17.7050      Y27.6409      R1.0100    
   X17.8635      Y27.4345      R1.0100    
   X17.9631      Y27.1940      R1.0100    
   X17.9971      Y26.9359      R1.0100    
   X17.9631      Y26.6779      R1.0100    
   X17.8635      Y26.4374      R1.0100    
   X17.7050      Y26.2309      R1.0100    
   X17.4985      Y26.0724      R1.0100    
   X17.2581      Y25.9728      R1.0100    
   X17.0000      Y25.9389      R1.0100    
   X16.7419      Y25.9728      R1.0100    
   X16.5015      Y26.0724      R1.0100    
   X16.2950      Y26.2309      R1.0100    
   X16.1365      Y26.4374      R1.0100    
   X16.0369      Y26.6779      R1.0100    
   X16.0029      Y26.9359      R1.0100    
(Pass: 19)
G1   Z-1.900    
G17 G2   X16.0369      Y27.1940      R1.0100    
   X16.1365      Y27.4345      R1.0100    
   X16.2950      Y27.6409      R1.0100    
   X16.5015      Y27.7994      R1.0100    
   X16.7419      Y27.8990      R1.0100    
   X17.0000      Y27.9330      R1.0100    
   X17.2581      Y27.8990      R1.0100    
   X17.4985      Y27.7994      R1.0100    
   X17.7050      Y27.6409      R1.0100    
   X17.8635      Y27.4345      R1.0100    
   X17.9631      Y27.1940      R1.0100    
   X17.9971      Y26.9359      R1.0100    
   X17.9631      Y26.6779      R1.0100    
   X17.8635      Y26.4374      R1.0100    
   X17.7050      Y26.2309      R1.0100    
   X17.4985      Y26.0724      R1.0100    
   X17.2581      Y25.9728      R1.0100    
   X17.0000      Y25.9389      R1.0100    
   X16.7419      Y25.9728      R1.0100    
   X16.5015      Y26.0724      R1.0100    
   X16.2950      Y26.2309      R1.0100    
   X16.1365      Y26.4374      R1.0100    
   X16.0369      Y26.6779      R1.0100    
   X16.0029      Y26.9359      R1.0100    
(Pass: 20)
G1   Z-2.000    
G17 G2   X16.0369      Y27.1940      R1.0100    
   X16.1365      Y27.4345      R1.0100    
   X16.2950      Y27.6409      R1.0100    
   X16.5015      Y27.7994      R1.0100    
   X16.7419      Y27.8990      R1.0100    
   X17.0000      Y27.9330      R1.0100    
   X17.2581      Y27.8990      R1.0100    
   X17.4985      Y27.7994      R1.0100    
   X17.7050      Y27.6409      R1.0100    
   X17.8635      Y27.4345      R1.0100    
   X17.9631      Y27.1940      R1.0100    
   X17.9971      Y26.9359      R1.0100    
   X17.9631      Y26.6779      R1.0100    
   X17.8635      Y26.4374      R1.0100    
   X17.7050      Y26.2309      R1.0100    
   X17.4985      Y26.0724      R1.0100    
   X17.2581      Y25.9728      R1.0100    
   X17.0000      Y25.9389      R1.0100    
   X16.7419      Y25.9728      R1.0100    
   X16.5015      Y26.0724      R1.0100    
   X16.2950      Y26.2309      R1.0100    
   X16.1365      Y26.4374      R1.0100    
   X16.0369      Y26.6779      R1.0100    
   X16.0029      Y26.9359      R1.0100    
(Pass: 21)
G1   Z-2.100    
G17 G2   X16.0369      Y27.1940      R1.0100    
   X16.1365      Y27.4345      R1.0100    
   X16.2950      Y27.6409      R1.0100    
   X16.5015      Y27.7994      R1.0100    
   X16.7419      Y27.8990      R1.0100    
   X17.0000      Y27.9330      R1.0100    
   X17.2581      Y27.8990      R1.0100    
   X17.4985      Y27.7994      R1.0100    
   X17.7050      Y27.6409      R1.0100    
   X17.8635      Y27.4345      R1.0100    
   X17.9631      Y27.1940      R1.0100    
   X17.9971      Y26.9359      R1.0100    
   X17.9631      Y26.6779      R1.0100    
   X17.8635      Y26.4374      R1.0100    
   X17.7050      Y26.2309      R1.0100    
   X17.4985      Y26.0724      R1.0100    
   X17.2581      Y25.9728      R1.0100    
   X17.0000      Y25.9389      R1.0100    
   X16.7419      Y25.9728      R1.0100    
   X16.5015      Y26.0724      R1.0100    
   X16.2950      Y26.2309      R1.0100    
   X16.1365      Y26.4374      R1.0100    
   X16.0369      Y26.6779      R1.0100    
   X16.0029      Y26.9359      R1.0100    
(Pass: 22)
G1   Z-2.200    
G17 G2   X16.0369      Y27.1940      R1.0100    
   X16.1365      Y27.4345      R1.0100    
   X16.2950      Y27.6409      R1.0100    
   X16.5015      Y27.7994      R1.0100    
   X16.7419      Y27.8990      R1.0100    
   X17.0000      Y27.9330      R1.0100    
   X17.2581      Y27.8990      R1.0100    
   X17.4985      Y27.7994      R1.0100    
   X17.7050      Y27.6409      R1.0100    
   X17.8635      Y27.4345      R1.0100    
   X17.9631      Y27.1940      R1.0100    
   X17.9971      Y26.9359      R1.0100    
   X17.9631      Y26.6779      R1.0100    
   X17.8635      Y26.4374      R1.0100    
   X17.7050      Y26.2309      R1.0100    
   X17.4985      Y26.0724      R1.0100    
   X17.2581      Y25.9728      R1.0100    
   X17.0000      Y25.9389      R1.0100    
   X16.7419      Y25.9728      R1.0100    
   X16.5015      Y26.0724      R1.0100    
   X16.2950      Y26.2309      R1.0100    
   X16.1365      Y26.4374      R1.0100    
   X16.0369      Y26.6779      R1.0100    
   X16.0029      Y26.9359      R1.0100    
(Pass: 23)
G1   Z-2.300    
G17 G2   X16.0369      Y27.1940      R1.0100    
   X16.1365      Y27.4345      R1.0100    
   X16.2950      Y27.6409      R1.0100    
   X16.5015      Y27.7994      R1.0100    
   X16.7419      Y27.8990      R1.0100    
   X17.0000      Y27.9330      R1.0100    
   X17.2581      Y27.8990      R1.0100    
   X17.4985      Y27.7994      R1.0100    
   X17.7050      Y27.6409      R1.0100    
   X17.8635      Y27.4345      R1.0100    
   X17.9631      Y27.1940      R1.0100    
   X17.9971      Y26.9359      R1.0100    
   X17.9631      Y26.6779      R1.0100    
   X17.8635      Y26.4374      R1.0100    
   X17.7050      Y26.2309      R1.0100    
   X17.4985      Y26.0724      R1.0100    
   X17.2581      Y25.9728      R1.0100    
   X17.0000      Y25.9389      R1.0100    
   X16.7419      Y25.9728      R1.0100    
   X16.5015      Y26.0724      R1.0100    
   X16.2950      Y26.2309      R1.0100    
   X16.1365      Y26.4374      R1.0100    
   X16.0369      Y26.6779      R1.0100    
   X16.0029      Y26.9359      R1.0100    
(Pass: 24)
G1   Z-2.400    
G17 G2   X16.0369      Y27.1940      R1.0100    
   X16.1365      Y27.4345      R1.0100    
   X16.2950      Y27.6409      R1.0100    
   X16.5015      Y27.7994      R1.0100    
   X16.7419      Y27.8990      R1.0100    
   X17.0000      Y27.9330      R1.0100    
   X17.2581      Y27.8990      R1.0100    
   X17.4985      Y27.7994      R1.0100    
   X17.7050      Y27.6409      R1.0100    
   X17.8635      Y27.4345      R1.0100    
   X17.9631      Y27.1940      R1.0100    
   X17.9971      Y26.9359      R1.0100    
   X17.9631      Y26.6779      R1.0100    
   X17.8635      Y26.4374      R1.0100    
   X17.7050      Y26.2309      R1.0100    
   X17.4985      Y26.0724      R1.0100    
   X17.2581      Y25.9728      R1.0100    
   X17.0000      Y25.9389      R1.0100    
   X16.7419      Y25.9728      R1.0100    
   X16.5015      Y26.0724      R1.0100    
   X16.2950      Y26.2309      R1.0100    
   X16.1365      Y26.4374      R1.0100    
   X16.0369      Y26.6779      R1.0100    
   X16.0029      Y26.9359      R1.0100    
(Pass: 25)
G1   Z-2.500    
G17 G2   X16.0369      Y27.1940      R1.0100    
   X16.1365      Y27.4345      R1.0100    
   X16.2950      Y27.6409      R1.0100    
   X16.5015      Y27.7994      R1.0100    
   X16.7419      Y27.8990      R1.0100    
   X17.0000      Y27.9330      R1.0100    
   X17.2581      Y27.8990      R1.0100    
   X17.4985      Y27.7994      R1.0100    
   X17.7050      Y27.6409      R1.0100    
   X17.8635      Y27.4345      R1.0100    
   X17.9631      Y27.1940      R1.0100    
   X17.9971      Y26.9359      R1.0100    
   X17.9631      Y26.6779      R1.0100    
   X17.8635      Y26.4374      R1.0100    
   X17.7050      Y26.2309      R1.0100    
   X17.4985      Y26.0724      R1.0100    
   X17.2581      Y25.9728      R1.0100    
   X17.0000      Y25.9389      R1.0100    
   X16.7419      Y25.9728      R1.0100    
   X16.5015      Y26.0724      R1.0100    
   X16.2950      Y26.2309      R1.0100    
   X16.1365      Y26.4374      R1.0100    
   X16.0369      Y26.6779      R1.0100    
   X16.0029      Y26.9359      R1.0100    
(Pass: 26)
G1   Z-2.600    
G17 G2   X16.0369      Y27.1940      R1.0100    
   X16.1365      Y27.4345      R1.0100    
   X16.2950      Y27.6409      R1.0100    
   X16.5015      Y27.7994      R1.0100    
   X16.7419      Y27.8990      R1.0100    
   X17.0000      Y27.9330      R1.0100    
   X17.2581      Y27.8990      R1.0100    
   X17.4985      Y27.7994      R1.0100    
   X17.7050      Y27.6409      R1.0100    
   X17.8635      Y27.4345      R1.0100    
   X17.9631      Y27.1940      R1.0100    
   X17.9971      Y26.9359      R1.0100    
   X17.9631      Y26.6779      R1.0100    
   X17.8635      Y26.4374      R1.0100    
   X17.7050      Y26.2309      R1.0100    
   X17.4985      Y26.0724      R1.0100    
   X17.2581      Y25.9728      R1.0100    
   X17.0000      Y25.9389      R1.0100    
   X16.7419      Y25.9728      R1.0100    
   X16.5015      Y26.0724      R1.0100    
   X16.2950      Y26.2309      R1.0100    
   X16.1365      Y26.4374      R1.0100    
   X16.0369      Y26.6779      R1.0100    
   X16.0029      Y26.9359      R1.0100    
(Pass: 27)
G1   Z-2.700    
G17 G2   X16.0369      Y27.1940      R1.0100    
   X16.1365      Y27.4345      R1.0100    
   X16.2950      Y27.6409      R1.0100    
   X16.5015      Y27.7994      R1.0100    
   X16.7419      Y27.8990      R1.0100    
   X17.0000      Y27.9330      R1.0100    
   X17.2581      Y27.8990      R1.0100    
   X17.4985      Y27.7994      R1.0100    
   X17.7050      Y27.6409      R1.0100    
   X17.8635      Y27.4345      R1.0100    
   X17.9631      Y27.1940      R1.0100    
   X17.9971      Y26.9359      R1.0100    
   X17.9631      Y26.6779      R1.0100    
   X17.8635      Y26.4374      R1.0100    
   X17.7050      Y26.2309      R1.0100    
   X17.4985      Y26.0724      R1.0100    
   X17.2581      Y25.9728      R1.0100    
   X17.0000      Y25.9389      R1.0100    
   X16.7419      Y25.9728      R1.0100    
   X16.5015      Y26.0724      R1.0100    
   X16.2950      Y26.2309      R1.0100    
   X16.1365      Y26.4374      R1.0100    
   X16.0369      Y26.6779      R1.0100    
   X16.0029      Y26.9359      R1.0100    
(Pass: 28)
G1   Z-2.800    
G17 G2   X16.0369      Y27.1940      R1.0100    
   X16.1365      Y27.4345      R1.0100    
   X16.2950      Y27.6409      R1.0100    
   X16.5015      Y27.7994      R1.0100    
   X16.7419      Y27.8990      R1.0100    
   X17.0000      Y27.9330      R1.0100    
   X17.2581      Y27.8990      R1.0100    
   X17.4985      Y27.7994      R1.0100    
   X17.7050      Y27.6409      R1.0100    
   X17.8635      Y27.4345      R1.0100    
   X17.9631      Y27.1940      R1.0100    
   X17.9971      Y26.9359      R1.0100    
   X17.9631      Y26.6779      R1.0100    
   X17.8635      Y26.4374      R1.0100    
   X17.7050      Y26.2309      R1.0100    
   X17.4985      Y26.0724      R1.0100    
   X17.2581      Y25.9728      R1.0100    
   X17.0000      Y25.9389      R1.0100    
   X16.7419      Y25.9728      R1.0100    
   X16.5015      Y26.0724      R1.0100    
   X16.2950      Y26.2309      R1.0100    
   X16.1365      Y26.4374      R1.0100    
   X16.0369      Y26.6779      R1.0100    
   X16.0029      Y26.9359      R1.0100    
(Pass: 29)
G1   Z-2.900    
G17 G2   X16.0369      Y27.1940      R1.0100    
   X16.1365      Y27.4345      R1.0100    
   X16.2950      Y27.6409      R1.0100    
   X16.5015      Y27.7994      R1.0100    
   X16.7419      Y27.8990      R1.0100    
   X17.0000      Y27.9330      R1.0100    
   X17.2581      Y27.8990      R1.0100    
   X17.4985      Y27.7994      R1.0100    
   X17.7050      Y27.6409      R1.0100    
   X17.8635      Y27.4345      R1.0100    
   X17.9631      Y27.1940      R1.0100    
   X17.9971      Y26.9359      R1.0100    
   X17.9631      Y26.6779      R1.0100    
   X17.8635      Y26.4374      R1.0100    
   X17.7050      Y26.2309      R1.0100    
   X17.4985      Y26.0724      R1.0100    
   X17.2581      Y25.9728      R1.0100    
   X17.0000      Y25.9389      R1.0100    
   X16.7419      Y25.9728      R1.0100    
   X16.5015      Y26.0724      R1.0100    
   X16.2950      Y26.2309      R1.0100    
   X16.1365      Y26.4374      R1.0100    
   X16.0369      Y26.6779      R1.0100    
   X16.0029      Y26.9359      R1.0100    
(Pass: 30)
G1   Z-3.000    
G17 G2   X16.0369      Y27.1940      R1.0100    
   X16.1365      Y27.4345      R1.0100    
   X16.2950      Y27.6409      R1.0100    
   X16.5015      Y27.7994      R1.0100    
   X16.7419      Y27.8990      R1.0100    
   X17.0000      Y27.9330      R1.0100    
   X17.2581      Y27.8990      R1.0100    
   X17.4985      Y27.7994      R1.0100    
   X17.7050      Y27.6409      R1.0100    
   X17.8635      Y27.4345      R1.0100    
   X17.9631      Y27.1940      R1.0100    
   X17.9971      Y26.9359      R1.0100    
   X17.9631      Y26.6779      R1.0100    
   X17.8635      Y26.4374      R1.0100    
   X17.7050      Y26.2309      R1.0100    
   X17.4985      Y26.0724      R1.0100    
   X17.2581      Y25.9728      R1.0100    
   X17.0000      Y25.9389      R1.0100    
   X16.7419      Y25.9728      R1.0100    
   X16.5015      Y26.0724      R1.0100    
   X16.2950      Y26.2309      R1.0100    
   X16.1365      Y26.4374      R1.0100    
   X16.0369      Y26.6779      R1.0100    
   X16.0029      Y26.9359      R1.0100    
(Pass: 31)
G1   Z-3.100    
G17 G2   X16.0369      Y27.1940      R1.0100    
   X16.1365      Y27.4345      R1.0100    
   X16.2950      Y27.6409      R1.0100    
   X16.5015      Y27.7994      R1.0100    
   X16.7419      Y27.8990      R1.0100    
   X17.0000      Y27.9330      R1.0100    
   X17.2581      Y27.8990      R1.0100    
   X17.4985      Y27.7994      R1.0100    
   X17.7050      Y27.6409      R1.0100    
   X17.8635      Y27.4345      R1.0100    
   X17.9631      Y27.1940      R1.0100    
   X17.9971      Y26.9359      R1.0100    
   X17.9631      Y26.6779      R1.0100    
   X17.8635      Y26.4374      R1.0100    
   X17.7050      Y26.2309      R1.0100    
   X17.4985      Y26.0724      R1.0100    
   X17.2581      Y25.9728      R1.0100    
   X17.0000      Y25.9389      R1.0100    
   X16.7419      Y25.9728      R1.0100    
   X16.5015      Y26.0724      R1.0100    
   X16.2950      Y26.2309      R1.0100    
   X16.1365      Y26.4374      R1.0100    
   X16.0369      Y26.6779      R1.0100    
   X16.0029      Y26.9359      R1.0100    
(Pass: 32)
G1   Z-3.200    
G17 G2   X16.0369      Y27.1940      R1.0100    
   X16.1365      Y27.4345      R1.0100    
   X16.2950      Y27.6409      R1.0100    
   X16.5015      Y27.7994      R1.0100    
   X16.7419      Y27.8990      R1.0100    
   X17.0000      Y27.9330      R1.0100    
   X17.2581      Y27.8990      R1.0100    
   X17.4985      Y27.7994      R1.0100    
   X17.7050      Y27.6409      R1.0100    
   X17.8635      Y27.4345      R1.0100    
   X17.9631      Y27.1940      R1.0100    
   X17.9971      Y26.9359      R1.0100    
   X17.9631      Y26.6779      R1.0100    
   X17.8635      Y26.4374      R1.0100    
   X17.7050      Y26.2309      R1.0100    
   X17.4985      Y26.0724      R1.0100    
   X17.2581      Y25.9728      R1.0100    
   X17.0000      Y25.9389      R1.0100    
   X16.7419      Y25.9728      R1.0100    
   X16.5015      Y26.0724      R1.0100    
   X16.2950      Y26.2309      R1.0100    
   X16.1365      Y26.4374      R1.0100    
   X16.0369      Y26.6779      R1.0100    
   X16.0029      Y26.9359      R1.0100    
(Pass: 33)
G1   Z-3.300    
G17 G2   X16.0369      Y27.1940      R1.0100    
   X16.1365      Y27.4345      R1.0100    
   X16.2950      Y27.6409      R1.0100    
   X16.5015      Y27.7994      R1.0100    
   X16.7419      Y27.8990      R1.0100    
   X17.0000      Y27.9330      R1.0100    
   X17.2581      Y27.8990      R1.0100    
   X17.4985      Y27.7994      R1.0100    
   X17.7050      Y27.6409      R1.0100    
   X17.8635      Y27.4345      R1.0100    
   X17.9631      Y27.1940      R1.0100    
   X17.9971      Y26.9359      R1.0100    
   X17.9631      Y26.6779      R1.0100    
   X17.8635      Y26.4374      R1.0100    
   X17.7050      Y26.2309      R1.0100    
   X17.4985      Y26.0724      R1.0100    
   X17.2581      Y25.9728      R1.0100    
   X17.0000      Y25.9389      R1.0100    
   X16.7419      Y25.9728      R1.0100    
   X16.5015      Y26.0724      R1.0100    
   X16.2950      Y26.2309      R1.0100    
   X16.1365      Y26.4374      R1.0100    
   X16.0369      Y26.6779      R1.0100    
   X16.0029      Y26.9359      R1.0100    
(Pass: 34)
G1   Z-3.400    
G17 G2   X16.0369      Y27.1940      R1.0100    
   X16.1365      Y27.4345      R1.0100    
   X16.2950      Y27.6409      R1.0100    
   X16.5015      Y27.7994      R1.0100    
   X16.7419      Y27.8990      R1.0100    
   X17.0000      Y27.9330      R1.0100    
   X17.2581      Y27.8990      R1.0100    
   X17.4985      Y27.7994      R1.0100    
   X17.7050      Y27.6409      R1.0100    
   X17.8635      Y27.4345      R1.0100    
   X17.9631      Y27.1940      R1.0100    
   X17.9971      Y26.9359      R1.0100    
   X17.9631      Y26.6779      R1.0100    
   X17.8635      Y26.4374      R1.0100    
   X17.7050      Y26.2309      R1.0100    
   X17.4985      Y26.0724      R1.0100    
   X17.2581      Y25.9728      R1.0100    
   X17.0000      Y25.9389      R1.0100    
   X16.7419      Y25.9728      R1.0100    
   X16.5015      Y26.0724      R1.0100    
   X16.2950      Y26.2309      R1.0100    
   X16.1365      Y26.4374      R1.0100    
   X16.0369      Y26.6779      R1.0100    
   X16.0029      Y26.9359      R1.0100    
(Pass: 35)
G1   Z-3.500    
G17 G2   X16.0369      Y27.1940      R1.0100    
   X16.1365      Y27.4345      R1.0100    
   X16.2950      Y27.6409      R1.0100    
   X16.5015      Y27.7994      R1.0100    
   X16.7419      Y27.8990      R1.0100    
   X17.0000      Y27.9330      R1.0100    
   X17.2581      Y27.8990      R1.0100    
   X17.4985      Y27.7994      R1.0100    
   X17.7050      Y27.6409      R1.0100    
   X17.8635      Y27.4345      R1.0100    
   X17.9631      Y27.1940      R1.0100    
   X17.9971      Y26.9359      R1.0100    
   X17.9631      Y26.6779      R1.0100    
   X17.8635      Y26.4374      R1.0100    
   X17.7050      Y26.2309      R1.0100    
   X17.4985      Y26.0724      R1.0100    
   X17.2581      Y25.9728      R1.0100    
   X17.0000      Y25.9389      R1.0100    
   X16.7419      Y25.9728      R1.0100    
   X16.5015      Y26.0724      R1.0100    
   X16.2950      Y26.2309      R1.0100    
   X16.1365      Y26.4374      R1.0100    
   X16.0369      Y26.6779      R1.0100    
   X16.0029      Y26.9359      R1.0100    
G0   Z5.000     
(Pass: 1)
   X26.003    
G1   Z-0.100     F400 
G17 G2   X26.0369      Y27.1940      R1.0100    
   X26.1365      Y27.4345      R1.0100    
   X26.2950      Y27.6409      R1.0100    
   X26.5015      Y27.7994      R1.0100    
   X26.7419      Y27.8990      R1.0100    
   X27.0000      Y27.9330      R1.0100    
   X27.2581      Y27.8990      R1.0100    
   X27.4985      Y27.7994      R1.0100    
   X27.7050      Y27.6409      R1.0100    
   X27.8635      Y27.4345      R1.0100    
   X27.9631      Y27.1940      R1.0100    
   X27.9971      Y26.9359      R1.0100    
   X27.9631      Y26.6779      R1.0100    
   X27.8635      Y26.4374      R1.0100    
   X27.7050      Y26.2309      R1.0100    
   X27.4985      Y26.0724      R1.0100    
   X27.2581      Y25.9728      R1.0100    
   X27.0000      Y25.9389      R1.0100    
   X26.7419      Y25.9728      R1.0100    
   X26.5015      Y26.0724      R1.0100    
   X26.2950      Y26.2309      R1.0100    
   X26.1365      Y26.4374      R1.0100    
   X26.0369      Y26.6779      R1.0100    
   X26.0029      Y26.9359      R1.0100    
(Pass: 2)
G1   Z-0.200    
G17 G2   X26.0369      Y27.1940      R1.0100    
   X26.1365      Y27.4345      R1.0100    
   X26.2950      Y27.6409      R1.0100    
   X26.5015      Y27.7994      R1.0100    
   X26.7419      Y27.8990      R1.0100    
   X27.0000      Y27.9330      R1.0100    
   X27.2581      Y27.8990      R1.0100    
   X27.4985      Y27.7994      R1.0100    
   X27.7050      Y27.6409      R1.0100    
   X27.8635      Y27.4345      R1.0100    
   X27.9631      Y27.1940      R1.0100    
   X27.9971      Y26.9359      R1.0100    
   X27.9631      Y26.6779      R1.0100    
   X27.8635      Y26.4374      R1.0100    
   X27.7050      Y26.2309      R1.0100    
   X27.4985      Y26.0724      R1.0100    
   X27.2581      Y25.9728      R1.0100    
   X27.0000      Y25.9389      R1.0100    
   X26.7419      Y25.9728      R1.0100    
   X26.5015      Y26.0724      R1.0100    
   X26.2950      Y26.2309      R1.0100    
   X26.1365      Y26.4374      R1.0100    
   X26.0369      Y26.6779      R1.0100    
   X26.0029      Y26.9359      R1.0100    
(Pass: 3)
G1   Z-0.300    
G17 G2   X26.0369      Y27.1940      R1.0100    
   X26.1365      Y27.4345      R1.0100    
   X26.2950      Y27.6409      R1.0100    
   X26.5015      Y27.7994      R1.0100    
   X26.7419      Y27.8990      R1.0100    
   X27.0000      Y27.9330      R1.0100    
   X27.2581      Y27.8990      R1.0100    
   X27.4985      Y27.7994      R1.0100    
   X27.7050      Y27.6409      R1.0100    
   X27.8635      Y27.4345      R1.0100    
   X27.9631      Y27.1940      R1.0100    
   X27.9971      Y26.9359      R1.0100    
   X27.9631      Y26.6779      R1.0100    
   X27.8635      Y26.4374      R1.0100    
   X27.7050      Y26.2309      R1.0100    
   X27.4985      Y26.0724      R1.0100    
   X27.2581      Y25.9728      R1.0100    
   X27.0000      Y25.9389      R1.0100    
   X26.7419      Y25.9728      R1.0100    
   X26.5015      Y26.0724      R1.0100    
   X26.2950      Y26.2309      R1.0100    
   X26.1365      Y26.4374      R1.0100    
   X26.0369      Y26.6779      R1.0100    
   X26.0029      Y26.9359      R1.0100    
(Pass: 4)
G1   Z-0.400    
G17 G2   X26.0369      Y27.1940      R1.0100    
   X26.1365      Y27.4345      R1.0100    
   X26.2950      Y27.6409      R1.0100    
   X26.5015      Y27.7994      R1.0100    
   X26.7419      Y27.8990      R1.0100    
   X27.0000      Y27.9330      R1.0100    
   X27.2581      Y27.8990      R1.0100    
   X27.4985      Y27.7994      R1.0100    
   X27.7050      Y27.6409      R1.0100    
   X27.8635      Y27.4345      R1.0100    
   X27.9631      Y27.1940      R1.0100    
   X27.9971      Y26.9359      R1.0100    
   X27.9631      Y26.6779      R1.0100    
   X27.8635      Y26.4374      R1.0100    
   X27.7050      Y26.2309      R1.0100    
   X27.4985      Y26.0724      R1.0100    
   X27.2581      Y25.9728      R1.0100    
   X27.0000      Y25.9389      R1.0100    
   X26.7419      Y25.9728      R1.0100    
   X26.5015      Y26.0724      R1.0100    
   X26.2950      Y26.2309      R1.0100    
   X26.1365      Y26.4374      R1.0100    
   X26.0369      Y26.6779      R1.0100    
   X26.0029      Y26.9359      R1.0100    
(Pass: 5)
G1   Z-0.500    
G17 G2   X26.0369      Y27.1940      R1.0100    
   X26.1365      Y27.4345      R1.0100    
   X26.2950      Y27.6409      R1.0100    
   X26.5015      Y27.7994      R1.0100    
   X26.7419      Y27.8990      R1.0100    
   X27.0000      Y27.9330      R1.0100    
   X27.2581      Y27.8990      R1.0100    
   X27.4985      Y27.7994      R1.0100    
   X27.7050      Y27.6409      R1.0100    
   X27.8635      Y27.4345      R1.0100    
   X27.9631      Y27.1940      R1.0100    
   X27.9971      Y26.9359      R1.0100    
   X27.9631      Y26.6779      R1.0100    
   X27.8635      Y26.4374      R1.0100    
   X27.7050      Y26.2309      R1.0100    
   X27.4985      Y26.0724      R1.0100    
   X27.2581      Y25.9728      R1.0100    
   X27.0000      Y25.9389      R1.0100    
   X26.7419      Y25.9728      R1.0100    
   X26.5015      Y26.0724      R1.0100    
   X26.2950      Y26.2309      R1.0100    
   X26.1365      Y26.4374      R1.0100    
   X26.0369      Y26.6779      R1.0100    
   X26.0029      Y26.9359      R1.0100    
(Pass: 6)
G1   Z-0.600    
G17 G2   X26.0369      Y27.1940      R1.0100    
   X26.1365      Y27.4345      R1.0100    
   X26.2950      Y27.6409      R1.0100    
   X26.5015      Y27.7994      R1.0100    
   X26.7419      Y27.8990      R1.0100    
   X27.0000      Y27.9330      R1.0100    
   X27.2581      Y27.8990      R1.0100    
   X27.4985      Y27.7994      R1.0100    
   X27.7050      Y27.6409      R1.0100    
   X27.8635      Y27.4345      R1.0100    
   X27.9631      Y27.1940      R1.0100    
   X27.9971      Y26.9359      R1.0100    
   X27.9631      Y26.6779      R1.0100    
   X27.8635      Y26.4374      R1.0100    
   X27.7050      Y26.2309      R1.0100    
   X27.4985      Y26.0724      R1.0100    
   X27.2581      Y25.9728      R1.0100    
   X27.0000      Y25.9389      R1.0100    
   X26.7419      Y25.9728      R1.0100    
   X26.5015      Y26.0724      R1.0100    
   X26.2950      Y26.2309      R1.0100    
   X26.1365      Y26.4374      R1.0100    
   X26.0369      Y26.6779      R1.0100    
   X26.0029      Y26.9359      R1.0100    
(Pass: 7)
G1   Z-0.700    
G17 G2   X26.0369      Y27.1940      R1.0100    
   X26.1365      Y27.4345      R1.0100    
   X26.2950      Y27.6409      R1.0100    
   X26.5015      Y27.7994      R1.0100    
   X26.7419      Y27.8990      R1.0100    
   X27.0000      Y27.9330      R1.0100    
   X27.2581      Y27.8990      R1.0100    
   X27.4985      Y27.7994      R1.0100    
   X27.7050      Y27.6409      R1.0100    
   X27.8635      Y27.4345      R1.0100    
   X27.9631      Y27.1940      R1.0100    
   X27.9971      Y26.9359      R1.0100    
   X27.9631      Y26.6779      R1.0100    
   X27.8635      Y26.4374      R1.0100    
   X27.7050      Y26.2309      R1.0100    
   X27.4985      Y26.0724      R1.0100    
   X27.2581      Y25.9728      R1.0100    
   X27.0000      Y25.9389      R1.0100    
   X26.7419      Y25.9728      R1.0100    
   X26.5015      Y26.0724      R1.0100    
   X26.2950      Y26.2309      R1.0100    
   X26.1365      Y26.4374      R1.0100    
   X26.0369      Y26.6779      R1.0100    
   X26.0029      Y26.9359      R1.0100    
(Pass: 8)
G1   Z-0.800    
G17 G2   X26.0369      Y27.1940      R1.0100    
   X26.1365      Y27.4345      R1.0100    
   X26.2950      Y27.6409      R1.0100    
   X26.5015      Y27.7994      R1.0100    
   X26.7419      Y27.8990      R1.0100    
   X27.0000      Y27.9330      R1.0100    
   X27.2581      Y27.8990      R1.0100    
   X27.4985      Y27.7994      R1.0100    
   X27.7050      Y27.6409      R1.0100    
   X27.8635      Y27.4345      R1.0100    
   X27.9631      Y27.1940      R1.0100    
   X27.9971      Y26.9359      R1.0100    
   X27.9631      Y26.6779      R1.0100    
   X27.8635      Y26.4374      R1.0100    
   X27.7050      Y26.2309      R1.0100    
   X27.4985      Y26.0724      R1.0100    
   X27.2581      Y25.9728      R1.0100    
   X27.0000      Y25.9389      R1.0100    
   X26.7419      Y25.9728      R1.0100    
   X26.5015      Y26.0724      R1.0100    
   X26.2950      Y26.2309      R1.0100    
   X26.1365      Y26.4374      R1.0100    
   X26.0369      Y26.6779      R1.0100    
   X26.0029      Y26.9359      R1.0100    
(Pass: 9)
G1   Z-0.900    
G17 G2   X26.0369      Y27.1940      R1.0100    
   X26.1365      Y27.4345      R1.0100    
   X26.2950      Y27.6409      R1.0100    
   X26.5015      Y27.7994      R1.0100    
   X26.7419      Y27.8990      R1.0100    
   X27.0000      Y27.9330      R1.0100    
   X27.2581      Y27.8990      R1.0100    
   X27.4985      Y27.7994      R1.0100    
   X27.7050      Y27.6409      R1.0100    
   X27.8635      Y27.4345      R1.0100    
   X27.9631      Y27.1940      R1.0100    
   X27.9971      Y26.9359      R1.0100    
   X27.9631      Y26.6779      R1.0100    
   X27.8635      Y26.4374      R1.0100    
   X27.7050      Y26.2309      R1.0100    
   X27.4985      Y26.0724      R1.0100    
   X27.2581      Y25.9728      R1.0100    
   X27.0000      Y25.9389      R1.0100    
   X26.7419      Y25.9728      R1.0100    
   X26.5015      Y26.0724      R1.0100    
   X26.2950      Y26.2309      R1.0100    
   X26.1365      Y26.4374      R1.0100    
   X26.0369      Y26.6779      R1.0100    
   X26.0029      Y26.9359      R1.0100    
(Pass: 10)
G1   Z-1.000    
G17 G2   X26.0369      Y27.1940      R1.0100    
   X26.1365      Y27.4345      R1.0100    
   X26.2950      Y27.6409      R1.0100    
   X26.5015      Y27.7994      R1.0100    
   X26.7419      Y27.8990      R1.0100    
   X27.0000      Y27.9330      R1.0100    
   X27.2581      Y27.8990      R1.0100    
   X27.4985      Y27.7994      R1.0100    
   X27.7050      Y27.6409      R1.0100    
   X27.8635      Y27.4345      R1.0100    
   X27.9631      Y27.1940      R1.0100    
   X27.9971      Y26.9359      R1.0100    
   X27.9631      Y26.6779      R1.0100    
   X27.8635      Y26.4374      R1.0100    
   X27.7050      Y26.2309      R1.0100    
   X27.4985      Y26.0724      R1.0100    
   X27.2581      Y25.9728      R1.0100    
   X27.0000      Y25.9389      R1.0100    
   X26.7419      Y25.9728      R1.0100    
   X26.5015      Y26.0724      R1.0100    
   X26.2950      Y26.2309      R1.0100    
   X26.1365      Y26.4374      R1.0100    
   X26.0369      Y26.6779      R1.0100    
   X26.0029      Y26.9359      R1.0100    
(Pass: 11)
G1   Z-1.100    
G17 G2   X26.0369      Y27.1940      R1.0100    
   X26.1365      Y27.4345      R1.0100    
   X26.2950      Y27.6409      R1.0100    
   X26.5015      Y27.7994      R1.0100    
   X26.7419      Y27.8990      R1.0100    
   X27.0000      Y27.9330      R1.0100    
   X27.2581      Y27.8990      R1.0100    
   X27.4985      Y27.7994      R1.0100    
   X27.7050      Y27.6409      R1.0100    
   X27.8635      Y27.4345      R1.0100    
   X27.9631      Y27.1940      R1.0100    
   X27.9971      Y26.9359      R1.0100    
   X27.9631      Y26.6779      R1.0100    
   X27.8635      Y26.4374      R1.0100    
   X27.7050      Y26.2309      R1.0100    
   X27.4985      Y26.0724      R1.0100    
   X27.2581      Y25.9728      R1.0100    
   X27.0000      Y25.9389      R1.0100    
   X26.7419      Y25.9728      R1.0100    
   X26.5015      Y26.0724      R1.0100    
   X26.2950      Y26.2309      R1.0100    
   X26.1365      Y26.4374      R1.0100    
   X26.0369      Y26.6779      R1.0100    
   X26.0029      Y26.9359      R1.0100    
(Pass: 12)
G1   Z-1.200    
G17 G2   X26.0369      Y27.1940      R1.0100    
   X26.1365      Y27.4345      R1.0100    
   X26.2950      Y27.6409      R1.0100    
   X26.5015      Y27.7994      R1.0100    
   X26.7419      Y27.8990      R1.0100    
   X27.0000      Y27.9330      R1.0100    
   X27.2581      Y27.8990      R1.0100    
   X27.4985      Y27.7994      R1.0100    
   X27.7050      Y27.6409      R1.0100    
   X27.8635      Y27.4345      R1.0100    
   X27.9631      Y27.1940      R1.0100    
   X27.9971      Y26.9359      R1.0100    
   X27.9631      Y26.6779      R1.0100    
   X27.8635      Y26.4374      R1.0100    
   X27.7050      Y26.2309      R1.0100    
   X27.4985      Y26.0724      R1.0100    
   X27.2581      Y25.9728      R1.0100    
   X27.0000      Y25.9389      R1.0100    
   X26.7419      Y25.9728      R1.0100    
   X26.5015      Y26.0724      R1.0100    
   X26.2950      Y26.2309      R1.0100    
   X26.1365      Y26.4374      R1.0100    
   X26.0369      Y26.6779      R1.0100    
   X26.0029      Y26.9359      R1.0100    
(Pass: 13)
G1   Z-1.300    
G17 G2   X26.0369      Y27.1940      R1.0100    
   X26.1365      Y27.4345      R1.0100    
   X26.2950      Y27.6409      R1.0100    
   X26.5015      Y27.7994      R1.0100    
   X26.7419      Y27.8990      R1.0100    
   X27.0000      Y27.9330      R1.0100    
   X27.2581      Y27.8990      R1.0100    
   X27.4985      Y27.7994      R1.0100    
   X27.7050      Y27.6409      R1.0100    
   X27.8635      Y27.4345      R1.0100    
   X27.9631      Y27.1940      R1.0100    
   X27.9971      Y26.9359      R1.0100    
   X27.9631      Y26.6779      R1.0100    
   X27.8635      Y26.4374      R1.0100    
   X27.7050      Y26.2309      R1.0100    
   X27.4985      Y26.0724      R1.0100    
   X27.2581      Y25.9728      R1.0100    
   X27.0000      Y25.9389      R1.0100    
   X26.7419      Y25.9728      R1.0100    
   X26.5015      Y26.0724      R1.0100    
   X26.2950      Y26.2309      R1.0100    
   X26.1365      Y26.4374      R1.0100    
   X26.0369      Y26.6779      R1.0100    
   X26.0029      Y26.9359      R1.0100    
(Pass: 14)
G1   Z-1.400    
G17 G2   X26.0369      Y27.1940      R1.0100    
   X26.1365      Y27.4345      R1.0100    
   X26.2950      Y27.6409      R1.0100    
   X26.5015      Y27.7994      R1.0100    
   X26.7419      Y27.8990      R1.0100    
   X27.0000      Y27.9330      R1.0100    
   X27.2581      Y27.8990      R1.0100    
   X27.4985      Y27.7994      R1.0100    
   X27.7050      Y27.6409      R1.0100    
   X27.8635      Y27.4345      R1.0100    
   X27.9631      Y27.1940      R1.0100    
   X27.9971      Y26.9359      R1.0100    
   X27.9631      Y26.6779      R1.0100    
   X27.8635      Y26.4374      R1.0100    
   X27.7050      Y26.2309      R1.0100    
   X27.4985      Y26.0724      R1.0100    
   X27.2581      Y25.9728      R1.0100    
   X27.0000      Y25.9389      R1.0100    
   X26.7419      Y25.9728      R1.0100    
   X26.5015      Y26.0724      R1.0100    
   X26.2950      Y26.2309      R1.0100    
   X26.1365      Y26.4374      R1.0100    
   X26.0369      Y26.6779      R1.0100    
   X26.0029      Y26.9359      R1.0100    
(Pass: 15)
G1   Z-1.500    
G17 G2   X26.0369      Y27.1940      R1.0100    
   X26.1365      Y27.4345      R1.0100    
   X26.2950      Y27.6409      R1.0100    
   X26.5015      Y27.7994      R1.0100    
   X26.7419      Y27.8990      R1.0100    
   X27.0000      Y27.9330      R1.0100    
   X27.2581      Y27.8990      R1.0100    
   X27.4985      Y27.7994      R1.0100    
   X27.7050      Y27.6409      R1.0100    
   X27.8635      Y27.4345      R1.0100    
   X27.9631      Y27.1940      R1.0100    
   X27.9971      Y26.9359      R1.0100    
   X27.9631      Y26.6779      R1.0100    
   X27.8635      Y26.4374      R1.0100    
   X27.7050      Y26.2309      R1.0100    
   X27.4985      Y26.0724      R1.0100    
   X27.2581      Y25.9728      R1.0100    
   X27.0000      Y25.9389      R1.0100    
   X26.7419      Y25.9728      R1.0100    
   X26.5015      Y26.0724      R1.0100    
   X26.2950      Y26.2309      R1.0100    
   X26.1365      Y26.4374      R1.0100    
   X26.0369      Y26.6779      R1.0100    
   X26.0029      Y26.9359      R1.0100    
(Pass: 16)
G1   Z-1.600    
G17 G2   X26.0369      Y27.1940      R1.0100    
   X26.1365      Y27.4345      R1.0100    
   X26.2950      Y27.6409      R1.0100    
   X26.5015      Y27.7994      R1.0100    
   X26.7419      Y27.8990      R1.0100    
   X27.0000      Y27.9330      R1.0100    
   X27.2581      Y27.8990      R1.0100    
   X27.4985      Y27.7994      R1.0100    
   X27.7050      Y27.6409      R1.0100    
   X27.8635      Y27.4345      R1.0100    
   X27.9631      Y27.1940      R1.0100    
   X27.9971      Y26.9359      R1.0100    
   X27.9631      Y26.6779      R1.0100    
   X27.8635      Y26.4374      R1.0100    
   X27.7050      Y26.2309      R1.0100    
   X27.4985      Y26.0724      R1.0100    
   X27.2581      Y25.9728      R1.0100    
   X27.0000      Y25.9389      R1.0100    
   X26.7419      Y25.9728      R1.0100    
   X26.5015      Y26.0724      R1.0100    
   X26.2950      Y26.2309      R1.0100    
   X26.1365      Y26.4374      R1.0100    
   X26.0369      Y26.6779      R1.0100    
   X26.0029      Y26.9359      R1.0100    
(Pass: 17)
G1   Z-1.700    
G17 G2   X26.0369      Y27.1940      R1.0100    
   X26.1365      Y27.4345      R1.0100    
   X26.2950      Y27.6409      R1.0100    
   X26.5015      Y27.7994      R1.0100    
   X26.7419      Y27.8990      R1.0100    
   X27.0000      Y27.9330      R1.0100    
   X27.2581      Y27.8990      R1.0100    
   X27.4985      Y27.7994      R1.0100    
   X27.7050      Y27.6409      R1.0100    
   X27.8635      Y27.4345      R1.0100    
   X27.9631      Y27.1940      R1.0100    
   X27.9971      Y26.9359      R1.0100    
   X27.9631      Y26.6779      R1.0100    
   X27.8635      Y26.4374      R1.0100    
   X27.7050      Y26.2309      R1.0100    
   X27.4985      Y26.0724      R1.0100    
   X27.2581      Y25.9728      R1.0100    
