%
(Generated by SketchUcam {1.2})
(Bit diameter: 1.5mm)
(Feed rate: 300.0mm/min)
(Material Thickness: 3.3mm)
(Material length: 300.0mm X width: 600.0mm)
(Overhead Gantry: true)
(Retract feed rate NOT limited to plunge feed rate)
(Multipass enabled, Depth = 0.1mm)
(Optimization is ON)
(www.PhlatBoyz.com)
G90 G21 G49 
M3 S11000
G0   Z5.000     
(Pass: 1)
   X27.202       Y10.231    
G1   Z-0.100     F300 
G17 G2   X27.1061      Y10.9589      R2.8185    
   X27.2019      Y11.6867      R2.8185    
   X27.4829      Y12.3649      R2.8185    
   X27.9297      Y12.9473      R2.8185    
   X28.5121      Y13.3942      R2.8185    
   X29.1903      Y13.6751      R2.8185    
   X29.9181      Y13.7709      R2.8185    
   X30.6460      Y13.6751      R2.8185    
   X31.3242      Y13.3942      R2.8185    
   X31.9066      Y12.9473      R2.8185    
   X32.3534      Y12.3649      R2.8185    
   X32.6344      Y11.6867      R2.8185    
   X32.7302      Y10.9589      R2.8185    
   X32.6344      Y10.2311      R2.8185    
   X32.3534      Y9.5529       R2.8185    
   X31.9066      Y8.9705       R2.8185    
   X31.3242      Y8.5236       R2.8185    
   X30.6460      Y8.2427       R2.8185    
   X29.9181      Y8.1468       R2.8185    
   X29.1903      Y8.2427       R2.8185    
   X28.5121      Y8.5236       R2.8185    
   X27.9297      Y8.9705       R2.8185    
   X27.4829      Y9.5529       R2.8185    
   X27.2019      Y10.2311      R2.8185    
(Pass: 2)
G1   Z-0.200    
G17 G2   X27.1061      Y10.9589      R2.8185    
   X27.2019      Y11.6867      R2.8185    
   X27.4829      Y12.3649      R2.8185    
   X27.9297      Y12.9473      R2.8185    
   X28.5121      Y13.3942      R2.8185    
   X29.1903      Y13.6751      R2.8185    
   X29.9181      Y13.7709      R2.8185    
   X30.6460      Y13.6751      R2.8185    
   X31.3242      Y13.3942      R2.8185    
   X31.9066      Y12.9473      R2.8185    
   X32.3534      Y12.3649      R2.8185    
   X32.6344      Y11.6867      R2.8185    
   X32.7302      Y10.9589      R2.8185    
   X32.6344      Y10.2311      R2.8185    
   X32.3534      Y9.5529       R2.8185    
   X31.9066      Y8.9705       R2.8185    
   X31.3242      Y8.5236       R2.8185    
   X30.6460      Y8.2427       R2.8185    
   X29.9181      Y8.1468       R2.8185    
   X29.1903      Y8.2427       R2.8185    
   X28.5121      Y8.5236       R2.8185    
   X27.9297      Y8.9705       R2.8185    
   X27.4829      Y9.5529       R2.8185    
   X27.2019      Y10.2311      R2.8185    
(Pass: 3)
G1   Z-0.300    
G17 G2   X27.1061      Y10.9589      R2.8185    
   X27.2019      Y11.6867      R2.8185    
   X27.4829      Y12.3649      R2.8185    
   X27.9297      Y12.9473      R2.8185    
   X28.5121      Y13.3942      R2.8185    
   X29.1903      Y13.6751      R2.8185    
   X29.9181      Y13.7709      R2.8185    
   X30.6460      Y13.6751      R2.8185    
   X31.3242      Y13.3942      R2.8185    
   X31.9066      Y12.9473      R2.8185    
   X32.3534      Y12.3649      R2.8185    
   X32.6344      Y11.6867      R2.8185    
   X32.7302      Y10.9589      R2.8185    
   X32.6344      Y10.2311      R2.8185    
   X32.3534      Y9.5529       R2.8185    
   X31.9066      Y8.9705       R2.8185    
   X31.3242      Y8.5236       R2.8185    
   X30.6460      Y8.2427       R2.8185    
   X29.9181      Y8.1468       R2.8185    
   X29.1903      Y8.2427       R2.8185    
   X28.5121      Y8.5236       R2.8185    
   X27.9297      Y8.9705       R2.8185    
   X27.4829      Y9.5529       R2.8185    
   X27.2019      Y10.2311      R2.8185    
(Pass: 4)
G1   Z-0.400    
G17 G2   X27.1061      Y10.9589      R2.8185    
   X27.2019      Y11.6867      R2.8185    
   X27.4829      Y12.3649      R2.8185    
   X27.9297      Y12.9473      R2.8185    
   X28.5121      Y13.3942      R2.8185    
   X29.1903      Y13.6751      R2.8185    
   X29.9181      Y13.7709      R2.8185    
   X30.6460      Y13.6751      R2.8185    
   X31.3242      Y13.3942      R2.8185    
   X31.9066      Y12.9473      R2.8185    
   X32.3534      Y12.3649      R2.8185    
   X32.6344      Y11.6867      R2.8185    
   X32.7302      Y10.9589      R2.8185    
   X32.6344      Y10.2311      R2.8185    
   X32.3534      Y9.5529       R2.8185    
   X31.9066      Y8.9705       R2.8185    
   X31.3242      Y8.5236       R2.8185    
   X30.6460      Y8.2427       R2.8185    
   X29.9181      Y8.1468       R2.8185    
   X29.1903      Y8.2427       R2.8185    
   X28.5121      Y8.5236       R2.8185    
   X27.9297      Y8.9705       R2.8185    
   X27.4829      Y9.5529       R2.8185    
   X27.2019      Y10.2311      R2.8185    
(Pass: 5)
G1   Z-0.500    
G17 G2   X27.1061      Y10.9589      R2.8185    
   X27.2019      Y11.6867      R2.8185    
   X27.4829      Y12.3649      R2.8185    
   X27.9297      Y12.9473      R2.8185    
   X28.5121      Y13.3942      R2.8185    
   X29.1903      Y13.6751      R2.8185    
   X29.9181      Y13.7709      R2.8185    
   X30.6460      Y13.6751      R2.8185    
   X31.3242      Y13.3942      R2.8185    
   X31.9066      Y12.9473      R2.8185    
   X32.3534      Y12.3649      R2.8185    
   X32.6344      Y11.6867      R2.8185    
   X32.7302      Y10.9589      R2.8185    
   X32.6344      Y10.2311      R2.8185    
   X32.3534      Y9.5529       R2.8185    
   X31.9066      Y8.9705       R2.8185    
   X31.3242      Y8.5236       R2.8185    
   X30.6460      Y8.2427       R2.8185    
   X29.9181      Y8.1468       R2.8185    
   X29.1903      Y8.2427       R2.8185    
   X28.5121      Y8.5236       R2.8185    
   X27.9297      Y8.9705       R2.8185    
   X27.4829      Y9.5529       R2.8185    
   X27.2019      Y10.2311      R2.8185    
(Pass: 6)
G1   Z-0.600    
G17 G2   X27.1061      Y10.9589      R2.8185    
   X27.2019      Y11.6867      R2.8185    
   X27.4829      Y12.3649      R2.8185    
   X27.9297      Y12.9473      R2.8185    
   X28.5121      Y13.3942      R2.8185    
   X29.1903      Y13.6751      R2.8185    
   X29.9181      Y13.7709      R2.8185    
   X30.6460      Y13.6751      R2.8185    
   X31.3242      Y13.3942      R2.8185    
   X31.9066      Y12.9473      R2.8185    
   X32.3534      Y12.3649      R2.8185    
   X32.6344      Y11.6867      R2.8185    
   X32.7302      Y10.9589      R2.8185    
   X32.6344      Y10.2311      R2.8185    
   X32.3534      Y9.5529       R2.8185    
   X31.9066      Y8.9705       R2.8185    
   X31.3242      Y8.5236       R2.8185    
   X30.6460      Y8.2427       R2.8185    
   X29.9181      Y8.1468       R2.8185    
   X29.1903      Y8.2427       R2.8185    
   X28.5121      Y8.5236       R2.8185    
   X27.9297      Y8.9705       R2.8185    
   X27.4829      Y9.5529       R2.8185    
   X27.2019      Y10.2311      R2.8185    
(Pass: 7)
G1   Z-0.700    
G17 G2   X27.1061      Y10.9589      R2.8185    
   X27.2019      Y11.6867      R2.8185    
   X27.4829      Y12.3649      R2.8185    
   X27.9297      Y12.9473      R2.8185    
   X28.5121      Y13.3942      R2.8185    
   X29.1903      Y13.6751      R2.8185    
   X29.9181      Y13.7709      R2.8185    
   X30.6460      Y13.6751      R2.8185    
   X31.3242      Y13.3942      R2.8185    
   X31.9066      Y12.9473      R2.8185    
   X32.3534      Y12.3649      R2.8185    
   X32.6344      Y11.6867      R2.8185    
   X32.7302      Y10.9589      R2.8185    
   X32.6344      Y10.2311      R2.8185    
   X32.3534      Y9.5529       R2.8185    
   X31.9066      Y8.9705       R2.8185    
   X31.3242      Y8.5236       R2.8185    
   X30.6460      Y8.2427       R2.8185    
   X29.9181      Y8.1468       R2.8185    
   X29.1903      Y8.2427       R2.8185    
   X28.5121      Y8.5236       R2.8185    
   X27.9297      Y8.9705       R2.8185    
   X27.4829      Y9.5529       R2.8185    
   X27.2019      Y10.2311      R2.8185    
(Pass: 8)
G1   Z-0.800    
G17 G2   X27.1061      Y10.9589      R2.8185    
   X27.2019      Y11.6867      R2.8185    
   X27.4829      Y12.3649      R2.8185    
   X27.9297      Y12.9473      R2.8185    
   X28.5121      Y13.3942      R2.8185    
   X29.1903      Y13.6751      R2.8185    
   X29.9181      Y13.7709      R2.8185    
   X30.6460      Y13.6751      R2.8185    
   X31.3242      Y13.3942      R2.8185    
   X31.9066      Y12.9473      R2.8185    
   X32.3534      Y12.3649      R2.8185    
   X32.6344      Y11.6867      R2.8185    
   X32.7302      Y10.9589      R2.8185    
   X32.6344      Y10.2311      R2.8185    
   X32.3534      Y9.5529       R2.8185    
   X31.9066      Y8.9705       R2.8185    
   X31.3242      Y8.5236       R2.8185    
   X30.6460      Y8.2427       R2.8185    
   X29.9181      Y8.1468       R2.8185    
   X29.1903      Y8.2427       R2.8185    
   X28.5121      Y8.5236       R2.8185    
   X27.9297      Y8.9705       R2.8185    
   X27.4829      Y9.5529       R2.8185    
   X27.2019      Y10.2311      R2.8185    
(Pass: 9)
G1   Z-0.900    
G17 G2   X27.1061      Y10.9589      R2.8185    
   X27.2019      Y11.6867      R2.8185    
   X27.4829      Y12.3649      R2.8185    
   X27.9297      Y12.9473      R2.8185    
   X28.5121      Y13.3942      R2.8185    
   X29.1903      Y13.6751      R2.8185    
   X29.9181      Y13.7709      R2.8185    
   X30.6460      Y13.6751      R2.8185    
   X31.3242      Y13.3942      R2.8185    
   X31.9066      Y12.9473      R2.8185    
   X32.3534      Y12.3649      R2.8185    
   X32.6344      Y11.6867      R2.8185    
   X32.7302      Y10.9589      R2.8185    
   X32.6344      Y10.2311      R2.8185    
   X32.3534      Y9.5529       R2.8185    
   X31.9066      Y8.9705       R2.8185    
   X31.3242      Y8.5236       R2.8185    
   X30.6460      Y8.2427       R2.8185    
   X29.9181      Y8.1468       R2.8185    
   X29.1903      Y8.2427       R2.8185    
   X28.5121      Y8.5236       R2.8185    
   X27.9297      Y8.9705       R2.8185    
   X27.4829      Y9.5529       R2.8185    
   X27.2019      Y10.2311      R2.8185    
(Pass: 10)
G1   Z-1.000    
G17 G2   X27.1061      Y10.9589      R2.8185    
   X27.2019      Y11.6867      R2.8185    
   X27.4829      Y12.3649      R2.8185    
   X27.9297      Y12.9473      R2.8185    
   X28.5121      Y13.3942      R2.8185    
   X29.1903      Y13.6751      R2.8185    
   X29.9181      Y13.7709      R2.8185    
   X30.6460      Y13.6751      R2.8185    
   X31.3242      Y13.3942      R2.8185    
   X31.9066      Y12.9473      R2.8185    
   X32.3534      Y12.3649      R2.8185    
   X32.6344      Y11.6867      R2.8185    
   X32.7302      Y10.9589      R2.8185    
   X32.6344      Y10.2311      R2.8185    
   X32.3534      Y9.5529       R2.8185    
   X31.9066      Y8.9705       R2.8185    
   X31.3242      Y8.5236       R2.8185    
   X30.6460      Y8.2427       R2.8185    
   X29.9181      Y8.1468       R2.8185    
   X29.1903      Y8.2427       R2.8185    
   X28.5121      Y8.5236       R2.8185    
   X27.9297      Y8.9705       R2.8185    
   X27.4829      Y9.5529       R2.8185    
   X27.2019      Y10.2311      R2.8185    
(Pass: 11)
G1   Z-1.100    
G17 G2   X27.1061      Y10.9589      R2.8185    
   X27.2019      Y11.6867      R2.8185    
   X27.4829      Y12.3649      R2.8185    
   X27.9297      Y12.9473      R2.8185    
   X28.5121      Y13.3942      R2.8185    
   X29.1903      Y13.6751      R2.8185    
   X29.9181      Y13.7709      R2.8185    
   X30.6460      Y13.6751      R2.8185    
   X31.3242      Y13.3942      R2.8185    
   X31.9066      Y12.9473      R2.8185    
   X32.3534      Y12.3649      R2.8185    
   X32.6344      Y11.6867      R2.8185    
   X32.7302      Y10.9589      R2.8185    
   X32.6344      Y10.2311      R2.8185    
   X32.3534      Y9.5529       R2.8185    
   X31.9066      Y8.9705       R2.8185    
   X31.3242      Y8.5236       R2.8185    
   X30.6460      Y8.2427       R2.8185    
   X29.9181      Y8.1468       R2.8185    
   X29.1903      Y8.2427       R2.8185    
   X28.5121      Y8.5236       R2.8185    
   X27.9297      Y8.9705       R2.8185    
   X27.4829      Y9.5529       R2.8185    
   X27.2019      Y10.2311      R2.8185    
(Pass: 12)
G1   Z-1.200    
G17 G2   X27.1061      Y10.9589      R2.8185    
   X27.2019      Y11.6867      R2.8185    
   X27.4829      Y12.3649      R2.8185    
   X27.9297      Y12.9473      R2.8185    
   X28.5121      Y13.3942      R2.8185    
   X29.1903      Y13.6751      R2.8185    
   X29.9181      Y13.7709      R2.8185    
   X30.6460      Y13.6751      R2.8185    
   X31.3242      Y13.3942      R2.8185    
   X31.9066      Y12.9473      R2.8185    
   X32.3534      Y12.3649      R2.8185    
   X32.6344      Y11.6867      R2.8185    
   X32.7302      Y10.9589      R2.8185    
   X32.6344      Y10.2311      R2.8185    
   X32.3534      Y9.5529       R2.8185    
   X31.9066      Y8.9705       R2.8185    
   X31.3242      Y8.5236       R2.8185    
   X30.6460      Y8.2427       R2.8185    
   X29.9181      Y8.1468       R2.8185    
   X29.1903      Y8.2427       R2.8185    
   X28.5121      Y8.5236       R2.8185    
   X27.9297      Y8.9705       R2.8185    
   X27.4829      Y9.5529       R2.8185    
   X27.2019      Y10.2311      R2.8185    
(Pass: 13)
G1   Z-1.300    
G17 G2   X27.1061      Y10.9589      R2.8185    
   X27.2019      Y11.6867      R2.8185    
   X27.4829      Y12.3649      R2.8185    
   X27.9297      Y12.9473      R2.8185    
   X28.5121      Y13.3942      R2.8185    
   X29.1903      Y13.6751      R2.8185    
   X29.9181      Y13.7709      R2.8185    
   X30.6460      Y13.6751      R2.8185    
   X31.3242      Y13.3942      R2.8185    
   X31.9066      Y12.9473      R2.8185    
   X32.3534      Y12.3649      R2.8185    
   X32.6344      Y11.6867      R2.8185    
   X32.7302      Y10.9589      R2.8185    
   X32.6344      Y10.2311      R2.8185    
   X32.3534      Y9.5529       R2.8185    
   X31.9066      Y8.9705       R2.8185    
   X31.3242      Y8.5236       R2.8185    
   X30.6460      Y8.2427       R2.8185    
   X29.9181      Y8.1468       R2.8185    
   X29.1903      Y8.2427       R2.8185    
   X28.5121      Y8.5236       R2.8185    
   X27.9297      Y8.9705       R2.8185    
   X27.4829      Y9.5529       R2.8185    
   X27.2019      Y10.2311      R2.8185    
(Pass: 14)
G1   Z-1.400    
G17 G2   X27.1061      Y10.9589      R2.8185    
   X27.2019      Y11.6867      R2.8185    
   X27.4829      Y12.3649      R2.8185    
   X27.9297      Y12.9473      R2.8185    
   X28.5121      Y13.3942      R2.8185    
   X29.1903      Y13.6751      R2.8185    
   X29.9181      Y13.7709      R2.8185    
   X30.6460      Y13.6751      R2.8185    
   X31.3242      Y13.3942      R2.8185    
   X31.9066      Y12.9473      R2.8185    
   X32.3534      Y12.3649      R2.8185    
   X32.6344      Y11.6867      R2.8185    
   X32.7302      Y10.9589      R2.8185    
   X32.6344      Y10.2311      R2.8185    
   X32.3534      Y9.5529       R2.8185    
   X31.9066      Y8.9705       R2.8185    
   X31.3242      Y8.5236       R2.8185    
   X30.6460      Y8.2427       R2.8185    
   X29.9181      Y8.1468       R2.8185    
   X29.1903      Y8.2427       R2.8185    
   X28.5121      Y8.5236       R2.8185    
   X27.9297      Y8.9705       R2.8185    
   X27.4829      Y9.5529       R2.8185    
   X27.2019      Y10.2311      R2.8185    
(Pass: 15)
G1   Z-1.500    
G17 G2   X27.1061      Y10.9589      R2.8185    
   X27.2019      Y11.6867      R2.8185    
   X27.4829      Y12.3649      R2.8185    
   X27.9297      Y12.9473      R2.8185    
   X28.5121      Y13.3942      R2.8185    
   X29.1903      Y13.6751      R2.8185    
   X29.9181      Y13.7709      R2.8185    
   X30.6460      Y13.6751      R2.8185    
   X31.3242      Y13.3942      R2.8185    
   X31.9066      Y12.9473      R2.8185    
   X32.3534      Y12.3649      R2.8185    
   X32.6344      Y11.6867      R2.8185    
   X32.7302      Y10.9589      R2.8185    
   X32.6344      Y10.2311      R2.8185    
   X32.3534      Y9.5529       R2.8185    
   X31.9066      Y8.9705       R2.8185    
   X31.3242      Y8.5236       R2.8185    
   X30.6460      Y8.2427       R2.8185    
   X29.9181      Y8.1468       R2.8185    
   X29.1903      Y8.2427       R2.8185    
   X28.5121      Y8.5236       R2.8185    
   X27.9297      Y8.9705       R2.8185    
   X27.4829      Y9.5529       R2.8185    
   X27.2019      Y10.2311      R2.8185    
(Pass: 16)
G1   Z-1.600    
G17 G2   X27.1061      Y10.9589      R2.8185    
   X27.2019      Y11.6867      R2.8185    
   X27.4829      Y12.3649      R2.8185    
   X27.9297      Y12.9473      R2.8185    
   X28.5121      Y13.3942      R2.8185    
   X29.1903      Y13.6751      R2.8185    
   X29.9181      Y13.7709      R2.8185    
   X30.6460      Y13.6751      R2.8185    
   X31.3242      Y13.3942      R2.8185    
   X31.9066      Y12.9473      R2.8185    
   X32.3534      Y12.3649      R2.8185    
   X32.6344      Y11.6867      R2.8185    
   X32.7302      Y10.9589      R2.8185    
   X32.6344      Y10.2311      R2.8185    
   X32.3534      Y9.5529       R2.8185    
   X31.9066      Y8.9705       R2.8185    
   X31.3242      Y8.5236       R2.8185    
   X30.6460      Y8.2427       R2.8185    
   X29.9181      Y8.1468       R2.8185    
   X29.1903      Y8.2427       R2.8185    
   X28.5121      Y8.5236       R2.8185    
   X27.9297      Y8.9705       R2.8185    
   X27.4829      Y9.5529       R2.8185    
   X27.2019      Y10.2311      R2.8185    
(Pass: 17)
G1   Z-1.700    
G17 G2   X27.1061      Y10.9589      R2.8185    
   X27.2019      Y11.6867      R2.8185    
   X27.4829      Y12.3649      R2.8185    
   X27.9297      Y12.9473      R2.8185    
   X28.5121      Y13.3942      R2.8185    
   X29.1903      Y13.6751      R2.8185    
   X29.9181      Y13.7709      R2.8185    
   X30.6460      Y13.6751      R2.8185    
   X31.3242      Y13.3942      R2.8185    
   X31.9066      Y12.9473      R2.8185    
   X32.3534      Y12.3649      R2.8185    
   X32.6344      Y11.6867      R2.8185    
   X32.7302      Y10.9589      R2.8185    
   X32.6344      Y10.2311      R2.8185    
   X32.3534      Y9.5529       R2.8185    
   X31.9066      Y8.9705       R2.8185    
   X31.3242      Y8.5236       R2.8185    
   X30.6460      Y8.2427       R2.8185    
   X29.9181      Y8.1468       R2.8185    
   X29.1903      Y8.2427       R2.8185    
   X28.5121      Y8.5236       R2.8185    
   X27.9297      Y8.9705       R2.8185    
   X27.4829      Y9.5529       R2.8185    
   X27.2019      Y10.2311      R2.8185    
(Pass: 18)
G1   Z-1.800    
G17 G2   X27.1061      Y10.9589      R2.8185    
   X27.2019      Y11.6867      R2.8185    
   X27.4829      Y12.3649      R2.8185    
   X27.9297      Y12.9473      R2.8185    
   X28.5121      Y13.3942      R2.8185    
   X29.1903      Y13.6751      R2.8185    
   X29.9181      Y13.7709      R2.8185    
   X30.6460      Y13.6751      R2.8185    
   X31.3242      Y13.3942      R2.8185    
   X31.9066      Y12.9473      R2.8185    
   X32.3534      Y12.3649      R2.8185    
   X32.6344      Y11.6867      R2.8185    
   X32.7302      Y10.9589      R2.8185    
   X32.6344      Y10.2311      R2.8185    
   X32.3534      Y9.5529       R2.8185    
   X31.9066      Y8.9705       R2.8185    
   X31.3242      Y8.5236       R2.8185    
   X30.6460      Y8.2427       R2.8185    
   X29.9181      Y8.1468       R2.8185    
   X29.1903      Y8.2427       R2.8185    
   X28.5121      Y8.5236       R2.8185    
   X27.9297      Y8.9705       R2.8185    
   X27.4829      Y9.5529       R2.8185    
   X27.2019      Y10.2311      R2.8185    
(Pass: 19)
G1   Z-1.900    
G17 G2   X27.1061      Y10.9589      R2.8185    
   X27.2019      Y11.6867      R2.8185    
   X27.4829      Y12.3649      R2.8185    
   X27.9297      Y12.9473      R2.8185    
   X28.5121      Y13.3942      R2.8185    
   X29.1903      Y13.6751      R2.8185    
   X29.9181      Y13.7709      R2.8185    
   X30.6460      Y13.6751      R2.8185    
   X31.3242      Y13.3942      R2.8185    
   X31.9066      Y12.9473      R2.8185    
   X32.3534      Y12.3649      R2.8185    
   X32.6344      Y11.6867      R2.8185    
   X32.7302      Y10.9589      R2.8185    
   X32.6344      Y10.2311      R2.8185    
   X32.3534      Y9.5529       R2.8185    
   X31.9066      Y8.9705       R2.8185    
   X31.3242      Y8.5236       R2.8185    
   X30.6460      Y8.2427       R2.8185    
   X29.9181      Y8.1468       R2.8185    
   X29.1903      Y8.2427       R2.8185    
   X28.5121      Y8.5236       R2.8185    
   X27.9297      Y8.9705       R2.8185    
   X27.4829      Y9.5529       R2.8185    
   X27.2019      Y10.2311      R2.8185    
(Pass: 20)
G1   Z-2.000    
G17 G2   X27.1061      Y10.9589      R2.8185    
   X27.2019      Y11.6867      R2.8185    
   X27.4829      Y12.3649      R2.8185    
   X27.9297      Y12.9473      R2.8185    
   X28.5121      Y13.3942      R2.8185    
   X29.1903      Y13.6751      R2.8185    
   X29.9181      Y13.7709      R2.8185    
   X30.6460      Y13.6751      R2.8185    
   X31.3242      Y13.3942      R2.8185    
   X31.9066      Y12.9473      R2.8185    
   X32.3534      Y12.3649      R2.8185    
   X32.6344      Y11.6867      R2.8185    
   X32.7302      Y10.9589      R2.8185    
   X32.6344      Y10.2311      R2.8185    
   X32.3534      Y9.5529       R2.8185    
   X31.9066      Y8.9705       R2.8185    
   X31.3242      Y8.5236       R2.8185    
   X30.6460      Y8.2427       R2.8185    
   X29.9181      Y8.1468       R2.8185    
   X29.1903      Y8.2427       R2.8185    
   X28.5121      Y8.5236       R2.8185    
   X27.9297      Y8.9705       R2.8185    
   X27.4829      Y9.5529       R2.8185    
   X27.2019      Y10.2311      R2.8185    
(Pass: 21)
G1   Z-2.100    
G17 G2   X27.1061      Y10.9589      R2.8185    
   X27.2019      Y11.6867      R2.8185    
   X27.4829      Y12.3649      R2.8185    
   X27.9297      Y12.9473      R2.8185    
   X28.5121      Y13.3942      R2.8185    
   X29.1903      Y13.6751      R2.8185    
   X29.9181      Y13.7709      R2.8185    
   X30.6460      Y13.6751      R2.8185    
   X31.3242      Y13.3942      R2.8185    
   X31.9066      Y12.9473      R2.8185    
   X32.3534      Y12.3649      R2.8185    
   X32.6344      Y11.6867      R2.8185    
   X32.7302      Y10.9589      R2.8185    
   X32.6344      Y10.2311      R2.8185    
   X32.3534      Y9.5529       R2.8185    
   X31.9066      Y8.9705       R2.8185    
   X31.3242      Y8.5236       R2.8185    
   X30.6460      Y8.2427       R2.8185    
   X29.9181      Y8.1468       R2.8185    
   X29.1903      Y8.2427       R2.8185    
   X28.5121      Y8.5236       R2.8185    
   X27.9297      Y8.9705       R2.8185    
   X27.4829      Y9.5529       R2.8185    
   X27.2019      Y10.2311      R2.8185    
(Pass: 22)
G1   Z-2.200    
G17 G2   X27.1061      Y10.9589      R2.8185    
   X27.2019      Y11.6867      R2.8185    
   X27.4829      Y12.3649      R2.8185    
   X27.9297      Y12.9473      R2.8185    
   X28.5121      Y13.3942      R2.8185    
   X29.1903      Y13.6751      R2.8185    
   X29.9181      Y13.7709      R2.8185    
   X30.6460      Y13.6751      R2.8185    
   X31.3242      Y13.3942      R2.8185    
   X31.9066      Y12.9473      R2.8185    
   X32.3534      Y12.3649      R2.8185    
   X32.6344      Y11.6867      R2.8185    
   X32.7302      Y10.9589      R2.8185    
   X32.6344      Y10.2311      R2.8185    
   X32.3534      Y9.5529       R2.8185    
   X31.9066      Y8.9705       R2.8185    
   X31.3242      Y8.5236       R2.8185    
   X30.6460      Y8.2427       R2.8185    
   X29.9181      Y8.1468       R2.8185    
   X29.1903      Y8.2427       R2.8185    
   X28.5121      Y8.5236       R2.8185    
   X27.9297      Y8.9705       R2.8185    
   X27.4829      Y9.5529       R2.8185    
   X27.2019      Y10.2311      R2.8185    
(Pass: 23)
G1   Z-2.300    
G17 G2   X27.1061      Y10.9589      R2.8185    
   X27.2019      Y11.6867      R2.8185    
   X27.4829      Y12.3649      R2.8185    
   X27.9297      Y12.9473      R2.8185    
   X28.5121      Y13.3942      R2.8185    
   X29.1903      Y13.6751      R2.8185    
   X29.9181      Y13.7709      R2.8185    
   X30.6460      Y13.6751      R2.8185    
   X31.3242      Y13.3942      R2.8185    
   X31.9066      Y12.9473      R2.8185    
   X32.3534      Y12.3649      R2.8185    
   X32.6344      Y11.6867      R2.8185    
   X32.7302      Y10.9589      R2.8185    
   X32.6344      Y10.2311      R2.8185    
   X32.3534      Y9.5529       R2.8185    
   X31.9066      Y8.9705       R2.8185    
   X31.3242      Y8.5236       R2.8185    
   X30.6460      Y8.2427       R2.8185    
   X29.9181      Y8.1468       R2.8185    
   X29.1903      Y8.2427       R2.8185    
   X28.5121      Y8.5236       R2.8185    
   X27.9297      Y8.9705       R2.8185    
   X27.4829      Y9.5529       R2.8185    
   X27.2019      Y10.2311      R2.8185    
(Pass: 24)
G1   Z-2.400    
G17 G2   X27.1061      Y10.9589      R2.8185    
   X27.2019      Y11.6867      R2.8185    
   X27.4829      Y12.3649      R2.8185    
   X27.9297      Y12.9473      R2.8185    
   X28.5121      Y13.3942      R2.8185    
   X29.1903      Y13.6751      R2.8185    
   X29.9181      Y13.7709      R2.8185    
   X30.6460      Y13.6751      R2.8185    
   X31.3242      Y13.3942      R2.8185    
   X31.9066      Y12.9473      R2.8185    
   X32.3534      Y12.3649      R2.8185    
   X32.6344      Y11.6867      R2.8185    
   X32.7302      Y10.9589      R2.8185    
   X32.6344      Y10.2311      R2.8185    
   X32.3534      Y9.5529       R2.8185    
   X31.9066      Y8.9705       R2.8185    
   X31.3242      Y8.5236       R2.8185    
   X30.6460      Y8.2427       R2.8185    
   X29.9181      Y8.1468       R2.8185    
   X29.1903      Y8.2427       R2.8185    
   X28.5121      Y8.5236       R2.8185    
   X27.9297      Y8.9705       R2.8185    
   X27.4829      Y9.5529       R2.8185    
   X27.2019      Y10.2311      R2.8185    
(Pass: 25)
G1   Z-2.500    
G17 G2   X27.1061      Y10.9589      R2.8185    
   X27.2019      Y11.6867      R2.8185    
   X27.4829      Y12.3649      R2.8185    
   X27.9297      Y12.9473      R2.8185    
   X28.5121      Y13.3942      R2.8185    
   X29.1903      Y13.6751      R2.8185    
   X29.9181      Y13.7709      R2.8185    
   X30.6460      Y13.6751      R2.8185    
   X31.3242      Y13.3942      R2.8185    
   X31.9066      Y12.9473      R2.8185    
   X32.3534      Y12.3649      R2.8185    
   X32.6344      Y11.6867      R2.8185    
   X32.7302      Y10.9589      R2.8185    
   X32.6344      Y10.2311      R2.8185    
   X32.3534      Y9.5529       R2.8185    
   X31.9066      Y8.9705       R2.8185    
   X31.3242      Y8.5236       R2.8185    
   X30.6460      Y8.2427       R2.8185    
   X29.9181      Y8.1468       R2.8185    
   X29.1903      Y8.2427       R2.8185    
   X28.5121      Y8.5236       R2.8185    
   X27.9297      Y8.9705       R2.8185    
   X27.4829      Y9.5529       R2.8185    
   X27.2019      Y10.2311      R2.8185    
(Pass: 26)
G1   Z-2.600    
G17 G2   X27.1061      Y10.9589      R2.8185    
   X27.2019      Y11.6867      R2.8185    
   X27.4829      Y12.3649      R2.8185    
   X27.9297      Y12.9473      R2.8185    
   X28.5121      Y13.3942      R2.8185    
   X29.1903      Y13.6751      R2.8185    
   X29.9181      Y13.7709      R2.8185    
   X30.6460      Y13.6751      R2.8185    
   X31.3242      Y13.3942      R2.8185    
   X31.9066      Y12.9473      R2.8185    
   X32.3534      Y12.3649      R2.8185    
   X32.6344      Y11.6867      R2.8185    
   X32.7302      Y10.9589      R2.8185    
   X32.6344      Y10.2311      R2.8185    
   X32.3534      Y9.5529       R2.8185    
   X31.9066      Y8.9705       R2.8185    
   X31.3242      Y8.5236       R2.8185    
   X30.6460      Y8.2427       R2.8185    
   X29.9181      Y8.1468       R2.8185    
   X29.1903      Y8.2427       R2.8185    
   X28.5121      Y8.5236       R2.8185    
   X27.9297      Y8.9705       R2.8185    
   X27.4829      Y9.5529       R2.8185    
   X27.2019      Y10.2311      R2.8185    
(Pass: 27)
G1   Z-2.700    
G17 G2   X27.1061      Y10.9589      R2.8185    
   X27.2019      Y11.6867      R2.8185    
   X27.4829      Y12.3649      R2.8185    
   X27.9297      Y12.9473      R2.8185    
   X28.5121      Y13.3942      R2.8185    
   X29.1903      Y13.6751      R2.8185    
   X29.9181      Y13.7709      R2.8185    
   X30.6460      Y13.6751      R2.8185    
   X31.3242      Y13.3942      R2.8185    
   X31.9066      Y12.9473      R2.8185    
   X32.3534      Y12.3649      R2.8185    
   X32.6344      Y11.6867      R2.8185    
   X32.7302      Y10.9589      R2.8185    
   X32.6344      Y10.2311      R2.8185    
   X32.3534      Y9.5529       R2.8185    
   X31.9066      Y8.9705       R2.8185    
   X31.3242      Y8.5236       R2.8185    
   X30.6460      Y8.2427       R2.8185    
   X29.9181      Y8.1468       R2.8185    
   X29.1903      Y8.2427       R2.8185    
   X28.5121      Y8.5236       R2.8185    
   X27.9297      Y8.9705       R2.8185    
   X27.4829      Y9.5529       R2.8185    
   X27.2019      Y10.2311      R2.8185    
(Pass: 28)
G1   Z-2.800    
G17 G2   X27.1061      Y10.9589      R2.8185    
   X27.2019      Y11.6867      R2.8185    
   X27.4829      Y12.3649      R2.8185    
   X27.9297      Y12.9473      R2.8185    
   X28.5121      Y13.3942      R2.8185    
   X29.1903      Y13.6751      R2.8185    
   X29.9181      Y13.7709      R2.8185    
   X30.6460      Y13.6751      R2.8185    
   X31.3242      Y13.3942      R2.8185    
   X31.9066      Y12.9473      R2.8185    
   X32.3534      Y12.3649      R2.8185    
   X32.6344      Y11.6867      R2.8185    
   X32.7302      Y10.9589      R2.8185    
   X32.6344      Y10.2311      R2.8185    
   X32.3534      Y9.5529       R2.8185    
   X31.9066      Y8.9705       R2.8185    
   X31.3242      Y8.5236       R2.8185    
   X30.6460      Y8.2427       R2.8185    
   X29.9181      Y8.1468       R2.8185    
   X29.1903      Y8.2427       R2.8185    
   X28.5121      Y8.5236       R2.8185    
   X27.9297      Y8.9705       R2.8185    
   X27.4829      Y9.5529       R2.8185    
   X27.2019      Y10.2311      R2.8185    
(Pass: 29)
G1   Z-2.900    
G17 G2   X27.1061      Y10.9589      R2.8185    
   X27.2019      Y11.6867      R2.8185    
   X27.4829      Y12.3649      R2.8185    
   X27.9297      Y12.9473      R2.8185    
   X28.5121      Y13.3942      R2.8185    
   X29.1903      Y13.6751      R2.8185    
   X29.9181      Y13.7709      R2.8185    
   X30.6460      Y13.6751      R2.8185    
   X31.3242      Y13.3942      R2.8185    
   X31.9066      Y12.9473      R2.8185    
   X32.3534      Y12.3649      R2.8185    
   X32.6344      Y11.6867      R2.8185    
   X32.7302      Y10.9589      R2.8185    
   X32.6344      Y10.2311      R2.8185    
   X32.3534      Y9.5529       R2.8185    
   X31.9066      Y8.9705       R2.8185    
   X31.3242      Y8.5236       R2.8185    
   X30.6460      Y8.2427       R2.8185    
   X29.9181      Y8.1468       R2.8185    
   X29.1903      Y8.2427       R2.8185    
   X28.5121      Y8.5236       R2.8185    
   X27.9297      Y8.9705       R2.8185    
   X27.4829      Y9.5529       R2.8185    
   X27.2019      Y10.2311      R2.8185    
(Pass: 30)
G1   Z-3.000    
G17 G2   X27.1061      Y10.9589      R2.8185    
   X27.2019      Y11.6867      R2.8185    
   X27.4829      Y12.3649      R2.8185    
   X27.9297      Y12.9473      R2.8185    
   X28.5121      Y13.3942      R2.8185    
   X29.1903      Y13.6751      R2.8185    
   X29.9181      Y13.7709      R2.8185    
   X30.6460      Y13.6751      R2.8185    
   X31.3242      Y13.3942      R2.8185    
   X31.9066      Y12.9473      R2.8185    
   X32.3534      Y12.3649      R2.8185    
   X32.6344      Y11.6867      R2.8185    
   X32.7302      Y10.9589      R2.8185    
   X32.6344      Y10.2311      R2.8185    
   X32.3534      Y9.5529       R2.8185    
   X31.9066      Y8.9705       R2.8185    
   X31.3242      Y8.5236       R2.8185    
   X30.6460      Y8.2427       R2.8185    
   X29.9181      Y8.1468       R2.8185    
   X29.1903      Y8.2427       R2.8185    
   X28.5121      Y8.5236       R2.8185    
   X27.9297      Y8.9705       R2.8185    
   X27.4829      Y9.5529       R2.8185    
   X27.2019      Y10.2311      R2.8185    
(Pass: 31)
G1   Z-3.100    
G17 G2   X27.1061      Y10.9589      R2.8185    
   X27.2019      Y11.6867      R2.8185    
   X27.4829      Y12.3649      R2.8185    
   X27.9297      Y12.9473      R2.8185    
   X28.5121      Y13.3942      R2.8185    
   X29.1903      Y13.6751      R2.8185    
   X29.9181      Y13.7709      R2.8185    
   X30.6460      Y13.6751      R2.8185    
   X31.3242      Y13.3942      R2.8185    
   X31.9066      Y12.9473      R2.8185    
   X32.3534      Y12.3649      R2.8185    
   X32.6344      Y11.6867      R2.8185    
   X32.7302      Y10.9589      R2.8185    
   X32.6344      Y10.2311      R2.8185    
   X32.3534      Y9.5529       R2.8185    
   X31.9066      Y8.9705       R2.8185    
   X31.3242      Y8.5236       R2.8185    
   X30.6460      Y8.2427       R2.8185    
   X29.9181      Y8.1468       R2.8185    
   X29.1903      Y8.2427       R2.8185    
   X28.5121      Y8.5236       R2.8185    
   X27.9297      Y8.9705       R2.8185    
   X27.4829      Y9.5529       R2.8185    
   X27.2019      Y10.2311      R2.8185    
(Pass: 32)
G1   Z-3.200    
G17 G2   X27.1061      Y10.9589      R2.8185    
   X27.2019      Y11.6867      R2.8185    
   X27.4829      Y12.3649      R2.8185    
   X27.9297      Y12.9473      R2.8185    
   X28.5121      Y13.3942      R2.8185    
   X29.1903      Y13.6751      R2.8185    
   X29.9181      Y13.7709      R2.8185    
   X30.6460      Y13.6751      R2.8185    
   X31.3242      Y13.3942      R2.8185    
   X31.9066      Y12.9473      R2.8185    
   X32.3534      Y12.3649      R2.8185    
   X32.6344      Y11.6867      R2.8185    
   X32.7302      Y10.9589      R2.8185    
   X32.6344      Y10.2311      R2.8185    
   X32.3534      Y9.5529       R2.8185    
   X31.9066      Y8.9705       R2.8185    
   X31.3242      Y8.5236       R2.8185    
   X30.6460      Y8.2427       R2.8185    
   X29.9181      Y8.1468       R2.8185    
   X29.1903      Y8.2427       R2.8185    
   X28.5121      Y8.5236       R2.8185    
   X27.9297      Y8.9705       R2.8185    
   X27.4829      Y9.5529       R2.8185    
   X27.2019      Y10.2311      R2.8185    
(Pass: 33)
G1   Z-3.300    
G17 G2   X27.1061      Y10.9589      R2.8185    
   X27.2019      Y11.6867      R2.8185    
   X27.4829      Y12.3649      R2.8185    
   X27.9297      Y12.9473      R2.8185    
   X28.5121      Y13.3942      R2.8185    
   X29.1903      Y13.6751      R2.8185    
   X29.9181      Y13.7709      R2.8185    
   X30.6460      Y13.6751      R2.8185    
   X31.3242      Y13.3942      R2.8185    
   X31.9066      Y12.9473      R2.8185    
   X32.3534      Y12.3649      R2.8185    
   X32.6344      Y11.6867      R2.8185    
   X32.7302      Y10.9589      R2.8185    
   X32.6344      Y10.2311      R2.8185    
   X32.3534      Y9.5529       R2.8185    
   X31.9066      Y8.9705       R2.8185    
   X31.3242      Y8.5236       R2.8185    
   X30.6460      Y8.2427       R2.8185    
   X29.9181      Y8.1468       R2.8185    
   X29.1903      Y8.2427       R2.8185    
   X28.5121      Y8.5236       R2.8185    
   X27.9297      Y8.9705       R2.8185    
   X27.4829      Y9.5529       R2.8185    
   X27.2019      Y10.2311      R2.8185    
G0   Z5.000     
(Pass: 1)
   X44.350       Y25.082    
G1   Z-0.100     F300 
G17 G2   X44.1744      Y25.5050      R1.7600    
   X44.1146      Y25.9589      R1.7600    
   X44.1744      Y26.4127      R1.7600    
   X44.3495      Y26.8356      R1.7600    
   X44.6282      Y27.1988      R1.7600    
   X44.9914      Y27.4775      R1.7600    
   X45.4143      Y27.6527      R1.7600    
   X45.8681      Y27.7124      R1.7600    
   X46.3220      Y27.6527      R1.7600    
   X46.7449      Y27.4775      R1.7600    
   X47.1081      Y27.1988      R1.7600    
   X47.3867      Y26.8356      R1.7600    
   X47.5619      Y26.4127      R1.7600    
   X47.6217      Y25.9589      R1.7600    
   X47.5619      Y25.5050      R1.7600    
   X47.3867      Y25.0821      R1.7600    
   X47.1081      Y24.7189      R1.7600    
   X46.7449      Y24.4403      R1.7600    
   X46.3220      Y24.2651      R1.7600    
   X45.8681      Y24.2053      R1.7600    
   X45.4143      Y24.2651      R1.7600    
   X44.9914      Y24.4403      R1.7600    
   X44.6282      Y24.7189      R1.7600    
   X44.3495      Y25.0821      R1.7600    
(Pass: 2)
G1   Z-0.200    
G17 G2   X44.1744      Y25.5050      R1.7600    
   X44.1146      Y25.9589      R1.7600    
   X44.1744      Y26.4127      R1.7600    
   X44.3495      Y26.8356      R1.7600    
   X44.6282      Y27.1988      R1.7600    
   X44.9914      Y27.4775      R1.7600    
   X45.4143      Y27.6527      R1.7600    
   X45.8681      Y27.7124      R1.7600    
   X46.3220      Y27.6527      R1.7600    
   X46.7449      Y27.4775      R1.7600    
   X47.1081      Y27.1988      R1.7600    
   X47.3867      Y26.8356      R1.7600    
   X47.5619      Y26.4127      R1.7600    
   X47.6217      Y25.9589      R1.7600    
   X47.5619      Y25.5050      R1.7600    
   X47.3867      Y25.0821      R1.7600    
   X47.1081      Y24.7189      R1.7600    
   X46.7449      Y24.4403      R1.7600    
   X46.3220      Y24.2651      R1.7600    
   X45.8681      Y24.2053      R1.7600    
   X45.4143      Y24.2651      R1.7600    
   X44.9914      Y24.4403      R1.7600    
   X44.6282      Y24.7189      R1.7600    
   X44.3495      Y25.0821      R1.7600    
(Pass: 3)
G1   Z-0.300    
G17 G2   X44.1744      Y25.5050      R1.7600    
   X44.1146      Y25.9589      R1.7600    
   X44.1744      Y26.4127      R1.7600    
   X44.3495      Y26.8356      R1.7600    
   X44.6282      Y27.1988      R1.7600    
   X44.9914      Y27.4775      R1.7600    
   X45.4143      Y27.6527      R1.7600    
   X45.8681      Y27.7124      R1.7600    
   X46.3220      Y27.6527      R1.7600    
   X46.7449      Y27.4775      R1.7600    
   X47.1081      Y27.1988      R1.7600    
   X47.3867      Y26.8356      R1.7600    
   X47.5619      Y26.4127      R1.7600    
   X47.6217      Y25.9589      R1.7600    
   X47.5619      Y25.5050      R1.7600    
   X47.3867      Y25.0821      R1.7600    
   X47.1081      Y24.7189      R1.7600    
   X46.7449      Y24.4403      R1.7600    
   X46.3220      Y24.2651      R1.7600    
   X45.8681      Y24.2053      R1.7600    
   X45.4143      Y24.2651      R1.7600    
   X44.9914      Y24.4403      R1.7600    
   X44.6282      Y24.7189      R1.7600    
   X44.3495      Y25.0821      R1.7600    
(Pass: 4)
G1   Z-0.400    
G17 G2   X44.1744      Y25.5050      R1.7600    
   X44.1146      Y25.9589      R1.7600    
   X44.1744      Y26.4127      R1.7600    
   X44.3495      Y26.8356      R1.7600    
   X44.6282      Y27.1988      R1.7600    
   X44.9914      Y27.4775      R1.7600    
   X45.4143      Y27.6527      R1.7600    
   X45.8681      Y27.7124      R1.7600    
   X46.3220      Y27.6527      R1.7600    
   X46.7449      Y27.4775      R1.7600    
   X47.1081      Y27.1988      R1.7600    
   X47.3867      Y26.8356      R1.7600    
   X47.5619      Y26.4127      R1.7600    
   X47.6217      Y25.9589      R1.7600    
   X47.5619      Y25.5050      R1.7600    
   X47.3867      Y25.0821      R1.7600    
   X47.1081      Y24.7189      R1.7600    
   X46.7449      Y24.4403      R1.7600    
   X46.3220      Y24.2651      R1.7600    
   X45.8681      Y24.2053      R1.7600    
   X45.4143      Y24.2651      R1.7600    
   X44.9914      Y24.4403      R1.7600    
   X44.6282      Y24.7189      R1.7600    
   X44.3495      Y25.0821      R1.7600    
(Pass: 5)
G1   Z-0.500    
G17 G2   X44.1744      Y25.5050      R1.7600    
   X44.1146      Y25.9589      R1.7600    
   X44.1744      Y26.4127      R1.7600    
   X44.3495      Y26.8356      R1.7600    
   X44.6282      Y27.1988      R1.7600    
   X44.9914      Y27.4775      R1.7600    
   X45.4143      Y27.6527      R1.7600    
   X45.8681      Y27.7124      R1.7600    
   X46.3220      Y27.6527      R1.7600    
   X46.7449      Y27.4775      R1.7600    
   X47.1081      Y27.1988      R1.7600    
   X47.3867      Y26.8356      R1.7600    
   X47.5619      Y26.4127      R1.7600    
   X47.6217      Y25.9589      R1.7600    
   X47.5619      Y25.5050      R1.7600    
   X47.3867      Y25.0821      R1.7600    
   X47.1081      Y24.7189      R1.7600    
   X46.7449      Y24.4403      R1.7600    
   X46.3220      Y24.2651      R1.7600    
   X45.8681      Y24.2053      R1.7600    
   X45.4143      Y24.2651      R1.7600    
   X44.9914      Y24.4403      R1.7600    
   X44.6282      Y24.7189      R1.7600    
   X44.3495      Y25.0821      R1.7600    
(Pass: 6)
G1   Z-0.600    
G17 G2   X44.1744      Y25.5050      R1.7600    
   X44.1146      Y25.9589      R1.7600    
   X44.1744      Y26.4127      R1.7600    
   X44.3495      Y26.8356      R1.7600    
   X44.6282      Y27.1988      R1.7600    
   X44.9914      Y27.4775      R1.7600    
   X45.4143      Y27.6527      R1.7600    
   X45.8681      Y27.7124      R1.7600    
   X46.3220      Y27.6527      R1.7600    
   X46.7449      Y27.4775      R1.7600    
   X47.1081      Y27.1988      R1.7600    
   X47.3867      Y26.8356      R1.7600    
   X47.5619      Y26.4127      R1.7600    
   X47.6217      Y25.9589      R1.7600    
   X47.5619      Y25.5050      R1.7600    
   X47.3867      Y25.0821      R1.7600    
   X47.1081      Y24.7189      R1.7600    
   X46.7449      Y24.4403      R1.7600    
   X46.3220      Y24.2651      R1.7600    
   X45.8681      Y24.2053      R1.7600    
   X45.4143      Y24.2651      R1.7600    
   X44.9914      Y24.4403      R1.7600    
   X44.6282      Y24.7189      R1.7600    
   X44.3495      Y25.0821      R1.7600    
(Pass: 7)
G1   Z-0.700    
G17 G2   X44.1744      Y25.5050      R1.7600    
   X44.1146      Y25.9589      R1.7600    
   X44.1744      Y26.4127      R1.7600    
   X44.3495      Y26.8356      R1.7600    
   X44.6282      Y27.1988      R1.7600    
   X44.9914      Y27.4775      R1.7600    
   X45.4143      Y27.6527      R1.7600    
   X45.8681      Y27.7124      R1.7600    
   X46.3220      Y27.6527      R1.7600    
   X46.7449      Y27.4775      R1.7600    
   X47.1081      Y27.1988      R1.7600    
   X47.3867      Y26.8356      R1.7600    
   X47.5619      Y26.4127      R1.7600    
   X47.6217      Y25.9589      R1.7600    
   X47.5619      Y25.5050      R1.7600    
   X47.3867      Y25.0821      R1.7600    
   X47.1081      Y24.7189      R1.7600    
   X46.7449      Y24.4403      R1.7600    
   X46.3220      Y24.2651      R1.7600    
   X45.8681      Y24.2053      R1.7600    
   X45.4143      Y24.2651      R1.7600    
   X44.9914      Y24.4403      R1.7600    
   X44.6282      Y24.7189      R1.7600    
   X44.3495      Y25.0821      R1.7600    
(Pass: 8)
G1   Z-0.800    
G17 G2   X44.1744      Y25.5050      R1.7600    
   X44.1146      Y25.9589      R1.7600    
   X44.1744      Y26.4127      R1.7600    
   X44.3495      Y26.8356      R1.7600    
   X44.6282      Y27.1988      R1.7600    
   X44.9914      Y27.4775      R1.7600    
   X45.4143      Y27.6527      R1.7600    
   X45.8681      Y27.7124      R1.7600    
   X46.3220      Y27.6527      R1.7600    
   X46.7449      Y27.4775      R1.7600    
   X47.1081      Y27.1988      R1.7600    
   X47.3867      Y26.8356      R1.7600    
   X47.5619      Y26.4127      R1.7600    
   X47.6217      Y25.9589      R1.7600    
   X47.5619      Y25.5050      R1.7600    
   X47.3867      Y25.0821      R1.7600    
   X47.1081      Y24.7189      R1.7600    
   X46.7449      Y24.4403      R1.7600    
   X46.3220      Y24.2651      R1.7600    
   X45.8681      Y24.2053      R1.7600    
   X45.4143      Y24.2651      R1.7600    
   X44.9914      Y24.4403      R1.7600    
   X44.6282      Y24.7189      R1.7600    
   X44.3495      Y25.0821      R1.7600    
(Pass: 9)
G1   Z-0.900    
G17 G2   X44.1744      Y25.5050      R1.7600    
   X44.1146      Y25.9589      R1.7600    
   X44.1744      Y26.4127      R1.7600    
   X44.3495      Y26.8356      R1.7600    
   X44.6282      Y27.1988      R1.7600    
   X44.9914      Y27.4775      R1.7600    
   X45.4143      Y27.6527      R1.7600    
   X45.8681      Y27.7124      R1.7600    
   X46.3220      Y27.6527      R1.7600    
   X46.7449      Y27.4775      R1.7600    
   X47.1081      Y27.1988      R1.7600    
   X47.3867      Y26.8356      R1.7600    
   X47.5619      Y26.4127      R1.7600    
   X47.6217      Y25.9589      R1.7600    
   X47.5619      Y25.5050      R1.7600    
   X47.3867      Y25.0821      R1.7600    
   X47.1081      Y24.7189      R1.7600    
   X46.7449      Y24.4403      R1.7600    
   X46.3220      Y24.2651      R1.7600    
   X45.8681      Y24.2053      R1.7600    
   X45.4143      Y24.2651      R1.7600    
   X44.9914      Y24.4403      R1.7600    
   X44.6282      Y24.7189      R1.7600    
   X44.3495      Y25.0821      R1.7600    
(Pass: 10)
G1   Z-1.000    
G17 G2   X44.1744      Y25.5050      R1.7600    
   X44.1146      Y25.9589      R1.7600    
   X44.1744      Y26.4127      R1.7600    
   X44.3495      Y26.8356      R1.7600    
   X44.6282      Y27.1988      R1.7600    
   X44.9914      Y27.4775      R1.7600    
   X45.4143      Y27.6527      R1.7600    
   X45.8681      Y27.7124      R1.7600    
   X46.3220      Y27.6527      R1.7600    
   X46.7449      Y27.4775      R1.7600    
   X47.1081      Y27.1988      R1.7600    
   X47.3867      Y26.8356      R1.7600    
   X47.5619      Y26.4127      R1.7600    
   X47.6217      Y25.9589      R1.7600    
   X47.5619      Y25.5050      R1.7600    
   X47.3867      Y25.0821      R1.7600    
   X47.1081      Y24.7189      R1.7600    
   X46.7449      Y24.4403      R1.7600    
   X46.3220      Y24.2651      R1.7600    
   X45.8681      Y24.2053      R1.7600    
   X45.4143      Y24.2651      R1.7600    
   X44.9914      Y24.4403      R1.7600    
   X44.6282      Y24.7189      R1.7600    
   X44.3495      Y25.0821      R1.7600    
(Pass: 11)
G1   Z-1.100    
G17 G2   X44.1744      Y25.5050      R1.7600    
   X44.1146      Y25.9589      R1.7600    
   X44.1744      Y26.4127      R1.7600    
   X44.3495      Y26.8356      R1.7600    
   X44.6282      Y27.1988      R1.7600    
   X44.9914      Y27.4775      R1.7600    
   X45.4143      Y27.6527      R1.7600    
   X45.8681      Y27.7124      R1.7600    
   X46.3220      Y27.6527      R1.7600    
   X46.7449      Y27.4775      R1.7600    
   X47.1081      Y27.1988      R1.7600    
   X47.3867      Y26.8356      R1.7600    
   X47.5619      Y26.4127      R1.7600    
   X47.6217      Y25.9589      R1.7600    
   X47.5619      Y25.5050      R1.7600    
   X47.3867      Y25.0821      R1.7600    
   X47.1081      Y24.7189      R1.7600    
   X46.7449      Y24.4403      R1.7600    
   X46.3220      Y24.2651      R1.7600    
   X45.8681      Y24.2053      R1.7600    
   X45.4143      Y24.2651      R1.7600    
   X44.9914      Y24.4403      R1.7600    
   X44.6282      Y24.7189      R1.7600    
   X44.3495      Y25.0821      R1.7600    
(Pass: 12)
G1   Z-1.200    
G17 G2   X44.1744      Y25.5050      R1.7600    
   X44.1146      Y25.9589      R1.7600    
   X44.1744      Y26.4127      R1.7600    
   X44.3495      Y26.8356      R1.7600    
   X44.6282      Y27.1988      R1.7600    
   X44.9914      Y27.4775      R1.7600    
   X45.4143      Y27.6527      R1.7600    
   X45.8681      Y27.7124      R1.7600    
   X46.3220      Y27.6527      R1.7600    
   X46.7449      Y27.4775      R1.7600    
   X47.1081      Y27.1988      R1.7600    
   X47.3867      Y26.8356      R1.7600    
   X47.5619      Y26.4127      R1.7600    
   X47.6217      Y25.9589      R1.7600    
   X47.5619      Y25.5050      R1.7600    
   X47.3867      Y25.0821      R1.7600    
   X47.1081      Y24.7189      R1.7600    
   X46.7449      Y24.4403      R1.7600    
   X46.3220      Y24.2651      R1.7600    
   X45.8681      Y24.2053      R1.7600    
   X45.4143      Y24.2651      R1.7600    
   X44.9914      Y24.4403      R1.7600    
   X44.6282      Y24.7189      R1.7600    
   X44.3495      Y25.0821      R1.7600    
(Pass: 13)
G1   Z-1.300    
G17 G2   X44.1744      Y25.5050      R1.7600    
   X44.1146      Y25.9589      R1.7600    
   X44.1744      Y26.4127      R1.7600    
   X44.3495      Y26.8356      R1.7600    
   X44.6282      Y27.1988      R1.7600    
   X44.9914      Y27.4775      R1.7600    
   X45.4143      Y27.6527      R1.7600    
   X45.8681      Y27.7124      R1.7600    
   X46.3220      Y27.6527      R1.7600    
   X46.7449      Y27.4775      R1.7600    
   X47.1081      Y27.1988      R1.7600    
   X47.3867      Y26.8356      R1.7600    
   X47.5619      Y26.4127      R1.7600    
   X47.6217      Y25.9589      R1.7600    
   X47.5619      Y25.5050      R1.7600    
   X47.3867      Y25.0821      R1.7600    
   X47.1081      Y24.7189      R1.7600    
   X46.7449      Y24.4403      R1.7600    
   X46.3220      Y24.2651      R1.7600    
   X45.8681      Y24.2053      R1.7600    
   X45.4143      Y24.2651      R1.7600    
   X44.9914      Y24.4403      R1.7600    
   X44.6282      Y24.7189      R1.7600    
   X44.3495      Y25.0821      R1.7600    
(Pass: 14)
G1   Z-1.400    
G17 G2   X44.1744      Y25.5050      R1.7600    
   X44.1146      Y25.9589      R1.7600    
   X44.1744      Y26.4127      R1.7600    
   X44.3495      Y26.8356      R1.7600    
   X44.6282      Y27.1988      R1.7600    
   X44.9914      Y27.4775      R1.7600    
   X45.4143      Y27.6527      R1.7600    
   X45.8681      Y27.7124      R1.7600    
   X46.3220      Y27.6527      R1.7600    
   X46.7449      Y27.4775      R1.7600    
   X47.1081      Y27.1988      R1.7600    
   X47.3867      Y26.8356      R1.7600    
   X47.5619      Y26.4127      R1.7600    
   X47.6217      Y25.9589      R1.7600    
   X47.5619      Y25.5050      R1.7600    
   X47.3867      Y25.0821      R1.7600    
   X47.1081      Y24.7189      R1.7600    
   X46.7449      Y24.4403      R1.7600    
   X46.3220      Y24.2651      R1.7600    
   X45.8681      Y24.2053      R1.7600    
   X45.4143      Y24.2651      R1.7600    
   X44.9914      Y24.4403      R1.7600    
   X44.6282      Y24.7189      R1.7600    
   X44.3495      Y25.0821      R1.7600    
(Pass: 15)
G1   Z-1.500    
G17 G2   X44.1744      Y25.5050      R1.7600    
   X44.1146      Y25.9589      R1.7600    
   X44.1744      Y26.4127      R1.7600    
   X44.3495      Y26.8356      R1.7600    
   X44.6282      Y27.1988      R1.7600    
   X44.9914      Y27.4775      R1.7600    
   X45.4143      Y27.6527      R1.7600    
   X45.8681      Y27.7124      R1.7600    
   X46.3220      Y27.6527      R1.7600    
   X46.7449      Y27.4775      R1.7600    
   X47.1081      Y27.1988      R1.7600    
   X47.3867      Y26.8356      R1.7600    
   X47.5619      Y26.4127      R1.7600    
   X47.6217      Y25.9589      R1.7600    
   X47.5619      Y25.5050      R1.7600    
   X47.3867      Y25.0821      R1.7600    
   X47.1081      Y24.7189      R1.7600    
   X46.7449      Y24.4403      R1.7600    
   X46.3220      Y24.2651      R1.7600    
   X45.8681      Y24.2053      R1.7600    
   X45.4143      Y24.2651      R1.7600    
   X44.9914      Y24.4403      R1.7600    
   X44.6282      Y24.7189      R1.7600    
   X44.3495      Y25.0821      R1.7600    
(Pass: 16)
G1   Z-1.600    
G17 G2   X44.1744      Y25.5050      R1.7600    
   X44.1146      Y25.9589      R1.7600    
   X44.1744      Y26.4127      R1.7600    
   X44.3495      Y26.8356      R1.7600    
   X44.6282      Y27.1988      R1.7600    
   X44.9914      Y27.4775      R1.7600    
   X45.4143      Y27.6527      R1.7600    
   X45.8681      Y27.7124      R1.7600    
   X46.3220      Y27.6527      R1.7600    
   X46.7449      Y27.4775      R1.7600    
   X47.1081      Y27.1988      R1.7600    
   X47.3867      Y26.8356      R1.7600    
   X47.5619      Y26.4127      R1.7600    
   X47.6217      Y25.9589      R1.7600    
   X47.5619      Y25.5050      R1.7600    
   X47.3867      Y25.0821      R1.7600    
   X47.1081      Y24.7189      R1.7600    
   X46.7449      Y24.4403      R1.7600    
   X46.3220      Y24.2651      R1.7600    
   X45.8681      Y24.2053      R1.7600    
   X45.4143      Y24.2651      R1.7600    
   X44.9914      Y24.4403      R1.7600    
   X44.6282      Y24.7189      R1.7600    
   X44.3495      Y25.0821      R1.7600    
(Pass: 17)
G1   Z-1.700    
G17 G2   X44.1744      Y25.5050      R1.7600    
   X44.1146      Y25.9589      R1.7600    
   X44.1744      Y26.4127      R1.7600    
   X44.3495      Y26.8356      R1.7600    
   X44.6282      Y27.1988      R1.7600    
   X44.9914      Y27.4775      R1.7600    
   X45.4143      Y27.6527      R1.7600    
   X45.8681      Y27.7124      R1.7600    
   X46.3220      Y27.6527      R1.7600    
   X46.7449      Y27.4775      R1.7600    
   X47.1081      Y27.1988      R1.7600    
   X47.3867      Y26.8356      R1.7600    
   X47.5619      Y26.4127      R1.7600    
   X47.6217      Y25.9589      R1.7600    
   X47.5619      Y25.5050      R1.7600    
   X47.3867      Y25.0821      R1.7600    
   X47.1081      Y24.7189      R1.7600    
   X46.7449      Y24.4403      R1.7600    
   X46.3220      Y24.2651      R1.7600    
   X45.8681      Y24.2053      R1.7600    
   X45.4143      Y24.2651      R1.7600    
   X44.9914      Y24.4403      R1.7600    
   X44.6282      Y24.7189      R1.7600    
   X44.3495      Y25.0821      R1.7600    
(Pass: 18)
G1   Z-1.800    
G17 G2   X44.1744      Y25.5050      R1.7600    
   X44.1146      Y25.9589      R1.7600    
   X44.1744      Y26.4127      R1.7600    
   X44.3495      Y26.8356      R1.7600    
   X44.6282      Y27.1988      R1.7600    
   X44.9914      Y27.4775      R1.7600    
   X45.4143      Y27.6527      R1.7600    
   X45.8681      Y27.7124      R1.7600    
   X46.3220      Y27.6527      R1.7600    
   X46.7449      Y27.4775      R1.7600    
   X47.1081      Y27.1988      R1.7600    
   X47.3867      Y26.8356      R1.7600    
   X47.5619      Y26.4127      R1.7600    
   X47.6217      Y25.9589      R1.7600    
   X47.5619      Y25.5050      R1.7600    
   X47.3867      Y25.0821      R1.7600    
   X47.1081      Y24.7189      R1.7600    
   X46.7449      Y24.4403      R1.7600    
   X46.3220      Y24.2651      R1.7600    
   X45.8681      Y24.2053      R1.7600    
   X45.4143      Y24.2651      R1.7600    
   X44.9914      Y24.4403      R1.7600    
   X44.6282      Y24.7189      R1.7600    
   X44.3495      Y25.0821      R1.7600    
(Pass: 19)
G1   Z-1.900    
G17 G2   X44.1744      Y25.5050      R1.7600    
   X44.1146      Y25.9589      R1.7600    
   X44.1744      Y26.4127      R1.7600    
   X44.3495      Y26.8356      R1.7600    
   X44.6282      Y27.1988      R1.7600    
   X44.9914      Y27.4775      R1.7600    
   X45.4143      Y27.6527      R1.7600    
   X45.8681      Y27.7124      R1.7600    
   X46.3220      Y27.6527      R1.7600    
   X46.7449      Y27.4775      R1.7600    
   X47.1081      Y27.1988      R1.7600    
   X47.3867      Y26.8356      R1.7600    
   X47.5619      Y26.4127      R1.7600    
   X47.6217      Y25.9589      R1.7600    
   X47.5619      Y25.5050      R1.7600    
   X47.3867      Y25.0821      R1.7600    
   X47.1081      Y24.7189      R1.7600    
   X46.7449      Y24.4403      R1.7600    
   X46.3220      Y24.2651      R1.7600    
   X45.8681      Y24.2053      R1.7600    
   X45.4143      Y24.2651      R1.7600    
   X44.9914      Y24.4403      R1.7600    
   X44.6282      Y24.7189      R1.7600    
   X44.3495      Y25.0821      R1.7600    
(Pass: 20)
G1   Z-2.000    
G17 G2   X44.1744      Y25.5050      R1.7600    
   X44.1146      Y25.9589      R1.7600    
   X44.1744      Y26.4127      R1.7600    
   X44.3495      Y26.8356      R1.7600    
   X44.6282      Y27.1988      R1.7600    
   X44.9914      Y27.4775      R1.7600    
   X45.4143      Y27.6527      R1.7600    
   X45.8681      Y27.7124      R1.7600    
   X46.3220      Y27.6527      R1.7600    
   X46.7449      Y27.4775      R1.7600    
   X47.1081      Y27.1988      R1.7600    
   X47.3867      Y26.8356      R1.7600    
   X47.5619      Y26.4127      R1.7600    
   X47.6217      Y25.9589      R1.7600    
   X47.5619      Y25.5050      R1.7600    
   X47.3867      Y25.0821      R1.7600    
   X47.1081      Y24.7189      R1.7600    
   X46.7449      Y24.4403      R1.7600    
   X46.3220      Y24.2651      R1.7600    
   X45.8681      Y24.2053      R1.7600    
   X45.4143      Y24.2651      R1.7600    
   X44.9914      Y24.4403      R1.7600    
   X44.6282      Y24.7189      R1.7600    
   X44.3495      Y25.0821      R1.7600    
(Pass: 21)
G1   Z-2.100    
G17 G2   X44.1744      Y25.5050      R1.7600    
   X44.1146      Y25.9589      R1.7600    
   X44.1744      Y26.4127      R1.7600    
   X44.3495      Y26.8356      R1.7600    
   X44.6282      Y27.1988      R1.7600    
   X44.9914      Y27.4775      R1.7600    
   X45.4143      Y27.6527      R1.7600    
   X45.8681      Y27.7124      R1.7600    
   X46.3220      Y27.6527      R1.7600    
   X46.7449      Y27.4775      R1.7600    
   X47.1081      Y27.1988      R1.7600    
   X47.3867      Y26.8356      R1.7600    
   X47.5619      Y26.4127      R1.7600    
   X47.6217      Y25.9589      R1.7600    
   X47.5619      Y25.5050      R1.7600    
   X47.3867      Y25.0821      R1.7600    
   X47.1081      Y24.7189      R1.7600    
   X46.7449      Y24.4403      R1.7600    
   X46.3220      Y24.2651      R1.7600    
   X45.8681      Y24.2053      R1.7600    
   X45.4143      Y24.2651      R1.7600    
   X44.9914      Y24.4403      R1.7600    
   X44.6282      Y24.7189      R1.7600    
   X44.3495      Y25.0821      R1.7600    
(Pass: 22)
G1   Z-2.200    
G17 G2   X44.1744      Y25.5050      R1.7600    
   X44.1146      Y25.9589      R1.7600    
   X44.1744      Y26.4127      R1.7600    
   X44.3495      Y26.8356      R1.7600    
   X44.6282      Y27.1988      R1.7600    
   X44.9914      Y27.4775      R1.7600    
   X45.4143      Y27.6527      R1.7600    
   X45.8681      Y27.7124      R1.7600    
   X46.3220      Y27.6527      R1.7600    
   X46.7449      Y27.4775      R1.7600    
   X47.1081      Y27.1988      R1.7600    
   X47.3867      Y26.8356      R1.7600    
   X47.5619      Y26.4127      R1.7600    
   X47.6217      Y25.9589      R1.7600    
   X47.5619      Y25.5050      R1.7600    
   X47.3867      Y25.0821      R1.7600    
   X47.1081      Y24.7189      R1.7600    
   X46.7449      Y24.4403      R1.7600    
   X46.3220      Y24.2651      R1.7600    
   X45.8681      Y24.2053      R1.7600    
   X45.4143      Y24.2651      R1.7600    
   X44.9914      Y24.4403      R1.7600    
   X44.6282      Y24.7189      R1.7600    
   X44.3495      Y25.0821      R1.7600    
(Pass: 23)
G1   Z-2.300    
G17 G2   X44.1744      Y25.5050      R1.7600    
   X44.1146      Y25.9589      R1.7600    
   X44.1744      Y26.4127      R1.7600    
   X44.3495      Y26.8356      R1.7600    
   X44.6282      Y27.1988      R1.7600    
   X44.9914      Y27.4775      R1.7600    
   X45.4143      Y27.6527      R1.7600    
   X45.8681      Y27.7124      R1.7600    
   X46.3220      Y27.6527      R1.7600    
   X46.7449      Y27.4775      R1.7600    
   X47.1081      Y27.1988      R1.7600    
   X47.3867      Y26.8356      R1.7600    
   X47.5619      Y26.4127      R1.7600    
   X47.6217      Y25.9589      R1.7600    
   X47.5619      Y25.5050      R1.7600    
   X47.3867      Y25.0821      R1.7600    
   X47.1081      Y24.7189      R1.7600    
   X46.7449      Y24.4403      R1.7600    
   X46.3220      Y24.2651      R1.7600    
   X45.8681      Y24.2053      R1.7600    
   X45.4143      Y24.2651      R1.7600    
   X44.9914      Y24.4403      R1.7600    
   X44.6282      Y24.7189      R1.7600    
   X44.3495      Y25.0821      R1.7600    
(Pass: 24)
G1   Z-2.400    
G17 G2   X44.1744      Y25.5050      R1.7600    
   X44.1146      Y25.9589      R1.7600    
   X44.1744      Y26.4127      R1.7600    
   X44.3495      Y26.8356      R1.7600    
   X44.6282      Y27.1988      R1.7600    
   X44.9914      Y27.4775      R1.7600    
   X45.4143      Y27.6527      R1.7600    
   X45.8681      Y27.7124      R1.7600    
   X46.3220      Y27.6527      R1.7600    
   X46.7449      Y27.4775      R1.7600    
   X47.1081      Y27.1988      R1.7600    
   X47.3867      Y26.8356      R1.7600    
   X47.5619      Y26.4127      R1.7600    
   X47.6217      Y25.9589      R1.7600    
   X47.5619      Y25.5050      R1.7600    
   X47.3867      Y25.0821      R1.7600    
   X47.1081      Y24.7189      R1.7600    
   X46.7449      Y24.4403      R1.7600    
   X46.3220      Y24.2651      R1.7600    
   X45.8681      Y24.2053      R1.7600    
   X45.4143      Y24.2651      R1.7600    
   X44.9914      Y24.4403      R1.7600    
   X44.6282      Y24.7189      R1.7600    
   X44.3495      Y25.0821      R1.7600    
(Pass: 25)
G1   Z-2.500    
G17 G2   X44.1744      Y25.5050      R1.7600    
   X44.1146      Y25.9589      R1.7600    
   X44.1744      Y26.4127      R1.7600    
   X44.3495      Y26.8356      R1.7600    
   X44.6282      Y27.1988      R1.7600    
   X44.9914      Y27.4775      R1.7600    
   X45.4143      Y27.6527      R1.7600    
   X45.8681      Y27.7124      R1.7600    
   X46.3220      Y27.6527      R1.7600    
   X46.7449      Y27.4775      R1.7600    
   X47.1081      Y27.1988      R1.7600    
   X47.3867      Y26.8356      R1.7600    
   X47.5619      Y26.4127      R1.7600    
   X47.6217      Y25.9589      R1.7600    
   X47.5619      Y25.5050      R1.7600    
   X47.3867      Y25.0821      R1.7600    
   X47.1081      Y24.7189      R1.7600    
   X46.7449      Y24.4403      R1.7600    
   X46.3220      Y24.2651      R1.7600    
   X45.8681      Y24.2053      R1.7600    
   X45.4143      Y24.2651      R1.7600    
   X44.9914      Y24.4403      R1.7600    
   X44.6282      Y24.7189      R1.7600    
   X44.3495      Y25.0821      R1.7600    
(Pass: 26)
G1   Z-2.600    
G17 G2   X44.1744      Y25.5050      R1.7600    
   X44.1146      Y25.9589      R1.7600    
   X44.1744      Y26.4127      R1.7600    
   X44.3495      Y26.8356      R1.7600    
   X44.6282      Y27.1988      R1.7600    
   X44.9914      Y27.4775      R1.7600    
   X45.4143      Y27.6527      R1.7600    
   X45.8681      Y27.7124      R1.7600    
   X46.3220      Y27.6527      R1.7600    
   X46.7449      Y27.4775      R1.7600    
   X47.1081      Y27.1988      R1.7600    
   X47.3867      Y26.8356      R1.7600    
   X47.5619      Y26.4127      R1.7600    
   X47.6217      Y25.9589      R1.7600    
   X47.5619      Y25.5050      R1.7600    
   X47.3867      Y25.0821      R1.7600    
   X47.1081      Y24.7189      R1.7600    
   X46.7449      Y24.4403      R1.7600    
   X46.3220      Y24.2651      R1.7600    
   X45.8681      Y24.2053      R1.7600    
   X45.4143      Y24.2651      R1.7600    
   X44.9914      Y24.4403      R1.7600    
   X44.6282      Y24.7189      R1.7600    
   X44.3495      Y25.0821      R1.7600    
(Pass: 27)
G1   Z-2.700    
G17 G2   X44.1744      Y25.5050      R1.7600    
   X44.1146      Y25.9589      R1.7600    
   X44.1744      Y26.4127      R1.7600    
   X44.3495      Y26.8356      R1.7600    
   X44.6282      Y27.1988      R1.7600    
   X44.9914      Y27.4775      R1.7600    
   X45.4143      Y27.6527      R1.7600    
   X45.8681      Y27.7124      R1.7600    
   X46.3220      Y27.6527      R1.7600    
   X46.7449      Y27.4775      R1.7600    
   X47.1081      Y27.1988      R1.7600    
   X47.3867      Y26.8356      R1.7600    
   X47.5619      Y26.4127      R1.7600    
   X47.6217      Y25.9589      R1.7600    
   X47.5619      Y25.5050      R1.7600    
   X47.3867      Y25.0821      R1.7600    
   X47.1081      Y24.7189      R1.7600    
   X46.7449      Y24.4403      R1.7600    
   X46.3220      Y24.2651      R1.7600    
   X45.8681      Y24.2053      R1.7600    
   X45.4143      Y24.2651      R1.7600    
   X44.9914      Y24.4403      R1.7600    
   X44.6282      Y24.7189      R1.7600    
   X44.3495      Y25.0821      R1.7600    
(Pass: 28)
G1   Z-2.800    
G17 G2   X44.1744      Y25.5050      R1.7600    
   X44.1146      Y25.9589      R1.7600    
   X44.1744      Y26.4127      R1.7600    
   X44.3495      Y26.8356      R1.7600    
   X44.6282      Y27.1988      R1.7600    
   X44.9914      Y27.4775      R1.7600    
   X45.4143      Y27.6527      R1.7600    
   X45.8681      Y27.7124      R1.7600    
   X46.3220      Y27.6527      R1.7600    
   X46.7449      Y27.4775      R1.7600    
   X47.1081      Y27.1988      R1.7600    
   X47.3867      Y26.8356      R1.7600    
   X47.5619      Y26.4127      R1.7600    
   X47.6217      Y25.9589      R1.7600    
   X47.5619      Y25.5050      R1.7600    
   X47.3867      Y25.0821      R1.7600    
   X47.1081      Y24.7189      R1.7600    
   X46.7449      Y24.4403      R1.7600    
   X46.3220      Y24.2651      R1.7600    
   X45.8681      Y24.2053      R1.7600    
   X45.4143      Y24.2651      R1.7600    
   X44.9914      Y24.4403      R1.7600    
   X44.6282      Y24.7189      R1.7600    
   X44.3495      Y25.0821      R1.7600    
(Pass: 29)
G1   Z-2.900    
G17 G2   X44.1744      Y25.5050      R1.7600    
   X44.1146      Y25.9589      R1.7600    
   X44.1744      Y26.4127      R1.7600    
   X44.3495      Y26.8356      R1.7600    
   X44.6282      Y27.1988      R1.7600    
   X44.9914      Y27.4775      R1.7600    
   X45.4143      Y27.6527      R1.7600    
   X45.8681      Y27.7124      R1.7600    
   X46.3220      Y27.6527      R1.7600    
   X46.7449      Y27.4775      R1.7600    
   X47.1081      Y27.1988      R1.7600    
   X47.3867      Y26.8356      R1.7600    
   X47.5619      Y26.4127      R1.7600    
   X47.6217      Y25.9589      R1.7600    
   X47.5619      Y25.5050      R1.7600    
   X47.3867      Y25.0821      R1.7600    
   X47.1081      Y24.7189      R1.7600    
   X46.7449      Y24.4403      R1.7600    
   X46.3220      Y24.2651      R1.7600    
   X45.8681      Y24.2053      R1.7600    
   X45.4143      Y24.2651      R1.7600    
   X44.9914      Y24.4403      R1.7600    
   X44.6282      Y24.7189      R1.7600    
   X44.3495      Y25.0821      R1.7600    
(Pass: 30)
G1   Z-3.000    
G17 G2   X44.1744      Y25.5050      R1.7600    
   X44.1146      Y25.9589      R1.7600    
   X44.1744      Y26.4127      R1.7600    
   X44.3495      Y26.8356      R1.7600    
   X44.6282      Y27.1988      R1.7600    
   X44.9914      Y27.4775      R1.7600    
   X45.4143      Y27.6527      R1.7600    
   X45.8681      Y27.7124      R1.7600    
   X46.3220      Y27.6527      R1.7600    
   X46.7449      Y27.4775      R1.7600    
   X47.1081      Y27.1988      R1.7600    
   X47.3867      Y26.8356      R1.7600    
   X47.5619      Y26.4127      R1.7600    
   X47.6217      Y25.9589      R1.7600    
   X47.5619      Y25.5050      R1.7600    
   X47.3867      Y25.0821      R1.7600    
   X47.1081      Y24.7189      R1.7600    
   X46.7449      Y24.4403      R1.7600    
   X46.3220      Y24.2651      R1.7600    
   X45.8681      Y24.2053      R1.7600    
   X45.4143      Y24.2651      R1.7600    
   X44.9914      Y24.4403      R1.7600    
   X44.6282      Y24.7189      R1.7600    
   X44.3495      Y25.0821      R1.7600    
(Pass: 31)
G1   Z-3.100    
G17 G2   X44.1744      Y25.5050      R1.7600    
   X44.1146      Y25.9589      R1.7600    
   X44.1744      Y26.4127      R1.7600    
   X44.3495      Y26.8356      R1.7600    
   X44.6282      Y27.1988      R1.7600    
   X44.9914      Y27.4775      R1.7600    
   X45.4143      Y27.6527      R1.7600    
   X45.8681      Y27.7124      R1.7600    
   X46.3220      Y27.6527      R1.7600    
   X46.7449      Y27.4775      R1.7600    
   X47.1081      Y27.1988      R1.7600    
   X47.3867      Y26.8356      R1.7600    
   X47.5619      Y26.4127      R1.7600    
   X47.6217      Y25.9589      R1.7600    
   X47.5619      Y25.5050      R1.7600    
   X47.3867      Y25.0821      R1.7600    
   X47.1081      Y24.7189      R1.7600    
   X46.7449      Y24.4403      R1.7600    
   X46.3220      Y24.2651      R1.7600    
   X45.8681      Y24.2053      R1.7600    
   X45.4143      Y24.2651      R1.7600    
   X44.9914      Y24.4403      R1.7600    
   X44.6282      Y24.7189      R1.7600    
   X44.3495      Y25.0821      R1.7600    
(Pass: 32)
G1   Z-3.200    
G17 G2   X44.1744      Y25.5050      R1.7600    
   X44.1146      Y25.9589      R1.7600    
   X44.1744      Y26.4127      R1.7600    
   X44.3495      Y26.8356      R1.7600    
   X44.6282      Y27.1988      R1.7600    
   X44.9914      Y27.4775      R1.7600    
   X45.4143      Y27.6527      R1.7600    
   X45.8681      Y27.7124      R1.7600    
   X46.3220      Y27.6527      R1.7600    
   X46.7449      Y27.4775      R1.7600    
   X47.1081      Y27.1988      R1.7600    
   X47.3867      Y26.8356      R1.7600    
   X47.5619      Y26.4127      R1.7600    
   X47.6217      Y25.9589      R1.7600    
   X47.5619      Y25.5050      R1.7600    
   X47.3867      Y25.0821      R1.7600    
   X47.1081      Y24.7189      R1.7600    
   X46.7449      Y24.4403      R1.7600    
   X46.3220      Y24.2651      R1.7600    
   X45.8681      Y24.2053      R1.7600    
   X45.4143      Y24.2651      R1.7600    
   X44.9914      Y24.4403      R1.7600    
   X44.6282      Y24.7189      R1.7600    
   X44.3495      Y25.0821      R1.7600    
(Pass: 33)
G1   Z-3.300    
G17 G2   X44.1744      Y25.5050      R1.7600    
   X44.1146      Y25.9589      R1.7600    
   X44.1744      Y26.4127      R1.7600    
   X44.3495      Y26.8356      R1.7600    
   X44.6282      Y27.1988      R1.7600    
   X44.9914      Y27.4775      R1.7600    
   X45.4143      Y27.6527      R1.7600    
   X45.8681      Y27.7124      R1.7600    
   X46.3220      Y27.6527      R1.7600    
   X46.7449      Y27.4775      R1.7600    
   X47.1081      Y27.1988      R1.7600    
   X47.3867      Y26.8356      R1.7600    
   X47.5619      Y26.4127      R1.7600    
   X47.6217      Y25.9589      R1.7600    
   X47.5619      Y25.5050      R1.7600    
   X47.3867      Y25.0821      R1.7600    
   X47.1081      Y24.7189      R1.7600    
   X46.7449      Y24.4403      R1.7600    
   X46.3220      Y24.2651      R1.7600    
   X45.8681      Y24.2053      R1.7600    
   X45.4143      Y24.2651      R1.7600    
   X44.9914      Y24.4403      R1.7600    
   X44.6282      Y24.7189      R1.7600    
   X44.3495      Y25.0821      R1.7600    
G0   Z5.000     
(Pass: 1)
   X45.868       Y34.205    
G1   Z-0.100     F300 
G17 G2   X45.4143      Y34.2651      R1.7600    
   X44.9914      Y34.4403      R1.7600    
   X44.6282      Y34.7189      R1.7600    
   X44.3495      Y35.0821      R1.7600    
   X44.1744      Y35.5050      R1.7600    
   X44.1146      Y35.9589      R1.7600    
   X44.1744      Y36.4127      R1.7600    
   X44.3495      Y36.8356      R1.7600    
   X44.6282      Y37.1988      R1.7600    
   X44.9914      Y37.4775      R1.7600    
   X45.4143      Y37.6527      R1.7600    
   X45.8681      Y37.7124      R1.7600    
   X46.3220      Y37.6527      R1.7600    
   X46.7449      Y37.4775      R1.7600    
   X47.1081      Y37.1988      R1.7600    
   X47.3867      Y36.8356      R1.7600    
   X47.5619      Y36.4127      R1.7600    
   X47.6217      Y35.9589      R1.7600    
   X47.5619      Y35.5050      R1.7600    
   X47.3867      Y35.0821      R1.7600    
   X47.1081      Y34.7189      R1.7600    
   X46.7449      Y34.4403      R1.7600    
   X46.3220      Y34.2651      R1.7600    
   X45.8681      Y34.2053      R1.7600    
(Pass: 2)
G1   Z-0.200    
G17 G2   X45.4143      Y34.2651      R1.7600    
   X44.9914      Y34.4403      R1.7600    
   X44.6282      Y34.7189      R1.7600    
   X44.3495      Y35.0821      R1.7600    
   X44.1744      Y35.5050      R1.7600    
   X44.1146      Y35.9589      R1.7600    
   X44.1744      Y36.4127      R1.7600    
   X44.3495      Y36.8356      R1.7600    
   X44.6282      Y37.1988      R1.7600    
   X44.9914      Y37.4775      R1.7600    
   X45.4143      Y37.6527      R1.7600    
   X45.8681      Y37.7124      R1.7600    
   X46.3220      Y37.6527      R1.7600    
   X46.7449      Y37.4775      R1.7600    
   X47.1081      Y37.1988      R1.7600    
   X47.3867      Y36.8356      R1.7600    
   X47.5619      Y36.4127      R1.7600    
   X47.6217      Y35.9589      R1.7600    
   X47.5619      Y35.5050      R1.7600    
   X47.3867      Y35.0821      R1.7600    
   X47.1081      Y34.7189      R1.7600    
   X46.7449      Y34.4403      R1.7600    
   X46.3220      Y34.2651      R1.7600    
   X45.8681      Y34.2053      R1.7600    
(Pass: 3)
G1   Z-0.300    
G17 G2   X45.4143      Y34.2651      R1.7600    
   X44.9914      Y34.4403      R1.7600    
   X44.6282      Y34.7189      R1.7600    
   X44.3495      Y35.0821      R1.7600    
   X44.1744      Y35.5050      R1.7600    
   X44.1146      Y35.9589      R1.7600    
   X44.1744      Y36.4127      R1.7600    
   X44.3495      Y36.8356      R1.7600    
   X44.6282      Y37.1988      R1.7600    
   X44.9914      Y37.4775      R1.7600    
   X45.4143      Y37.6527      R1.7600    
   X45.8681      Y37.7124      R1.7600    
   X46.3220      Y37.6527      R1.7600    
   X46.7449      Y37.4775      R1.7600    
   X47.1081      Y37.1988      R1.7600    
   X47.3867      Y36.8356      R1.7600    
   X47.5619      Y36.4127      R1.7600    
   X47.6217      Y35.9589      R1.7600    
   X47.5619      Y35.5050      R1.7600    
   X47.3867      Y35.0821      R1.7600    
   X47.1081      Y34.7189      R1.7600    
   X46.7449      Y34.4403      R1.7600    
   X46.3220      Y34.2651      R1.7600    
   X45.8681      Y34.2053      R1.7600    
(Pass: 4)
G1   Z-0.400    
G17 G2   X45.4143      Y34.2651      R1.7600    
   X44.9914      Y34.4403      R1.7600    
   X44.6282      Y34.7189      R1.7600    
   X44.3495      Y35.0821      R1.7600    
   X44.1744      Y35.5050      R1.7600    
   X44.1146      Y35.9589      R1.7600    
   X44.1744      Y36.4127      R1.7600    
   X44.3495      Y36.8356      R1.7600    
   X44.6282      Y37.1988      R1.7600    
   X44.9914      Y37.4775      R1.7600    
   X45.4143      Y37.6527      R1.7600    
   X45.8681      Y37.7124      R1.7600    
   X46.3220      Y37.6527      R1.7600    
   X46.7449      Y37.4775      R1.7600    
   X47.1081      Y37.1988      R1.7600    
   X47.3867      Y36.8356      R1.7600    
   X47.5619      Y36.4127      R1.7600    
   X47.6217      Y35.9589      R1.7600    
   X47.5619      Y35.5050      R1.7600    
   X47.3867      Y35.0821      R1.7600    
   X47.1081      Y34.7189      R1.7600    
   X46.7449      Y34.4403      R1.7600    
   X46.3220      Y34.2651      R1.7600    
   X45.8681      Y34.2053      R1.7600    
(Pass: 5)
G1   Z-0.500    
G17 G2   X45.4143      Y34.2651      R1.7600    
   X44.9914      Y34.4403      R1.7600    
   X44.6282      Y34.7189      R1.7600    
   X44.3495      Y35.0821      R1.7600    
   X44.1744      Y35.5050      R1.7600    
   X44.1146      Y35.9589      R1.7600    
   X44.1744      Y36.4127      R1.7600    
   X44.3495      Y36.8356      R1.7600    
   X44.6282      Y37.1988      R1.7600    
   X44.9914      Y37.4775      R1.7600    
   X45.4143      Y37.6527      R1.7600    
   X45.8681      Y37.7124      R1.7600    
   X46.3220      Y37.6527      R1.7600    
   X46.7449      Y37.4775      R1.7600    
   X47.1081      Y37.1988      R1.7600    
   X47.3867      Y36.8356      R1.7600    
   X47.5619      Y36.4127      R1.7600    
   X47.6217      Y35.9589      R1.7600    
   X47.5619      Y35.5050      R1.7600    
   X47.3867      Y35.0821      R1.7600    
   X47.1081      Y34.7189      R1.7600    
   X46.7449      Y34.4403      R1.7600    
   X46.3220      Y34.2651      R1.7600    
   X45.8681      Y34.2053      R1.7600    
(Pass: 6)
G1   Z-0.600    
G17 G2   X45.4143      Y34.2651      R1.7600    
   X44.9914      Y34.4403      R1.7600    
   X44.6282      Y34.7189      R1.7600    
   X44.3495      Y35.0821      R1.7600    
   X44.1744      Y35.5050      R1.7600    
   X44.1146      Y35.9589      R1.7600    
   X44.1744      Y36.4127      R1.7600    
   X44.3495      Y36.8356      R1.7600    
   X44.6282      Y37.1988      R1.7600    
   X44.9914      Y37.4775      R1.7600    
   X45.4143      Y37.6527      R1.7600    
   X45.8681      Y37.7124      R1.7600    
   X46.3220      Y37.6527      R1.7600    
   X46.7449      Y37.4775      R1.7600    
   X47.1081      Y37.1988      R1.7600    
   X47.3867      Y36.8356      R1.7600    
   X47.5619      Y36.4127      R1.7600    
   X47.6217      Y35.9589      R1.7600    
   X47.5619      Y35.5050      R1.7600    
   X47.3867      Y35.0821      R1.7600    
   X47.1081      Y34.7189      R1.7600    
   X46.7449      Y34.4403      R1.7600    
   X46.3220      Y34.2651      R1.7600    
   X45.8681      Y34.2053      R1.7600    
(Pass: 7)
G1   Z-0.700    
G17 G2   X45.4143      Y34.2651      R1.7600    
   X44.9914      Y34.4403      R1.7600    
   X44.6282      Y34.7189      R1.7600    
   X44.3495      Y35.0821      R1.7600    
   X44.1744      Y35.5050      R1.7600    
   X44.1146      Y35.9589      R1.7600    
   X44.1744      Y36.4127      R1.7600    
   X44.3495      Y36.8356      R1.7600    
   X44.6282      Y37.1988      R1.7600    
   X44.9914      Y37.4775      R1.7600    
   X45.4143      Y37.6527      R1.7600    
   X45.8681      Y37.7124      R1.7600    
   X46.3220      Y37.6527      R1.7600    
   X46.7449      Y37.4775      R1.7600    
   X47.1081      Y37.1988      R1.7600    
   X47.3867      Y36.8356      R1.7600    
   X47.5619      Y36.4127      R1.7600    
   X47.6217      Y35.9589      R1.7600    
   X47.5619      Y35.5050      R1.7600    
   X47.3867      Y35.0821      R1.7600    
   X47.1081      Y34.7189      R1.7600    
   X46.7449      Y34.4403      R1.7600    
   X46.3220      Y34.2651      R1.7600    
   X45.8681      Y34.2053      R1.7600    
(Pass: 8)
G1   Z-0.800    
G17 G2   X45.4143      Y34.2651      R1.7600    
   X44.9914      Y34.4403      R1.7600    
   X44.6282      Y34.7189      R1.7600    
   X44.3495      Y35.0821      R1.7600    
   X44.1744      Y35.5050      R1.7600    
   X44.1146      Y35.9589      R1.7600    
   X44.1744      Y36.4127      R1.7600    
   X44.3495      Y36.8356      R1.7600    
   X44.6282      Y37.1988      R1.7600    
   X44.9914      Y37.4775      R1.7600    
   X45.4143      Y37.6527      R1.7600    
   X45.8681      Y37.7124      R1.7600    
   X46.3220      Y37.6527      R1.7600    
   X46.7449      Y37.4775      R1.7600    
   X47.1081      Y37.1988      R1.7600    
   X47.3867      Y36.8356      R1.7600    
   X47.5619      Y36.4127      R1.7600    
   X47.6217      Y35.9589      R1.7600    
   X47.5619      Y35.5050      R1.7600    
   X47.3867      Y35.0821      R1.7600    
   X47.1081      Y34.7189      R1.7600    
   X46.7449      Y34.4403      R1.7600    
   X46.3220      Y34.2651      R1.7600    
   X45.8681      Y34.2053      R1.7600    
(Pass: 9)
G1   Z-0.900    
G17 G2   X45.4143      Y34.2651      R1.7600    
   X44.9914      Y34.4403      R1.7600    
   X44.6282      Y34.7189      R1.7600    
   X44.3495      Y35.0821      R1.7600    
   X44.1744      Y35.5050      R1.7600    
   X44.1146      Y35.9589      R1.7600    
   X44.1744      Y36.4127      R1.7600    
   X44.3495      Y36.8356      R1.7600    
   X44.6282      Y37.1988      R1.7600    
   X44.9914      Y37.4775      R1.7600    
   X45.4143      Y37.6527      R1.7600    
   X45.8681      Y37.7124      R1.7600    
   X46.3220      Y37.6527      R1.7600    
   X46.7449      Y37.4775      R1.7600    
   X47.1081      Y37.1988      R1.7600    
   X47.3867      Y36.8356      R1.7600    
   X47.5619      Y36.4127      R1.7600    
   X47.6217      Y35.9589      R1.7600    
   X47.5619      Y35.5050      R1.7600    
   X47.3867      Y35.0821      R1.7600    
   X47.1081      Y34.7189      R1.7600    
   X46.7449      Y34.4403      R1.7600    
   X46.3220      Y34.2651      R1.7600    
   X45.8681      Y34.2053      R1.7600    
(Pass: 10)
G1   Z-1.000    
G17 G2   X45.4143      Y34.2651      R1.7600    
   X44.9914      Y34.4403      R1.7600    
   X44.6282      Y34.7189      R1.7600    
   X44.3495      Y35.0821      R1.7600    
   X44.1744      Y35.5050      R1.7600    
   X44.1146      Y35.9589      R1.7600    
   X44.1744      Y36.4127      R1.7600    
   X44.3495      Y36.8356      R1.7600    
   X44.6282      Y37.1988      R1.7600    
   X44.9914      Y37.4775      R1.7600    
   X45.4143      Y37.6527      R1.7600    
   X45.8681      Y37.7124      R1.7600    
   X46.3220      Y37.6527      R1.7600    
   X46.7449      Y37.4775      R1.7600    
   X47.1081      Y37.1988      R1.7600    
   X47.3867      Y36.8356      R1.7600    
   X47.5619      Y36.4127      R1.7600    
   X47.6217      Y35.9589      R1.7600    
   X47.5619      Y35.5050      R1.7600    
   X47.3867      Y35.0821      R1.7600    
   X47.1081      Y34.7189      R1.7600    
   X46.7449      Y34.4403      R1.7600    
   X46.3220      Y34.2651      R1.7600    
   X45.8681      Y34.2053      R1.7600    
(Pass: 11)
G1   Z-1.100    
G17 G2   X45.4143      Y34.2651      R1.7600    
   X44.9914      Y34.4403      R1.7600    
   X44.6282      Y34.7189      R1.7600    
   X44.3495      Y35.0821      R1.7600    
   X44.1744      Y35.5050      R1.7600    
   X44.1146      Y35.9589      R1.7600    
   X44.1744      Y36.4127      R1.7600    
   X44.3495      Y36.8356      R1.7600    
   X44.6282      Y37.1988      R1.7600    
   X44.9914      Y37.4775      R1.7600    
   X45.4143      Y37.6527      R1.7600    
   X45.8681      Y37.7124      R1.7600    
   X46.3220      Y37.6527      R1.7600    
   X46.7449      Y37.4775      R1.7600    
   X47.1081      Y37.1988      R1.7600    
   X47.3867      Y36.8356      R1.7600    
   X47.5619      Y36.4127      R1.7600    
   X47.6217      Y35.9589      R1.7600    
   X47.5619      Y35.5050      R1.7600    
   X47.3867      Y35.0821      R1.7600    
   X47.1081      Y34.7189      R1.7600    
   X46.7449      Y34.4403      R1.7600    
   X46.3220      Y34.2651      R1.7600    
   X45.8681      Y34.2053      R1.7600    
(Pass: 12)
G1   Z-1.200    
G17 G2   X45.4143      Y34.2651      R1.7600    
   X44.9914      Y34.4403      R1.7600    
   X44.6282      Y34.7189      R1.7600    
   X44.3495      Y35.0821      R1.7600    
   X44.1744      Y35.5050      R1.7600    
   X44.1146      Y35.9589      R1.7600    
   X44.1744      Y36.4127      R1.7600    
   X44.3495      Y36.8356      R1.7600    
   X44.6282      Y37.1988      R1.7600    
   X44.9914      Y37.4775      R1.7600    
   X45.4143      Y37.6527      R1.7600    
   X45.8681      Y37.7124      R1.7600    
   X46.3220      Y37.6527      R1.7600    
   X46.7449      Y37.4775      R1.7600    
   X47.1081      Y37.1988      R1.7600    
   X47.3867      Y36.8356      R1.7600    
   X47.5619      Y36.4127      R1.7600    
   X47.6217      Y35.9589      R1.7600    
   X47.5619      Y35.5050      R1.7600    
   X47.3867      Y35.0821      R1.7600    
   X47.1081      Y34.7189      R1.7600    
   X46.7449      Y34.4403      R1.7600    
   X46.3220      Y34.2651      R1.7600    
   X45.8681      Y34.2053      R1.7600    
(Pass: 13)
G1   Z-1.300    
G17 G2   X45.4143      Y34.2651      R1.7600    
   X44.9914      Y34.4403      R1.7600    
   X44.6282      Y34.7189      R1.7600    
   X44.3495      Y35.0821      R1.7600    
   X44.1744      Y35.5050      R1.7600    
   X44.1146      Y35.9589      R1.7600    
   X44.1744      Y36.4127      R1.7600    
   X44.3495      Y36.8356      R1.7600    
   X44.6282      Y37.1988      R1.7600    
   X44.9914      Y37.4775      R1.7600    
   X45.4143      Y37.6527      R1.7600    
   X45.8681      Y37.7124      R1.7600    
   X46.3220      Y37.6527      R1.7600    
   X46.7449      Y37.4775      R1.7600    
   X47.1081      Y37.1988      R1.7600    
   X47.3867      Y36.8356      R1.7600    
   X47.5619      Y36.4127      R1.7600    
   X47.6217      Y35.9589      R1.7600    
   X47.5619      Y35.5050      R1.7600    
   X47.3867      Y35.0821      R1.7600    
   X47.1081      Y34.7189      R1.7600    
   X46.7449      Y34.4403      R1.7600    
   X46.3220      Y34.2651      R1.7600    
   X45.8681      Y34.2053      R1.7600    
(Pass: 14)
G1   Z-1.400    
G17 G2   X45.4143      Y34.2651      R1.7600    
   X44.9914      Y34.4403      R1.7600    
   X44.6282      Y34.7189      R1.7600    
   X44.3495      Y35.0821      R1.7600    
   X44.1744      Y35.5050      R1.7600    
   X44.1146      Y35.9589      R1.7600    
   X44.1744      Y36.4127      R1.7600    
   X44.3495      Y36.8356      R1.7600    
   X44.6282      Y37.1988      R1.7600    
   X44.9914      Y37.4775      R1.7600    
   X45.4143      Y37.6527      R1.7600    
   X45.8681      Y37.7124      R1.7600    
   X46.3220      Y37.6527      R1.7600    
   X46.7449      Y37.4775      R1.7600    
   X47.1081      Y37.1988      R1.7600    
   X47.3867      Y36.8356      R1.7600    
   X47.5619      Y36.4127      R1.7600    
   X47.6217      Y35.9589      R1.7600    
   X47.5619      Y35.5050      R1.7600    
   X47.3867      Y35.0821      R1.7600    
   X47.1081      Y34.7189      R1.7600    
   X46.7449      Y34.4403      R1.7600    
   X46.3220      Y34.2651      R1.7600    
   X45.8681      Y34.2053      R1.7600    
(Pass: 15)
G1   Z-1.500    
G17 G2   X45.4143      Y34.2651      R1.7600    
   X44.9914      Y34.4403      R1.7600    
   X44.6282      Y34.7189      R1.7600    
   X44.3495      Y35.0821      R1.7600    
   X44.1744      Y35.5050      R1.7600    
   X44.1146      Y35.9589      R1.7600    
   X44.1744      Y36.4127      R1.7600    
   X44.3495      Y36.8356      R1.7600    
   X44.6282      Y37.1988      R1.7600    
   X44.9914      Y37.4775      R1.7600    
   X45.4143      Y37.6527      R1.7600    
   X45.8681      Y37.7124      R1.7600    
   X46.3220      Y37.6527      R1.7600    
   X46.7449      Y37.4775      R1.7600    
   X47.1081      Y37.1988      R1.7600    
   X47.3867      Y36.8356      R1.7600    
   X47.5619      Y36.4127      R1.7600    
   X47.6217      Y35.9589      R1.7600    
   X47.5619      Y35.5050      R1.7600    
   X47.3867      Y35.0821      R1.7600    
   X47.1081      Y34.7189      R1.7600    
   X46.7449      Y34.4403      R1.7600    
   X46.3220      Y34.2651      R1.7600    
   X45.8681      Y34.2053      R1.7600    
(Pass: 16)
G1   Z-1.600    
G17 G2   X45.4143      Y34.2651      R1.7600    
   X44.9914      Y34.4403      R1.7600    
   X44.6282      Y34.7189      R1.7600    
   X44.3495      Y35.0821      R1.7600    
   X44.1744      Y35.5050      R1.7600    
   X44.1146      Y35.9589      R1.7600    
   X44.1744      Y36.4127      R1.7600    
   X44.3495      Y36.8356      R1.7600    
   X44.6282      Y37.1988      R1.7600    
   X44.9914      Y37.4775      R1.7600    
   X45.4143      Y37.6527      R1.7600    
   X45.8681      Y37.7124      R1.7600    
   X46.3220      Y37.6527      R1.7600    
   X46.7449      Y37.4775      R1.7600    
   X47.1081      Y37.1988      R1.7600    
   X47.3867      Y36.8356      R1.7600    
   X47.5619      Y36.4127      R1.7600    
   X47.6217      Y35.9589      R1.7600    
   X47.5619      Y35.5050      R1.7600    
   X47.3867      Y35.0821      R1.7600    
   X47.1081      Y34.7189      R1.7600    
   X46.7449      Y34.4403      R1.7600    
   X46.3220      Y34.2651      R1.7600    
   X45.8681      Y34.2053      R1.7600    
(Pass: 17)
G1   Z-1.700    
G17 G2   X45.4143      Y34.2651      R1.7600    
   X44.9914      Y34.4403      R1.7600    
   X44.6282      Y34.7189      R1.7600    
   X44.3495      Y35.0821      R1.7600    
   X44.1744      Y35.5050      R1.7600    
   X44.1146      Y35.9589      R1.7600    
   X44.1744      Y36.4127      R1.7600    
   X44.3495      Y36.8356      R1.7600    
   X44.6282      Y37.1988      R1.7600    
   X44.9914      Y37.4775      R1.7600    
   X45.4143      Y37.6527      R1.7600    
   X45.8681      Y37.7124      R1.7600    
   X46.3220      Y37.6527      R1.7600    
   X46.7449      Y37.4775      R1.7600    
   X47.1081      Y37.1988      R1.7600    
   X47.3867      Y36.8356      R1.7600    
   X47.5619      Y36.4127      R1.7600    
   X47.6217      Y35.9589      R1.7600    
   X47.5619      Y35.5050      R1.7600    
   X47.3867      Y35.0821      R1.7600    
   X47.1081      Y34.7189      R1.7600    
   X46.7449      Y34.4403      R1.7600    
   X46.3220      Y34.2651      R1.7600    
   X45.8681      Y34.2053      R1.7600    
(Pass: 18)
G1   Z-1.800    
G17 G2   X45.4143      Y34.2651      R1.7600    
   X44.9914      Y34.4403      R1.7600    
   X44.6282      Y34.7189      R1.7600    
   X44.3495      Y35.0821      R1.7600    
   X44.1744      Y35.5050      R1.7600    
   X44.1146      Y35.9589      R1.7600    
   X44.1744      Y36.4127      R1.7600    
   X44.3495      Y36.8356      R1.7600    
   X44.6282      Y37.1988      R1.7600    
   X44.9914      Y37.4775      R1.7600    
   X45.4143      Y37.6527      R1.7600    
   X45.8681      Y37.7124      R1.7600    
   X46.3220      Y37.6527      R1.7600    
   X46.7449      Y37.4775      R1.7600    
   X47.1081      Y37.1988      R1.7600    
   X47.3867      Y36.8356      R1.7600    
   X47.5619      Y36.4127      R1.7600    
   X47.6217      Y35.9589      R1.7600    
   X47.5619      Y35.5050      R1.7600    
   X47.3867      Y35.0821      R1.7600    
   X47.1081      Y34.7189      R1.7600    
   X46.7449      Y34.4403      R1.7600    
   X46.3220      Y34.2651      R1.7600    
   X45.8681      Y34.2053      R1.7600    
(Pass: 19)
G1   Z-1.900    
G17 G2   X45.4143      Y34.2651      R1.7600    
   X44.9914      Y34.4403      R1.7600    
   X44.6282      Y34.7189      R1.7600    
   X44.3495      Y35.0821      R1.7600    
   X44.1744      Y35.5050      R1.7600    
   X44.1146      Y35.9589      R1.7600    
   X44.1744      Y36.4127      R1.7600    
   X44.3495      Y36.8356      R1.7600    
   X44.6282      Y37.1988      R1.7600    
   X44.9914      Y37.4775      R1.7600    
   X45.4143      Y37.6527      R1.7600    
   X45.8681      Y37.7124      R1.7600    
   X46.3220      Y37.6527      R1.7600    
   X46.7449      Y37.4775      R1.7600    
   X47.1081      Y37.1988      R1.7600    
   X47.3867      Y36.8356      R1.7600    
   X47.5619      Y36.4127      R1.7600    
   X47.6217      Y35.9589      R1.7600    
   X47.5619      Y35.5050      R1.7600    
   X47.3867      Y35.0821      R1.7600    
   X47.1081      Y34.7189      R1.7600    
   X46.7449      Y34.4403      R1.7600    
   X46.3220      Y34.2651      R1.7600    
   X45.8681      Y34.2053      R1.7600    
(Pass: 20)
G1   Z-2.000    
G17 G2   X45.4143      Y34.2651      R1.7600    
   X44.9914      Y34.4403      R1.7600    
   X44.6282      Y34.7189      R1.7600    
   X44.3495      Y35.0821      R1.7600    
   X44.1744      Y35.5050      R1.7600    
   X44.1146      Y35.9589      R1.7600    
   X44.1744      Y36.4127      R1.7600    
   X44.3495      Y36.8356      R1.7600    
   X44.6282      Y37.1988      R1.7600    
   X44.9914      Y37.4775      R1.7600    
   X45.4143      Y37.6527      R1.7600    
   X45.8681      Y37.7124      R1.7600    
   X46.3220      Y37.6527      R1.7600    
   X46.7449      Y37.4775      R1.7600    
   X47.1081      Y37.1988      R1.7600    
   X47.3867      Y36.8356      R1.7600    
   X47.5619      Y36.4127      R1.7600    
   X47.6217      Y35.9589      R1.7600    
   X47.5619      Y35.5050      R1.7600    
   X47.3867      Y35.0821      R1.7600    
   X47.1081      Y34.7189      R1.7600    
   X46.7449      Y34.4403      R1.7600    
   X46.3220      Y34.2651      R1.7600    
   X45.8681      Y34.2053      R1.7600    
(Pass: 21)
G1   Z-2.100    
G17 G2   X45.4143      Y34.2651      R1.7600    
   X44.9914      Y34.4403      R1.7600    
   X44.6282      Y34.7189      R1.7600    
   X44.3495      Y35.0821      R1.7600    
   X44.1744      Y35.5050      R1.7600    
   X44.1146      Y35.9589      R1.7600    
   X44.1744      Y36.4127      R1.7600    
   X44.3495      Y36.8356      R1.7600    
   X44.6282      Y37.1988      R1.7600    
   X44.9914      Y37.4775      R1.7600    
   X45.4143      Y37.6527      R1.7600    
   X45.8681      Y37.7124      R1.7600    
   X46.3220      Y37.6527      R1.7600    
   X46.7449      Y37.4775      R1.7600    
   X47.1081      Y37.1988      R1.7600    
   X47.3867      Y36.8356      R1.7600    
   X47.5619      Y36.4127      R1.7600    
   X47.6217      Y35.9589      R1.7600    
   X47.5619      Y35.5050      R1.7600    
   X47.3867      Y35.0821      R1.7600    
   X47.1081      Y34.7189      R1.7600    
   X46.7449      Y34.4403      R1.7600    
   X46.3220      Y34.2651      R1.7600    
   X45.8681      Y34.2053      R1.7600    
(Pass: 22)
G1   Z-2.200    
G17 G2   X45.4143      Y34.2651      R1.7600    
   X44.9914      Y34.4403      R1.7600    
   X44.6282      Y34.7189      R1.7600    
   X44.3495      Y35.0821      R1.7600    
   X44.1744      Y35.5050      R1.7600    
   X44.1146      Y35.9589      R1.7600    
   X44.1744      Y36.4127      R1.7600    
   X44.3495      Y36.8356      R1.7600    
   X44.6282      Y37.1988      R1.7600    
   X44.9914      Y37.4775      R1.7600    
   X45.4143      Y37.6527      R1.7600    
   X45.8681      Y37.7124      R1.7600    
   X46.3220      Y37.6527      R1.7600    
   X46.7449      Y37.4775      R1.7600    
   X47.1081      Y37.1988      R1.7600    
   X47.3867      Y36.8356      R1.7600    
   X47.5619      Y36.4127      R1.7600    
   X47.6217      Y35.9589      R1.7600    
   X47.5619      Y35.5050      R1.7600    
   X47.3867      Y35.0821      R1.7600    
   X47.1081      Y34.7189      R1.7600    
   X46.7449      Y34.4403      R1.7600    
   X46.3220      Y34.2651      R1.7600    
   X45.8681      Y34.2053      R1.7600    
(Pass: 23)
G1   Z-2.300    
G17 G2   X45.4143      Y34.2651      R1.7600    
   X44.9914      Y34.4403      R1.7600    
   X44.6282      Y34.7189      R1.7600    
   X44.3495      Y35.0821      R1.7600    
   X44.1744      Y35.5050      R1.7600    
   X44.1146      Y35.9589      R1.7600    
   X44.1744      Y36.4127      R1.7600    
   X44.3495      Y36.8356      R1.7600    
   X44.6282      Y37.1988      R1.7600    
   X44.9914      Y37.4775      R1.7600    
   X45.4143      Y37.6527      R1.7600    
   X45.8681      Y37.7124      R1.7600    
   X46.3220      Y37.6527      R1.7600    
   X46.7449      Y37.4775      R1.7600    
   X47.1081      Y37.1988      R1.7600    
   X47.3867      Y36.8356      R1.7600    
   X47.5619      Y36.4127      R1.7600    
   X47.6217      Y35.9589      R1.7600    
   X47.5619      Y35.5050      R1.7600    
   X47.3867      Y35.0821      R1.7600    
   X47.1081      Y34.7189      R1.7600    
   X46.7449      Y34.4403      R1.7600    
   X46.3220      Y34.2651      R1.7600    
   X45.8681      Y34.2053      R1.7600    
(Pass: 24)
G1   Z-2.400    
G17 G2   X45.4143      Y34.2651      R1.7600    
   X44.9914      Y34.4403      R1.7600    
   X44.6282      Y34.7189      R1.7600    
   X44.3495      Y35.0821      R1.7600    
   X44.1744      Y35.5050      R1.7600    
   X44.1146      Y35.9589      R1.7600    
   X44.1744      Y36.4127      R1.7600    
   X44.3495      Y36.8356      R1.7600    
   X44.6282      Y37.1988      R1.7600    
   X44.9914      Y37.4775      R1.7600    
   X45.4143      Y37.6527      R1.7600    
   X45.8681      Y37.7124      R1.7600    
   X46.3220      Y37.6527      R1.7600    
   X46.7449      Y37.4775      R1.7600    
   X47.1081      Y37.1988      R1.7600    
   X47.3867      Y36.8356      R1.7600    
   X47.5619      Y36.4127      R1.7600    
   X47.6217      Y35.9589      R1.7600    
   X47.5619      Y35.5050      R1.7600    
   X47.3867      Y35.0821      R1.7600    
   X47.1081      Y34.7189      R1.7600    
   X46.7449      Y34.4403      R1.7600    
   X46.3220      Y34.2651      R1.7600    
   X45.8681      Y34.2053      R1.7600    
(Pass: 25)
G1   Z-2.500    
G17 G2   X45.4143      Y34.2651      R1.7600    
   X44.9914      Y34.4403      R1.7600    
   X44.6282      Y34.7189      R1.7600    
   X44.3495      Y35.0821      R1.7600    
   X44.1744      Y35.5050      R1.7600    
   X44.1146      Y35.9589      R1.7600    
   X44.1744      Y36.4127      R1.7600    
   X44.3495      Y36.8356      R1.7600    
   X44.6282      Y37.1988      R1.7600    
   X44.9914      Y37.4775      R1.7600    
   X45.4143      Y37.6527      R1.7600    
   X45.8681      Y37.7124      R1.7600    
   X46.3220      Y37.6527      R1.7600    
   X46.7449      Y37.4775      R1.7600    
   X47.1081      Y37.1988      R1.7600    
   X47.3867      Y36.8356      R1.7600    
   X47.5619      Y36.4127      R1.7600    
   X47.6217      Y35.9589      R1.7600    
   X47.5619      Y35.5050      R1.7600    
   X47.3867      Y35.0821      R1.7600    
   X47.1081      Y34.7189      R1.7600    
   X46.7449      Y34.4403      R1.7600    
   X46.3220      Y34.2651      R1.7600    
   X45.8681      Y34.2053      R1.7600    
(Pass: 26)
G1   Z-2.600    
G17 G2   X45.4143      Y34.2651      R1.7600    
   X44.9914      Y34.4403      R1.7600    
   X44.6282      Y34.7189      R1.7600    
   X44.3495      Y35.0821      R1.7600    
   X44.1744      Y35.5050      R1.7600    
   X44.1146      Y35.9589      R1.7600    
   X44.1744      Y36.4127      R1.7600    
   X44.3495      Y36.8356      R1.7600    
   X44.6282      Y37.1988      R1.7600    
   X44.9914      Y37.4775      R1.7600    
   X45.4143      Y37.6527      R1.7600    
   X45.8681      Y37.7124      R1.7600    
   X46.3220      Y37.6527      R1.7600    
   X46.7449      Y37.4775      R1.7600    
   X47.1081      Y37.1988      R1.7600    
   X47.3867      Y36.8356      R1.7600    
   X47.5619      Y36.4127      R1.7600    
   X47.6217      Y35.9589      R1.7600    
   X47.5619      Y35.5050      R1.7600    
   X47.3867      Y35.0821      R1.7600    
   X47.1081      Y34.7189      R1.7600    
   X46.7449      Y34.4403      R1.7600    
   X46.3220      Y34.2651      R1.7600    
   X45.8681      Y34.2053      R1.7600    
(Pass: 27)
G1   Z-2.700    
G17 G2   X45.4143      Y34.2651      R1.7600    
   X44.9914      Y34.4403      R1.7600    
   X44.6282      Y34.7189      R1.7600    
   X44.3495      Y35.0821      R1.7600    
   X44.1744      Y35.5050      R1.7600    
   X44.1146      Y35.9589      R1.7600    
   X44.1744      Y36.4127      R1.7600    
   X44.3495      Y36.8356      R1.7600    
   X44.6282      Y37.1988      R1.7600    
   X44.9914      Y37.4775      R1.7600    
   X45.4143      Y37.6527      R1.7600    
   X45.8681      Y37.7124      R1.7600    
   X46.3220      Y37.6527      R1.7600    
   X46.7449      Y37.4775      R1.7600    
   X47.1081      Y37.1988      R1.7600    
   X47.3867      Y36.8356      R1.7600    
   X47.5619      Y36.4127      R1.7600    
   X47.6217      Y35.9589      R1.7600    
   X47.5619      Y35.5050      R1.7600    
   X47.3867      Y35.0821      R1.7600    
   X47.1081      Y34.7189      R1.7600    
   X46.7449      Y34.4403      R1.7600    
   X46.3220      Y34.2651      R1.7600    
   X45.8681      Y34.2053      R1.7600    
(Pass: 28)
G1   Z-2.800    
G17 G2   X45.4143      Y34.2651      R1.7600    
   X44.9914      Y34.4403      R1.7600    
   X44.6282      Y34.7189      R1.7600    
   X44.3495      Y35.0821      R1.7600    
   X44.1744      Y35.5050      R1.7600    
   X44.1146      Y35.9589      R1.7600    
   X44.1744      Y36.4127      R1.7600    
   X44.3495      Y36.8356      R1.7600    
