%
(Generated by SketchUcam {1.2})
(File: laser.skp)
(Bit diameter: 2.0mm)
(Feed rate: 300.0mm/min)
(Material Thickness: 3.5mm)
(Material length: 600.0mm X width: 300.0mm)
(Overhead Gantry: true)
(Retract feed rate NOT limited to plunge feed rate)
(Multipass enabled, Depth = 0.5mm)
(Optimization is ON)
(www.PhlatBoyz.com)
G90 G21 G49 
M3 S1100
G0   Z5.000     
(Pass: 1)
   X28.756       Y10.379    
G1   Z-0.500     F300 
G17 G2   X28.5008      Y10.9967      R2.5685    
   X28.4135      Y11.6593      R2.5685    
   X28.5008      Y12.3218      R2.5685    
   X28.7565      Y12.9392      R2.5685    
   X29.1633      Y13.4694      R2.5685    
   X29.6935      Y13.8762      R2.5685    
   X30.3109      Y14.1319      R2.5685    
   X30.9734      Y14.2191      R2.5685    
   X31.6360      Y14.1319      R2.5685    
   X32.2533      Y13.8762      R2.5685    
   X32.7835      Y13.4694      R2.5685    
   X33.1903      Y12.9392      R2.5685    
   X33.4461      Y12.3218      R2.5685    
   X33.5333      Y11.6593      R2.5685    
   X33.4461      Y10.9967      R2.5685    
   X33.1903      Y10.3793      R2.5685    
   X32.7835      Y9.8492       R2.5685    
   X32.2533      Y9.4423       R2.5685    
   X31.6360      Y9.1866       R2.5685    
   X30.9734      Y9.0994       R2.5685    
   X30.3109      Y9.1866       R2.5685    
   X29.6935      Y9.4423       R2.5685    
   X29.1633      Y9.8492       R2.5685    
   X28.7565      Y10.3793      R2.5685    
(Pass: 2)
G1   Z-1.000    
G17 G2   X28.5008      Y10.9967      R2.5685    
   X28.4135      Y11.6593      R2.5685    
   X28.5008      Y12.3218      R2.5685    
   X28.7565      Y12.9392      R2.5685    
   X29.1633      Y13.4694      R2.5685    
   X29.6935      Y13.8762      R2.5685    
   X30.3109      Y14.1319      R2.5685    
   X30.9734      Y14.2191      R2.5685    
   X31.6360      Y14.1319      R2.5685    
   X32.2533      Y13.8762      R2.5685    
   X32.7835      Y13.4694      R2.5685    
   X33.1903      Y12.9392      R2.5685    
   X33.4461      Y12.3218      R2.5685    
   X33.5333      Y11.6593      R2.5685    
   X33.4461      Y10.9967      R2.5685    
   X33.1903      Y10.3793      R2.5685    
   X32.7835      Y9.8492       R2.5685    
   X32.2533      Y9.4423       R2.5685    
   X31.6360      Y9.1866       R2.5685    
   X30.9734      Y9.0994       R2.5685    
   X30.3109      Y9.1866       R2.5685    
   X29.6935      Y9.4423       R2.5685    
   X29.1633      Y9.8492       R2.5685    
   X28.7565      Y10.3793      R2.5685    
(Pass: 3)
G1   Z-1.500    
G17 G2   X28.5008      Y10.9967      R2.5685    
   X28.4135      Y11.6593      R2.5685    
   X28.5008      Y12.3218      R2.5685    
   X28.7565      Y12.9392      R2.5685    
   X29.1633      Y13.4694      R2.5685    
   X29.6935      Y13.8762      R2.5685    
   X30.3109      Y14.1319      R2.5685    
   X30.9734      Y14.2191      R2.5685    
   X31.6360      Y14.1319      R2.5685    
   X32.2533      Y13.8762      R2.5685    
   X32.7835      Y13.4694      R2.5685    
   X33.1903      Y12.9392      R2.5685    
   X33.4461      Y12.3218      R2.5685    
   X33.5333      Y11.6593      R2.5685    
   X33.4461      Y10.9967      R2.5685    
   X33.1903      Y10.3793      R2.5685    
   X32.7835      Y9.8492       R2.5685    
   X32.2533      Y9.4423       R2.5685    
   X31.6360      Y9.1866       R2.5685    
   X30.9734      Y9.0994       R2.5685    
   X30.3109      Y9.1866       R2.5685    
   X29.6935      Y9.4423       R2.5685    
   X29.1633      Y9.8492       R2.5685    
   X28.7565      Y10.3793      R2.5685    
(Pass: 4)
G1   Z-2.000    
G17 G2   X28.5008      Y10.9967      R2.5685    
   X28.4135      Y11.6593      R2.5685    
   X28.5008      Y12.3218      R2.5685    
   X28.7565      Y12.9392      R2.5685    
   X29.1633      Y13.4694      R2.5685    
   X29.6935      Y13.8762      R2.5685    
   X30.3109      Y14.1319      R2.5685    
   X30.9734      Y14.2191      R2.5685    
   X31.6360      Y14.1319      R2.5685    
   X32.2533      Y13.8762      R2.5685    
   X32.7835      Y13.4694      R2.5685    
   X33.1903      Y12.9392      R2.5685    
   X33.4461      Y12.3218      R2.5685    
   X33.5333      Y11.6593      R2.5685    
   X33.4461      Y10.9967      R2.5685    
   X33.1903      Y10.3793      R2.5685    
   X32.7835      Y9.8492       R2.5685    
   X32.2533      Y9.4423       R2.5685    
   X31.6360      Y9.1866       R2.5685    
   X30.9734      Y9.0994       R2.5685    
   X30.3109      Y9.1866       R2.5685    
   X29.6935      Y9.4423       R2.5685    
   X29.1633      Y9.8492       R2.5685    
   X28.7565      Y10.3793      R2.5685    
(Pass: 5)
G1   Z-2.500    
G17 G2   X28.5008      Y10.9967      R2.5685    
   X28.4135      Y11.6593      R2.5685    
   X28.5008      Y12.3218      R2.5685    
   X28.7565      Y12.9392      R2.5685    
   X29.1633      Y13.4694      R2.5685    
   X29.6935      Y13.8762      R2.5685    
   X30.3109      Y14.1319      R2.5685    
   X30.9734      Y14.2191      R2.5685    
   X31.6360      Y14.1319      R2.5685    
   X32.2533      Y13.8762      R2.5685    
   X32.7835      Y13.4694      R2.5685    
   X33.1903      Y12.9392      R2.5685    
   X33.4461      Y12.3218      R2.5685    
   X33.5333      Y11.6593      R2.5685    
   X33.4461      Y10.9967      R2.5685    
   X33.1903      Y10.3793      R2.5685    
   X32.7835      Y9.8492       R2.5685    
   X32.2533      Y9.4423       R2.5685    
   X31.6360      Y9.1866       R2.5685    
   X30.9734      Y9.0994       R2.5685    
   X30.3109      Y9.1866       R2.5685    
   X29.6935      Y9.4423       R2.5685    
   X29.1633      Y9.8492       R2.5685    
   X28.7565      Y10.3793      R2.5685    
(Pass: 6)
G1   Z-3.000    
G17 G2   X28.5008      Y10.9967      R2.5685    
   X28.4135      Y11.6593      R2.5685    
   X28.5008      Y12.3218      R2.5685    
   X28.7565      Y12.9392      R2.5685    
   X29.1633      Y13.4694      R2.5685    
   X29.6935      Y13.8762      R2.5685    
   X30.3109      Y14.1319      R2.5685    
   X30.9734      Y14.2191      R2.5685    
   X31.6360      Y14.1319      R2.5685    
   X32.2533      Y13.8762      R2.5685    
   X32.7835      Y13.4694      R2.5685    
   X33.1903      Y12.9392      R2.5685    
   X33.4461      Y12.3218      R2.5685    
   X33.5333      Y11.6593      R2.5685    
   X33.4461      Y10.9967      R2.5685    
   X33.1903      Y10.3793      R2.5685    
   X32.7835      Y9.8492       R2.5685    
   X32.2533      Y9.4423       R2.5685    
   X31.6360      Y9.1866       R2.5685    
   X30.9734      Y9.0994       R2.5685    
   X30.3109      Y9.1866       R2.5685    
   X29.6935      Y9.4423       R2.5685    
   X29.1633      Y9.8492       R2.5685    
   X28.7565      Y10.3793      R2.5685    
(Pass: 7)
G1   Z-3.500    
G17 G2   X28.5008      Y10.9967      R2.5685    
   X28.4135      Y11.6593      R2.5685    
   X28.5008      Y12.3218      R2.5685    
   X28.7565      Y12.9392      R2.5685    
   X29.1633      Y13.4694      R2.5685    
   X29.6935      Y13.8762      R2.5685    
   X30.3109      Y14.1319      R2.5685    
   X30.9734      Y14.2191      R2.5685    
   X31.6360      Y14.1319      R2.5685    
   X32.2533      Y13.8762      R2.5685    
   X32.7835      Y13.4694      R2.5685    
   X33.1903      Y12.9392      R2.5685    
   X33.4461      Y12.3218      R2.5685    
   X33.5333      Y11.6593      R2.5685    
   X33.4461      Y10.9967      R2.5685    
   X33.1903      Y10.3793      R2.5685    
   X32.7835      Y9.8492       R2.5685    
   X32.2533      Y9.4423       R2.5685    
   X31.6360      Y9.1866       R2.5685    
   X30.9734      Y9.0994       R2.5685    
   X30.3109      Y9.1866       R2.5685    
   X29.6935      Y9.4423       R2.5685    
   X29.1633      Y9.8492       R2.5685    
   X28.7565      Y10.3793      R2.5685    
G0   Z5.000     
(Pass: 1)
   X45.862       Y25.598    
G1   Z-0.500     F300 
G17 G2   X45.6232      Y25.9086      R1.5100    
   X45.4732      Y26.2707      R1.5100    
   X45.4220      Y26.6593      R1.5100    
   X45.4732      Y27.0478      R1.5100    
   X45.6232      Y27.4099      R1.5100    
   X45.8618      Y27.7209      R1.5100    
   X46.1727      Y27.9595      R1.5100    
   X46.5348      Y28.1095      R1.5100    
   X46.9234      Y28.1606      R1.5100    
   X47.3120      Y28.1095      R1.5100    
   X47.6741      Y27.9595      R1.5100    
   X47.9850      Y27.7209      R1.5100    
   X48.2236      Y27.4099      R1.5100    
   X48.3736      Y27.0478      R1.5100    
   X48.4248      Y26.6593      R1.5100    
   X48.3736      Y26.2707      R1.5100    
   X48.2236      Y25.9086      R1.5100    
   X47.9850      Y25.5976      R1.5100    
   X47.6741      Y25.3590      R1.5100    
   X47.3120      Y25.2090      R1.5100    
   X46.9234      Y25.1579      R1.5100    
   X46.5348      Y25.2090      R1.5100    
   X46.1727      Y25.3590      R1.5100    
   X45.8618      Y25.5976      R1.5100    
(Pass: 2)
G1   Z-1.000    
G17 G2   X45.6232      Y25.9086      R1.5100    
   X45.4732      Y26.2707      R1.5100    
   X45.4220      Y26.6593      R1.5100    
   X45.4732      Y27.0478      R1.5100    
   X45.6232      Y27.4099      R1.5100    
   X45.8618      Y27.7209      R1.5100    
   X46.1727      Y27.9595      R1.5100    
   X46.5348      Y28.1095      R1.5100    
   X46.9234      Y28.1606      R1.5100    
   X47.3120      Y28.1095      R1.5100    
   X47.6741      Y27.9595      R1.5100    
   X47.9850      Y27.7209      R1.5100    
   X48.2236      Y27.4099      R1.5100    
   X48.3736      Y27.0478      R1.5100    
   X48.4248      Y26.6593      R1.5100    
   X48.3736      Y26.2707      R1.5100    
   X48.2236      Y25.9086      R1.5100    
   X47.9850      Y25.5976      R1.5100    
   X47.6741      Y25.3590      R1.5100    
   X47.3120      Y25.2090      R1.5100    
   X46.9234      Y25.1579      R1.5100    
   X46.5348      Y25.2090      R1.5100    
   X46.1727      Y25.3590      R1.5100    
   X45.8618      Y25.5976      R1.5100    
(Pass: 3)
G1   Z-1.500    
G17 G2   X45.6232      Y25.9086      R1.5100    
   X45.4732      Y26.2707      R1.5100    
   X45.4220      Y26.6593      R1.5100    
   X45.4732      Y27.0478      R1.5100    
   X45.6232      Y27.4099      R1.5100    
   X45.8618      Y27.7209      R1.5100    
   X46.1727      Y27.9595      R1.5100    
   X46.5348      Y28.1095      R1.5100    
   X46.9234      Y28.1606      R1.5100    
   X47.3120      Y28.1095      R1.5100    
   X47.6741      Y27.9595      R1.5100    
   X47.9850      Y27.7209      R1.5100    
   X48.2236      Y27.4099      R1.5100    
   X48.3736      Y27.0478      R1.5100    
   X48.4248      Y26.6593      R1.5100    
   X48.3736      Y26.2707      R1.5100    
   X48.2236      Y25.9086      R1.5100    
   X47.9850      Y25.5976      R1.5100    
   X47.6741      Y25.3590      R1.5100    
   X47.3120      Y25.2090      R1.5100    
   X46.9234      Y25.1579      R1.5100    
   X46.5348      Y25.2090      R1.5100    
   X46.1727      Y25.3590      R1.5100    
   X45.8618      Y25.5976      R1.5100    
(Pass: 4)
G1   Z-2.000    
G17 G2   X45.6232      Y25.9086      R1.5100    
   X45.4732      Y26.2707      R1.5100    
   X45.4220      Y26.6593      R1.5100    
   X45.4732      Y27.0478      R1.5100    
   X45.6232      Y27.4099      R1.5100    
   X45.8618      Y27.7209      R1.5100    
   X46.1727      Y27.9595      R1.5100    
   X46.5348      Y28.1095      R1.5100    
   X46.9234      Y28.1606      R1.5100    
   X47.3120      Y28.1095      R1.5100    
   X47.6741      Y27.9595      R1.5100    
   X47.9850      Y27.7209      R1.5100    
   X48.2236      Y27.4099      R1.5100    
   X48.3736      Y27.0478      R1.5100    
   X48.4248      Y26.6593      R1.5100    
   X48.3736      Y26.2707      R1.5100    
   X48.2236      Y25.9086      R1.5100    
   X47.9850      Y25.5976      R1.5100    
   X47.6741      Y25.3590      R1.5100    
   X47.3120      Y25.2090      R1.5100    
   X46.9234      Y25.1579      R1.5100    
   X46.5348      Y25.2090      R1.5100    
   X46.1727      Y25.3590      R1.5100    
   X45.8618      Y25.5976      R1.5100    
(Pass: 5)
G1   Z-2.500    
G17 G2   X45.6232      Y25.9086      R1.5100    
   X45.4732      Y26.2707      R1.5100    
   X45.4220      Y26.6593      R1.5100    
   X45.4732      Y27.0478      R1.5100    
   X45.6232      Y27.4099      R1.5100    
   X45.8618      Y27.7209      R1.5100    
   X46.1727      Y27.9595      R1.5100    
   X46.5348      Y28.1095      R1.5100    
   X46.9234      Y28.1606      R1.5100    
   X47.3120      Y28.1095      R1.5100    
   X47.6741      Y27.9595      R1.5100    
   X47.9850      Y27.7209      R1.5100    
   X48.2236      Y27.4099      R1.5100    
   X48.3736      Y27.0478      R1.5100    
   X48.4248      Y26.6593      R1.5100    
   X48.3736      Y26.2707      R1.5100    
   X48.2236      Y25.9086      R1.5100    
   X47.9850      Y25.5976      R1.5100    
   X47.6741      Y25.3590      R1.5100    
   X47.3120      Y25.2090      R1.5100    
   X46.9234      Y25.1579      R1.5100    
   X46.5348      Y25.2090      R1.5100    
   X46.1727      Y25.3590      R1.5100    
   X45.8618      Y25.5976      R1.5100    
(Pass: 6)
G1   Z-3.000    
G17 G2   X45.6232      Y25.9086      R1.5100    
   X45.4732      Y26.2707      R1.5100    
   X45.4220      Y26.6593      R1.5100    
   X45.4732      Y27.0478      R1.5100    
   X45.6232      Y27.4099      R1.5100    
   X45.8618      Y27.7209      R1.5100    
   X46.1727      Y27.9595      R1.5100    
   X46.5348      Y28.1095      R1.5100    
   X46.9234      Y28.1606      R1.5100    
   X47.3120      Y28.1095      R1.5100    
   X47.6741      Y27.9595      R1.5100    
   X47.9850      Y27.7209      R1.5100    
   X48.2236      Y27.4099      R1.5100    
   X48.3736      Y27.0478      R1.5100    
   X48.4248      Y26.6593      R1.5100    
   X48.3736      Y26.2707      R1.5100    
   X48.2236      Y25.9086      R1.5100    
   X47.9850      Y25.5976      R1.5100    
   X47.6741      Y25.3590      R1.5100    
   X47.3120      Y25.2090      R1.5100    
   X46.9234      Y25.1579      R1.5100    
   X46.5348      Y25.2090      R1.5100    
   X46.1727      Y25.3590      R1.5100    
   X45.8618      Y25.5976      R1.5100    
(Pass: 7)
G1   Z-3.500    
G17 G2   X45.6232      Y25.9086      R1.5100    
   X45.4732      Y26.2707      R1.5100    
   X45.4220      Y26.6593      R1.5100    
   X45.4732      Y27.0478      R1.5100    
   X45.6232      Y27.4099      R1.5100    
   X45.8618      Y27.7209      R1.5100    
   X46.1727      Y27.9595      R1.5100    
   X46.5348      Y28.1095      R1.5100    
   X46.9234      Y28.1606      R1.5100    
   X47.3120      Y28.1095      R1.5100    
   X47.6741      Y27.9595      R1.5100    
   X47.9850      Y27.7209      R1.5100    
   X48.2236      Y27.4099      R1.5100    
   X48.3736      Y27.0478      R1.5100    
   X48.4248      Y26.6593      R1.5100    
   X48.3736      Y26.2707      R1.5100    
   X48.2236      Y25.9086      R1.5100    
   X47.9850      Y25.5976      R1.5100    
   X47.6741      Y25.3590      R1.5100    
   X47.3120      Y25.2090      R1.5100    
   X46.9234      Y25.1579      R1.5100    
   X46.5348      Y25.2090      R1.5100    
   X46.1727      Y25.3590      R1.5100    
   X45.8618      Y25.5976      R1.5100    
G0   Z5.000     
(Pass: 1)
   X46.923       Y35.158    
G1   Z-0.500     F300 
G17 G2   X46.5348      Y35.2090      R1.5100    
   X46.1727      Y35.3590      R1.5100    
   X45.8618      Y35.5976      R1.5100    
   X45.6232      Y35.9086      R1.5100    
   X45.4732      Y36.2707      R1.5100    
   X45.4220      Y36.6593      R1.5100    
   X45.4732      Y37.0478      R1.5100    
   X45.6232      Y37.4099      R1.5100    
   X45.8618      Y37.7209      R1.5100    
   X46.1727      Y37.9595      R1.5100    
   X46.5348      Y38.1095      R1.5100    
   X46.9234      Y38.1606      R1.5100    
   X47.3120      Y38.1095      R1.5100    
   X47.6741      Y37.9595      R1.5100    
   X47.9850      Y37.7209      R1.5100    
   X48.2236      Y37.4099      R1.5100    
   X48.3736      Y37.0478      R1.5100    
   X48.4248      Y36.6593      R1.5100    
   X48.3736      Y36.2707      R1.5100    
   X48.2236      Y35.9086      R1.5100    
   X47.9850      Y35.5976      R1.5100    
   X47.6741      Y35.3590      R1.5100    
   X47.3120      Y35.2090      R1.5100    
   X46.9234      Y35.1579      R1.5100    
(Pass: 2)
G1   Z-1.000    
G17 G2   X46.5348      Y35.2090      R1.5100    
   X46.1727      Y35.3590      R1.5100    
   X45.8618      Y35.5976      R1.5100    
   X45.6232      Y35.9086      R1.5100    
   X45.4732      Y36.2707      R1.5100    
   X45.4220      Y36.6593      R1.5100    
   X45.4732      Y37.0478      R1.5100    
   X45.6232      Y37.4099      R1.5100    
   X45.8618      Y37.7209      R1.5100    
   X46.1727      Y37.9595      R1.5100    
   X46.5348      Y38.1095      R1.5100    
   X46.9234      Y38.1606      R1.5100    
   X47.3120      Y38.1095      R1.5100    
   X47.6741      Y37.9595      R1.5100    
   X47.9850      Y37.7209      R1.5100    
   X48.2236      Y37.4099      R1.5100    
   X48.3736      Y37.0478      R1.5100    
   X48.4248      Y36.6593      R1.5100    
   X48.3736      Y36.2707      R1.5100    
   X48.2236      Y35.9086      R1.5100    
   X47.9850      Y35.5976      R1.5100    
   X47.6741      Y35.3590      R1.5100    
   X47.3120      Y35.2090      R1.5100    
   X46.9234      Y35.1579      R1.5100    
(Pass: 3)
G1   Z-1.500    
G17 G2   X46.5348      Y35.2090      R1.5100    
   X46.1727      Y35.3590      R1.5100    
   X45.8618      Y35.5976      R1.5100    
   X45.6232      Y35.9086      R1.5100    
   X45.4732      Y36.2707      R1.5100    
   X45.4220      Y36.6593      R1.5100    
   X45.4732      Y37.0478      R1.5100    
   X45.6232      Y37.4099      R1.5100    
   X45.8618      Y37.7209      R1.5100    
   X46.1727      Y37.9595      R1.5100    
   X46.5348      Y38.1095      R1.5100    
   X46.9234      Y38.1606      R1.5100    
   X47.3120      Y38.1095      R1.5100    
   X47.6741      Y37.9595      R1.5100    
   X47.9850      Y37.7209      R1.5100    
   X48.2236      Y37.4099      R1.5100    
   X48.3736      Y37.0478      R1.5100    
   X48.4248      Y36.6593      R1.5100    
   X48.3736      Y36.2707      R1.5100    
   X48.2236      Y35.9086      R1.5100    
   X47.9850      Y35.5976      R1.5100    
   X47.6741      Y35.3590      R1.5100    
   X47.3120      Y35.2090      R1.5100    
   X46.9234      Y35.1579      R1.5100    
(Pass: 4)
G1   Z-2.000    
G17 G2   X46.5348      Y35.2090      R1.5100    
   X46.1727      Y35.3590      R1.5100    
   X45.8618      Y35.5976      R1.5100    
   X45.6232      Y35.9086      R1.5100    
   X45.4732      Y36.2707      R1.5100    
   X45.4220      Y36.6593      R1.5100    
   X45.4732      Y37.0478      R1.5100    
   X45.6232      Y37.4099      R1.5100    
   X45.8618      Y37.7209      R1.5100    
   X46.1727      Y37.9595      R1.5100    
   X46.5348      Y38.1095      R1.5100    
   X46.9234      Y38.1606      R1.5100    
   X47.3120      Y38.1095      R1.5100    
   X47.6741      Y37.9595      R1.5100    
   X47.9850      Y37.7209      R1.5100    
   X48.2236      Y37.4099      R1.5100    
   X48.3736      Y37.0478      R1.5100    
   X48.4248      Y36.6593      R1.5100    
   X48.3736      Y36.2707      R1.5100    
   X48.2236      Y35.9086      R1.5100    
   X47.9850      Y35.5976      R1.5100    
   X47.6741      Y35.3590      R1.5100    
   X47.3120      Y35.2090      R1.5100    
   X46.9234      Y35.1579      R1.5100    
(Pass: 5)
G1   Z-2.500    
G17 G2   X46.5348      Y35.2090      R1.5100    
   X46.1727      Y35.3590      R1.5100    
   X45.8618      Y35.5976      R1.5100    
   X45.6232      Y35.9086      R1.5100    
   X45.4732      Y36.2707      R1.5100    
   X45.4220      Y36.6593      R1.5100    
   X45.4732      Y37.0478      R1.5100    
   X45.6232      Y37.4099      R1.5100    
   X45.8618      Y37.7209      R1.5100    
   X46.1727      Y37.9595      R1.5100    
   X46.5348      Y38.1095      R1.5100    
   X46.9234      Y38.1606      R1.5100    
   X47.3120      Y38.1095      R1.5100    
   X47.6741      Y37.9595      R1.5100    
   X47.9850      Y37.7209      R1.5100    
   X48.2236      Y37.4099      R1.5100    
   X48.3736      Y37.0478      R1.5100    
   X48.4248      Y36.6593      R1.5100    
   X48.3736      Y36.2707      R1.5100    
   X48.2236      Y35.9086      R1.5100    
   X47.9850      Y35.5976      R1.5100    
   X47.6741      Y35.3590      R1.5100    
   X47.3120      Y35.2090      R1.5100    
   X46.9234      Y35.1579      R1.5100    
(Pass: 6)
G1   Z-3.000    
G17 G2   X46.5348      Y35.2090      R1.5100    
   X46.1727      Y35.3590      R1.5100    
   X45.8618      Y35.5976      R1.5100    
   X45.6232      Y35.9086      R1.5100    
   X45.4732      Y36.2707      R1.5100    
   X45.4220      Y36.6593      R1.5100    
   X45.4732      Y37.0478      R1.5100    
   X45.6232      Y37.4099      R1.5100    
   X45.8618      Y37.7209      R1.5100    
   X46.1727      Y37.9595      R1.5100    
   X46.5348      Y38.1095      R1.5100    
   X46.9234      Y38.1606      R1.5100    
   X47.3120      Y38.1095      R1.5100    
   X47.6741      Y37.9595      R1.5100    
   X47.9850      Y37.7209      R1.5100    
   X48.2236      Y37.4099      R1.5100    
   X48.3736      Y37.0478      R1.5100    
   X48.4248      Y36.6593      R1.5100    
   X48.3736      Y36.2707      R1.5100    
   X48.2236      Y35.9086      R1.5100    
   X47.9850      Y35.5976      R1.5100    
   X47.6741      Y35.3590      R1.5100    
   X47.3120      Y35.2090      R1.5100    
   X46.9234      Y35.1579      R1.5100    
(Pass: 7)
G1   Z-3.500    
G17 G2   X46.5348      Y35.2090      R1.5100    
   X46.1727      Y35.3590      R1.5100    
   X45.8618      Y35.5976      R1.5100    
   X45.6232      Y35.9086      R1.5100    
   X45.4732      Y36.2707      R1.5100    
   X45.4220      Y36.6593      R1.5100    
   X45.4732      Y37.0478      R1.5100    
   X45.6232      Y37.4099      R1.5100    
   X45.8618      Y37.7209      R1.5100    
   X46.1727      Y37.9595      R1.5100    
   X46.5348      Y38.1095      R1.5100    
   X46.9234      Y38.1606      R1.5100    
   X47.3120      Y38.1095      R1.5100    
   X47.6741      Y37.9595      R1.5100    
   X47.9850      Y37.7209      R1.5100    
   X48.2236      Y37.4099      R1.5100    
   X48.3736      Y37.0478      R1.5100    
   X48.4248      Y36.6593      R1.5100    
   X48.3736      Y36.2707      R1.5100    
   X48.2236      Y35.9086      R1.5100    
   X47.9850      Y35.5976      R1.5100    
   X47.6741      Y35.3590      R1.5100    
   X47.3120      Y35.2090      R1.5100    
   X46.9234      Y35.1579      R1.5100    
G0   Z5.000     
(Pass: 1)
   Y45.158    
G1   Z-0.500     F300 
G17 G2   X46.5348      Y45.2090      R1.5100    
   X46.1727      Y45.3590      R1.5100    
   X45.8618      Y45.5976      R1.5100    
   X45.6232      Y45.9086      R1.5100    
   X45.4732      Y46.2707      R1.5100    
   X45.4220      Y46.6593      R1.5100    
   X45.4732      Y47.0478      R1.5100    
   X45.6232      Y47.4099      R1.5100    
   X45.8618      Y47.7209      R1.5100    
   X46.1727      Y47.9595      R1.5100    
   X46.5348      Y48.1095      R1.5100    
   X46.9234      Y48.1606      R1.5100    
   X47.3120      Y48.1095      R1.5100    
   X47.6741      Y47.9595      R1.5100    
   X47.9850      Y47.7209      R1.5100    
   X48.2236      Y47.4099      R1.5100    
   X48.3736      Y47.0478      R1.5100    
   X48.4248      Y46.6593      R1.5100    
   X48.3736      Y46.2707      R1.5100    
   X48.2236      Y45.9086      R1.5100    
   X47.9850      Y45.5976      R1.5100    
   X47.6741      Y45.3590      R1.5100    
   X47.3120      Y45.2090      R1.5100    
   X46.9234      Y45.1579      R1.5100    
(Pass: 2)
G1   Z-1.000    
G17 G2   X46.5348      Y45.2090      R1.5100    
   X46.1727      Y45.3590      R1.5100    
   X45.8618      Y45.5976      R1.5100    
   X45.6232      Y45.9086      R1.5100    
   X45.4732      Y46.2707      R1.5100    
   X45.4220      Y46.6593      R1.5100    
   X45.4732      Y47.0478      R1.5100    
   X45.6232      Y47.4099      R1.5100    
   X45.8618      Y47.7209      R1.5100    
   X46.1727      Y47.9595      R1.5100    
   X46.5348      Y48.1095      R1.5100    
   X46.9234      Y48.1606      R1.5100    
   X47.3120      Y48.1095      R1.5100    
   X47.6741      Y47.9595      R1.5100    
   X47.9850      Y47.7209      R1.5100    
   X48.2236      Y47.4099      R1.5100    
   X48.3736      Y47.0478      R1.5100    
   X48.4248      Y46.6593      R1.5100    
   X48.3736      Y46.2707      R1.5100    
   X48.2236      Y45.9086      R1.5100    
   X47.9850      Y45.5976      R1.5100    
   X47.6741      Y45.3590      R1.5100    
   X47.3120      Y45.2090      R1.5100    
   X46.9234      Y45.1579      R1.5100    
(Pass: 3)
G1   Z-1.500    
G17 G2   X46.5348      Y45.2090      R1.5100    
   X46.1727      Y45.3590      R1.5100    
   X45.8618      Y45.5976      R1.5100    
   X45.6232      Y45.9086      R1.5100    
   X45.4732      Y46.2707      R1.5100    
   X45.4220      Y46.6593      R1.5100    
   X45.4732      Y47.0478      R1.5100    
   X45.6232      Y47.4099      R1.5100    
   X45.8618      Y47.7209      R1.5100    
   X46.1727      Y47.9595      R1.5100    
   X46.5348      Y48.1095      R1.5100    
   X46.9234      Y48.1606      R1.5100    
   X47.3120      Y48.1095      R1.5100    
   X47.6741      Y47.9595      R1.5100    
   X47.9850      Y47.7209      R1.5100    
   X48.2236      Y47.4099      R1.5100    
   X48.3736      Y47.0478      R1.5100    
   X48.4248      Y46.6593      R1.5100    
   X48.3736      Y46.2707      R1.5100    
   X48.2236      Y45.9086      R1.5100    
   X47.9850      Y45.5976      R1.5100    
   X47.6741      Y45.3590      R1.5100    
   X47.3120      Y45.2090      R1.5100    
   X46.9234      Y45.1579      R1.5100    
(Pass: 4)
G1   Z-2.000    
G17 G2   X46.5348      Y45.2090      R1.5100    
   X46.1727      Y45.3590      R1.5100    
   X45.8618      Y45.5976      R1.5100    
   X45.6232      Y45.9086      R1.5100    
   X45.4732      Y46.2707      R1.5100    
   X45.4220      Y46.6593      R1.5100    
   X45.4732      Y47.0478      R1.5100    
   X45.6232      Y47.4099      R1.5100    
   X45.8618      Y47.7209      R1.5100    
   X46.1727      Y47.9595      R1.5100    
   X46.5348      Y48.1095      R1.5100    
   X46.9234      Y48.1606      R1.5100    
   X47.3120      Y48.1095      R1.5100    
   X47.6741      Y47.9595      R1.5100    
   X47.9850      Y47.7209      R1.5100    
   X48.2236      Y47.4099      R1.5100    
   X48.3736      Y47.0478      R1.5100    
   X48.4248      Y46.6593      R1.5100    
   X48.3736      Y46.2707      R1.5100    
   X48.2236      Y45.9086      R1.5100    
   X47.9850      Y45.5976      R1.5100    
   X47.6741      Y45.3590      R1.5100    
   X47.3120      Y45.2090      R1.5100    
   X46.9234      Y45.1579      R1.5100    
(Pass: 5)
G1   Z-2.500    
G17 G2   X46.5348      Y45.2090      R1.5100    
   X46.1727      Y45.3590      R1.5100    
   X45.8618      Y45.5976      R1.5100    
   X45.6232      Y45.9086      R1.5100    
   X45.4732      Y46.2707      R1.5100    
   X45.4220      Y46.6593      R1.5100    
   X45.4732      Y47.0478      R1.5100    
   X45.6232      Y47.4099      R1.5100    
   X45.8618      Y47.7209      R1.5100    
   X46.1727      Y47.9595      R1.5100    
   X46.5348      Y48.1095      R1.5100    
   X46.9234      Y48.1606      R1.5100    
   X47.3120      Y48.1095      R1.5100    
   X47.6741      Y47.9595      R1.5100    
   X47.9850      Y47.7209      R1.5100    
   X48.2236      Y47.4099      R1.5100    
   X48.3736      Y47.0478      R1.5100    
   X48.4248      Y46.6593      R1.5100    
   X48.3736      Y46.2707      R1.5100    
   X48.2236      Y45.9086      R1.5100    
   X47.9850      Y45.5976      R1.5100    
   X47.6741      Y45.3590      R1.5100    
   X47.3120      Y45.2090      R1.5100    
   X46.9234      Y45.1579      R1.5100    
(Pass: 6)
G1   Z-3.000    
G17 G2   X46.5348      Y45.2090      R1.5100    
   X46.1727      Y45.3590      R1.5100    
   X45.8618      Y45.5976      R1.5100    
   X45.6232      Y45.9086      R1.5100    
   X45.4732      Y46.2707      R1.5100    
   X45.4220      Y46.6593      R1.5100    
   X45.4732      Y47.0478      R1.5100    
   X45.6232      Y47.4099      R1.5100    
   X45.8618      Y47.7209      R1.5100    
   X46.1727      Y47.9595      R1.5100    
   X46.5348      Y48.1095      R1.5100    
   X46.9234      Y48.1606      R1.5100    
   X47.3120      Y48.1095      R1.5100    
   X47.6741      Y47.9595      R1.5100    
   X47.9850      Y47.7209      R1.5100    
   X48.2236      Y47.4099      R1.5100    
   X48.3736      Y47.0478      R1.5100    
   X48.4248      Y46.6593      R1.5100    
   X48.3736      Y46.2707      R1.5100    
   X48.2236      Y45.9086      R1.5100    
   X47.9850      Y45.5976      R1.5100    
   X47.6741      Y45.3590      R1.5100    
   X47.3120      Y45.2090      R1.5100    
   X46.9234      Y45.1579      R1.5100    
(Pass: 7)
G1   Z-3.500    
G17 G2   X46.5348      Y45.2090      R1.5100    
   X46.1727      Y45.3590      R1.5100    
   X45.8618      Y45.5976      R1.5100    
   X45.6232      Y45.9086      R1.5100    
   X45.4732      Y46.2707      R1.5100    
   X45.4220      Y46.6593      R1.5100    
   X45.4732      Y47.0478      R1.5100    
   X45.6232      Y47.4099      R1.5100    
   X45.8618      Y47.7209      R1.5100    
   X46.1727      Y47.9595      R1.5100    
   X46.5348      Y48.1095      R1.5100    
   X46.9234      Y48.1606      R1.5100    
   X47.3120      Y48.1095      R1.5100    
   X47.6741      Y47.9595      R1.5100    
   X47.9850      Y47.7209      R1.5100    
   X48.2236      Y47.4099      R1.5100    
   X48.3736      Y47.0478      R1.5100    
   X48.4248      Y46.6593      R1.5100    
   X48.3736      Y46.2707      R1.5100    
   X48.2236      Y45.9086      R1.5100    
   X47.9850      Y45.5976      R1.5100    
   X47.6741      Y45.3590      R1.5100    
   X47.3120      Y45.2090      R1.5100    
   X46.9234      Y45.1579      R1.5100    
G0   Z5.000     
(Pass: 1)
   X55.613       Y37.410    
G1   Z-0.500     F300 
G17 G2   X55.8518      Y37.7209      R1.5100    
   X56.1627      Y37.9595      R1.5100    
   X56.5248      Y38.1095      R1.5100    
   X56.9134      Y38.1606      R1.5100    
   X57.3020      Y38.1095      R1.5100    
   X57.6641      Y37.9595      R1.5100    
   X57.9750      Y37.7209      R1.5100    
   X58.2136      Y37.4099      R1.5100    
   X58.3636      Y37.0478      R1.5100    
   X58.4148      Y36.6593      R1.5100    
   X58.3636      Y36.2707      R1.5100    
   X58.2136      Y35.9086      R1.5100    
   X57.9750      Y35.5976      R1.5100    
   X57.6641      Y35.3590      R1.5100    
   X57.3020      Y35.2090      R1.5100    
   X56.9134      Y35.1579      R1.5100    
   X56.5248      Y35.2090      R1.5100    
   X56.1627      Y35.3590      R1.5100    
   X55.8518      Y35.5976      R1.5100    
   X55.6132      Y35.9086      R1.5100    
   X55.4632      Y36.2707      R1.5100    
   X55.4120      Y36.6593      R1.5100    
   X55.4632      Y37.0478      R1.5100    
   X55.6132      Y37.4099      R1.5100    
(Pass: 2)
G1   Z-1.000    
G17 G2   X55.8518      Y37.7209      R1.5100    
   X56.1627      Y37.9595      R1.5100    
   X56.5248      Y38.1095      R1.5100    
   X56.9134      Y38.1606      R1.5100    
   X57.3020      Y38.1095      R1.5100    
   X57.6641      Y37.9595      R1.5100    
   X57.9750      Y37.7209      R1.5100    
   X58.2136      Y37.4099      R1.5100    
   X58.3636      Y37.0478      R1.5100    
   X58.4148      Y36.6593      R1.5100    
   X58.3636      Y36.2707      R1.5100    
   X58.2136      Y35.9086      R1.5100    
   X57.9750      Y35.5976      R1.5100    
   X57.6641      Y35.3590      R1.5100    
   X57.3020      Y35.2090      R1.5100    
   X56.9134      Y35.1579      R1.5100    
   X56.5248      Y35.2090      R1.5100    
   X56.1627      Y35.3590      R1.5100    
   X55.8518      Y35.5976      R1.5100    
   X55.6132      Y35.9086      R1.5100    
   X55.4632      Y36.2707      R1.5100    
   X55.4120      Y36.6593      R1.5100    
   X55.4632      Y37.0478      R1.5100    
   X55.6132      Y37.4099      R1.5100    
(Pass: 3)
G1   Z-1.500    
G17 G2   X55.8518      Y37.7209      R1.5100    
   X56.1627      Y37.9595      R1.5100    
   X56.5248      Y38.1095      R1.5100    
   X56.9134      Y38.1606      R1.5100    
   X57.3020      Y38.1095      R1.5100    
   X57.6641      Y37.9595      R1.5100    
   X57.9750      Y37.7209      R1.5100    
   X58.2136      Y37.4099      R1.5100    
   X58.3636      Y37.0478      R1.5100    
   X58.4148      Y36.6593      R1.5100    
   X58.3636      Y36.2707      R1.5100    
   X58.2136      Y35.9086      R1.5100    
   X57.9750      Y35.5976      R1.5100    
   X57.6641      Y35.3590      R1.5100    
   X57.3020      Y35.2090      R1.5100    
   X56.9134      Y35.1579      R1.5100    
   X56.5248      Y35.2090      R1.5100    
   X56.1627      Y35.3590      R1.5100    
   X55.8518      Y35.5976      R1.5100    
   X55.6132      Y35.9086      R1.5100    
   X55.4632      Y36.2707      R1.5100    
   X55.4120      Y36.6593      R1.5100    
   X55.4632      Y37.0478      R1.5100    
   X55.6132      Y37.4099      R1.5100    
(Pass: 4)
G1   Z-2.000    
G17 G2   X55.8518      Y37.7209      R1.5100    
   X56.1627      Y37.9595      R1.5100    
   X56.5248      Y38.1095      R1.5100    
   X56.9134      Y38.1606      R1.5100    
   X57.3020      Y38.1095      R1.5100    
   X57.6641      Y37.9595      R1.5100    
   X57.9750      Y37.7209      R1.5100    
   X58.2136      Y37.4099      R1.5100    
   X58.3636      Y37.0478      R1.5100    
   X58.4148      Y36.6593      R1.5100    
   X58.3636      Y36.2707      R1.5100    
   X58.2136      Y35.9086      R1.5100    
   X57.9750      Y35.5976      R1.5100    
   X57.6641      Y35.3590      R1.5100    
   X57.3020      Y35.2090      R1.5100    
   X56.9134      Y35.1579      R1.5100    
   X56.5248      Y35.2090      R1.5100    
   X56.1627      Y35.3590      R1.5100    
   X55.8518      Y35.5976      R1.5100    
   X55.6132      Y35.9086      R1.5100    
   X55.4632      Y36.2707      R1.5100    
   X55.4120      Y36.6593      R1.5100    
   X55.4632      Y37.0478      R1.5100    
   X55.6132      Y37.4099      R1.5100    
(Pass: 5)
G1   Z-2.500    
G17 G2   X55.8518      Y37.7209      R1.5100    
   X56.1627      Y37.9595      R1.5100    
   X56.5248      Y38.1095      R1.5100    
   X56.9134      Y38.1606      R1.5100    
   X57.3020      Y38.1095      R1.5100    
   X57.6641      Y37.9595      R1.5100    
   X57.9750      Y37.7209      R1.5100    
   X58.2136      Y37.4099      R1.5100    
   X58.3636      Y37.0478      R1.5100    
   X58.4148      Y36.6593      R1.5100    
   X58.3636      Y36.2707      R1.5100    
   X58.2136      Y35.9086      R1.5100    
   X57.9750      Y35.5976      R1.5100    
   X57.6641      Y35.3590      R1.5100    
   X57.3020      Y35.2090      R1.5100    
   X56.9134      Y35.1579      R1.5100    
   X56.5248      Y35.2090      R1.5100    
   X56.1627      Y35.3590      R1.5100    
   X55.8518      Y35.5976      R1.5100    
   X55.6132      Y35.9086      R1.5100    
   X55.4632      Y36.2707      R1.5100    
   X55.4120      Y36.6593      R1.5100    
   X55.4632      Y37.0478      R1.5100    
   X55.6132      Y37.4099      R1.5100    
(Pass: 6)
G1   Z-3.000    
G17 G2   X55.8518      Y37.7209      R1.5100    
   X56.1627      Y37.9595      R1.5100    
   X56.5248      Y38.1095      R1.5100    
   X56.9134      Y38.1606      R1.5100    
   X57.3020      Y38.1095      R1.5100    
   X57.6641      Y37.9595      R1.5100    
   X57.9750      Y37.7209      R1.5100    
   X58.2136      Y37.4099      R1.5100    
   X58.3636      Y37.0478      R1.5100    
   X58.4148      Y36.6593      R1.5100    
   X58.3636      Y36.2707      R1.5100    
   X58.2136      Y35.9086      R1.5100    
   X57.9750      Y35.5976      R1.5100    
   X57.6641      Y35.3590      R1.5100    
   X57.3020      Y35.2090      R1.5100    
   X56.9134      Y35.1579      R1.5100    
   X56.5248      Y35.2090      R1.5100    
   X56.1627      Y35.3590      R1.5100    
   X55.8518      Y35.5976      R1.5100    
   X55.6132      Y35.9086      R1.5100    
   X55.4632      Y36.2707      R1.5100    
   X55.4120      Y36.6593      R1.5100    
   X55.4632      Y37.0478      R1.5100    
   X55.6132      Y37.4099      R1.5100    
(Pass: 7)
G1   Z-3.500    
G17 G2   X55.8518      Y37.7209      R1.5100    
   X56.1627      Y37.9595      R1.5100    
   X56.5248      Y38.1095      R1.5100    
   X56.9134      Y38.1606      R1.5100    
   X57.3020      Y38.1095      R1.5100    
   X57.6641      Y37.9595      R1.5100    
   X57.9750      Y37.7209      R1.5100    
   X58.2136      Y37.4099      R1.5100    
   X58.3636      Y37.0478      R1.5100    
   X58.4148      Y36.6593      R1.5100    
   X58.3636      Y36.2707      R1.5100    
   X58.2136      Y35.9086      R1.5100    
   X57.9750      Y35.5976      R1.5100    
   X57.6641      Y35.3590      R1.5100    
   X57.3020      Y35.2090      R1.5100    
   X56.9134      Y35.1579      R1.5100    
   X56.5248      Y35.2090      R1.5100    
   X56.1627      Y35.3590      R1.5100    
   X55.8518      Y35.5976      R1.5100    
   X55.6132      Y35.9086      R1.5100    
   X55.4632      Y36.2707      R1.5100    
   X55.4120      Y36.6593      R1.5100    
   X55.4632      Y37.0478      R1.5100    
   X55.6132      Y37.4099      R1.5100    
G0   Z5.000     
(Pass: 1)
   X38.415       Y36.659    
G1   Z-0.500     F300 
G17 G2   X38.3636      Y36.2707      R1.5100    
   X38.2136      Y35.9086      R1.5100    
   X37.9750      Y35.5976      R1.5100    
   X37.6641      Y35.3590      R1.5100    
   X37.3020      Y35.2090      R1.5100    
   X36.9134      Y35.1579      R1.5100    
   X36.5248      Y35.2090      R1.5100    
   X36.1627      Y35.3590      R1.5100    
   X35.8518      Y35.5976      R1.5100    
   X35.6132      Y35.9086      R1.5100    
   X35.4632      Y36.2707      R1.5100    
   X35.4120      Y36.6593      R1.5100    
   X35.4632      Y37.0478      R1.5100    
   X35.6132      Y37.4099      R1.5100    
   X35.8518      Y37.7209      R1.5100    
   X36.1627      Y37.9595      R1.5100    
   X36.5248      Y38.1095      R1.5100    
   X36.9134      Y38.1606      R1.5100    
   X37.3020      Y38.1095      R1.5100    
   X37.6641      Y37.9595      R1.5100    
   X37.9750      Y37.7209      R1.5100    
   X38.2136      Y37.4099      R1.5100    
   X38.3636      Y37.0478      R1.5100    
   X38.4148      Y36.6593      R1.5100    
(Pass: 2)
G1   Z-1.000    
G17 G2   X38.3636      Y36.2707      R1.5100    
   X38.2136      Y35.9086      R1.5100    
   X37.9750      Y35.5976      R1.5100    
   X37.6641      Y35.3590      R1.5100    
   X37.3020      Y35.2090      R1.5100    
   X36.9134      Y35.1579      R1.5100    
   X36.5248      Y35.2090      R1.5100    
   X36.1627      Y35.3590      R1.5100    
   X35.8518      Y35.5976      R1.5100    
   X35.6132      Y35.9086      R1.5100    
   X35.4632      Y36.2707      R1.5100    
   X35.4120      Y36.6593      R1.5100    
   X35.4632      Y37.0478      R1.5100    
   X35.6132      Y37.4099      R1.5100    
   X35.8518      Y37.7209      R1.5100    
   X36.1627      Y37.9595      R1.5100    
   X36.5248      Y38.1095      R1.5100    
   X36.9134      Y38.1606      R1.5100    
   X37.3020      Y38.1095      R1.5100    
   X37.6641      Y37.9595      R1.5100    
   X37.9750      Y37.7209      R1.5100    
   X38.2136      Y37.4099      R1.5100    
   X38.3636      Y37.0478      R1.5100    
   X38.4148      Y36.6593      R1.5100    
(Pass: 3)
G1   Z-1.500    
G17 G2   X38.3636      Y36.2707      R1.5100    
   X38.2136      Y35.9086      R1.5100    
   X37.9750      Y35.5976      R1.5100    
   X37.6641      Y35.3590      R1.5100    
   X37.3020      Y35.2090      R1.5100    
   X36.9134      Y35.1579      R1.5100    
   X36.5248      Y35.2090      R1.5100    
   X36.1627      Y35.3590      R1.5100    
   X35.8518      Y35.5976      R1.5100    
   X35.6132      Y35.9086      R1.5100    
   X35.4632      Y36.2707      R1.5100    
   X35.4120      Y36.6593      R1.5100    
   X35.4632      Y37.0478      R1.5100    
   X35.6132      Y37.4099      R1.5100    
   X35.8518      Y37.7209      R1.5100    
   X36.1627      Y37.9595      R1.5100    
   X36.5248      Y38.1095      R1.5100    
   X36.9134      Y38.1606      R1.5100    
   X37.3020      Y38.1095      R1.5100    
   X37.6641      Y37.9595      R1.5100    
   X37.9750      Y37.7209      R1.5100    
   X38.2136      Y37.4099      R1.5100    
   X38.3636      Y37.0478      R1.5100    
   X38.4148      Y36.6593      R1.5100    
(Pass: 4)
G1   Z-2.000    
G17 G2   X38.3636      Y36.2707      R1.5100    
   X38.2136      Y35.9086      R1.5100    
   X37.9750      Y35.5976      R1.5100    
   X37.6641      Y35.3590      R1.5100    
   X37.3020      Y35.2090      R1.5100    
   X36.9134      Y35.1579      R1.5100    
   X36.5248      Y35.2090      R1.5100    
   X36.1627      Y35.3590      R1.5100    
   X35.8518      Y35.5976      R1.5100    
   X35.6132      Y35.9086      R1.5100    
   X35.4632      Y36.2707      R1.5100    
   X35.4120      Y36.6593      R1.5100    
   X35.4632      Y37.0478      R1.5100    
   X35.6132      Y37.4099      R1.5100    
   X35.8518      Y37.7209      R1.5100    
   X36.1627      Y37.9595      R1.5100    
   X36.5248      Y38.1095      R1.5100    
   X36.9134      Y38.1606      R1.5100    
   X37.3020      Y38.1095      R1.5100    
   X37.6641      Y37.9595      R1.5100    
   X37.9750      Y37.7209      R1.5100    
   X38.2136      Y37.4099      R1.5100    
   X38.3636      Y37.0478      R1.5100    
   X38.4148      Y36.6593      R1.5100    
(Pass: 5)
G1   Z-2.500    
G17 G2   X38.3636      Y36.2707      R1.5100    
   X38.2136      Y35.9086      R1.5100    
   X37.9750      Y35.5976      R1.5100    
   X37.6641      Y35.3590      R1.5100    
   X37.3020      Y35.2090      R1.5100    
   X36.9134      Y35.1579      R1.5100    
   X36.5248      Y35.2090      R1.5100    
   X36.1627      Y35.3590      R1.5100    
   X35.8518      Y35.5976      R1.5100    
   X35.6132      Y35.9086      R1.5100    
   X35.4632      Y36.2707      R1.5100    
   X35.4120      Y36.6593      R1.5100    
   X35.4632      Y37.0478      R1.5100    
   X35.6132      Y37.4099      R1.5100    
   X35.8518      Y37.7209      R1.5100    
   X36.1627      Y37.9595      R1.5100    
   X36.5248      Y38.1095      R1.5100    
   X36.9134      Y38.1606      R1.5100    
   X37.3020      Y38.1095      R1.5100    
   X37.6641      Y37.9595      R1.5100    
   X37.9750      Y37.7209      R1.5100    
   X38.2136      Y37.4099      R1.5100    
   X38.3636      Y37.0478      R1.5100    
   X38.4148      Y36.6593      R1.5100    
(Pass: 6)
G1   Z-3.000    
G17 G2   X38.3636      Y36.2707      R1.5100    
   X38.2136      Y35.9086      R1.5100    
   X37.9750      Y35.5976      R1.5100    
   X37.6641      Y35.3590      R1.5100    
   X37.3020      Y35.2090      R1.5100    
   X36.9134      Y35.1579      R1.5100    
   X36.5248      Y35.2090      R1.5100    
   X36.1627      Y35.3590      R1.5100    
   X35.8518      Y35.5976      R1.5100    
   X35.6132      Y35.9086      R1.5100    
   X35.4632      Y36.2707      R1.5100    
   X35.4120      Y36.6593      R1.5100    
   X35.4632      Y37.0478      R1.5100    
   X35.6132      Y37.4099      R1.5100    
   X35.8518      Y37.7209      R1.5100    
   X36.1627      Y37.9595      R1.5100    
   X36.5248      Y38.1095      R1.5100    
   X36.9134      Y38.1606      R1.5100    
   X37.3020      Y38.1095      R1.5100    
   X37.6641      Y37.9595      R1.5100    
   X37.9750      Y37.7209      R1.5100    
   X38.2136      Y37.4099      R1.5100    
   X38.3636      Y37.0478      R1.5100    
   X38.4148      Y36.6593      R1.5100    
(Pass: 7)
G1   Z-3.500    
G17 G2   X38.3636      Y36.2707      R1.5100    
   X38.2136      Y35.9086      R1.5100    
   X37.9750      Y35.5976      R1.5100    
   X37.6641      Y35.3590      R1.5100    
   X37.3020      Y35.2090      R1.5100    
   X36.9134      Y35.1579      R1.5100    
   X36.5248      Y35.2090      R1.5100    
   X36.1627      Y35.3590      R1.5100    
   X35.8518      Y35.5976      R1.5100    
   X35.6132      Y35.9086      R1.5100    
   X35.4632      Y36.2707      R1.5100    
   X35.4120      Y36.6593      R1.5100    
   X35.4632      Y37.0478      R1.5100    
   X35.6132      Y37.4099      R1.5100    
   X35.8518      Y37.7209      R1.5100    
   X36.1627      Y37.9595      R1.5100    
   X36.5248      Y38.1095      R1.5100    
   X36.9134      Y38.1606      R1.5100    
   X37.3020      Y38.1095      R1.5100    
   X37.6641      Y37.9595      R1.5100    
   X37.9750      Y37.7209      R1.5100    
   X38.2136      Y37.4099      R1.5100    
   X38.3636      Y37.0478      R1.5100    
   X38.4148      Y36.6593      R1.5100    
G0   Z5.000     
(Pass: 1)
   X31.636       Y59.187    
G1   Z-0.500     F300 
G17 G2   X30.9734      Y59.0994      R2.5685    
   X30.3109      Y59.1866      R2.5685    
   X29.6935      Y59.4423      R2.5685    
   X29.1633      Y59.8492      R2.5685    
   X28.7565      Y60.3793      R2.5685    
   X28.5008      Y60.9967      R2.5685    
   X28.4135      Y61.6593      R2.5685    
   X28.5008      Y62.3218      R2.5685    
   X28.7565      Y62.9392      R2.5685    
   X29.1633      Y63.4694      R2.5685    
   X29.6935      Y63.8762      R2.5685    
   X30.3109      Y64.1319      R2.5685    
   X30.9734      Y64.2191      R2.5685    
   X31.6360      Y64.1319      R2.5685    
   X32.2533      Y63.8762      R2.5685    
   X32.7835      Y63.4694      R2.5685    
   X33.1903      Y62.9392      R2.5685    
   X33.4461      Y62.3218      R2.5685    
   X33.5333      Y61.6593      R2.5685    
   X33.4461      Y60.9967      R2.5685    
   X33.1903      Y60.3793      R2.5685    
   X32.7835      Y59.8492      R2.5685    
   X32.2533      Y59.4423      R2.5685    
   X31.6360      Y59.1866      R2.5685    
(Pass: 2)
G1   Z-1.000    
G17 G2   X30.9734      Y59.0994      R2.5685    
   X30.3109      Y59.1866      R2.5685    
   X29.6935      Y59.4423      R2.5685    
   X29.1633      Y59.8492      R2.5685    
   X28.7565      Y60.3793      R2.5685    
   X28.5008      Y60.9967      R2.5685    
   X28.4135      Y61.6593      R2.5685    
   X28.5008      Y62.3218      R2.5685    
   X28.7565      Y62.9392      R2.5685    
   X29.1633      Y63.4694      R2.5685    
   X29.6935      Y63.8762      R2.5685    
   X30.3109      Y64.1319      R2.5685    
   X30.9734      Y64.2191      R2.5685    
   X31.6360      Y64.1319      R2.5685    
   X32.2533      Y63.8762      R2.5685    
   X32.7835      Y63.4694      R2.5685    
   X33.1903      Y62.9392      R2.5685    
   X33.4461      Y62.3218      R2.5685    
   X33.5333      Y61.6593      R2.5685    
   X33.4461      Y60.9967      R2.5685    
   X33.1903      Y60.3793      R2.5685    
   X32.7835      Y59.8492      R2.5685    
   X32.2533      Y59.4423      R2.5685    
   X31.6360      Y59.1866      R2.5685    
(Pass: 3)
G1   Z-1.500    
G17 G2   X30.9734      Y59.0994      R2.5685    
   X30.3109      Y59.1866      R2.5685    
   X29.6935      Y59.4423      R2.5685    
   X29.1633      Y59.8492      R2.5685    
   X28.7565      Y60.3793      R2.5685    
   X28.5008      Y60.9967      R2.5685    
   X28.4135      Y61.6593      R2.5685    
   X28.5008      Y62.3218      R2.5685    
   X28.7565      Y62.9392      R2.5685    
   X29.1633      Y63.4694      R2.5685    
   X29.6935      Y63.8762      R2.5685    
   X30.3109      Y64.1319      R2.5685    
   X30.9734      Y64.2191      R2.5685    
   X31.6360      Y64.1319      R2.5685    
   X32.2533      Y63.8762      R2.5685    
   X32.7835      Y63.4694      R2.5685    
   X33.1903      Y62.9392      R2.5685    
   X33.4461      Y62.3218      R2.5685    
   X33.5333      Y61.6593      R2.5685    
   X33.4461      Y60.9967      R2.5685    
   X33.1903      Y60.3793      R2.5685    
   X32.7835      Y59.8492      R2.5685    
   X32.2533      Y59.4423      R2.5685    
   X31.6360      Y59.1866      R2.5685    
(Pass: 4)
G1   Z-2.000    
G17 G2   X30.9734      Y59.0994      R2.5685    
   X30.3109      Y59.1866      R2.5685    
   X29.6935      Y59.4423      R2.5685    
   X29.1633      Y59.8492      R2.5685    
   X28.7565      Y60.3793      R2.5685    
   X28.5008      Y60.9967      R2.5685    
   X28.4135      Y61.6593      R2.5685    
   X28.5008      Y62.3218      R2.5685    
   X28.7565      Y62.9392      R2.5685    
   X29.1633      Y63.4694      R2.5685    
   X29.6935      Y63.8762      R2.5685    
   X30.3109      Y64.1319      R2.5685    
   X30.9734      Y64.2191      R2.5685    
   X31.6360      Y64.1319      R2.5685    
   X32.2533      Y63.8762      R2.5685    
   X32.7835      Y63.4694      R2.5685    
   X33.1903      Y62.9392      R2.5685    
   X33.4461      Y62.3218      R2.5685    
   X33.5333      Y61.6593      R2.5685    
   X33.4461      Y60.9967      R2.5685    
   X33.1903      Y60.3793      R2.5685    
   X32.7835      Y59.8492      R2.5685    
   X32.2533      Y59.4423      R2.5685    
   X31.6360      Y59.1866      R2.5685    
(Pass: 5)
G1   Z-2.500    
G17 G2   X30.9734      Y59.0994      R2.5685    
   X30.3109      Y59.1866      R2.5685    
   X29.6935      Y59.4423      R2.5685    
   X29.1633      Y59.8492      R2.5685    
   X28.7565      Y60.3793      R2.5685    
   X28.5008      Y60.9967      R2.5685    
   X28.4135      Y61.6593      R2.5685    
   X28.5008      Y62.3218      R2.5685    
   X28.7565      Y62.9392      R2.5685    
   X29.1633      Y63.4694      R2.5685    
   X29.6935      Y63.8762      R2.5685    
   X30.3109      Y64.1319      R2.5685    
   X30.9734      Y64.2191      R2.5685    
   X31.6360      Y64.1319      R2.5685    
   X32.2533      Y63.8762      R2.5685    
   X32.7835      Y63.4694      R2.5685    
   X33.1903      Y62.9392      R2.5685    
   X33.4461      Y62.3218      R2.5685    
   X33.5333      Y61.6593      R2.5685    
   X33.4461      Y60.9967      R2.5685    
   X33.1903      Y60.3793      R2.5685    
   X32.7835      Y59.8492      R2.5685    
   X32.2533      Y59.4423      R2.5685    
   X31.6360      Y59.1866      R2.5685    
(Pass: 6)
G1   Z-3.000    
G17 G2   X30.9734      Y59.0994      R2.5685    
   X30.3109      Y59.1866      R2.5685    
   X29.6935      Y59.4423      R2.5685    
   X29.1633      Y59.8492      R2.5685    
   X28.7565      Y60.3793      R2.5685    
   X28.5008      Y60.9967      R2.5685    
   X28.4135      Y61.6593      R2.5685    
   X28.5008      Y62.3218      R2.5685    
   X28.7565      Y62.9392      R2.5685    
   X29.1633      Y63.4694      R2.5685    
   X29.6935      Y63.8762      R2.5685    
   X30.3109      Y64.1319      R2.5685    
   X30.9734      Y64.2191      R2.5685    
   X31.6360      Y64.1319      R2.5685    
   X32.2533      Y63.8762      R2.5685    
   X32.7835      Y63.4694      R2.5685    
   X33.1903      Y62.9392      R2.5685    
   X33.4461      Y62.3218      R2.5685    
   X33.5333      Y61.6593      R2.5685    
   X33.4461      Y60.9967      R2.5685    
   X33.1903      Y60.3793      R2.5685    
   X32.7835      Y59.8492      R2.5685    
   X32.2533      Y59.4423      R2.5685    
   X31.6360      Y59.1866      R2.5685    
(Pass: 7)
G1   Z-3.500    
G17 G2   X30.9734      Y59.0994      R2.5685    
   X30.3109      Y59.1866      R2.5685    
   X29.6935      Y59.4423      R2.5685    
   X29.1633      Y59.8492      R2.5685    
   X28.7565      Y60.3793      R2.5685    
   X28.5008      Y60.9967      R2.5685    
   X28.4135      Y61.6593      R2.5685    
   X28.5008      Y62.3218      R2.5685    
   X28.7565      Y62.9392      R2.5685    
   X29.1633      Y63.4694      R2.5685    
   X29.6935      Y63.8762      R2.5685    
   X30.3109      Y64.1319      R2.5685    
   X30.9734      Y64.2191      R2.5685    
   X31.6360      Y64.1319      R2.5685    
   X32.2533      Y63.8762      R2.5685    
   X32.7835      Y63.4694      R2.5685    
   X33.1903      Y62.9392      R2.5685    
   X33.4461      Y62.3218      R2.5685    
   X33.5333      Y61.6593      R2.5685    
   X33.4461      Y60.9967      R2.5685    
   X33.1903      Y60.3793      R2.5685    
   X32.7835      Y59.8492      R2.5685    
   X32.2533      Y59.4423      R2.5685    
   X31.6360      Y59.1866      R2.5685    
G0   Z5.000     
(Pass: 1)
   X13.412       Y61.567    
G1   Z-0.500     F300 
G17 G2   X13.3374      Y61.1851      R1.5000    
   X13.1665      Y60.8352      R1.5000    
   X12.9108      Y60.5416      R1.5000    
   X12.5879      Y60.3241      R1.5000    
   X12.2197      Y60.1976      R1.5000    
   X11.8313      Y60.1707      R1.5000    
   X11.4492      Y60.2453      R1.5000    
   X11.0994      Y60.4162      R1.5000    
   X10.8058      Y60.6718      R1.5000    
   X10.5883      Y60.9947      R1.5000    
   X10.4733      Y61.3295      R1.5000    
   X10.4733      Y61.5775      R1.5000    
   X10.4423      Y61.7894      R1.5000    
   X10.5094      Y62.1335      R1.5000    
   X10.6804      Y62.4833      R1.5000    
   X10.9360      Y62.7769      R1.5000    
   X11.2589      Y62.9944      R1.5000    
   X11.6271      Y63.1209      R1.5000    
   X12.0155      Y63.1478      R1.5000    
   X12.3976      Y63.0732      R1.5000    
   X12.7474      Y62.9023      R1.5000    
   X13.0411      Y62.6467      R1.5000    
   X13.2586      Y62.3238      R1.5000    
   X13.3851      Y61.9556      R1.5000    
   X13.4119      Y61.5672      R1.5000    
(Pass: 2)
G1   Z-1.000    
G17 G2   X13.3374      Y61.1851      R1.5000    
   X13.1665      Y60.8352      R1.5000    
   X12.9108      Y60.5416      R1.5000    
   X12.5879      Y60.3241      R1.5000    
   X12.2197      Y60.1976      R1.5000    
   X11.8313      Y60.1707      R1.5000    
   X11.4492      Y60.2453      R1.5000    
   X11.0994      Y60.4162      R1.5000    
   X10.8058      Y60.6718      R1.5000    
   X10.5883      Y60.9947      R1.5000    
   X10.4733      Y61.3295      R1.5000    
   X10.4733      Y61.5775      R1.5000    
   X10.4423      Y61.7894      R1.5000    
   X10.5094      Y62.1335      R1.5000    
   X10.6804      Y62.4833      R1.5000    
   X10.9360      Y62.7769      R1.5000    
   X11.2589      Y62.9944      R1.5000    
   X11.6271      Y63.1209      R1.5000    
   X12.0155      Y63.1478      R1.5000    
   X12.3976      Y63.0732      R1.5000    
   X12.7474      Y62.9023      R1.5000    
   X13.0411      Y62.6467      R1.5000    
   X13.2586      Y62.3238      R1.5000    
   X13.3851      Y61.9556      R1.5000    
   X13.4119      Y61.5672      R1.5000    
(Pass: 3)
G1   Z-1.500    
G17 G2   X13.3374      Y61.1851      R1.5000    
   X13.1665      Y60.8352      R1.5000    
   X12.9108      Y60.5416      R1.5000    
   X12.5879      Y60.3241      R1.5000    
   X12.2197      Y60.1976      R1.5000    
   X11.8313      Y60.1707      R1.5000    
   X11.4492      Y60.2453      R1.5000    
   X11.0994      Y60.4162      R1.5000    
   X10.8058      Y60.6718      R1.5000    
   X10.5883      Y60.9947      R1.5000    
   X10.4733      Y61.3295      R1.5000    
   X10.4733      Y61.5775      R1.5000    
   X10.4423      Y61.7894      R1.5000    
   X10.5094      Y62.1335      R1.5000    
   X10.6804      Y62.4833      R1.5000    
   X10.9360      Y62.7769      R1.5000    
   X11.2589      Y62.9944      R1.5000    
   X11.6271      Y63.1209      R1.5000    
   X12.0155      Y63.1478      R1.5000    
   X12.3976      Y63.0732      R1.5000    
   X12.7474      Y62.9023      R1.5000    
   X13.0411      Y62.6467      R1.5000    
   X13.2586      Y62.3238      R1.5000    
   X13.3851      Y61.9556      R1.5000    
   X13.4119      Y61.5672      R1.5000    
(Pass: 4)
G1   Z-2.000    
G17 G2   X13.3374      Y61.1851      R1.5000    
   X13.1665      Y60.8352      R1.5000    
   X12.9108      Y60.5416      R1.5000    
   X12.5879      Y60.3241      R1.5000    
   X12.2197      Y60.1976      R1.5000    
   X11.8313      Y60.1707      R1.5000    
   X11.4492      Y60.2453      R1.5000    
   X11.0994      Y60.4162      R1.5000    
   X10.8058      Y60.6718      R1.5000    
   X10.5883      Y60.9947      R1.5000    
   X10.4733      Y61.3295      R1.5000    
   X10.4733      Y61.5775      R1.5000    
   X10.4423      Y61.7894      R1.5000    
   X10.5094      Y62.1335      R1.5000    
   X10.6804      Y62.4833      R1.5000    
   X10.9360      Y62.7769      R1.5000    
   X11.2589      Y62.9944      R1.5000    
   X11.6271      Y63.1209      R1.5000    
   X12.0155      Y63.1478      R1.5000    
   X12.3976      Y63.0732      R1.5000    
   X12.7474      Y62.9023      R1.5000    
   X13.0411      Y62.6467      R1.5000    
   X13.2586      Y62.3238      R1.5000    
   X13.3851      Y61.9556      R1.5000    
   X13.4119      Y61.5672      R1.5000    
(Pass: 5)
G1   Z-2.500    
G17 G2   X13.3374      Y61.1851      R1.5000    
   X13.1665      Y60.8352      R1.5000    
   X12.9108      Y60.5416      R1.5000    
   X12.5879      Y60.3241      R1.5000    
   X12.2197      Y60.1976      R1.5000    
   X11.8313      Y60.1707      R1.5000    
   X11.4492      Y60.2453      R1.5000    
   X11.0994      Y60.4162      R1.5000    
   X10.8058      Y60.6718      R1.5000    
   X10.5883      Y60.9947      R1.5000    
   X10.4733      Y61.3295      R1.5000    
   X10.4733      Y61.5775      R1.5000    
   X10.4423      Y61.7894      R1.5000    
   X10.5094      Y62.1335      R1.5000    
   X10.6804      Y62.4833      R1.5000    
   X10.9360      Y62.7769      R1.5000    
   X11.2589      Y62.9944      R1.5000    
   X11.6271      Y63.1209      R1.5000    
   X12.0155      Y63.1478      R1.5000    
   X12.3976      Y63.0732      R1.5000    
   X12.7474      Y62.9023      R1.5000    
   X13.0411      Y62.6467      R1.5000    
   X13.2586      Y62.3238      R1.5000    
   X13.3851      Y61.9556      R1.5000    
   X13.4119      Y61.5672      R1.5000    
(Pass: 6)
G1   Z-3.000    
G17 G2   X13.3374      Y61.1851      R1.5000    
   X13.1665      Y60.8352      R1.5000    
   X12.9108      Y60.5416      R1.5000    
   X12.5879      Y60.3241      R1.5000    
   X12.2197      Y60.1976      R1.5000    
   X11.8313      Y60.1707      R1.5000    
   X11.4492      Y60.2453      R1.5000    
   X11.0994      Y60.4162      R1.5000    
   X10.8058      Y60.6718      R1.5000    
   X10.5883      Y60.9947      R1.5000    
   X10.4733      Y61.3295      R1.5000    
   X10.4733      Y61.5775      R1.5000    
   X10.4423      Y61.7894      R1.5000    
   X10.5094      Y62.1335      R1.5000    
   X10.6804      Y62.4833      R1.5000    
   X10.9360      Y62.7769      R1.5000    
   X11.2589      Y62.9944      R1.5000    
   X11.6271      Y63.1209      R1.5000    
   X12.0155      Y63.1478      R1.5000    
   X12.3976      Y63.0732      R1.5000    
   X12.7474      Y62.9023      R1.5000    
   X13.0411      Y62.6467      R1.5000    
   X13.2586      Y62.3238      R1.5000    
   X13.3851      Y61.9556      R1.5000    
   X13.4119      Y61.5672      R1.5000    
(Pass: 7)
G1   Z-3.500    
G17 G2   X13.3374      Y61.1851      R1.5000    
   X13.1665      Y60.8352      R1.5000    
   X12.9108      Y60.5416      R1.5000    
   X12.5879      Y60.3241      R1.5000    
   X12.2197      Y60.1976      R1.5000    
   X11.8313      Y60.1707      R1.5000    
   X11.4492      Y60.2453      R1.5000    
   X11.0994      Y60.4162      R1.5000    
   X10.8058      Y60.6718      R1.5000    
   X10.5883      Y60.9947      R1.5000    
   X10.4733      Y61.3295      R1.5000    
   X10.4733      Y61.5775      R1.5000    
   X10.4423      Y61.7894      R1.5000    
   X10.5094      Y62.1335      R1.5000    
   X10.6804      Y62.4833      R1.5000    
   X10.9360      Y62.7769      R1.5000    
   X11.2589      Y62.9944      R1.5000    
   X11.6271      Y63.1209      R1.5000    
   X12.0155      Y63.1478      R1.5000    
   X12.3976      Y63.0732      R1.5000    
   X12.7474      Y62.9023      R1.5000    
   X13.0411      Y62.6467      R1.5000    
   X13.2586      Y62.3238      R1.5000    
   X13.3851      Y61.9556      R1.5000    
   X13.4119      Y61.5672      R1.5000    
G0   Z5.000     
(Pass: 1)
   X60.385       Y61.791    
G1   Z-0.500     F300 
G17 G2   X60.5059      Y62.4431      R2.5500    
   X60.7912      Y63.0421      R2.5500    
   X61.2218      Y63.5468      R2.5500    
   X61.7683      Y63.9229      R2.5500    
   X62.3935      Y64.1448      R2.5500    
   X63.0549      Y64.1972      R2.5500    
   X63.7073      Y64.0767      R2.5500    
   X64.3062      Y63.7915      R2.5500    
   X64.8110      Y63.3609      R2.5500    
   X65.1871      Y62.8144      R2.5500    
   X65.4089      Y62.1891      R2.5500    
   X65.4427      Y61.7638      R2.5500    
   X65.4614      Y61.5278      R2.5500    
   X65.3409      Y60.8754      R2.5500    
   X65.0556      Y60.2764      R2.5500    
   X64.6251      Y59.7717      R2.5500    
   X64.0785      Y59.3956      R2.5500    
   X63.4533      Y59.1737      R2.5500    
   X62.7919      Y59.1213      R2.5500    
   X62.1396      Y59.2418      R2.5500    
   X61.5406      Y59.5270      R2.5500    
   X61.0358      Y59.9576      R2.5500    
   X60.6597      Y60.5041      R2.5500    
   X60.4379      Y61.1294      R2.5500    
   X60.3854      Y61.7907      R2.5500    
(Pass: 2)
G1   Z-1.000    
G17 G2   X60.5059      Y62.4431      R2.5500    
   X60.7912      Y63.0421      R2.5500    
   X61.2218      Y63.5468      R2.5500    
   X61.7683      Y63.9229      R2.5500    
   X62.3935      Y64.1448      R2.5500    
   X63.0549      Y64.1972      R2.5500    
   X63.7073      Y64.0767      R2.5500    
   X64.3062      Y63.7915      R2.5500    
   X64.8110      Y63.3609      R2.5500    
   X65.1871      Y62.8144      R2.5500    
   X65.4089      Y62.1891      R2.5500    
   X65.4427      Y61.7638      R2.5500    
   X65.4614      Y61.5278      R2.5500    
   X65.3409      Y60.8754      R2.5500    
   X65.0556      Y60.2764      R2.5500    
   X64.6251      Y59.7717      R2.5500    
   X64.0785      Y59.3956      R2.5500    
   X63.4533      Y59.1737      R2.5500    
   X62.7919      Y59.1213      R2.5500    
   X62.1396      Y59.2418      R2.5500    
   X61.5406      Y59.5270      R2.5500    
   X61.0358      Y59.9576      R2.5500    
   X60.6597      Y60.5041      R2.5500    
   X60.4379      Y61.1294      R2.5500    
   X60.3854      Y61.7907      R2.5500    
(Pass: 3)
G1   Z-1.500    
G17 G2   X60.5059      Y62.4431      R2.5500    
   X60.7912      Y63.0421      R2.5500    
   X61.2218      Y63.5468      R2.5500    
   X61.7683      Y63.9229      R2.5500    
   X62.3935      Y64.1448      R2.5500    
   X63.0549      Y64.1972      R2.5500    
   X63.7073      Y64.0767      R2.5500    
   X64.3062      Y63.7915      R2.5500    
   X64.8110      Y63.3609      R2.5500    
   X65.1871      Y62.8144      R2.5500    
   X65.4089      Y62.1891      R2.5500    
   X65.4427      Y61.7638      R2.5500    
   X65.4614      Y61.5278      R2.5500    
   X65.3409      Y60.8754      R2.5500    
   X65.0556      Y60.2764      R2.5500    
   X64.6251      Y59.7717      R2.5500    
   X64.0785      Y59.3956      R2.5500    
   X63.4533      Y59.1737      R2.5500    
   X62.7919      Y59.1213      R2.5500    
   X62.1396      Y59.2418      R2.5500    
   X61.5406      Y59.5270      R2.5500    
   X61.0358      Y59.9576      R2.5500    
   X60.6597      Y60.5041      R2.5500    
   X60.4379      Y61.1294      R2.5500    
   X60.3854      Y61.7907      R2.5500    
(Pass: 4)
G1   Z-2.000    
G17 G2   X60.5059      Y62.4431      R2.5500    
   X60.7912      Y63.0421      R2.5500    
   X61.2218      Y63.5468      R2.5500    
   X61.7683      Y63.9229      R2.5500    
   X62.3935      Y64.1448      R2.5500    
   X63.0549      Y64.1972      R2.5500    
   X63.7073      Y64.0767      R2.5500    
   X64.3062      Y63.7915      R2.5500    
   X64.8110      Y63.3609      R2.5500    
   X65.1871      Y62.8144      R2.5500    
   X65.4089      Y62.1891      R2.5500    
   X65.4427      Y61.7638      R2.5500    
   X65.4614      Y61.5278      R2.5500    
   X65.3409      Y60.8754      R2.5500    
   X65.0556      Y60.2764      R2.5500    
   X64.6251      Y59.7717      R2.5500    
   X64.0785      Y59.3956      R2.5500    
   X63.4533      Y59.1737      R2.5500    
   X62.7919      Y59.1213      R2.5500    
   X62.1396      Y59.2418      R2.5500    
   X61.5406      Y59.5270      R2.5500    
   X61.0358      Y59.9576      R2.5500    
   X60.6597      Y60.5041      R2.5500    
   X60.4379      Y61.1294      R2.5500    
   X60.3854      Y61.7907      R2.5500    
(Pass: 5)
G1   Z-2.500    
G17 G2   X60.5059      Y62.4431      R2.5500    
   X60.7912      Y63.0421      R2.5500    
   X61.2218      Y63.5468      R2.5500    
   X61.7683      Y63.9229      R2.5500    
   X62.3935      Y64.1448      R2.5500    
   X63.0549      Y64.1972      R2.5500    
   X63.7073      Y64.0767      R2.5500    
   X64.3062      Y63.7915      R2.5500    
   X64.8110      Y63.3609      R2.5500    
   X65.1871      Y62.8144      R2.5500    
   X65.4089      Y62.1891      R2.5500    
   X65.4427      Y61.7638      R2.5500    
   X65.4614      Y61.5278      R2.5500    
   X65.3409      Y60.8754      R2.5500    
   X65.0556      Y60.2764      R2.5500    
   X64.6251      Y59.7717      R2.5500    
   X64.0785      Y59.3956      R2.5500    
   X63.4533      Y59.1737      R2.5500    
   X62.7919      Y59.1213      R2.5500    
   X62.1396      Y59.2418      R2.5500    
   X61.5406      Y59.5270      R2.5500    
   X61.0358      Y59.9576      R2.5500    
   X60.6597      Y60.5041      R2.5500    
   X60.4379      Y61.1294      R2.5500    
   X60.3854      Y61.7907      R2.5500    
(Pass: 6)
G1   Z-3.000    
G17 G2   X60.5059      Y62.4431      R2.5500    
   X60.7912      Y63.0421      R2.5500    
   X61.2218      Y63.5468      R2.5500    
   X61.7683      Y63.9229      R2.5500    
   X62.3935      Y64.1448      R2.5500    
   X63.0549      Y64.1972      R2.5500    
   X63.7073      Y64.0767      R2.5500    
   X64.3062      Y63.7915      R2.5500    
   X64.8110      Y63.3609      R2.5500    
   X65.1871      Y62.8144      R2.5500    
   X65.4089      Y62.1891      R2.5500    
   X65.4427      Y61.7638      R2.5500    
   X65.4614      Y61.5278      R2.5500    
   X65.3409      Y60.8754      R2.5500    
   X65.0556      Y60.2764      R2.5500    
   X64.6251      Y59.7717      R2.5500    
   X64.0785      Y59.3956      R2.5500    
   X63.4533      Y59.1737      R2.5500    
   X62.7919      Y59.1213      R2.5500    
   X62.1396      Y59.2418      R2.5500    
   X61.5406      Y59.5270      R2.5500    
   X61.0358      Y59.9576      R2.5500    
   X60.6597      Y60.5041      R2.5500    
   X60.4379      Y61.1294      R2.5500    
   X60.3854      Y61.7907      R2.5500    
(Pass: 7)
G1   Z-3.500    
G17 G2   X60.5059      Y62.4431      R2.5500    
   X60.7912      Y63.0421      R2.5500    
   X61.2218      Y63.5468      R2.5500    
   X61.7683      Y63.9229      R2.5500    
   X62.3935      Y64.1448      R2.5500    
   X63.0549      Y64.1972      R2.5500    
   X63.7073      Y64.0767      R2.5500    
   X64.3062      Y63.7915      R2.5500    
   X64.8110      Y63.3609      R2.5500    
   X65.1871      Y62.8144      R2.5500    
   X65.4089      Y62.1891      R2.5500    
   X65.4427      Y61.7638      R2.5500    
   X65.4614      Y61.5278      R2.5500    
   X65.3409      Y60.8754      R2.5500    
   X65.0556      Y60.2764      R2.5500    
   X64.6251      Y59.7717      R2.5500    
   X64.0785      Y59.3956      R2.5500    
   X63.4533      Y59.1737      R2.5500    
   X62.7919      Y59.1213      R2.5500    
   X62.1396      Y59.2418      R2.5500    
   X61.5406      Y59.5270      R2.5500    
   X61.0358      Y59.9576      R2.5500    
   X60.6597      Y60.5041      R2.5500    
   X60.4379      Y61.1294      R2.5500    
   X60.3854      Y61.7907      R2.5500    
G0   Z5.000     
(Pass: 1)
   X80.435       Y61.750    
G1   Z-0.500     F300 
G17 G2   X80.5091      Y62.1325      R1.5000    
   X80.6798      Y62.4824      R1.5000    
   X80.9352      Y62.7763      R1.5000    
   X81.2580      Y62.9940      R1.5000    
   X81.6261      Y63.1207      R1.5000    
   X82.0145      Y63.1478      R1.5000    
   X82.3967      Y63.0736      R1.5000    
   X82.7466      Y62.9029      R1.5000    
   X83.0404      Y62.6474      R1.5000    
   X83.2581      Y62.3247      R1.5000    
   X83.3949      Y61.9273      R1.5000    
   X83.4187      Y61.7464      R1.5000    
   X83.4187      Y61.6029      R1.5000    
   X83.3377      Y61.1860      R1.5000    
   X83.1670      Y60.8361      R1.5000    
   X82.9116      Y60.5423      R1.5000    
   X82.5888      Y60.3246      R1.5000    
   X82.2207      Y60.1978      R1.5000    
   X81.8323      Y60.1707      R1.5000    
   X81.4502      Y60.2450      R1.5000    
   X81.1002      Y60.4156      R1.5000    
   X80.8064      Y60.6711      R1.5000    
   X80.5887      Y60.9938      R1.5000    
   X80.4620      Y61.3620      R1.5000    
   X80.4348      Y61.7503      R1.5000    
(Pass: 2)
G1   Z-1.000    
G17 G2   X80.5091      Y62.1325      R1.5000    
   X80.6798      Y62.4824      R1.5000    
   X80.9352      Y62.7763      R1.5000    
   X81.2580      Y62.9940      R1.5000    
   X81.6261      Y63.1207      R1.5000    
   X82.0145      Y63.1478      R1.5000    
   X82.3967      Y63.0736      R1.5000    
   X82.7466      Y62.9029      R1.5000    
   X83.0404      Y62.6474      R1.5000    
   X83.2581      Y62.3247      R1.5000    
   X83.3949      Y61.9273      R1.5000    
   X83.4187      Y61.7464      R1.5000    
   X83.4187      Y61.6029      R1.5000    
   X83.3377      Y61.1860      R1.5000    
   X83.1670      Y60.8361      R1.5000    
   X82.9116      Y60.5423      R1.5000    
   X82.5888      Y60.3246      R1.5000    
   X82.2207      Y60.1978      R1.5000    
   X81.8323      Y60.1707      R1.5000    
   X81.4502      Y60.2450      R1.5000    
   X81.1002      Y60.4156      R1.5000    
   X80.8064      Y60.6711      R1.5000    
   X80.5887      Y60.9938      R1.5000    
   X80.4620      Y61.3620      R1.5000    
   X80.4348      Y61.7503      R1.5000    
(Pass: 3)
G1   Z-1.500    
G17 G2   X80.5091      Y62.1325      R1.5000    
   X80.6798      Y62.4824      R1.5000    
   X80.9352      Y62.7763      R1.5000    
   X81.2580      Y62.9940      R1.5000    
   X81.6261      Y63.1207      R1.5000    
   X82.0145      Y63.1478      R1.5000    
   X82.3967      Y63.0736      R1.5000    
   X82.7466      Y62.9029      R1.5000    
   X83.0404      Y62.6474      R1.5000    
   X83.2581      Y62.3247      R1.5000    
   X83.3949      Y61.9273      R1.5000    
   X83.4187      Y61.7464      R1.5000    
   X83.4187      Y61.6029      R1.5000    
   X83.3377      Y61.1860      R1.5000    
   X83.1670      Y60.8361      R1.5000    
   X82.9116      Y60.5423      R1.5000    
   X82.5888      Y60.3246      R1.5000    
   X82.2207      Y60.1978      R1.5000    
   X81.8323      Y60.1707      R1.5000    
   X81.4502      Y60.2450      R1.5000    
   X81.1002      Y60.4156      R1.5000    
   X80.8064      Y60.6711      R1.5000    
   X80.5887      Y60.9938      R1.5000    
   X80.4620      Y61.3620      R1.5000    
   X80.4348      Y61.7503      R1.5000    
(Pass: 4)
G1   Z-2.000    
G17 G2   X80.5091      Y62.1325      R1.5000    
   X80.6798      Y62.4824      R1.5000    
   X80.9352      Y62.7763      R1.5000    
   X81.2580      Y62.9940      R1.5000    
   X81.6261      Y63.1207      R1.5000    
   X82.0145      Y63.1478      R1.5000    
   X82.3967      Y63.0736      R1.5000    
   X82.7466      Y62.9029      R1.5000    
   X83.0404      Y62.6474      R1.5000    
   X83.2581      Y62.3247      R1.5000    
   X83.3949      Y61.9273      R1.5000    
   X83.4187      Y61.7464      R1.5000    
   X83.4187      Y61.6029      R1.5000    
   X83.3377      Y61.1860      R1.5000    
   X83.1670      Y60.8361      R1.5000    
   X82.9116      Y60.5423      R1.5000    
   X82.5888      Y60.3246      R1.5000    
   X82.2207      Y60.1978      R1.5000    
   X81.8323      Y60.1707      R1.5000    
   X81.4502      Y60.2450      R1.5000    
   X81.1002      Y60.4156      R1.5000    
   X80.8064      Y60.6711      R1.5000    
   X80.5887      Y60.9938      R1.5000    
   X80.4620      Y61.3620      R1.5000    
   X80.4348      Y61.7503      R1.5000    
(Pass: 5)
G1   Z-2.500    
G17 G2   X80.5091      Y62.1325      R1.5000    
   X80.6798      Y62.4824      R1.5000    
   X80.9352      Y62.7763      R1.5000    
   X81.2580      Y62.9940      R1.5000    
   X81.6261      Y63.1207      R1.5000    
   X82.0145      Y63.1478      R1.5000    
   X82.3967      Y63.0736      R1.5000    
   X82.7466      Y62.9029      R1.5000    
   X83.0404      Y62.6474      R1.5000    
   X83.2581      Y62.3247      R1.5000    
   X83.3949      Y61.9273      R1.5000    
   X83.4187      Y61.7464      R1.5000    
   X83.4187      Y61.6029      R1.5000    
   X83.3377      Y61.1860      R1.5000    
   X83.1670      Y60.8361      R1.5000    
   X82.9116      Y60.5423      R1.5000    
   X82.5888      Y60.3246      R1.5000    
   X82.2207      Y60.1978      R1.5000    
   X81.8323      Y60.1707      R1.5000    
   X81.4502      Y60.2450      R1.5000    
   X81.1002      Y60.4156      R1.5000    
   X80.8064      Y60.6711      R1.5000    
   X80.5887      Y60.9938      R1.5000    
   X80.4620      Y61.3620      R1.5000    
   X80.4348      Y61.7503      R1.5000    
(Pass: 6)
G1   Z-3.000    
G17 G2   X80.5091      Y62.1325      R1.5000    
   X80.6798      Y62.4824      R1.5000    
   X80.9352      Y62.7763      R1.5000    
   X81.2580      Y62.9940      R1.5000    
   X81.6261      Y63.1207      R1.5000    
   X82.0145      Y63.1478      R1.5000    
   X82.3967      Y63.0736      R1.5000    
   X82.7466      Y62.9029      R1.5000    
   X83.0404      Y62.6474      R1.5000    
   X83.2581      Y62.3247      R1.5000    
   X83.3949      Y61.9273      R1.5000    
   X83.4187      Y61.7464      R1.5000    
   X83.4187      Y61.6029      R1.5000    
   X83.3377      Y61.1860      R1.5000    
   X83.1670      Y60.8361      R1.5000    
   X82.9116      Y60.5423      R1.5000    
   X82.5888      Y60.3246      R1.5000    
   X82.2207      Y60.1978      R1.5000    
   X81.8323      Y60.1707      R1.5000    
   X81.4502      Y60.2450      R1.5000    
   X81.1002      Y60.4156      R1.5000    
   X80.8064      Y60.6711      R1.5000    
   X80.5887      Y60.9938      R1.5000    
   X80.4620      Y61.3620      R1.5000    
   X80.4348      Y61.7503      R1.5000    
(Pass: 7)
G1   Z-3.500    
G17 G2   X80.5091      Y62.1325      R1.5000    
   X80.6798      Y62.4824      R1.5000    
   X80.9352      Y62.7763      R1.5000    
   X81.2580      Y62.9940      R1.5000    
   X81.6261      Y63.1207      R1.5000    
   X82.0145      Y63.1478      R1.5000    
   X82.3967      Y63.0736      R1.5000    
   X82.7466      Y62.9029      R1.5000    
   X83.0404      Y62.6474      R1.5000    
   X83.2581      Y62.3247      R1.5000    
   X83.3949      Y61.9273      R1.5000    
   X83.4187      Y61.7464      R1.5000    
   X83.4187      Y61.6029      R1.5000    
   X83.3377      Y61.1860      R1.5000    
   X83.1670      Y60.8361      R1.5000    
   X82.9116      Y60.5423      R1.5000    
   X82.5888      Y60.3246      R1.5000    
   X82.2207      Y60.1978      R1.5000    
   X81.8323      Y60.1707      R1.5000    
   X81.4502      Y60.2450      R1.5000    
   X81.1002      Y60.4156      R1.5000    
   X80.8064      Y60.6711      R1.5000    
   X80.5887      Y60.9938      R1.5000    
   X80.4620      Y61.3620      R1.5000    
   X80.4348      Y61.7503      R1.5000    
G0   Z5.000     
(Pass: 1)
   X63.950       Y13.984    
G1   Z-0.500     F300 
G17 G2   X64.5167      Y13.6392      R2.5500    
   X64.9748      Y13.1593      R2.5500    
   X65.2932      Y12.5773      R2.5500    
   X65.4500      Y11.9327      R2.5500    
   X65.4461      Y11.7637      R2.5500    
   X65.4347      Y11.2694      R2.5500    
   X65.2482      Y10.6327      R2.5500    
   X64.9033      Y10.0660      R2.5500    
   X64.4235      Y9.6078       R2.5500    
   X63.8414      Y9.2895       R2.5500    
   X63.1968      Y9.1326       R2.5500    
   X62.5336      Y9.1480       R2.5500    
   X61.8969      Y9.3344       R2.5500    
   X61.3301      Y9.6793       R2.5500    
   X60.8720      Y10.1592      R2.5500    
   X60.5536      Y10.7412      R2.5500    
   X60.3968      Y11.3859      R2.5500    
   X60.4045      Y11.7175      R2.5500    
   X60.4121      Y12.0491      R2.5500    
   X60.5986      Y12.6858      R2.5500    
   X60.9435      Y13.2525      R2.5500    
   X61.4233      Y13.7107      R2.5500    
   X62.0054      Y14.0290      R2.5500    
   X62.6500      Y14.1859      R2.5500    
   X63.3133      Y14.1705      R2.5500    
   X63.9499      Y13.9841      R2.5500    
(Pass: 2)
G1   Z-1.000    
G17 G2   X64.5167      Y13.6392      R2.5500    
   X64.9748      Y13.1593      R2.5500    
   X65.2932      Y12.5773      R2.5500    
   X65.4500      Y11.9327      R2.5500    
   X65.4461      Y11.7637      R2.5500    
   X65.4347      Y11.2694      R2.5500    
   X65.2482      Y10.6327      R2.5500    
   X64.9033      Y10.0660      R2.5500    
   X64.4235      Y9.6078       R2.5500    
   X63.8414      Y9.2895       R2.5500    
   X63.1968      Y9.1326       R2.5500    
   X62.5336      Y9.1480       R2.5500    
   X61.8969      Y9.3344       R2.5500    
   X61.3301      Y9.6793       R2.5500    
   X60.8720      Y10.1592      R2.5500    
   X60.5536      Y10.7412      R2.5500    
   X60.3968      Y11.3859      R2.5500    
   X60.4045      Y11.7175      R2.5500    
   X60.4121      Y12.0491      R2.5500    
   X60.5986      Y12.6858      R2.5500    
   X60.9435      Y13.2525      R2.5500    
   X61.4233      Y13.7107      R2.5500    
   X62.0054      Y14.0290      R2.5500    
   X62.6500      Y14.1859      R2.5500    
   X63.3133      Y14.1705      R2.5500    
   X63.9499      Y13.9841      R2.5500    
(Pass: 3)
G1   Z-1.500    
G17 G2   X64.5167      Y13.6392      R2.5500    
   X64.9748      Y13.1593      R2.5500    
   X65.2932      Y12.5773      R2.5500    
   X65.4500      Y11.9327      R2.5500    
   X65.4461      Y11.7637      R2.5500    
   X65.4347      Y11.2694      R2.5500    
   X65.2482      Y10.6327      R2.5500    
   X64.9033      Y10.0660      R2.5500    
   X64.4235      Y9.6078       R2.5500    
   X63.8414      Y9.2895       R2.5500    
   X63.1968      Y9.1326       R2.5500    
   X62.5336      Y9.1480       R2.5500    
   X61.8969      Y9.3344       R2.5500    
   X61.3301      Y9.6793       R2.5500    
   X60.8720      Y10.1592      R2.5500    
   X60.5536      Y10.7412      R2.5500    
   X60.3968      Y11.3859      R2.5500    
   X60.4045      Y11.7175      R2.5500    
   X60.4121      Y12.0491      R2.5500    
   X60.5986      Y12.6858      R2.5500    
   X60.9435      Y13.2525      R2.5500    
   X61.4233      Y13.7107      R2.5500    
   X62.0054      Y14.0290      R2.5500    
   X62.6500      Y14.1859      R2.5500    
   X63.3133      Y14.1705      R2.5500    
   X63.9499      Y13.9841      R2.5500    
(Pass: 4)
G1   Z-2.000    
G17 G2   X64.5167      Y13.6392      R2.5500    
   X64.9748      Y13.1593      R2.5500    
   X65.2932      Y12.5773      R2.5500    
   X65.4500      Y11.9327      R2.5500    
   X65.4461      Y11.7637      R2.5500    
   X65.4347      Y11.2694      R2.5500    
   X65.2482      Y10.6327      R2.5500    
   X64.9033      Y10.0660      R2.5500    
   X64.4235      Y9.6078       R2.5500    
   X63.8414      Y9.2895       R2.5500    
   X63.1968      Y9.1326       R2.5500    
   X62.5336      Y9.1480       R2.5500    
   X61.8969      Y9.3344       R2.5500    
   X61.3301      Y9.6793       R2.5500    
   X60.8720      Y10.1592      R2.5500    
   X60.5536      Y10.7412      R2.5500    
   X60.3968      Y11.3859      R2.5500    
   X60.4045      Y11.7175      R2.5500    
   X60.4121      Y12.0491      R2.5500    
   X60.5986      Y12.6858      R2.5500    
   X60.9435      Y13.2525      R2.5500    
   X61.4233      Y13.7107      R2.5500    
   X62.0054      Y14.0290      R2.5500    
   X62.6500      Y14.1859      R2.5500    
   X63.3133      Y14.1705      R2.5500    
   X63.9499      Y13.9841      R2.5500    
(Pass: 5)
G1   Z-2.500    
G17 G2   X64.5167      Y13.6392      R2.5500    
   X64.9748      Y13.1593      R2.5500    
   X65.2932      Y12.5773      R2.5500    
   X65.4500      Y11.9327      R2.5500    
   X65.4461      Y11.7637      R2.5500    
   X65.4347      Y11.2694      R2.5500    
   X65.2482      Y10.6327      R2.5500    
   X64.9033      Y10.0660      R2.5500    
   X64.4235      Y9.6078       R2.5500    
   X63.8414      Y9.2895       R2.5500    
   X63.1968      Y9.1326       R2.5500    
   X62.5336      Y9.1480       R2.5500    
   X61.8969      Y9.3344       R2.5500    
   X61.3301      Y9.6793       R2.5500    
   X60.8720      Y10.1592      R2.5500    
   X60.5536      Y10.7412      R2.5500    
   X60.3968      Y11.3859      R2.5500    
   X60.4045      Y11.7175      R2.5500    
   X60.4121      Y12.0491      R2.5500    
   X60.5986      Y12.6858      R2.5500    
   X60.9435      Y13.2525      R2.5500    
   X61.4233      Y13.7107      R2.5500    
   X62.0054      Y14.0290      R2.5500    
   X62.6500      Y14.1859      R2.5500    
   X63.3133      Y14.1705      R2.5500    
   X63.9499      Y13.9841      R2.5500    
(Pass: 6)
G1   Z-3.000    
G17 G2   X64.5167      Y13.6392      R2.5500    
   X64.9748      Y13.1593      R2.5500    
   X65.2932      Y12.5773      R2.5500    
   X65.4500      Y11.9327      R2.5500    
   X65.4461      Y11.7637      R2.5500    
   X65.4347      Y11.2694      R2.5500    
   X65.2482      Y10.6327      R2.5500    
   X64.9033      Y10.0660      R2.5500    
   X64.4235      Y9.6078       R2.5500    
   X63.8414      Y9.2895       R2.5500    
   X63.1968      Y9.1326       R2.5500    
   X62.5336      Y9.1480       R2.5500    
   X61.8969      Y9.3344       R2.5500    
   X61.3301      Y9.6793       R2.5500    
   X60.8720      Y10.1592      R2.5500    
   X60.5536      Y10.7412      R2.5500    
   X60.3968      Y11.3859      R2.5500    
   X60.4045      Y11.7175      R2.5500    
   X60.4121      Y12.0491      R2.5500    
   X60.5986      Y12.6858      R2.5500    
   X60.9435      Y13.2525      R2.5500    
   X61.4233      Y13.7107      R2.5500    
   X62.0054      Y14.0290      R2.5500    
   X62.6500      Y14.1859      R2.5500    
   X63.3133      Y14.1705      R2.5500    
   X63.9499      Y13.9841      R2.5500    
(Pass: 7)
G1   Z-3.500    
G17 G2   X64.5167      Y13.6392      R2.5500    
   X64.9748      Y13.1593      R2.5500    
   X65.2932      Y12.5773      R2.5500    
   X65.4500      Y11.9327      R2.5500    
   X65.4461      Y11.7637      R2.5500    
   X65.4347      Y11.2694      R2.5500    
   X65.2482      Y10.6327      R2.5500    
   X64.9033      Y10.0660      R2.5500    
   X64.4235      Y9.6078       R2.5500    
   X63.8414      Y9.2895       R2.5500    
   X63.1968      Y9.1326       R2.5500    
   X62.5336      Y9.1480       R2.5500    
   X61.8969      Y9.3344       R2.5500    
   X61.3301      Y9.6793       R2.5500    
   X60.8720      Y10.1592      R2.5500    
   X60.5536      Y10.7412      R2.5500    
   X60.3968      Y11.3859      R2.5500    
   X60.4045      Y11.7175      R2.5500    
   X60.4121      Y12.0491      R2.5500    
   X60.5986      Y12.6858      R2.5500    
   X60.9435      Y13.2525      R2.5500    
   X61.4233      Y13.7107      R2.5500    
   X62.0054      Y14.0290      R2.5500    
   X62.6500      Y14.1859      R2.5500    
   X63.3133      Y14.1705      R2.5500    
   X63.9499      Y13.9841      R2.5500    
G0   Z5.000     
(Pass: 1)
   X72.923       Y11.627    
G1   Z-0.500     F300 
   Y39.094    
   X72.983       Y39.545    
   X73.132       Y39.905    
   X73.369       Y40.214    
   X73.678       Y40.451    
   X74.037       Y40.600    
   X74.489       Y40.659    
   X81.956    
G17 G3   X83.3595      Y40.7512      R11.0000   
   X84.7710      Y41.0320      R11.0000   
   X86.1338      Y41.4946      R11.0000   
   X87.4245      Y42.1311      R11.0000   
   X88.6211      Y42.9307      R11.0000   
   X89.7031      Y43.8796      R11.0000   
   X90.6520      Y44.9616      R11.0000   
   X91.4516      Y46.1582      R11.0000   
   X92.0881      Y47.4489      R11.0000   
   X92.5507      Y48.8117      R11.0000   
   X92.8314      Y50.2232      R11.0000   
   X92.9234      Y51.6265      R11.0000   
G1   Y61.692    
G17 G3   X92.8314      Y63.0953      R11.0000   
   X92.5507      Y64.5068      R11.0000   
   X92.0881      Y65.8696      R11.0000   
   X91.4516      Y67.1603      R11.0000   
   X90.6520      Y68.3569      R11.0000   
   X89.7031      Y69.4390      R11.0000   
   X88.6211      Y70.3878      R11.0000   
   X87.4245      Y71.1874      R11.0000   
   X86.1338      Y71.8239      R11.0000   
   X84.7710      Y72.2865      R11.0000   
   X83.3595      Y72.5673      R11.0000   
   X81.9561      Y72.6593      R11.0000   
G1   X31.891    
G17 G3   X31.3400      Y72.6232      R11.0000   
G1   X11.892       Y72.659    
G17 G3   X10.4873      Y72.5673      R11.0000   
   X9.0758       Y72.2865      R11.0000   
   X7.7131       Y71.8239      R11.0000   
   X6.4223       Y71.1874      R11.0000   
   X5.2257       Y70.3878      R11.0000   
   X4.1437       Y69.4390      R11.0000   
   X3.1948       Y68.3569      R11.0000   
   X2.3953       Y67.1603      R11.0000   
   X1.7588       Y65.8696      R11.0000   
   X1.2962       Y64.5068      R11.0000   
   X1.0154       Y63.0953      R11.0000   
   X0.9234       Y61.6920      R11.0000   
G1   Y51.627    
G17 G3   X1.0154       Y50.2232      R11.0000   
   X1.2962       Y48.8117      R11.0000   
   X1.7588       Y47.4489      R11.0000   
   X2.3953       Y46.1582      R11.0000   
   X3.1948       Y44.9616      R11.0000   
   X4.1437       Y43.8796      R11.0000   
   X5.2257       Y42.9307      R11.0000   
   X6.4223       Y42.1311      R11.0000   
   X7.7131       Y41.4946      R11.0000   
   X9.0758       Y41.0320      R11.0000   
   X10.4873      Y40.7512      R11.0000   
   X11.8907      Y40.6593      R11.0000   
G1   X19.358    
   X19.809       Y40.600    
   X20.169       Y40.451    
   X20.478       Y40.214    
   X20.715       Y39.905    
   X20.864       Y39.545    
   X20.923       Y39.094    
   Y11.627    
G17 G3   X21.0154      Y10.2232      R11.0000   
   X21.2962      Y8.8117       R11.0000   
   X21.7588      Y7.4489       R11.0000   
   X22.3953      Y6.1582       R11.0000   
   X23.1948      Y4.9616       R11.0000   
   X24.1437      Y3.8796       R11.0000   
   X25.2257      Y2.9307       R11.0000   
   X26.4223      Y2.1311       R11.0000   
   X27.7131      Y1.4946       R11.0000   
   X29.0758      Y1.0320       R11.0000   
   X30.4873      Y0.7512       R11.0000   
   X31.8907      Y0.6593       R11.0000   
G1   X61.956    
G17 G3   X63.3595      Y0.7512       R11.0000   
   X64.7710      Y1.0320       R11.0000   
   X66.1338      Y1.4946       R11.0000   
   X67.4245      Y2.1311       R11.0000   
   X68.6211      Y2.9307       R11.0000   
   X69.7031      Y3.8796       R11.0000   
   X70.6520      Y4.9616       R11.0000   
   X71.4516      Y6.1582       R11.0000   
   X72.0881      Y7.4489       R11.0000   
   X72.5507      Y8.8117       R11.0000   
   X72.8314      Y10.2232      R11.0000   
   X72.9234      Y11.6265      R11.0000   
(Pass: 2)
G1   Z-1.000    
   Y39.094    
   X72.983       Y39.545    
   X73.132       Y39.905    
   X73.369       Y40.214    
   X73.678       Y40.451    
   X74.037       Y40.600    
   X74.489       Y40.659    
   X81.956    
G17 G3   X83.3595      Y40.7512      R11.0000   
   X84.7710      Y41.0320      R11.0000   
   X86.1338      Y41.4946      R11.0000   
   X87.4245      Y42.1311      R11.0000   
   X88.6211      Y42.9307      R11.0000   
   X89.7031      Y43.8796      R11.0000   
   X90.6520      Y44.9616      R11.0000   
   X91.4516      Y46.1582      R11.0000   
   X92.0881      Y47.4489      R11.0000   
   X92.5507      Y48.8117      R11.0000   
   X92.8314      Y50.2232      R11.0000   
   X92.9234      Y51.6265      R11.0000   
G1   Y61.692    
G17 G3   X92.8314      Y63.0953      R11.0000   
   X92.5507      Y64.5068      R11.0000   
   X92.0881      Y65.8696      R11.0000   
   X91.4516      Y67.1603      R11.0000   
   X90.6520      Y68.3569      R11.0000   
   X89.7031      Y69.4390      R11.0000   
   X88.6211      Y70.3878      R11.0000   
   X87.4245      Y71.1874      R11.0000   
   X86.1338      Y71.8239      R11.0000   
   X84.7710      Y72.2865      R11.0000   
   X83.3595      Y72.5673      R11.0000   
   X81.9561      Y72.6593      R11.0000   
G1   X31.891    
G17 G3   X31.3400      Y72.6232      R11.0000   
G1   X11.892       Y72.659    
G17 G3   X10.4873      Y72.5673      R11.0000   
   X9.0758       Y72.2865      R11.0000   
   X7.7131       Y71.8239      R11.0000   
   X6.4223       Y71.1874      R11.0000   
   X5.2257       Y70.3878      R11.0000   
   X4.1437       Y69.4390      R11.0000   
   X3.1948       Y68.3569      R11.0000   
   X2.3953       Y67.1603      R11.0000   
   X1.7588       Y65.8696      R11.0000   
   X1.2962       Y64.5068      R11.0000   
   X1.0154       Y63.0953      R11.0000   
   X0.9234       Y61.6920      R11.0000   
G1   Y51.627    
G17 G3   X1.0154       Y50.2232      R11.0000   
   X1.2962       Y48.8117      R11.0000   
   X1.7588       Y47.4489      R11.0000   
   X2.3953       Y46.1582      R11.0000   
   X3.1948       Y44.9616      R11.0000   
   X4.1437       Y43.8796      R11.0000   
   X5.2257       Y42.9307      R11.0000   
   X6.4223       Y42.1311      R11.0000   
   X7.7131       Y41.4946      R11.0000   
   X9.0758       Y41.0320      R11.0000   
   X10.4873      Y40.7512      R11.0000   
   X11.8907      Y40.6593      R11.0000   
G1   X19.358    
   X19.809       Y40.600    
   X20.169       Y40.451    
   X20.478       Y40.214    
   X20.715       Y39.905    
   X20.864       Y39.545    
   X20.923       Y39.094    
   Y11.627    
G17 G3   X21.0154      Y10.2232      R11.0000   
   X21.2962      Y8.8117       R11.0000   
   X21.7588      Y7.4489       R11.0000   
   X22.3953      Y6.1582       R11.0000   
   X23.1948      Y4.9616       R11.0000   
   X24.1437      Y3.8796       R11.0000   
   X25.2257      Y2.9307       R11.0000   
   X26.4223      Y2.1311       R11.0000   
   X27.7131      Y1.4946       R11.0000   
   X29.0758      Y1.0320       R11.0000   
   X30.4873      Y0.7512       R11.0000   
   X31.8907      Y0.6593       R11.0000   
G1   X61.956    
G17 G3   X63.3595      Y0.7512       R11.0000   
   X64.7710      Y1.0320       R11.0000   
   X66.1338      Y1.4946       R11.0000   
   X67.4245      Y2.1311       R11.0000   
   X68.6211      Y2.9307       R11.0000   
   X69.7031      Y3.8796       R11.0000   
   X70.6520      Y4.9616       R11.0000   
   X71.4516      Y6.1582       R11.0000   
   X72.0881      Y7.4489       R11.0000   
   X72.5507      Y8.8117       R11.0000   
   X72.8314      Y10.2232      R11.0000   
   X72.9234      Y11.6265      R11.0000   
(Pass: 3)
G1   Z-1.500    
   Y39.094    
   X72.983       Y39.545    
   X73.132       Y39.905    
   X73.369       Y40.214    
   X73.678       Y40.451    
   X74.037       Y40.600    
   X74.489       Y40.659    
   X81.956    
G17 G3   X83.3595      Y40.7512      R11.0000   
   X84.7710      Y41.0320      R11.0000   
   X86.1338      Y41.4946      R11.0000   
   X87.4245      Y42.1311      R11.0000   
   X88.6211      Y42.9307      R11.0000   
   X89.7031      Y43.8796      R11.0000   
   X90.6520      Y44.9616      R11.0000   
   X91.4516      Y46.1582      R11.0000   
   X92.0881      Y47.4489      R11.0000   
   X92.5507      Y48.8117      R11.0000   
   X92.8314      Y50.2232      R11.0000   
   X92.9234      Y51.6265      R11.0000   
G1   Y61.692    
G17 G3   X92.8314      Y63.0953      R11.0000   
   X92.5507      Y64.5068      R11.0000   
   X92.0881      Y65.8696      R11.0000   
   X91.4516      Y67.1603      R11.0000   
   X90.6520      Y68.3569      R11.0000   
   X89.7031      Y69.4390      R11.0000   
   X88.6211      Y70.3878      R11.0000   
   X87.4245      Y71.1874      R11.0000   
   X86.1338      Y71.8239      R11.0000   
   X84.7710      Y72.2865      R11.0000   
   X83.3595      Y72.5673      R11.0000   
   X81.9561      Y72.6593      R11.0000   
G1   X31.891    
G17 G3   X31.3400      Y72.6232      R11.0000   
G1   X11.892       Y72.659    
G17 G3   X10.4873      Y72.5673      R11.0000   
   X9.0758       Y72.2865      R11.0000   
   X7.7131       Y71.8239      R11.0000   
   X6.4223       Y71.1874      R11.0000   
   X5.2257       Y70.3878      R11.0000   
   X4.1437       Y69.4390      R11.0000   
   X3.1948       Y68.3569      R11.0000   
   X2.3953       Y67.1603      R11.0000   
   X1.7588       Y65.8696      R11.0000   
   X1.2962       Y64.5068      R11.0000   
   X1.0154       Y63.0953      R11.0000   
   X0.9234       Y61.6920      R11.0000   
G1   Y51.627    
G17 G3   X1.0154       Y50.2232      R11.0000   
   X1.2962       Y48.8117      R11.0000   
   X1.7588       Y47.4489      R11.0000   
   X2.3953       Y46.1582      R11.0000   
   X3.1948       Y44.9616      R11.0000   
   X4.1437       Y43.8796      R11.0000   
   X5.2257       Y42.9307      R11.0000   
   X6.4223       Y42.1311      R11.0000   
   X7.7131       Y41.4946      R11.0000   
   X9.0758       Y41.0320      R11.0000   
   X10.4873      Y40.7512      R11.0000   
   X11.8907      Y40.6593      R11.0000   
G1   X19.358    
   X19.809       Y40.600    
   X20.169       Y40.451    
   X20.478       Y40.214    
   X20.715       Y39.905    
   X20.864       Y39.545    
   X20.923       Y39.094    
   Y11.627    
G17 G3   X21.0154      Y10.2232      R11.0000   
   X21.2962      Y8.8117       R11.0000   
   X21.7588      Y7.4489       R11.0000   
   X22.3953      Y6.1582       R11.0000   
   X23.1948      Y4.9616       R11.0000   
   X24.1437      Y3.8796       R11.0000   
   X25.2257      Y2.9307       R11.0000   
   X26.4223      Y2.1311       R11.0000   
   X27.7131      Y1.4946       R11.0000   
   X29.0758      Y1.0320       R11.0000   
   X30.4873      Y0.7512       R11.0000   
   X31.8907      Y0.6593       R11.0000   
G1   X61.956    
G17 G3   X63.3595      Y0.7512       R11.0000   
   X64.7710      Y1.0320       R11.0000   
   X66.1338      Y1.4946       R11.0000   
   X67.4245      Y2.1311       R11.0000   
   X68.6211      Y2.9307       R11.0000   
   X69.7031      Y3.8796       R11.0000   
   X70.6520      Y4.9616       R11.0000   
   X71.4516      Y6.1582       R11.0000   
   X72.0881      Y7.4489       R11.0000   
   X72.5507      Y8.8117       R11.0000   
   X72.8314      Y10.2232      R11.0000   
   X72.9234      Y11.6265      R11.0000   
(Pass: 4)
G1   Z-2.000    
   Y39.094    
   X72.983       Y39.545    
   X73.132       Y39.905    
   X73.369       Y40.214    
   X73.678       Y40.451    
   X74.037       Y40.600    
   X74.489       Y40.659    
   X81.956    
G17 G3   X83.3595      Y40.7512      R11.0000   
   X84.7710      Y41.0320      R11.0000   
   X86.1338      Y41.4946      R11.0000   
   X87.4245      Y42.1311      R11.0000   
   X88.6211      Y42.9307      R11.0000   
   X89.7031      Y43.8796      R11.0000   
   X90.6520      Y44.9616      R11.0000   
   X91.4516      Y46.1582      R11.0000   
   X92.0881      Y47.4489      R11.0000   
   X92.5507      Y48.8117      R11.0000   
   X92.8314      Y50.2232      R11.0000   
   X92.9234      Y51.6265      R11.0000   
G1   Y61.692    
G17 G3   X92.8314      Y63.0953      R11.0000   
   X92.5507      Y64.5068      R11.0000   
   X92.0881      Y65.8696      R11.0000   
   X91.4516      Y67.1603      R11.0000   
   X90.6520      Y68.3569      R11.0000   
   X89.7031      Y69.4390      R11.0000   
   X88.6211      Y70.3878      R11.0000   
   X87.4245      Y71.1874      R11.0000   
   X86.1338      Y71.8239      R11.0000   
   X84.7710      Y72.2865      R11.0000   
   X83.3595      Y72.5673      R11.0000   
   X81.9561      Y72.6593      R11.0000   
G1   X31.891    
G17 G3   X31.3400      Y72.6232      R11.0000   
G1   X11.892       Y72.659    
G17 G3   X10.4873      Y72.5673      R11.0000   
   X9.0758       Y72.2865      R11.0000   
   X7.7131       Y71.8239      R11.0000   
   X6.4223       Y71.1874      R11.0000   
   X5.2257       Y70.3878      R11.0000   
   X4.1437       Y69.4390      R11.0000   
   X3.1948       Y68.3569      R11.0000   
   X2.3953       Y67.1603      R11.0000   
   X1.7588       Y65.8696      R11.0000   
   X1.2962       Y64.5068      R11.0000   
   X1.0154       Y63.0953      R11.0000   
   X0.9234       Y61.6920      R11.0000   
G1   Y51.627    
G17 G3   X1.0154       Y50.2232      R11.0000   
   X1.2962       Y48.8117      R11.0000   
   X1.7588       Y47.4489      R11.0000   
   X2.3953       Y46.1582      R11.0000   
   X3.1948       Y44.9616      R11.0000   
   X4.1437       Y43.8796      R11.0000   
   X5.2257       Y42.9307      R11.0000   
   X6.4223       Y42.1311      R11.0000   
   X7.7131       Y41.4946      R11.0000   
   X9.0758       Y41.0320      R11.0000   
   X10.4873      Y40.7512      R11.0000   
   X11.8907      Y40.6593      R11.0000   
G1   X19.358    
   X19.809       Y40.600    
   X20.169       Y40.451    
   X20.478       Y40.214    
   X20.715       Y39.905    
   X20.864       Y39.545    
   X20.923       Y39.094    
   Y11.627    
G17 G3   X21.0154      Y10.2232      R11.0000   
   X21.2962      Y8.8117       R11.0000   
   X21.7588      Y7.4489       R11.0000   
   X22.3953      Y6.1582       R11.0000   
   X23.1948      Y4.9616       R11.0000   
   X24.1437      Y3.8796       R11.0000   
   X25.2257      Y2.9307       R11.0000   
   X26.4223      Y2.1311       R11.0000   
   X27.7131      Y1.4946       R11.0000   
   X29.0758      Y1.0320       R11.0000   
   X30.4873      Y0.7512       R11.0000   
   X31.8907      Y0.6593       R11.0000   
G1   X61.956    
G17 G3   X63.3595      Y0.7512       R11.0000   
   X64.7710      Y1.0320       R11.0000   
   X66.1338      Y1.4946       R11.0000   
   X67.4245      Y2.1311       R11.0000   
   X68.6211      Y2.9307       R11.0000   
   X69.7031      Y3.8796       R11.0000   
   X70.6520      Y4.9616       R11.0000   
   X71.4516      Y6.1582       R11.0000   
   X72.0881      Y7.4489       R11.0000   
   X72.5507      Y8.8117       R11.0000   
   X72.8314      Y10.2232      R11.0000   
   X72.9234      Y11.6265      R11.0000   
(Pass: 5)
G1   Z-2.500    
   Y39.094    
   X72.983       Y39.545    
   X73.132       Y39.905    
   X73.369       Y40.214    
   X73.678       Y40.451    
   X74.037       Y40.600    
   X74.489       Y40.659    
   X81.956    
G17 G3   X83.3595      Y40.7512      R11.0000   
   X84.7710      Y41.0320      R11.0000   
   X86.1338      Y41.4946      R11.0000   
   X87.4245      Y42.1311      R11.0000   
   X88.6211      Y42.9307      R11.0000   
   X89.7031      Y43.8796      R11.0000   
   X90.6520      Y44.9616      R11.0000   
   X91.4516      Y46.1582      R11.0000   
   X92.0881      Y47.4489      R11.0000   
   X92.5507      Y48.8117      R11.0000   
