%
(Generated by SketchUcam {1.2})
(File: laser.skp)
(Bit diameter: 2.0mm)
(Feed rate: 200.0mm/min)
(Material Thickness: 3.5mm)
(Material length: 600.0mm X width: 300.0mm)
(Overhead Gantry: true)
(Retract feed rate NOT limited to plunge feed rate)
(Multipass enabled, Depth = 0.5mm)
(Optimization is ON)
(www.PhlatBoyz.com)
G90 G21 G49
M3 S11000
G0   Z5.000
(Pass: 1)
   X105.137      Y11.038
G1   Z-0.500     F300
G17 G2   X105.0781     Y11.6853      R2.5000
   X105.1890     Y12.3261      R2.5000
   X105.4621     Y12.9164      R2.5000
   X105.8786     Y13.4159      R2.5000
   X106.4102     Y13.7906      R2.5000
   X107.0206     Y14.0150      R2.5000
   X107.6683     Y14.0737      R2.5000
   X108.3092     Y13.9628      R2.5000
   X108.8995     Y13.6897      R2.5000
   X109.3990     Y13.2732      R2.5000
   X109.7737     Y12.7416      R2.5000
   X109.9981     Y12.1312      R2.5000
   X110.0568     Y11.4834      R2.5000
   X109.9458     Y10.8426      R2.5000
   X109.6728     Y10.2523      R2.5000
   X109.2563     Y9.7528       R2.5000
   X108.7247     Y9.3781       R2.5000
   X108.1142     Y9.1537       R2.5000
   X107.4665     Y9.0950       R2.5000
   X106.8257     Y9.2060       R2.5000
   X106.2354     Y9.4790       R2.5000
   X105.7358     Y9.8955       R2.5000
   X105.3611     Y10.4271      R2.5000
   X105.1368     Y11.0376      R2.5000
(Pass: 2)
G1   Z-1.000
G17 G2   X105.0781     Y11.6853      R2.5000
   X105.1890     Y12.3261      R2.5000
   X105.4621     Y12.9164      R2.5000
   X105.8786     Y13.4159      R2.5000
   X106.4102     Y13.7906      R2.5000
   X107.0206     Y14.0150      R2.5000
   X107.6683     Y14.0737      R2.5000
   X108.3092     Y13.9628      R2.5000
   X108.8995     Y13.6897      R2.5000
   X109.3990     Y13.2732      R2.5000
   X109.7737     Y12.7416      R2.5000
   X109.9981     Y12.1312      R2.5000
   X110.0568     Y11.4834      R2.5000
   X109.9458     Y10.8426      R2.5000
   X109.6728     Y10.2523      R2.5000
   X109.2563     Y9.7528       R2.5000
   X108.7247     Y9.3781       R2.5000
   X108.1142     Y9.1537       R2.5000
   X107.4665     Y9.0950       R2.5000
   X106.8257     Y9.2060       R2.5000
   X106.2354     Y9.4790       R2.5000
   X105.7358     Y9.8955       R2.5000
   X105.3611     Y10.4271      R2.5000
   X105.1368     Y11.0376      R2.5000
(Pass: 3)
G1   Z-1.500
G17 G2   X105.0781     Y11.6853      R2.5000
   X105.1890     Y12.3261      R2.5000
   X105.4621     Y12.9164      R2.5000
   X105.8786     Y13.4159      R2.5000
   X106.4102     Y13.7906      R2.5000
   X107.0206     Y14.0150      R2.5000
   X107.6683     Y14.0737      R2.5000
   X108.3092     Y13.9628      R2.5000
   X108.8995     Y13.6897      R2.5000
   X109.3990     Y13.2732      R2.5000
   X109.7737     Y12.7416      R2.5000
   X109.9981     Y12.1312      R2.5000
   X110.0568     Y11.4834      R2.5000
   X109.9458     Y10.8426      R2.5000
   X109.6728     Y10.2523      R2.5000
   X109.2563     Y9.7528       R2.5000
   X108.7247     Y9.3781       R2.5000
   X108.1142     Y9.1537       R2.5000
   X107.4665     Y9.0950       R2.5000
   X106.8257     Y9.2060       R2.5000
   X106.2354     Y9.4790       R2.5000
   X105.7358     Y9.8955       R2.5000
   X105.3611     Y10.4271      R2.5000
   X105.1368     Y11.0376      R2.5000
(Pass: 4)
G1   Z-2.000
G17 G2   X105.0781     Y11.6853      R2.5000
   X105.1890     Y12.3261      R2.5000
   X105.4621     Y12.9164      R2.5000
   X105.8786     Y13.4159      R2.5000
   X106.4102     Y13.7906      R2.5000
   X107.0206     Y14.0150      R2.5000
   X107.6683     Y14.0737      R2.5000
   X108.3092     Y13.9628      R2.5000
   X108.8995     Y13.6897      R2.5000
   X109.3990     Y13.2732      R2.5000
   X109.7737     Y12.7416      R2.5000
   X109.9981     Y12.1312      R2.5000
   X110.0568     Y11.4834      R2.5000
   X109.9458     Y10.8426      R2.5000
   X109.6728     Y10.2523      R2.5000
   X109.2563     Y9.7528       R2.5000
   X108.7247     Y9.3781       R2.5000
   X108.1142     Y9.1537       R2.5000
   X107.4665     Y9.0950       R2.5000
   X106.8257     Y9.2060       R2.5000
   X106.2354     Y9.4790       R2.5000
   X105.7358     Y9.8955       R2.5000
   X105.3611     Y10.4271      R2.5000
   X105.1368     Y11.0376      R2.5000
(Pass: 5)
G1   Z-2.500
G17 G2   X105.0781     Y11.6853      R2.5000
   X105.1890     Y12.3261      R2.5000
   X105.4621     Y12.9164      R2.5000
   X105.8786     Y13.4159      R2.5000
   X106.4102     Y13.7906      R2.5000
   X107.0206     Y14.0150      R2.5000
   X107.6683     Y14.0737      R2.5000
   X108.3092     Y13.9628      R2.5000
   X108.8995     Y13.6897      R2.5000
   X109.3990     Y13.2732      R2.5000
   X109.7737     Y12.7416      R2.5000
   X109.9981     Y12.1312      R2.5000
   X110.0568     Y11.4834      R2.5000
   X109.9458     Y10.8426      R2.5000
   X109.6728     Y10.2523      R2.5000
   X109.2563     Y9.7528       R2.5000
   X108.7247     Y9.3781       R2.5000
   X108.1142     Y9.1537       R2.5000
   X107.4665     Y9.0950       R2.5000
   X106.8257     Y9.2060       R2.5000
   X106.2354     Y9.4790       R2.5000
   X105.7358     Y9.8955       R2.5000
   X105.3611     Y10.4271      R2.5000
   X105.1368     Y11.0376      R2.5000
(Pass: 6)
G1   Z-3.000
G17 G2   X105.0781     Y11.6853      R2.5000
   X105.1890     Y12.3261      R2.5000
   X105.4621     Y12.9164      R2.5000
   X105.8786     Y13.4159      R2.5000
   X106.4102     Y13.7906      R2.5000
   X107.0206     Y14.0150      R2.5000
   X107.6683     Y14.0737      R2.5000
   X108.3092     Y13.9628      R2.5000
   X108.8995     Y13.6897      R2.5000
   X109.3990     Y13.2732      R2.5000
   X109.7737     Y12.7416      R2.5000
   X109.9981     Y12.1312      R2.5000
   X110.0568     Y11.4834      R2.5000
   X109.9458     Y10.8426      R2.5000
   X109.6728     Y10.2523      R2.5000
   X109.2563     Y9.7528       R2.5000
   X108.7247     Y9.3781       R2.5000
   X108.1142     Y9.1537       R2.5000
   X107.4665     Y9.0950       R2.5000
   X106.8257     Y9.2060       R2.5000
   X106.2354     Y9.4790       R2.5000
   X105.7358     Y9.8955       R2.5000
   X105.3611     Y10.4271      R2.5000
   X105.1368     Y11.0376      R2.5000
(Pass: 7)
G1   Z-3.500
G17 G2   X105.0781     Y11.6853      R2.5000
   X105.1890     Y12.3261      R2.5000
   X105.4621     Y12.9164      R2.5000
   X105.8786     Y13.4159      R2.5000
   X106.4102     Y13.7906      R2.5000
   X107.0206     Y14.0150      R2.5000
   X107.6683     Y14.0737      R2.5000
   X108.3092     Y13.9628      R2.5000
   X108.8995     Y13.6897      R2.5000
   X109.3990     Y13.2732      R2.5000
   X109.7737     Y12.7416      R2.5000
   X109.9981     Y12.1312      R2.5000
   X110.0568     Y11.4834      R2.5000
   X109.9458     Y10.8426      R2.5000
   X109.6728     Y10.2523      R2.5000
   X109.2563     Y9.7528       R2.5000
   X108.7247     Y9.3781       R2.5000
   X108.1142     Y9.1537       R2.5000
   X107.4665     Y9.0950       R2.5000
   X106.8257     Y9.2060       R2.5000
   X106.2354     Y9.4790       R2.5000
   X105.7358     Y9.8955       R2.5000
   X105.3611     Y10.4271      R2.5000
   X105.1368     Y11.0376      R2.5000
G0   Z5.000
(Pass: 1)
   X121.117      Y17.206
G1   Z-0.500     F300
G17 G2   X121.0661     Y17.5944      R1.5100
   X121.1172     Y17.9829      R1.5100
   X121.2672     Y18.3451      R1.5100
   X121.5058     Y18.6560      R1.5100
   X121.8167     Y18.8946      R1.5100
   X122.1788     Y19.0446      R1.5100
   X122.5674     Y19.0957      R1.5100
   X122.9560     Y19.0446      R1.5100
   X123.3181     Y18.8946      R1.5100
   X123.6291     Y18.6560      R1.5100
   X123.8677     Y18.3451      R1.5100
   X124.0176     Y17.9829      R1.5100
   X124.0688     Y17.5944      R1.5100
   X124.0176     Y17.2058      R1.5100
   X123.8677     Y16.8437      R1.5100
   X123.6291     Y16.5327      R1.5100
   X123.3181     Y16.2941      R1.5100
   X122.9560     Y16.1442      R1.5100
   X122.5674     Y16.0930      R1.5100
   X122.1788     Y16.1442      R1.5100
   X121.8167     Y16.2941      R1.5100
   X121.5058     Y16.5327      R1.5100
   X121.2672     Y16.8437      R1.5100
   X121.1172     Y17.2058      R1.5100
(Pass: 2)
G1   Z-1.000
G17 G2   X121.0661     Y17.5944      R1.5100
   X121.1172     Y17.9829      R1.5100
   X121.2672     Y18.3451      R1.5100
   X121.5058     Y18.6560      R1.5100
   X121.8167     Y18.8946      R1.5100
   X122.1788     Y19.0446      R1.5100
   X122.5674     Y19.0957      R1.5100
   X122.9560     Y19.0446      R1.5100
   X123.3181     Y18.8946      R1.5100
   X123.6291     Y18.6560      R1.5100
   X123.8677     Y18.3451      R1.5100
   X124.0176     Y17.9829      R1.5100
   X124.0688     Y17.5944      R1.5100
   X124.0176     Y17.2058      R1.5100
   X123.8677     Y16.8437      R1.5100
   X123.6291     Y16.5327      R1.5100
   X123.3181     Y16.2941      R1.5100
   X122.9560     Y16.1442      R1.5100
   X122.5674     Y16.0930      R1.5100
   X122.1788     Y16.1442      R1.5100
   X121.8167     Y16.2941      R1.5100
   X121.5058     Y16.5327      R1.5100
   X121.2672     Y16.8437      R1.5100
   X121.1172     Y17.2058      R1.5100
(Pass: 3)
G1   Z-1.500
G17 G2   X121.0661     Y17.5944      R1.5100
   X121.1172     Y17.9829      R1.5100
   X121.2672     Y18.3451      R1.5100
   X121.5058     Y18.6560      R1.5100
   X121.8167     Y18.8946      R1.5100
   X122.1788     Y19.0446      R1.5100
   X122.5674     Y19.0957      R1.5100
   X122.9560     Y19.0446      R1.5100
   X123.3181     Y18.8946      R1.5100
   X123.6291     Y18.6560      R1.5100
   X123.8677     Y18.3451      R1.5100
   X124.0176     Y17.9829      R1.5100
   X124.0688     Y17.5944      R1.5100
   X124.0176     Y17.2058      R1.5100
   X123.8677     Y16.8437      R1.5100
   X123.6291     Y16.5327      R1.5100
   X123.3181     Y16.2941      R1.5100
   X122.9560     Y16.1442      R1.5100
   X122.5674     Y16.0930      R1.5100
   X122.1788     Y16.1442      R1.5100
   X121.8167     Y16.2941      R1.5100
   X121.5058     Y16.5327      R1.5100
   X121.2672     Y16.8437      R1.5100
   X121.1172     Y17.2058      R1.5100
(Pass: 4)
G1   Z-2.000
G17 G2   X121.0661     Y17.5944      R1.5100
   X121.1172     Y17.9829      R1.5100
   X121.2672     Y18.3451      R1.5100
   X121.5058     Y18.6560      R1.5100
   X121.8167     Y18.8946      R1.5100
   X122.1788     Y19.0446      R1.5100
   X122.5674     Y19.0957      R1.5100
   X122.9560     Y19.0446      R1.5100
   X123.3181     Y18.8946      R1.5100
   X123.6291     Y18.6560      R1.5100
   X123.8677     Y18.3451      R1.5100
   X124.0176     Y17.9829      R1.5100
   X124.0688     Y17.5944      R1.5100
   X124.0176     Y17.2058      R1.5100
   X123.8677     Y16.8437      R1.5100
   X123.6291     Y16.5327      R1.5100
   X123.3181     Y16.2941      R1.5100
   X122.9560     Y16.1442      R1.5100
   X122.5674     Y16.0930      R1.5100
   X122.1788     Y16.1442      R1.5100
   X121.8167     Y16.2941      R1.5100
   X121.5058     Y16.5327      R1.5100
   X121.2672     Y16.8437      R1.5100
   X121.1172     Y17.2058      R1.5100
(Pass: 5)
G1   Z-2.500
G17 G2   X121.0661     Y17.5944      R1.5100
   X121.1172     Y17.9829      R1.5100
   X121.2672     Y18.3451      R1.5100
   X121.5058     Y18.6560      R1.5100
   X121.8167     Y18.8946      R1.5100
   X122.1788     Y19.0446      R1.5100
   X122.5674     Y19.0957      R1.5100
   X122.9560     Y19.0446      R1.5100
   X123.3181     Y18.8946      R1.5100
   X123.6291     Y18.6560      R1.5100
   X123.8677     Y18.3451      R1.5100
   X124.0176     Y17.9829      R1.5100
   X124.0688     Y17.5944      R1.5100
   X124.0176     Y17.2058      R1.5100
   X123.8677     Y16.8437      R1.5100
   X123.6291     Y16.5327      R1.5100
   X123.3181     Y16.2941      R1.5100
   X122.9560     Y16.1442      R1.5100
   X122.5674     Y16.0930      R1.5100
   X122.1788     Y16.1442      R1.5100
   X121.8167     Y16.2941      R1.5100
   X121.5058     Y16.5327      R1.5100
   X121.2672     Y16.8437      R1.5100
   X121.1172     Y17.2058      R1.5100
(Pass: 6)
G1   Z-3.000
G17 G2   X121.0661     Y17.5944      R1.5100
   X121.1172     Y17.9829      R1.5100
   X121.2672     Y18.3451      R1.5100
   X121.5058     Y18.6560      R1.5100
   X121.8167     Y18.8946      R1.5100
   X122.1788     Y19.0446      R1.5100
   X122.5674     Y19.0957      R1.5100
   X122.9560     Y19.0446      R1.5100
   X123.3181     Y18.8946      R1.5100
   X123.6291     Y18.6560      R1.5100
   X123.8677     Y18.3451      R1.5100
   X124.0176     Y17.9829      R1.5100
   X124.0688     Y17.5944      R1.5100
   X124.0176     Y17.2058      R1.5100
   X123.8677     Y16.8437      R1.5100
   X123.6291     Y16.5327      R1.5100
   X123.3181     Y16.2941      R1.5100
   X122.9560     Y16.1442      R1.5100
   X122.5674     Y16.0930      R1.5100
   X122.1788     Y16.1442      R1.5100
   X121.8167     Y16.2941      R1.5100
   X121.5058     Y16.5327      R1.5100
   X121.2672     Y16.8437      R1.5100
   X121.1172     Y17.2058      R1.5100
(Pass: 7)
G1   Z-3.500
G17 G2   X121.0661     Y17.5944      R1.5100
   X121.1172     Y17.9829      R1.5100
   X121.2672     Y18.3451      R1.5100
   X121.5058     Y18.6560      R1.5100
   X121.8167     Y18.8946      R1.5100
   X122.1788     Y19.0446      R1.5100
   X122.5674     Y19.0957      R1.5100
   X122.9560     Y19.0446      R1.5100
   X123.3181     Y18.8946      R1.5100
   X123.6291     Y18.6560      R1.5100
   X123.8677     Y18.3451      R1.5100
   X124.0176     Y17.9829      R1.5100
   X124.0688     Y17.5944      R1.5100
   X124.0176     Y17.2058      R1.5100
   X123.8677     Y16.8437      R1.5100
   X123.6291     Y16.5327      R1.5100
   X123.3181     Y16.2941      R1.5100
   X122.9560     Y16.1442      R1.5100
   X122.5674     Y16.0930      R1.5100
   X122.1788     Y16.1442      R1.5100
   X121.8167     Y16.2941      R1.5100
   X121.5058     Y16.5327      R1.5100
   X121.2672     Y16.8437      R1.5100
   X121.1172     Y17.2058      R1.5100
G0   Z5.000
(Pass: 1)
   X122.567      Y26.083
G1   Z-0.500     F300
G17 G2   X122.1788     Y26.1342      R1.5100
   X121.8167     Y26.2841      R1.5100
   X121.5058     Y26.5227      R1.5100
   X121.2672     Y26.8337      R1.5100
   X121.1172     Y27.1958      R1.5100
   X121.0661     Y27.5844      R1.5100
   X121.1172     Y27.9729      R1.5100
   X121.2672     Y28.3351      R1.5100
   X121.5058     Y28.6460      R1.5100
   X121.8167     Y28.8846      R1.5100
   X122.1788     Y29.0346      R1.5100
   X122.5674     Y29.0857      R1.5100
   X122.9560     Y29.0346      R1.5100
   X123.3181     Y28.8846      R1.5100
   X123.6291     Y28.6460      R1.5100
   X123.8677     Y28.3351      R1.5100
   X124.0176     Y27.9729      R1.5100
   X124.0688     Y27.5844      R1.5100
   X124.0176     Y27.1958      R1.5100
   X123.8677     Y26.8337      R1.5100
   X123.6291     Y26.5227      R1.5100
   X123.3181     Y26.2841      R1.5100
   X122.9560     Y26.1342      R1.5100
   X122.5674     Y26.0830      R1.5100
(Pass: 2)
G1   Z-1.000
G17 G2   X122.1788     Y26.1342      R1.5100
   X121.8167     Y26.2841      R1.5100
   X121.5058     Y26.5227      R1.5100
   X121.2672     Y26.8337      R1.5100
   X121.1172     Y27.1958      R1.5100
   X121.0661     Y27.5844      R1.5100
   X121.1172     Y27.9729      R1.5100
   X121.2672     Y28.3351      R1.5100
   X121.5058     Y28.6460      R1.5100
   X121.8167     Y28.8846      R1.5100
   X122.1788     Y29.0346      R1.5100
   X122.5674     Y29.0857      R1.5100
   X122.9560     Y29.0346      R1.5100
   X123.3181     Y28.8846      R1.5100
   X123.6291     Y28.6460      R1.5100
   X123.8677     Y28.3351      R1.5100
   X124.0176     Y27.9729      R1.5100
   X124.0688     Y27.5844      R1.5100
   X124.0176     Y27.1958      R1.5100
   X123.8677     Y26.8337      R1.5100
   X123.6291     Y26.5227      R1.5100
   X123.3181     Y26.2841      R1.5100
   X122.9560     Y26.1342      R1.5100
   X122.5674     Y26.0830      R1.5100
(Pass: 3)
G1   Z-1.500
G17 G2   X122.1788     Y26.1342      R1.5100
   X121.8167     Y26.2841      R1.5100
   X121.5058     Y26.5227      R1.5100
   X121.2672     Y26.8337      R1.5100
   X121.1172     Y27.1958      R1.5100
   X121.0661     Y27.5844      R1.5100
   X121.1172     Y27.9729      R1.5100
   X121.2672     Y28.3351      R1.5100
   X121.5058     Y28.6460      R1.5100
   X121.8167     Y28.8846      R1.5100
   X122.1788     Y29.0346      R1.5100
   X122.5674     Y29.0857      R1.5100
   X122.9560     Y29.0346      R1.5100
   X123.3181     Y28.8846      R1.5100
   X123.6291     Y28.6460      R1.5100
   X123.8677     Y28.3351      R1.5100
   X124.0176     Y27.9729      R1.5100
   X124.0688     Y27.5844      R1.5100
   X124.0176     Y27.1958      R1.5100
   X123.8677     Y26.8337      R1.5100
   X123.6291     Y26.5227      R1.5100
   X123.3181     Y26.2841      R1.5100
   X122.9560     Y26.1342      R1.5100
   X122.5674     Y26.0830      R1.5100
(Pass: 4)
G1   Z-2.000
G17 G2   X122.1788     Y26.1342      R1.5100
   X121.8167     Y26.2841      R1.5100
   X121.5058     Y26.5227      R1.5100
   X121.2672     Y26.8337      R1.5100
   X121.1172     Y27.1958      R1.5100
   X121.0661     Y27.5844      R1.5100
   X121.1172     Y27.9729      R1.5100
   X121.2672     Y28.3351      R1.5100
   X121.5058     Y28.6460      R1.5100
   X121.8167     Y28.8846      R1.5100
   X122.1788     Y29.0346      R1.5100
   X122.5674     Y29.0857      R1.5100
   X122.9560     Y29.0346      R1.5100
   X123.3181     Y28.8846      R1.5100
   X123.6291     Y28.6460      R1.5100
   X123.8677     Y28.3351      R1.5100
   X124.0176     Y27.9729      R1.5100
   X124.0688     Y27.5844      R1.5100
   X124.0176     Y27.1958      R1.5100
   X123.8677     Y26.8337      R1.5100
   X123.6291     Y26.5227      R1.5100
   X123.3181     Y26.2841      R1.5100
   X122.9560     Y26.1342      R1.5100
   X122.5674     Y26.0830      R1.5100
(Pass: 5)
G1   Z-2.500
G17 G2   X122.1788     Y26.1342      R1.5100
   X121.8167     Y26.2841      R1.5100
   X121.5058     Y26.5227      R1.5100
   X121.2672     Y26.8337      R1.5100
   X121.1172     Y27.1958      R1.5100
   X121.0661     Y27.5844      R1.5100
   X121.1172     Y27.9729      R1.5100
   X121.2672     Y28.3351      R1.5100
   X121.5058     Y28.6460      R1.5100
   X121.8167     Y28.8846      R1.5100
   X122.1788     Y29.0346      R1.5100
   X122.5674     Y29.0857      R1.5100
   X122.9560     Y29.0346      R1.5100
   X123.3181     Y28.8846      R1.5100
   X123.6291     Y28.6460      R1.5100
   X123.8677     Y28.3351      R1.5100
   X124.0176     Y27.9729      R1.5100
   X124.0688     Y27.5844      R1.5100
   X124.0176     Y27.1958      R1.5100
   X123.8677     Y26.8337      R1.5100
   X123.6291     Y26.5227      R1.5100
   X123.3181     Y26.2841      R1.5100
   X122.9560     Y26.1342      R1.5100
   X122.5674     Y26.0830      R1.5100
(Pass: 6)
G1   Z-3.000
G17 G2   X122.1788     Y26.1342      R1.5100
   X121.8167     Y26.2841      R1.5100
   X121.5058     Y26.5227      R1.5100
   X121.2672     Y26.8337      R1.5100
   X121.1172     Y27.1958      R1.5100
   X121.0661     Y27.5844      R1.5100
   X121.1172     Y27.9729      R1.5100
   X121.2672     Y28.3351      R1.5100
   X121.5058     Y28.6460      R1.5100
   X121.8167     Y28.8846      R1.5100
   X122.1788     Y29.0346      R1.5100
   X122.5674     Y29.0857      R1.5100
   X122.9560     Y29.0346      R1.5100
   X123.3181     Y28.8846      R1.5100
   X123.6291     Y28.6460      R1.5100
   X123.8677     Y28.3351      R1.5100
   X124.0176     Y27.9729      R1.5100
   X124.0688     Y27.5844      R1.5100
   X124.0176     Y27.1958      R1.5100
   X123.8677     Y26.8337      R1.5100
   X123.6291     Y26.5227      R1.5100
   X123.3181     Y26.2841      R1.5100
   X122.9560     Y26.1342      R1.5100
   X122.5674     Y26.0830      R1.5100
(Pass: 7)
G1   Z-3.500
G17 G2   X122.1788     Y26.1342      R1.5100
   X121.8167     Y26.2841      R1.5100
   X121.5058     Y26.5227      R1.5100
   X121.2672     Y26.8337      R1.5100
   X121.1172     Y27.1958      R1.5100
   X121.0661     Y27.5844      R1.5100
   X121.1172     Y27.9729      R1.5100
   X121.2672     Y28.3351      R1.5100
   X121.5058     Y28.6460      R1.5100
   X121.8167     Y28.8846      R1.5100
   X122.1788     Y29.0346      R1.5100
   X122.5674     Y29.0857      R1.5100
   X122.9560     Y29.0346      R1.5100
   X123.3181     Y28.8846      R1.5100
   X123.6291     Y28.6460      R1.5100
   X123.8677     Y28.3351      R1.5100
   X124.0176     Y27.9729      R1.5100
   X124.0688     Y27.5844      R1.5100
   X124.0176     Y27.1958      R1.5100
   X123.8677     Y26.8337      R1.5100
   X123.6291     Y26.5227      R1.5100
   X123.3181     Y26.2841      R1.5100
   X122.9560     Y26.1342      R1.5100
   X122.5674     Y26.0830      R1.5100
G0   Z5.000
(Pass: 1)
   Y36.093
G1   Z-0.500     F300
G17 G2   X122.1788     Y36.1442      R1.5100
   X121.8167     Y36.2941      R1.5100
   X121.5058     Y36.5327      R1.5100
   X121.2672     Y36.8437      R1.5100
   X121.1172     Y37.2058      R1.5100
   X121.0661     Y37.5944      R1.5100
   X121.1172     Y37.9829      R1.5100
   X121.2672     Y38.3451      R1.5100
   X121.5058     Y38.6560      R1.5100
   X121.8167     Y38.8946      R1.5100
   X122.1788     Y39.0446      R1.5100
   X122.5674     Y39.0957      R1.5100
   X122.9560     Y39.0446      R1.5100
   X123.3181     Y38.8946      R1.5100
   X123.6291     Y38.6560      R1.5100
   X123.8677     Y38.3451      R1.5100
   X124.0176     Y37.9829      R1.5100
   X124.0688     Y37.5944      R1.5100
   X124.0176     Y37.2058      R1.5100
   X123.8677     Y36.8437      R1.5100
   X123.6291     Y36.5327      R1.5100
   X123.3181     Y36.2941      R1.5100
   X122.9560     Y36.1442      R1.5100
   X122.5674     Y36.0930      R1.5100
(Pass: 2)
G1   Z-1.000
G17 G2   X122.1788     Y36.1442      R1.5100
   X121.8167     Y36.2941      R1.5100
   X121.5058     Y36.5327      R1.5100
   X121.2672     Y36.8437      R1.5100
   X121.1172     Y37.2058      R1.5100
   X121.0661     Y37.5944      R1.5100
   X121.1172     Y37.9829      R1.5100
   X121.2672     Y38.3451      R1.5100
   X121.5058     Y38.6560      R1.5100
   X121.8167     Y38.8946      R1.5100
   X122.1788     Y39.0446      R1.5100
   X122.5674     Y39.0957      R1.5100
   X122.9560     Y39.0446      R1.5100
   X123.3181     Y38.8946      R1.5100
   X123.6291     Y38.6560      R1.5100
   X123.8677     Y38.3451      R1.5100
   X124.0176     Y37.9829      R1.5100
   X124.0688     Y37.5944      R1.5100
   X124.0176     Y37.2058      R1.5100
   X123.8677     Y36.8437      R1.5100
   X123.6291     Y36.5327      R1.5100
   X123.3181     Y36.2941      R1.5100
   X122.9560     Y36.1442      R1.5100
   X122.5674     Y36.0930      R1.5100
(Pass: 3)
G1   Z-1.500
G17 G2   X122.1788     Y36.1442      R1.5100
   X121.8167     Y36.2941      R1.5100
   X121.5058     Y36.5327      R1.5100
   X121.2672     Y36.8437      R1.5100
   X121.1172     Y37.2058      R1.5100
   X121.0661     Y37.5944      R1.5100
   X121.1172     Y37.9829      R1.5100
   X121.2672     Y38.3451      R1.5100
   X121.5058     Y38.6560      R1.5100
   X121.8167     Y38.8946      R1.5100
   X122.1788     Y39.0446      R1.5100
   X122.5674     Y39.0957      R1.5100
   X122.9560     Y39.0446      R1.5100
   X123.3181     Y38.8946      R1.5100
   X123.6291     Y38.6560      R1.5100
   X123.8677     Y38.3451      R1.5100
   X124.0176     Y37.9829      R1.5100
   X124.0688     Y37.5944      R1.5100
   X124.0176     Y37.2058      R1.5100
   X123.8677     Y36.8437      R1.5100
   X123.6291     Y36.5327      R1.5100
   X123.3181     Y36.2941      R1.5100
   X122.9560     Y36.1442      R1.5100
   X122.5674     Y36.0930      R1.5100
(Pass: 4)
G1   Z-2.000
G17 G2   X122.1788     Y36.1442      R1.5100
   X121.8167     Y36.2941      R1.5100
   X121.5058     Y36.5327      R1.5100
   X121.2672     Y36.8437      R1.5100
   X121.1172     Y37.2058      R1.5100
   X121.0661     Y37.5944      R1.5100
   X121.1172     Y37.9829      R1.5100
   X121.2672     Y38.3451      R1.5100
   X121.5058     Y38.6560      R1.5100
   X121.8167     Y38.8946      R1.5100
   X122.1788     Y39.0446      R1.5100
   X122.5674     Y39.0957      R1.5100
   X122.9560     Y39.0446      R1.5100
   X123.3181     Y38.8946      R1.5100
   X123.6291     Y38.6560      R1.5100
   X123.8677     Y38.3451      R1.5100
   X124.0176     Y37.9829      R1.5100
   X124.0688     Y37.5944      R1.5100
   X124.0176     Y37.2058      R1.5100
   X123.8677     Y36.8437      R1.5100
   X123.6291     Y36.5327      R1.5100
   X123.3181     Y36.2941      R1.5100
   X122.9560     Y36.1442      R1.5100
   X122.5674     Y36.0930      R1.5100
(Pass: 5)
G1   Z-2.500
G17 G2   X122.1788     Y36.1442      R1.5100
   X121.8167     Y36.2941      R1.5100
   X121.5058     Y36.5327      R1.5100
   X121.2672     Y36.8437      R1.5100
   X121.1172     Y37.2058      R1.5100
   X121.0661     Y37.5944      R1.5100
   X121.1172     Y37.9829      R1.5100
   X121.2672     Y38.3451      R1.5100
   X121.5058     Y38.6560      R1.5100
   X121.8167     Y38.8946      R1.5100
   X122.1788     Y39.0446      R1.5100
   X122.5674     Y39.0957      R1.5100
   X122.9560     Y39.0446      R1.5100
   X123.3181     Y38.8946      R1.5100
   X123.6291     Y38.6560      R1.5100
   X123.8677     Y38.3451      R1.5100
   X124.0176     Y37.9829      R1.5100
   X124.0688     Y37.5944      R1.5100
   X124.0176     Y37.2058      R1.5100
   X123.8677     Y36.8437      R1.5100
   X123.6291     Y36.5327      R1.5100
   X123.3181     Y36.2941      R1.5100
   X122.9560     Y36.1442      R1.5100
   X122.5674     Y36.0930      R1.5100
(Pass: 6)
G1   Z-3.000
G17 G2   X122.1788     Y36.1442      R1.5100
   X121.8167     Y36.2941      R1.5100
   X121.5058     Y36.5327      R1.5100
   X121.2672     Y36.8437      R1.5100
   X121.1172     Y37.2058      R1.5100
   X121.0661     Y37.5944      R1.5100
   X121.1172     Y37.9829      R1.5100
   X121.2672     Y38.3451      R1.5100
   X121.5058     Y38.6560      R1.5100
   X121.8167     Y38.8946      R1.5100
   X122.1788     Y39.0446      R1.5100
   X122.5674     Y39.0957      R1.5100
   X122.9560     Y39.0446      R1.5100
   X123.3181     Y38.8946      R1.5100
   X123.6291     Y38.6560      R1.5100
   X123.8677     Y38.3451      R1.5100
   X124.0176     Y37.9829      R1.5100
   X124.0688     Y37.5944      R1.5100
   X124.0176     Y37.2058      R1.5100
   X123.8677     Y36.8437      R1.5100
   X123.6291     Y36.5327      R1.5100
   X123.3181     Y36.2941      R1.5100
   X122.9560     Y36.1442      R1.5100
   X122.5674     Y36.0930      R1.5100
(Pass: 7)
G1   Z-3.500
G17 G2   X122.1788     Y36.1442      R1.5100
   X121.8167     Y36.2941      R1.5100
   X121.5058     Y36.5327      R1.5100
   X121.2672     Y36.8437      R1.5100
   X121.1172     Y37.2058      R1.5100
   X121.0661     Y37.5944      R1.5100
   X121.1172     Y37.9829      R1.5100
   X121.2672     Y38.3451      R1.5100
   X121.5058     Y38.6560      R1.5100
   X121.8167     Y38.8946      R1.5100
   X122.1788     Y39.0446      R1.5100
   X122.5674     Y39.0957      R1.5100
   X122.9560     Y39.0446      R1.5100
   X123.3181     Y38.8946      R1.5100
   X123.6291     Y38.6560      R1.5100
   X123.8677     Y38.3451      R1.5100
   X124.0176     Y37.9829      R1.5100
   X124.0688     Y37.5944      R1.5100
   X124.0176     Y37.2058      R1.5100
   X123.8677     Y36.8437      R1.5100
   X123.6291     Y36.5327      R1.5100
   X123.3181     Y36.2941      R1.5100
   X122.9560     Y36.1442      R1.5100
   X122.5674     Y36.0930      R1.5100
G0   Z5.000
(Pass: 1)
   X131.267      Y28.335
G1   Z-0.500     F300
G17 G2   X131.5058     Y28.6460      R1.5100
   X131.8167     Y28.8846      R1.5100
   X132.1788     Y29.0346      R1.5100
   X132.5674     Y29.0857      R1.5100
   X132.9560     Y29.0346      R1.5100
   X133.3181     Y28.8846      R1.5100
   X133.6291     Y28.6460      R1.5100
   X133.8677     Y28.3351      R1.5100
   X134.0176     Y27.9729      R1.5100
   X134.0688     Y27.5844      R1.5100
   X134.0176     Y27.1958      R1.5100
   X133.8677     Y26.8337      R1.5100
   X133.6291     Y26.5227      R1.5100
   X133.3181     Y26.2841      R1.5100
   X132.9560     Y26.1342      R1.5100
   X132.5674     Y26.0830      R1.5100
   X132.1788     Y26.1342      R1.5100
   X131.8167     Y26.2841      R1.5100
   X131.5058     Y26.5227      R1.5100
   X131.2672     Y26.8337      R1.5100
   X131.1172     Y27.1958      R1.5100
   X131.0661     Y27.5844      R1.5100
   X131.1172     Y27.9729      R1.5100
   X131.2672     Y28.3351      R1.5100
(Pass: 2)
G1   Z-1.000
G17 G2   X131.5058     Y28.6460      R1.5100
   X131.8167     Y28.8846      R1.5100
   X132.1788     Y29.0346      R1.5100
   X132.5674     Y29.0857      R1.5100
   X132.9560     Y29.0346      R1.5100
   X133.3181     Y28.8846      R1.5100
   X133.6291     Y28.6460      R1.5100
   X133.8677     Y28.3351      R1.5100
   X134.0176     Y27.9729      R1.5100
   X134.0688     Y27.5844      R1.5100
   X134.0176     Y27.1958      R1.5100
   X133.8677     Y26.8337      R1.5100
   X133.6291     Y26.5227      R1.5100
   X133.3181     Y26.2841      R1.5100
   X132.9560     Y26.1342      R1.5100
   X132.5674     Y26.0830      R1.5100
   X132.1788     Y26.1342      R1.5100
   X131.8167     Y26.2841      R1.5100
   X131.5058     Y26.5227      R1.5100
   X131.2672     Y26.8337      R1.5100
   X131.1172     Y27.1958      R1.5100
   X131.0661     Y27.5844      R1.5100
   X131.1172     Y27.9729      R1.5100
   X131.2672     Y28.3351      R1.5100
(Pass: 3)
G1   Z-1.500
G17 G2   X131.5058     Y28.6460      R1.5100
   X131.8167     Y28.8846      R1.5100
   X132.1788     Y29.0346      R1.5100
   X132.5674     Y29.0857      R1.5100
   X132.9560     Y29.0346      R1.5100
   X133.3181     Y28.8846      R1.5100
   X133.6291     Y28.6460      R1.5100
   X133.8677     Y28.3351      R1.5100
   X134.0176     Y27.9729      R1.5100
   X134.0688     Y27.5844      R1.5100
   X134.0176     Y27.1958      R1.5100
   X133.8677     Y26.8337      R1.5100
   X133.6291     Y26.5227      R1.5100
   X133.3181     Y26.2841      R1.5100
   X132.9560     Y26.1342      R1.5100
   X132.5674     Y26.0830      R1.5100
   X132.1788     Y26.1342      R1.5100
   X131.8167     Y26.2841      R1.5100
   X131.5058     Y26.5227      R1.5100
   X131.2672     Y26.8337      R1.5100
   X131.1172     Y27.1958      R1.5100
   X131.0661     Y27.5844      R1.5100
   X131.1172     Y27.9729      R1.5100
   X131.2672     Y28.3351      R1.5100
(Pass: 4)
G1   Z-2.000
G17 G2   X131.5058     Y28.6460      R1.5100
   X131.8167     Y28.8846      R1.5100
   X132.1788     Y29.0346      R1.5100
   X132.5674     Y29.0857      R1.5100
   X132.9560     Y29.0346      R1.5100
   X133.3181     Y28.8846      R1.5100
   X133.6291     Y28.6460      R1.5100
   X133.8677     Y28.3351      R1.5100
   X134.0176     Y27.9729      R1.5100
   X134.0688     Y27.5844      R1.5100
   X134.0176     Y27.1958      R1.5100
   X133.8677     Y26.8337      R1.5100
   X133.6291     Y26.5227      R1.5100
   X133.3181     Y26.2841      R1.5100
   X132.9560     Y26.1342      R1.5100
   X132.5674     Y26.0830      R1.5100
   X132.1788     Y26.1342      R1.5100
   X131.8167     Y26.2841      R1.5100
   X131.5058     Y26.5227      R1.5100
   X131.2672     Y26.8337      R1.5100
   X131.1172     Y27.1958      R1.5100
   X131.0661     Y27.5844      R1.5100
   X131.1172     Y27.9729      R1.5100
   X131.2672     Y28.3351      R1.5100
(Pass: 5)
G1   Z-2.500
G17 G2   X131.5058     Y28.6460      R1.5100
   X131.8167     Y28.8846      R1.5100
   X132.1788     Y29.0346      R1.5100
   X132.5674     Y29.0857      R1.5100
   X132.9560     Y29.0346      R1.5100
   X133.3181     Y28.8846      R1.5100
   X133.6291     Y28.6460      R1.5100
   X133.8677     Y28.3351      R1.5100
   X134.0176     Y27.9729      R1.5100
   X134.0688     Y27.5844      R1.5100
   X134.0176     Y27.1958      R1.5100
   X133.8677     Y26.8337      R1.5100
   X133.6291     Y26.5227      R1.5100
   X133.3181     Y26.2841      R1.5100
   X132.9560     Y26.1342      R1.5100
   X132.5674     Y26.0830      R1.5100
   X132.1788     Y26.1342      R1.5100
   X131.8167     Y26.2841      R1.5100
   X131.5058     Y26.5227      R1.5100
   X131.2672     Y26.8337      R1.5100
   X131.1172     Y27.1958      R1.5100
   X131.0661     Y27.5844      R1.5100
   X131.1172     Y27.9729      R1.5100
   X131.2672     Y28.3351      R1.5100
(Pass: 6)
G1   Z-3.000
G17 G2   X131.5058     Y28.6460      R1.5100
   X131.8167     Y28.8846      R1.5100
   X132.1788     Y29.0346      R1.5100
   X132.5674     Y29.0857      R1.5100
   X132.9560     Y29.0346      R1.5100
   X133.3181     Y28.8846      R1.5100
   X133.6291     Y28.6460      R1.5100
   X133.8677     Y28.3351      R1.5100
   X134.0176     Y27.9729      R1.5100
   X134.0688     Y27.5844      R1.5100
   X134.0176     Y27.1958      R1.5100
   X133.8677     Y26.8337      R1.5100
   X133.6291     Y26.5227      R1.5100
   X133.3181     Y26.2841      R1.5100
   X132.9560     Y26.1342      R1.5100
   X132.5674     Y26.0830      R1.5100
   X132.1788     Y26.1342      R1.5100
   X131.8167     Y26.2841      R1.5100
   X131.5058     Y26.5227      R1.5100
   X131.2672     Y26.8337      R1.5100
   X131.1172     Y27.1958      R1.5100
   X131.0661     Y27.5844      R1.5100
   X131.1172     Y27.9729      R1.5100
   X131.2672     Y28.3351      R1.5100
(Pass: 7)
G1   Z-3.500
G17 G2   X131.5058     Y28.6460      R1.5100
   X131.8167     Y28.8846      R1.5100
   X132.1788     Y29.0346      R1.5100
   X132.5674     Y29.0857      R1.5100
   X132.9560     Y29.0346      R1.5100
   X133.3181     Y28.8846      R1.5100
   X133.6291     Y28.6460      R1.5100
   X133.8677     Y28.3351      R1.5100
   X134.0176     Y27.9729      R1.5100
   X134.0688     Y27.5844      R1.5100
   X134.0176     Y27.1958      R1.5100
   X133.8677     Y26.8337      R1.5100
   X133.6291     Y26.5227      R1.5100
   X133.3181     Y26.2841      R1.5100
   X132.9560     Y26.1342      R1.5100
   X132.5674     Y26.0830      R1.5100
   X132.1788     Y26.1342      R1.5100
   X131.8167     Y26.2841      R1.5100
   X131.5058     Y26.5227      R1.5100
   X131.2672     Y26.8337      R1.5100
   X131.1172     Y27.1958      R1.5100
   X131.0661     Y27.5844      R1.5100
   X131.1172     Y27.9729      R1.5100
   X131.2672     Y28.3351      R1.5100
G0   Z5.000
(Pass: 1)
   X136.905      Y41.062
G1   Z-0.500     F300
G17 G2   X136.2875     Y41.3175      R2.5685
   X135.7573     Y41.7243      R2.5685
   X135.3505     Y42.2544      R2.5685
   X135.0948     Y42.8718      R2.5685
   X135.0076     Y43.5344      R2.5685
   X135.0948     Y44.1969      R2.5685
   X135.3505     Y44.8143      R2.5685
   X135.7573     Y45.3445      R2.5685
   X136.2875     Y45.7513      R2.5685
   X136.9049     Y46.0070      R2.5685
   X137.5674     Y46.0942      R2.5685
   X138.2300     Y46.0070      R2.5685
   X138.8474     Y45.7513      R2.5685
   X139.3775     Y45.3445      R2.5685
   X139.7843     Y44.8143      R2.5685
   X140.0401     Y44.1969      R2.5685
   X140.1273     Y43.5344      R2.5685
   X140.0401     Y42.8718      R2.5685
   X139.7843     Y42.2544      R2.5685
   X139.3775     Y41.7243      R2.5685
   X138.8474     Y41.3175      R2.5685
   X138.2300     Y41.0617      R2.5685
   X137.5674     Y40.9745      R2.5685
   X136.9049     Y41.0617      R2.5685
(Pass: 2)
G1   Z-1.000
G17 G2   X136.2875     Y41.3175      R2.5685
   X135.7573     Y41.7243      R2.5685
   X135.3505     Y42.2544      R2.5685
   X135.0948     Y42.8718      R2.5685
   X135.0076     Y43.5344      R2.5685
   X135.0948     Y44.1969      R2.5685
   X135.3505     Y44.8143      R2.5685
   X135.7573     Y45.3445      R2.5685
   X136.2875     Y45.7513      R2.5685
   X136.9049     Y46.0070      R2.5685
   X137.5674     Y46.0942      R2.5685
   X138.2300     Y46.0070      R2.5685
   X138.8474     Y45.7513      R2.5685
   X139.3775     Y45.3445      R2.5685
   X139.7843     Y44.8143      R2.5685
   X140.0401     Y44.1969      R2.5685
   X140.1273     Y43.5344      R2.5685
   X140.0401     Y42.8718      R2.5685
   X139.7843     Y42.2544      R2.5685
   X139.3775     Y41.7243      R2.5685
   X138.8474     Y41.3175      R2.5685
   X138.2300     Y41.0617      R2.5685
   X137.5674     Y40.9745      R2.5685
   X136.9049     Y41.0617      R2.5685
(Pass: 3)
G1   Z-1.500
G17 G2   X136.2875     Y41.3175      R2.5685
   X135.7573     Y41.7243      R2.5685
   X135.3505     Y42.2544      R2.5685
   X135.0948     Y42.8718      R2.5685
   X135.0076     Y43.5344      R2.5685
   X135.0948     Y44.1969      R2.5685
   X135.3505     Y44.8143      R2.5685
   X135.7573     Y45.3445      R2.5685
   X136.2875     Y45.7513      R2.5685
   X136.9049     Y46.0070      R2.5685
   X137.5674     Y46.0942      R2.5685
   X138.2300     Y46.0070      R2.5685
   X138.8474     Y45.7513      R2.5685
   X139.3775     Y45.3445      R2.5685
   X139.7843     Y44.8143      R2.5685
   X140.0401     Y44.1969      R2.5685
   X140.1273     Y43.5344      R2.5685
   X140.0401     Y42.8718      R2.5685
   X139.7843     Y42.2544      R2.5685
   X139.3775     Y41.7243      R2.5685
   X138.8474     Y41.3175      R2.5685
   X138.2300     Y41.0617      R2.5685
   X137.5674     Y40.9745      R2.5685
   X136.9049     Y41.0617      R2.5685
(Pass: 4)
G1   Z-2.000
G17 G2   X136.2875     Y41.3175      R2.5685
   X135.7573     Y41.7243      R2.5685
   X135.3505     Y42.2544      R2.5685
   X135.0948     Y42.8718      R2.5685
   X135.0076     Y43.5344      R2.5685
   X135.0948     Y44.1969      R2.5685
   X135.3505     Y44.8143      R2.5685
   X135.7573     Y45.3445      R2.5685
   X136.2875     Y45.7513      R2.5685
   X136.9049     Y46.0070      R2.5685
   X137.5674     Y46.0942      R2.5685
   X138.2300     Y46.0070      R2.5685
   X138.8474     Y45.7513      R2.5685
   X139.3775     Y45.3445      R2.5685
   X139.7843     Y44.8143      R2.5685
   X140.0401     Y44.1969      R2.5685
   X140.1273     Y43.5344      R2.5685
   X140.0401     Y42.8718      R2.5685
   X139.7843     Y42.2544      R2.5685
   X139.3775     Y41.7243      R2.5685
   X138.8474     Y41.3175      R2.5685
   X138.2300     Y41.0617      R2.5685
   X137.5674     Y40.9745      R2.5685
   X136.9049     Y41.0617      R2.5685
(Pass: 5)
G1   Z-2.500
G17 G2   X136.2875     Y41.3175      R2.5685
   X135.7573     Y41.7243      R2.5685
   X135.3505     Y42.2544      R2.5685
   X135.0948     Y42.8718      R2.5685
   X135.0076     Y43.5344      R2.5685
   X135.0948     Y44.1969      R2.5685
   X135.3505     Y44.8143      R2.5685
   X135.7573     Y45.3445      R2.5685
   X136.2875     Y45.7513      R2.5685
   X136.9049     Y46.0070      R2.5685
   X137.5674     Y46.0942      R2.5685
   X138.2300     Y46.0070      R2.5685
   X138.8474     Y45.7513      R2.5685
   X139.3775     Y45.3445      R2.5685
   X139.7843     Y44.8143      R2.5685
   X140.0401     Y44.1969      R2.5685
   X140.1273     Y43.5344      R2.5685
   X140.0401     Y42.8718      R2.5685
   X139.7843     Y42.2544      R2.5685
   X139.3775     Y41.7243      R2.5685
   X138.8474     Y41.3175      R2.5685
   X138.2300     Y41.0617      R2.5685
   X137.5674     Y40.9745      R2.5685
   X136.9049     Y41.0617      R2.5685
(Pass: 6)
G1   Z-3.000
G17 G2   X136.2875     Y41.3175      R2.5685
   X135.7573     Y41.7243      R2.5685
   X135.3505     Y42.2544      R2.5685
   X135.0948     Y42.8718      R2.5685
   X135.0076     Y43.5344      R2.5685
   X135.0948     Y44.1969      R2.5685
   X135.3505     Y44.8143      R2.5685
   X135.7573     Y45.3445      R2.5685
   X136.2875     Y45.7513      R2.5685
   X136.9049     Y46.0070      R2.5685
   X137.5674     Y46.0942      R2.5685
   X138.2300     Y46.0070      R2.5685
   X138.8474     Y45.7513      R2.5685
   X139.3775     Y45.3445      R2.5685
   X139.7843     Y44.8143      R2.5685
   X140.0401     Y44.1969      R2.5685
   X140.1273     Y43.5344      R2.5685
   X140.0401     Y42.8718      R2.5685
   X139.7843     Y42.2544      R2.5685
   X139.3775     Y41.7243      R2.5685
   X138.8474     Y41.3175      R2.5685
   X138.2300     Y41.0617      R2.5685
   X137.5674     Y40.9745      R2.5685
   X136.9049     Y41.0617      R2.5685
(Pass: 7)
G1   Z-3.500
G17 G2   X136.2875     Y41.3175      R2.5685
   X135.7573     Y41.7243      R2.5685
   X135.3505     Y42.2544      R2.5685
   X135.0948     Y42.8718      R2.5685
   X135.0076     Y43.5344      R2.5685
   X135.0948     Y44.1969      R2.5685
   X135.3505     Y44.8143      R2.5685
   X135.7573     Y45.3445      R2.5685
   X136.2875     Y45.7513      R2.5685
   X136.9049     Y46.0070      R2.5685
   X137.5674     Y46.0942      R2.5685
   X138.2300     Y46.0070      R2.5685
   X138.8474     Y45.7513      R2.5685
   X139.3775     Y45.3445      R2.5685
   X139.7843     Y44.8143      R2.5685
   X140.0401     Y44.1969      R2.5685
   X140.1273     Y43.5344      R2.5685
   X140.0401     Y42.8718      R2.5685
   X139.7843     Y42.2544      R2.5685
   X139.3775     Y41.7243      R2.5685
   X138.8474     Y41.3175      R2.5685
   X138.2300     Y41.0617      R2.5685
   X137.5674     Y40.9745      R2.5685
   X136.9049     Y41.0617      R2.5685
G0   Z5.000
(Pass: 1)
   X113.868      Y28.335
G1   Z-0.500     F300
G17 G2   X114.0176     Y27.9729      R1.5100
   X114.0688     Y27.5844      R1.5100
   X114.0176     Y27.1958      R1.5100
   X113.8677     Y26.8337      R1.5100
   X113.6291     Y26.5227      R1.5100
   X113.3181     Y26.2841      R1.5100
   X112.9560     Y26.1342      R1.5100
   X112.5674     Y26.0830      R1.5100
   X112.1788     Y26.1342      R1.5100
   X111.8167     Y26.2841      R1.5100
   X111.5058     Y26.5227      R1.5100
   X111.2672     Y26.8337      R1.5100
   X111.1172     Y27.1958      R1.5100
   X111.0661     Y27.5844      R1.5100
   X111.1172     Y27.9729      R1.5100
   X111.2672     Y28.3351      R1.5100
   X111.5058     Y28.6460      R1.5100
   X111.8167     Y28.8846      R1.5100
   X112.1788     Y29.0346      R1.5100
   X112.5674     Y29.0857      R1.5100
   X112.9560     Y29.0346      R1.5100
   X113.3181     Y28.8846      R1.5100
   X113.6291     Y28.6460      R1.5100
   X113.8677     Y28.3351      R1.5100
(Pass: 2)
G1   Z-1.000
G17 G2   X114.0176     Y27.9729      R1.5100
   X114.0688     Y27.5844      R1.5100
   X114.0176     Y27.1958      R1.5100
   X113.8677     Y26.8337      R1.5100
   X113.6291     Y26.5227      R1.5100
   X113.3181     Y26.2841      R1.5100
   X112.9560     Y26.1342      R1.5100
   X112.5674     Y26.0830      R1.5100
   X112.1788     Y26.1342      R1.5100
   X111.8167     Y26.2841      R1.5100
   X111.5058     Y26.5227      R1.5100
   X111.2672     Y26.8337      R1.5100
   X111.1172     Y27.1958      R1.5100
   X111.0661     Y27.5844      R1.5100
   X111.1172     Y27.9729      R1.5100
   X111.2672     Y28.3351      R1.5100
   X111.5058     Y28.6460      R1.5100
   X111.8167     Y28.8846      R1.5100
   X112.1788     Y29.0346      R1.5100
   X112.5674     Y29.0857      R1.5100
   X112.9560     Y29.0346      R1.5100
   X113.3181     Y28.8846      R1.5100
   X113.6291     Y28.6460      R1.5100
   X113.8677     Y28.3351      R1.5100
(Pass: 3)
G1   Z-1.500
G17 G2   X114.0176     Y27.9729      R1.5100
   X114.0688     Y27.5844      R1.5100
   X114.0176     Y27.1958      R1.5100
   X113.8677     Y26.8337      R1.5100
   X113.6291     Y26.5227      R1.5100
   X113.3181     Y26.2841      R1.5100
   X112.9560     Y26.1342      R1.5100
   X112.5674     Y26.0830      R1.5100
   X112.1788     Y26.1342      R1.5100
   X111.8167     Y26.2841      R1.5100
   X111.5058     Y26.5227      R1.5100
   X111.2672     Y26.8337      R1.5100
   X111.1172     Y27.1958      R1.5100
   X111.0661     Y27.5844      R1.5100
   X111.1172     Y27.9729      R1.5100
   X111.2672     Y28.3351      R1.5100
   X111.5058     Y28.6460      R1.5100
   X111.8167     Y28.8846      R1.5100
   X112.1788     Y29.0346      R1.5100
   X112.5674     Y29.0857      R1.5100
   X112.9560     Y29.0346      R1.5100
   X113.3181     Y28.8846      R1.5100
   X113.6291     Y28.6460      R1.5100
   X113.8677     Y28.3351      R1.5100
(Pass: 4)
G1   Z-2.000
G17 G2   X114.0176     Y27.9729      R1.5100
   X114.0688     Y27.5844      R1.5100
   X114.0176     Y27.1958      R1.5100
   X113.8677     Y26.8337      R1.5100
   X113.6291     Y26.5227      R1.5100
   X113.3181     Y26.2841      R1.5100
   X112.9560     Y26.1342      R1.5100
   X112.5674     Y26.0830      R1.5100
   X112.1788     Y26.1342      R1.5100
   X111.8167     Y26.2841      R1.5100
   X111.5058     Y26.5227      R1.5100
   X111.2672     Y26.8337      R1.5100
   X111.1172     Y27.1958      R1.5100
   X111.0661     Y27.5844      R1.5100
   X111.1172     Y27.9729      R1.5100
   X111.2672     Y28.3351      R1.5100
   X111.5058     Y28.6460      R1.5100
   X111.8167     Y28.8846      R1.5100
   X112.1788     Y29.0346      R1.5100
   X112.5674     Y29.0857      R1.5100
   X112.9560     Y29.0346      R1.5100
   X113.3181     Y28.8846      R1.5100
   X113.6291     Y28.6460      R1.5100
   X113.8677     Y28.3351      R1.5100
(Pass: 5)
G1   Z-2.500
G17 G2   X114.0176     Y27.9729      R1.5100
   X114.0688     Y27.5844      R1.5100
   X114.0176     Y27.1958      R1.5100
   X113.8677     Y26.8337      R1.5100
   X113.6291     Y26.5227      R1.5100
   X113.3181     Y26.2841      R1.5100
   X112.9560     Y26.1342      R1.5100
   X112.5674     Y26.0830      R1.5100
   X112.1788     Y26.1342      R1.5100
   X111.8167     Y26.2841      R1.5100
   X111.5058     Y26.5227      R1.5100
   X111.2672     Y26.8337      R1.5100
   X111.1172     Y27.1958      R1.5100
   X111.0661     Y27.5844      R1.5100
   X111.1172     Y27.9729      R1.5100
   X111.2672     Y28.3351      R1.5100
   X111.5058     Y28.6460      R1.5100
   X111.8167     Y28.8846      R1.5100
   X112.1788     Y29.0346      R1.5100
   X112.5674     Y29.0857      R1.5100
   X112.9560     Y29.0346      R1.5100
   X113.3181     Y28.8846      R1.5100
   X113.6291     Y28.6460      R1.5100
   X113.8677     Y28.3351      R1.5100
(Pass: 6)
G1   Z-3.000
G17 G2   X114.0176     Y27.9729      R1.5100
   X114.0688     Y27.5844      R1.5100
   X114.0176     Y27.1958      R1.5100
   X113.8677     Y26.8337      R1.5100
   X113.6291     Y26.5227      R1.5100
   X113.3181     Y26.2841      R1.5100
   X112.9560     Y26.1342      R1.5100
   X112.5674     Y26.0830      R1.5100
   X112.1788     Y26.1342      R1.5100
   X111.8167     Y26.2841      R1.5100
   X111.5058     Y26.5227      R1.5100
   X111.2672     Y26.8337      R1.5100
   X111.1172     Y27.1958      R1.5100
   X111.0661     Y27.5844      R1.5100
   X111.1172     Y27.9729      R1.5100
   X111.2672     Y28.3351      R1.5100
   X111.5058     Y28.6460      R1.5100
   X111.8167     Y28.8846      R1.5100
   X112.1788     Y29.0346      R1.5100
   X112.5674     Y29.0857      R1.5100
   X112.9560     Y29.0346      R1.5100
   X113.3181     Y28.8846      R1.5100
   X113.6291     Y28.6460      R1.5100
   X113.8677     Y28.3351      R1.5100
(Pass: 7)
G1   Z-3.500
G17 G2   X114.0176     Y27.9729      R1.5100
   X114.0688     Y27.5844      R1.5100
   X114.0176     Y27.1958      R1.5100
   X113.8677     Y26.8337      R1.5100
   X113.6291     Y26.5227      R1.5100
   X113.3181     Y26.2841      R1.5100
   X112.9560     Y26.1342      R1.5100
   X112.5674     Y26.0830      R1.5100
   X112.1788     Y26.1342      R1.5100
   X111.8167     Y26.2841      R1.5100
   X111.5058     Y26.5227      R1.5100
   X111.2672     Y26.8337      R1.5100
   X111.1172     Y27.1958      R1.5100
   X111.0661     Y27.5844      R1.5100
   X111.1172     Y27.9729      R1.5100
   X111.2672     Y28.3351      R1.5100
   X111.5058     Y28.6460      R1.5100
   X111.8167     Y28.8846      R1.5100
   X112.1788     Y29.0346      R1.5100
   X112.5674     Y29.0857      R1.5100
   X112.9560     Y29.0346      R1.5100
   X113.3181     Y28.8846      R1.5100
   X113.6291     Y28.6460      R1.5100
   X113.8677     Y28.3351      R1.5100
G0   Z5.000
(Pass: 1)
   X108.847      Y41.317
G1   Z-0.500     F300
G17 G2   X108.2300     Y41.0617      R2.5685
   X107.5674     Y40.9745      R2.5685
   X106.9049     Y41.0617      R2.5685
   X106.2875     Y41.3175      R2.5685
   X105.7573     Y41.7243      R2.5685
   X105.3505     Y42.2544      R2.5685
   X105.0948     Y42.8718      R2.5685
   X105.0076     Y43.5344      R2.5685
   X105.0948     Y44.1969      R2.5685
   X105.3505     Y44.8143      R2.5685
   X105.7573     Y45.3445      R2.5685
   X106.2875     Y45.7513      R2.5685
   X106.9049     Y46.0070      R2.5685
   X107.5674     Y46.0942      R2.5685
   X108.2300     Y46.0070      R2.5685
   X108.8474     Y45.7513      R2.5685
   X109.3775     Y45.3445      R2.5685
   X109.7843     Y44.8143      R2.5685
   X110.0401     Y44.1969      R2.5685
   X110.1273     Y43.5344      R2.5685
   X110.0401     Y42.8718      R2.5685
   X109.7843     Y42.2544      R2.5685
   X109.3775     Y41.7243      R2.5685
   X108.8474     Y41.3175      R2.5685
(Pass: 2)
G1   Z-1.000
G17 G2   X108.2300     Y41.0617      R2.5685
   X107.5674     Y40.9745      R2.5685
   X106.9049     Y41.0617      R2.5685
   X106.2875     Y41.3175      R2.5685
   X105.7573     Y41.7243      R2.5685
   X105.3505     Y42.2544      R2.5685
   X105.0948     Y42.8718      R2.5685
   X105.0076     Y43.5344      R2.5685
   X105.0948     Y44.1969      R2.5685
   X105.3505     Y44.8143      R2.5685
   X105.7573     Y45.3445      R2.5685
   X106.2875     Y45.7513      R2.5685
   X106.9049     Y46.0070      R2.5685
   X107.5674     Y46.0942      R2.5685
   X108.2300     Y46.0070      R2.5685
   X108.8474     Y45.7513      R2.5685
   X109.3775     Y45.3445      R2.5685
   X109.7843     Y44.8143      R2.5685
   X110.0401     Y44.1969      R2.5685
   X110.1273     Y43.5344      R2.5685
   X110.0401     Y42.8718      R2.5685
   X109.7843     Y42.2544      R2.5685
   X109.3775     Y41.7243      R2.5685
   X108.8474     Y41.3175      R2.5685
(Pass: 3)
G1   Z-1.500
G17 G2   X108.2300     Y41.0617      R2.5685
   X107.5674     Y40.9745      R2.5685
   X106.9049     Y41.0617      R2.5685
   X106.2875     Y41.3175      R2.5685
   X105.7573     Y41.7243      R2.5685
   X105.3505     Y42.2544      R2.5685
   X105.0948     Y42.8718      R2.5685
   X105.0076     Y43.5344      R2.5685
   X105.0948     Y44.1969      R2.5685
   X105.3505     Y44.8143      R2.5685
   X105.7573     Y45.3445      R2.5685
   X106.2875     Y45.7513      R2.5685
   X106.9049     Y46.0070      R2.5685
   X107.5674     Y46.0942      R2.5685
   X108.2300     Y46.0070      R2.5685
   X108.8474     Y45.7513      R2.5685
   X109.3775     Y45.3445      R2.5685
   X109.7843     Y44.8143      R2.5685
   X110.0401     Y44.1969      R2.5685
   X110.1273     Y43.5344      R2.5685
   X110.0401     Y42.8718      R2.5685
   X109.7843     Y42.2544      R2.5685
   X109.3775     Y41.7243      R2.5685
   X108.8474     Y41.3175      R2.5685
(Pass: 4)
G1   Z-2.000
G17 G2   X108.2300     Y41.0617      R2.5685
   X107.5674     Y40.9745      R2.5685
   X106.9049     Y41.0617      R2.5685
   X106.2875     Y41.3175      R2.5685
   X105.7573     Y41.7243      R2.5685
   X105.3505     Y42.2544      R2.5685
   X105.0948     Y42.8718      R2.5685
   X105.0076     Y43.5344      R2.5685
   X105.0948     Y44.1969      R2.5685
   X105.3505     Y44.8143      R2.5685
   X105.7573     Y45.3445      R2.5685
   X106.2875     Y45.7513      R2.5685
   X106.9049     Y46.0070      R2.5685
   X107.5674     Y46.0942      R2.5685
   X108.2300     Y46.0070      R2.5685
   X108.8474     Y45.7513      R2.5685
   X109.3775     Y45.3445      R2.5685
   X109.7843     Y44.8143      R2.5685
   X110.0401     Y44.1969      R2.5685
   X110.1273     Y43.5344      R2.5685
   X110.0401     Y42.8718      R2.5685
   X109.7843     Y42.2544      R2.5685
   X109.3775     Y41.7243      R2.5685
   X108.8474     Y41.3175      R2.5685
(Pass: 5)
G1   Z-2.500
G17 G2   X108.2300     Y41.0617      R2.5685
   X107.5674     Y40.9745      R2.5685
   X106.9049     Y41.0617      R2.5685
   X106.2875     Y41.3175      R2.5685
   X105.7573     Y41.7243      R2.5685
   X105.3505     Y42.2544      R2.5685
   X105.0948     Y42.8718      R2.5685
   X105.0076     Y43.5344      R2.5685
   X105.0948     Y44.1969      R2.5685
   X105.3505     Y44.8143      R2.5685
   X105.7573     Y45.3445      R2.5685
   X106.2875     Y45.7513      R2.5685
   X106.9049     Y46.0070      R2.5685
   X107.5674     Y46.0942      R2.5685
   X108.2300     Y46.0070      R2.5685
   X108.8474     Y45.7513      R2.5685
   X109.3775     Y45.3445      R2.5685
   X109.7843     Y44.8143      R2.5685
   X110.0401     Y44.1969      R2.5685
   X110.1273     Y43.5344      R2.5685
   X110.0401     Y42.8718      R2.5685
   X109.7843     Y42.2544      R2.5685
   X109.3775     Y41.7243      R2.5685
   X108.8474     Y41.3175      R2.5685
(Pass: 6)
G1   Z-3.000
G17 G2   X108.2300     Y41.0617      R2.5685
   X107.5674     Y40.9745      R2.5685
   X106.9049     Y41.0617      R2.5685
   X106.2875     Y41.3175      R2.5685
   X105.7573     Y41.7243      R2.5685
   X105.3505     Y42.2544      R2.5685
   X105.0948     Y42.8718      R2.5685
   X105.0076     Y43.5344      R2.5685
   X105.0948     Y44.1969      R2.5685
   X105.3505     Y44.8143      R2.5685
   X105.7573     Y45.3445      R2.5685
   X106.2875     Y45.7513      R2.5685
   X106.9049     Y46.0070      R2.5685
   X107.5674     Y46.0942      R2.5685
   X108.2300     Y46.0070      R2.5685
   X108.8474     Y45.7513      R2.5685
   X109.3775     Y45.3445      R2.5685
   X109.7843     Y44.8143      R2.5685
   X110.0401     Y44.1969      R2.5685
   X110.1273     Y43.5344      R2.5685
   X110.0401     Y42.8718      R2.5685
   X109.7843     Y42.2544      R2.5685
   X109.3775     Y41.7243      R2.5685
   X108.8474     Y41.3175      R2.5685
(Pass: 7)
G1   Z-3.500
G17 G2   X108.2300     Y41.0617      R2.5685
   X107.5674     Y40.9745      R2.5685
   X106.9049     Y41.0617      R2.5685
   X106.2875     Y41.3175      R2.5685
   X105.7573     Y41.7243      R2.5685
   X105.3505     Y42.2544      R2.5685
   X105.0948     Y42.8718      R2.5685
   X105.0076     Y43.5344      R2.5685
   X105.0948     Y44.1969      R2.5685
   X105.3505     Y44.8143      R2.5685
   X105.7573     Y45.3445      R2.5685
   X106.2875     Y45.7513      R2.5685
   X106.9049     Y46.0070      R2.5685
   X107.5674     Y46.0942      R2.5685
   X108.2300     Y46.0070      R2.5685
   X108.8474     Y45.7513      R2.5685
   X109.3775     Y45.3445      R2.5685
   X109.7843     Y44.8143      R2.5685
   X110.0401     Y44.1969      R2.5685
   X110.1273     Y43.5344      R2.5685
   X110.0401     Y42.8718      R2.5685
   X109.7843     Y42.2544      R2.5685
   X109.3775     Y41.7243      R2.5685
   X108.8474     Y41.3175      R2.5685
G0   Z5.000
(Pass: 1)
   X135.580      Y13.169
G1   Z-0.500     F300
G17 G2   X136.0580     Y13.6289      R2.5500
   X136.6386     Y13.9499      R2.5500
   X137.2825     Y14.1097      R2.5500
   X137.9458     Y14.0974      R2.5500
   X138.5834     Y13.9138      R2.5500
   X139.1516     Y13.5715      R2.5500
   X139.6120     Y13.0938      R2.5500
   X139.9330     Y12.5132      R2.5500
   X140.0928     Y11.8693      R2.5500
   X140.0805     Y11.2060      R2.5500
   X139.8969     Y10.5684      R2.5500
   X139.5546     Y10.0001      R2.5500
   X139.0768     Y9.5398       R2.5500
   X138.4962     Y9.2188       R2.5500
   X137.8523     Y9.0590       R2.5500
   X137.1890     Y9.0713       R2.5500
   X136.5515     Y9.2549       R2.5500
   X135.9832     Y9.5972       R2.5500
   X135.5229     Y10.0749      R2.5500
   X135.2019     Y10.6555      R2.5500
   X135.0421     Y11.2994      R2.5500
   X135.0544     Y11.9628      R2.5500
   X135.2380     Y12.6003      R2.5500
   X135.5803     Y13.1686      R2.5500
(Pass: 2)
G1   Z-1.000
G17 G2   X136.0580     Y13.6289      R2.5500
   X136.6386     Y13.9499      R2.5500
   X137.2825     Y14.1097      R2.5500
   X137.9458     Y14.0974      R2.5500
   X138.5834     Y13.9138      R2.5500
   X139.1516     Y13.5715      R2.5500
   X139.6120     Y13.0938      R2.5500
   X139.9330     Y12.5132      R2.5500
   X140.0928     Y11.8693      R2.5500
   X140.0805     Y11.2060      R2.5500
   X139.8969     Y10.5684      R2.5500
   X139.5546     Y10.0001      R2.5500
   X139.0768     Y9.5398       R2.5500
   X138.4962     Y9.2188       R2.5500
   X137.8523     Y9.0590       R2.5500
   X137.1890     Y9.0713       R2.5500
   X136.5515     Y9.2549       R2.5500
   X135.9832     Y9.5972       R2.5500
   X135.5229     Y10.0749      R2.5500
   X135.2019     Y10.6555      R2.5500
   X135.0421     Y11.2994      R2.5500
   X135.0544     Y11.9628      R2.5500
   X135.2380     Y12.6003      R2.5500
   X135.5803     Y13.1686      R2.5500
(Pass: 3)
G1   Z-1.500
G17 G2   X136.0580     Y13.6289      R2.5500
   X136.6386     Y13.9499      R2.5500
   X137.2825     Y14.1097      R2.5500
   X137.9458     Y14.0974      R2.5500
   X138.5834     Y13.9138      R2.5500
   X139.1516     Y13.5715      R2.5500
   X139.6120     Y13.0938      R2.5500
   X139.9330     Y12.5132      R2.5500
   X140.0928     Y11.8693      R2.5500
   X140.0805     Y11.2060      R2.5500
   X139.8969     Y10.5684      R2.5500
   X139.5546     Y10.0001      R2.5500
   X139.0768     Y9.5398       R2.5500
   X138.4962     Y9.2188       R2.5500
   X137.8523     Y9.0590       R2.5500
   X137.1890     Y9.0713       R2.5500
   X136.5515     Y9.2549       R2.5500
   X135.9832     Y9.5972       R2.5500
   X135.5229     Y10.0749      R2.5500
   X135.2019     Y10.6555      R2.5500
   X135.0421     Y11.2994      R2.5500
   X135.0544     Y11.9628      R2.5500
   X135.2380     Y12.6003      R2.5500
   X135.5803     Y13.1686      R2.5500
(Pass: 4)
G1   Z-2.000
G17 G2   X136.0580     Y13.6289      R2.5500
   X136.6386     Y13.9499      R2.5500
   X137.2825     Y14.1097      R2.5500
   X137.9458     Y14.0974      R2.5500
   X138.5834     Y13.9138      R2.5500
   X139.1516     Y13.5715      R2.5500
   X139.6120     Y13.0938      R2.5500
   X139.9330     Y12.5132      R2.5500
   X140.0928     Y11.8693      R2.5500
   X140.0805     Y11.2060      R2.5500
   X139.8969     Y10.5684      R2.5500
   X139.5546     Y10.0001      R2.5500
   X139.0768     Y9.5398       R2.5500
   X138.4962     Y9.2188       R2.5500
   X137.8523     Y9.0590       R2.5500
   X137.1890     Y9.0713       R2.5500
   X136.5515     Y9.2549       R2.5500
   X135.9832     Y9.5972       R2.5500
   X135.5229     Y10.0749      R2.5500
   X135.2019     Y10.6555      R2.5500
   X135.0421     Y11.2994      R2.5500
   X135.0544     Y11.9628      R2.5500
   X135.2380     Y12.6003      R2.5500
   X135.5803     Y13.1686      R2.5500
(Pass: 5)
G1   Z-2.500
G17 G2   X136.0580     Y13.6289      R2.5500
   X136.6386     Y13.9499      R2.5500
   X137.2825     Y14.1097      R2.5500
   X137.9458     Y14.0974      R2.5500
   X138.5834     Y13.9138      R2.5500
   X139.1516     Y13.5715      R2.5500
   X139.6120     Y13.0938      R2.5500
   X139.9330     Y12.5132      R2.5500
   X140.0928     Y11.8693      R2.5500
   X140.0805     Y11.2060      R2.5500
   X139.8969     Y10.5684      R2.5500
   X139.5546     Y10.0001      R2.5500
   X139.0768     Y9.5398       R2.5500
   X138.4962     Y9.2188       R2.5500
   X137.8523     Y9.0590       R2.5500
   X137.1890     Y9.0713       R2.5500
   X136.5515     Y9.2549       R2.5500
   X135.9832     Y9.5972       R2.5500
   X135.5229     Y10.0749      R2.5500
   X135.2019     Y10.6555      R2.5500
   X135.0421     Y11.2994      R2.5500
   X135.0544     Y11.9628      R2.5500
   X135.2380     Y12.6003      R2.5500
   X135.5803     Y13.1686      R2.5500
(Pass: 6)
G1   Z-3.000
G17 G2   X136.0580     Y13.6289      R2.5500
   X136.6386     Y13.9499      R2.5500
   X137.2825     Y14.1097      R2.5500
   X137.9458     Y14.0974      R2.5500
   X138.5834     Y13.9138      R2.5500
   X139.1516     Y13.5715      R2.5500
   X139.6120     Y13.0938      R2.5500
   X139.9330     Y12.5132      R2.5500
   X140.0928     Y11.8693      R2.5500
   X140.0805     Y11.2060      R2.5500
   X139.8969     Y10.5684      R2.5500
   X139.5546     Y10.0001      R2.5500
   X139.0768     Y9.5398       R2.5500
   X138.4962     Y9.2188       R2.5500
   X137.8523     Y9.0590       R2.5500
   X137.1890     Y9.0713       R2.5500
   X136.5515     Y9.2549       R2.5500
   X135.9832     Y9.5972       R2.5500
   X135.5229     Y10.0749      R2.5500
   X135.2019     Y10.6555      R2.5500
   X135.0421     Y11.2994      R2.5500
   X135.0544     Y11.9628      R2.5500
   X135.2380     Y12.6003      R2.5500
   X135.5803     Y13.1686      R2.5500
(Pass: 7)
G1   Z-3.500
G17 G2   X136.0580     Y13.6289      R2.5500
   X136.6386     Y13.9499      R2.5500
   X137.2825     Y14.1097      R2.5500
   X137.9458     Y14.0974      R2.5500
   X138.5834     Y13.9138      R2.5500
   X139.1516     Y13.5715      R2.5500
   X139.6120     Y13.0938      R2.5500
   X139.9330     Y12.5132      R2.5500
   X140.0928     Y11.8693      R2.5500
   X140.0805     Y11.2060      R2.5500
   X139.8969     Y10.5684      R2.5500
   X139.5546     Y10.0001      R2.5500
   X139.0768     Y9.5398       R2.5500
   X138.4962     Y9.2188       R2.5500
   X137.8523     Y9.0590       R2.5500
   X137.1890     Y9.0713       R2.5500
   X136.5515     Y9.2549       R2.5500
   X135.9832     Y9.5972       R2.5500
   X135.5229     Y10.0749      R2.5500
   X135.2019     Y10.6555      R2.5500
   X135.0421     Y11.2994      R2.5500
   X135.0544     Y11.9628      R2.5500
   X135.2380     Y12.6003      R2.5500
   X135.5803     Y13.1686      R2.5500
G0   Z5.000
(Pass: 1)
   X137.600      Y1.584
G1   Z-0.500     F300
G17 G3   X139.0035     Y1.6763       R11.0000
   X140.4150     Y1.9571       R11.0000
   X141.7778     Y2.4197       R11.0000
   X143.0685     Y3.0562       R11.0000
   X144.2651     Y3.8558       R11.0000
   X145.3471     Y4.8047       R11.0000
   X146.2960     Y5.8867       R11.0000
   X147.0956     Y7.0833       R11.0000
   X147.7321     Y8.3740       R11.0000
   X148.1947     Y9.7368       R11.0000
   X148.4754     Y11.1483      R11.0000
   X148.5674     Y12.5516      R11.0000
G1   Y42.617
G17 G3   X148.4754     Y44.0204      R11.0000
   X148.1947     Y45.4319      R11.0000
   X147.7321     Y46.7947      R11.0000
   X147.0956     Y48.0854      R11.0000
   X146.2960     Y49.2820      R11.0000
   X145.3471     Y50.3641      R11.0000
   X144.2651     Y51.3130      R11.0000
   X143.0685     Y52.1125      R11.0000
   X141.7778     Y52.7490      R11.0000
   X140.4150     Y53.2116      R11.0000
   X139.0035     Y53.4924      R11.0000
   X137.6002     Y53.5844      R11.0000
G1   X107.535
G17 G3   X106.1314     Y53.4924      R11.0000
   X104.7199     Y53.2116      R11.0000
   X103.3571     Y52.7490      R11.0000
   X102.0664     Y52.1125      R11.0000
   X100.8697     Y51.3130      R11.0000
   X99.7877      Y50.3641      R11.0000
   X98.8388      Y49.2820      R11.0000
   X98.0393      Y48.0854      R11.0000
   X97.4028      Y46.7947      R11.0000
   X96.9402      Y45.4319      R11.0000
   X96.6594      Y44.0204      R11.0000
   X96.5674      Y42.6171      R11.0000
G1   Y12.552
G17 G3   X96.6594      Y11.1483      R11.0000
   X96.9402      Y9.7368       R11.0000
   X97.4028      Y8.3740       R11.0000
   X98.0393      Y7.0833       R11.0000
   X98.8388      Y5.8867       R11.0000
   X99.7877      Y4.8047       R11.0000
   X100.8697     Y3.8558       R11.0000
   X102.0664     Y3.0562       R11.0000
   X103.3571     Y2.4197       R11.0000
   X104.7199     Y1.9571       R11.0000
   X106.1314     Y1.6763       R11.0000
   X107.5347     Y1.5844       R11.0000
G1   X137.600
(Pass: 2)
   Z-1.000
G17 G3   X139.0035     Y1.6763       R11.0000
   X140.4150     Y1.9571       R11.0000
   X141.7778     Y2.4197       R11.0000
   X143.0685     Y3.0562       R11.0000
   X144.2651     Y3.8558       R11.0000
   X145.3471     Y4.8047       R11.0000
   X146.2960     Y5.8867       R11.0000
   X147.0956     Y7.0833       R11.0000
   X147.7321     Y8.3740       R11.0000
   X148.1947     Y9.7368       R11.0000
   X148.4754     Y11.1483      R11.0000
   X148.5674     Y12.5516      R11.0000
G1   Y42.617
G17 G3   X148.4754     Y44.0204      R11.0000
   X148.1947     Y45.4319      R11.0000
   X147.7321     Y46.7947      R11.0000
   X147.0956     Y48.0854      R11.0000
   X146.2960     Y49.2820      R11.0000
   X145.3471     Y50.3641      R11.0000
   X144.2651     Y51.3130      R11.0000
   X143.0685     Y52.1125      R11.0000
   X141.7778     Y52.7490      R11.0000
   X140.4150     Y53.2116      R11.0000
   X139.0035     Y53.4924      R11.0000
   X137.6002     Y53.5844      R11.0000
G1   X107.535
G17 G3   X106.1314     Y53.4924      R11.0000
   X104.7199     Y53.2116      R11.0000
   X103.3571     Y52.7490      R11.0000
   X102.0664     Y52.1125      R11.0000
   X100.8697     Y51.3130      R11.0000
   X99.7877      Y50.3641      R11.0000
   X98.8388      Y49.2820      R11.0000
   X98.0393      Y48.0854      R11.0000
   X97.4028      Y46.7947      R11.0000
   X96.9402      Y45.4319      R11.0000
   X96.6594      Y44.0204      R11.0000
   X96.5674      Y42.6171      R11.0000
G1   Y12.552
G17 G3   X96.6594      Y11.1483      R11.0000
   X96.9402      Y9.7368       R11.0000
   X97.4028      Y8.3740       R11.0000
   X98.0393      Y7.0833       R11.0000
   X98.8388      Y5.8867       R11.0000
   X99.7877      Y4.8047       R11.0000
   X100.8697     Y3.8558       R11.0000
   X102.0664     Y3.0562       R11.0000
   X103.3571     Y2.4197       R11.0000
   X104.7199     Y1.9571       R11.0000
   X106.1314     Y1.6763       R11.0000
   X107.5347     Y1.5844       R11.0000
G1   X137.600
(Pass: 3)
   Z-1.500
G17 G3   X139.0035     Y1.6763       R11.0000
   X140.4150     Y1.9571       R11.0000
   X141.7778     Y2.4197       R11.0000
   X143.0685     Y3.0562       R11.0000
   X144.2651     Y3.8558       R11.0000
   X145.3471     Y4.8047       R11.0000
   X146.2960     Y5.8867       R11.0000
   X147.0956     Y7.0833       R11.0000
   X147.7321     Y8.3740       R11.0000
   X148.1947     Y9.7368       R11.0000
   X148.4754     Y11.1483      R11.0000
   X148.5674     Y12.5516      R11.0000
G1   Y42.617
G17 G3   X148.4754     Y44.0204      R11.0000
   X148.1947     Y45.4319      R11.0000
   X147.7321     Y46.7947      R11.0000
   X147.0956     Y48.0854      R11.0000
   X146.2960     Y49.2820      R11.0000
   X145.3471     Y50.3641      R11.0000
   X144.2651     Y51.3130      R11.0000
   X143.0685     Y52.1125      R11.0000
   X141.7778     Y52.7490      R11.0000
   X140.4150     Y53.2116      R11.0000
   X139.0035     Y53.4924      R11.0000
   X137.6002     Y53.5844      R11.0000
G1   X107.535
G17 G3   X106.1314     Y53.4924      R11.0000
   X104.7199     Y53.2116      R11.0000
   X103.3571     Y52.7490      R11.0000
   X102.0664     Y52.1125      R11.0000
   X100.8697     Y51.3130      R11.0000
   X99.7877      Y50.3641      R11.0000
   X98.8388      Y49.2820      R11.0000
   X98.0393      Y48.0854      R11.0000
   X97.4028      Y46.7947      R11.0000
   X96.9402      Y45.4319      R11.0000
   X96.6594      Y44.0204      R11.0000
   X96.5674      Y42.6171      R11.0000
G1   Y12.552
G17 G3   X96.6594      Y11.1483      R11.0000
   X96.9402      Y9.7368       R11.0000
   X97.4028      Y8.3740       R11.0000
   X98.0393      Y7.0833       R11.0000
   X98.8388      Y5.8867       R11.0000
   X99.7877      Y4.8047       R11.0000
   X100.8697     Y3.8558       R11.0000
   X102.0664     Y3.0562       R11.0000
   X103.3571     Y2.4197       R11.0000
   X104.7199     Y1.9571       R11.0000
   X106.1314     Y1.6763       R11.0000
   X107.5347     Y1.5844       R11.0000
G1   X137.600
(Pass: 4)
   Z-2.000
G17 G3   X139.0035     Y1.6763       R11.0000
   X140.4150     Y1.9571       R11.0000
   X141.7778     Y2.4197       R11.0000
   X143.0685     Y3.0562       R11.0000
   X144.2651     Y3.8558       R11.0000
   X145.3471     Y4.8047       R11.0000
   X146.2960     Y5.8867       R11.0000
   X147.0956     Y7.0833       R11.0000
   X147.7321     Y8.3740       R11.0000
   X148.1947     Y9.7368       R11.0000
   X148.4754     Y11.1483      R11.0000
   X148.5674     Y12.5516      R11.0000
G1   Y42.617
G17 G3   X148.4754     Y44.0204      R11.0000
   X148.1947     Y45.4319      R11.0000
   X147.7321     Y46.7947      R11.0000
   X147.0956     Y48.0854      R11.0000
   X146.2960     Y49.2820      R11.0000
   X145.3471     Y50.3641      R11.0000
   X144.2651     Y51.3130      R11.0000
   X143.0685     Y52.1125      R11.0000
   X141.7778     Y52.7490      R11.0000
   X140.4150     Y53.2116      R11.0000
   X139.0035     Y53.4924      R11.0000
   X137.6002     Y53.5844      R11.0000
G1   X107.535
G17 G3   X106.1314     Y53.4924      R11.0000
   X104.7199     Y53.2116      R11.0000
   X103.3571     Y52.7490      R11.0000
   X102.0664     Y52.1125      R11.0000
   X100.8697     Y51.3130      R11.0000
   X99.7877      Y50.3641      R11.0000
   X98.8388      Y49.2820      R11.0000
   X98.0393      Y48.0854      R11.0000
   X97.4028      Y46.7947      R11.0000
   X96.9402      Y45.4319      R11.0000
   X96.6594      Y44.0204      R11.0000
   X96.5674      Y42.6171      R11.0000
G1   Y12.552
G17 G3   X96.6594      Y11.1483      R11.0000
   X96.9402      Y9.7368       R11.0000
   X97.4028      Y8.3740       R11.0000
   X98.0393      Y7.0833       R11.0000
   X98.8388      Y5.8867       R11.0000
   X99.7877      Y4.8047       R11.0000
   X100.8697     Y3.8558       R11.0000
   X102.0664     Y3.0562       R11.0000
   X103.3571     Y2.4197       R11.0000
   X104.7199     Y1.9571       R11.0000
   X106.1314     Y1.6763       R11.0000
   X107.5347     Y1.5844       R11.0000
G1   X137.600
(Pass: 5)
   Z-2.500
G17 G3   X139.0035     Y1.6763       R11.0000
   X140.4150     Y1.9571       R11.0000
   X141.7778     Y2.4197       R11.0000
   X143.0685     Y3.0562       R11.0000
   X144.2651     Y3.8558       R11.0000
   X145.3471     Y4.8047       R11.0000
   X146.2960     Y5.8867       R11.0000
   X147.0956     Y7.0833       R11.0000
   X147.7321     Y8.3740       R11.0000
   X148.1947     Y9.7368       R11.0000
   X148.4754     Y11.1483      R11.0000
   X148.5674     Y12.5516      R11.0000
G1   Y42.617
G17 G3   X148.4754     Y44.0204      R11.0000
   X148.1947     Y45.4319      R11.0000
   X147.7321     Y46.7947      R11.0000
   X147.0956     Y48.0854      R11.0000
   X146.2960     Y49.2820      R11.0000
   X145.3471     Y50.3641      R11.0000
   X144.2651     Y51.3130      R11.0000
   X143.0685     Y52.1125      R11.0000
   X141.7778     Y52.7490      R11.0000
   X140.4150     Y53.2116      R11.0000
   X139.0035     Y53.4924      R11.0000
   X137.6002     Y53.5844      R11.0000
G1   X107.535
G17 G3   X106.1314     Y53.4924      R11.0000
   X104.7199     Y53.2116      R11.0000
   X103.3571     Y52.7490      R11.0000
   X102.0664     Y52.1125      R11.0000
   X100.8697     Y51.3130      R11.0000
   X99.7877      Y50.3641      R11.0000
   X98.8388      Y49.2820      R11.0000
   X98.0393      Y48.0854      R11.0000
   X97.4028      Y46.7947      R11.0000
   X96.9402      Y45.4319      R11.0000
   X96.6594      Y44.0204      R11.0000
   X96.5674      Y42.6171      R11.0000
G1   Y12.552
G17 G3   X96.6594      Y11.1483      R11.0000
   X96.9402      Y9.7368       R11.0000
   X97.4028      Y8.3740       R11.0000
   X98.0393      Y7.0833       R11.0000
   X98.8388      Y5.8867       R11.0000
   X99.7877      Y4.8047       R11.0000
   X100.8697     Y3.8558       R11.0000
   X102.0664     Y3.0562       R11.0000
   X103.3571     Y2.4197       R11.0000
   X104.7199     Y1.9571       R11.0000
   X106.1314     Y1.6763       R11.0000
   X107.5347     Y1.5844       R11.0000
G1   X137.600
(Pass: 6)
   Z-3.000
G17 G3   X139.0035     Y1.6763       R11.0000
   X140.4150     Y1.9571       R11.0000
   X141.7778     Y2.4197       R11.0000
   X143.0685     Y3.0562       R11.0000
   X144.2651     Y3.8558       R11.0000
   X145.3471     Y4.8047       R11.0000
   X146.2960     Y5.8867       R11.0000
   X147.0956     Y7.0833       R11.0000
   X147.7321     Y8.3740       R11.0000
   X148.1947     Y9.7368       R11.0000
   X148.4754     Y11.1483      R11.0000
   X148.5674     Y12.5516      R11.0000
G1   Y42.617
G17 G3   X148.4754     Y44.0204      R11.0000
   X148.1947     Y45.4319      R11.0000
   X147.7321     Y46.7947      R11.0000
   X147.0956     Y48.0854      R11.0000
   X146.2960     Y49.2820      R11.0000
   X145.3471     Y50.3641      R11.0000
   X144.2651     Y51.3130      R11.0000
   X143.0685     Y52.1125      R11.0000
   X141.7778     Y52.7490      R11.0000
   X140.4150     Y53.2116      R11.0000
   X139.0035     Y53.4924      R11.0000
   X137.6002     Y53.5844      R11.0000
G1   X107.535
G17 G3   X106.1314     Y53.4924      R11.0000
   X104.7199     Y53.2116      R11.0000
   X103.3571     Y52.7490      R11.0000
   X102.0664     Y52.1125      R11.0000
   X100.8697     Y51.3130      R11.0000
   X99.7877      Y50.3641      R11.0000
   X98.8388      Y49.2820      R11.0000
   X98.0393      Y48.0854      R11.0000
   X97.4028      Y46.7947      R11.0000
   X96.9402      Y45.4319      R11.0000
   X96.6594      Y44.0204      R11.0000
   X96.5674      Y42.6171      R11.0000
G1   Y12.552
G17 G3   X96.6594      Y11.1483      R11.0000
   X96.9402      Y9.7368       R11.0000
   X97.4028      Y8.3740       R11.0000
   X98.0393      Y7.0833       R11.0000
   X98.8388      Y5.8867       R11.0000
   X99.7877      Y4.8047       R11.0000
   X100.8697     Y3.8558       R11.0000
   X102.0664     Y3.0562       R11.0000
   X103.3571     Y2.4197       R11.0000
   X104.7199     Y1.9571       R11.0000
   X106.1314     Y1.6763       R11.0000
   X107.5347     Y1.5844       R11.0000
G1   X137.600
(Pass: 7)
   Z-3.500
G17 G3   X139.0035     Y1.6763       R11.0000
   X140.4150     Y1.9571       R11.0000
   X141.7778     Y2.4197       R11.0000
   X143.0685     Y3.0562       R11.0000
   X144.2651     Y3.8558       R11.0000
   X145.3471     Y4.8047       R11.0000
   X146.2960     Y5.8867       R11.0000
   X147.0956     Y7.0833       R11.0000
   X147.7321     Y8.3740       R11.0000
   X148.1947     Y9.7368       R11.0000
   X148.4754     Y11.1483      R11.0000
   X148.5674     Y12.5516      R11.0000
G1   Y42.617
G17 G3   X148.4754     Y44.0204      R11.0000
   X148.1947     Y45.4319      R11.0000
   X147.7321     Y46.7947      R11.0000
   X147.0956     Y48.0854      R11.0000
   X146.2960     Y49.2820      R11.0000
   X145.3471     Y50.3641      R11.0000
   X144.2651     Y51.3130      R11.0000
   X143.0685     Y52.1125      R11.0000
   X141.7778     Y52.7490      R11.0000
   X140.4150     Y53.2116      R11.0000
   X139.0035     Y53.4924      R11.0000
   X137.6002     Y53.5844      R11.0000
G1   X107.535
G17 G3   X106.1314     Y53.4924      R11.0000
   X104.7199     Y53.2116      R11.0000
   X103.3571     Y52.7490      R11.0000
   X102.0664     Y52.1125      R11.0000
   X100.8697     Y51.3130      R11.0000
   X99.7877      Y50.3641      R11.0000
   X98.8388      Y49.2820      R11.0000
   X98.0393      Y48.0854      R11.0000
   X97.4028      Y46.7947      R11.0000
   X96.9402      Y45.4319      R11.0000
   X96.6594      Y44.0204      R11.0000
   X96.5674      Y42.6171      R11.0000
G1   Y12.552
G17 G3   X96.6594      Y11.1483      R11.0000
   X96.9402      Y9.7368       R11.0000
   X97.4028      Y8.3740       R11.0000
   X98.0393      Y7.0833       R11.0000
   X98.8388      Y5.8867       R11.0000
   X99.7877      Y4.8047       R11.0000
   X100.8697     Y3.8558       R11.0000
   X102.0664     Y3.0562       R11.0000
   X103.3571     Y2.4197       R11.0000
   X104.7199     Y1.9571       R11.0000
   X106.1314     Y1.6763       R11.0000
   X107.5347     Y1.5844       R11.0000
G1   X137.600
G0   Z5.000
G0 X0 Y0 (home)
M05
M30
%
