%
(Generated by SketchUcam {1.2})
(Bit diameter: 3.0mm)
(Feed rate: 400.0mm/min)
(Material Thickness: 3.5mm)
(Material length: 300.0mm X width: 600.0mm)
(Overhead Gantry: true)
(Retract feed rate NOT limited to plunge feed rate)
(Multipass enabled, Depth = 0.1mm)
(Optimization is ON)
(www.PhlatBoyz.com)
G90 G21 G49 
M3 S11000
G0   Z5.000     
(Pass: 1)
   X10.168       Y9.247     
G1   Z-0.100     F400 
G17 G2   X9.7937       Y9.7787       R2.5000    
   X9.5694       Y10.3891      R2.5000    
   X9.5107       Y11.0368      R2.5000    
   X9.6216       Y11.6777      R2.5000    
   X9.8946       Y12.2680      R2.5000    
   X10.3111      Y12.7675      R2.5000    
   X10.8427      Y13.1422      R2.5000    
   X11.4532      Y13.3665      R2.5000    
   X12.1009      Y13.4252      R2.5000    
   X12.7418      Y13.3143      R2.5000    
   X13.3321      Y13.0413      R2.5000    
   X13.8316      Y12.6248      R2.5000    
   X14.2063      Y12.0932      R2.5000    
   X14.4306      Y11.4827      R2.5000    
   X14.4893      Y10.8350      R2.5000    
   X14.3784      Y10.1942      R2.5000    
   X14.1054      Y9.6039       R2.5000    
   X13.6889      Y9.1043       R2.5000    
   X13.1573      Y8.7296       R2.5000    
   X12.5468      Y8.5053       R2.5000    
   X11.8991      Y8.4466       R2.5000    
   X11.2582      Y8.5575       R2.5000    
   X10.6679      Y8.8306       R2.5000    
   X10.1684      Y9.2471       R2.5000    
(Pass: 2)
G1   Z-0.200    
G17 G2   X9.7937       Y9.7787       R2.5000    
   X9.5694       Y10.3891      R2.5000    
   X9.5107       Y11.0368      R2.5000    
   X9.6216       Y11.6777      R2.5000    
   X9.8946       Y12.2680      R2.5000    
   X10.3111      Y12.7675      R2.5000    
   X10.8427      Y13.1422      R2.5000    
   X11.4532      Y13.3665      R2.5000    
   X12.1009      Y13.4252      R2.5000    
   X12.7418      Y13.3143      R2.5000    
   X13.3321      Y13.0413      R2.5000    
   X13.8316      Y12.6248      R2.5000    
   X14.2063      Y12.0932      R2.5000    
   X14.4306      Y11.4827      R2.5000    
   X14.4893      Y10.8350      R2.5000    
   X14.3784      Y10.1942      R2.5000    
   X14.1054      Y9.6039       R2.5000    
   X13.6889      Y9.1043       R2.5000    
   X13.1573      Y8.7296       R2.5000    
   X12.5468      Y8.5053       R2.5000    
   X11.8991      Y8.4466       R2.5000    
   X11.2582      Y8.5575       R2.5000    
   X10.6679      Y8.8306       R2.5000    
   X10.1684      Y9.2471       R2.5000    
(Pass: 3)
G1   Z-0.300    
G17 G2   X9.7937       Y9.7787       R2.5000    
   X9.5694       Y10.3891      R2.5000    
   X9.5107       Y11.0368      R2.5000    
   X9.6216       Y11.6777      R2.5000    
   X9.8946       Y12.2680      R2.5000    
   X10.3111      Y12.7675      R2.5000    
   X10.8427      Y13.1422      R2.5000    
   X11.4532      Y13.3665      R2.5000    
   X12.1009      Y13.4252      R2.5000    
   X12.7418      Y13.3143      R2.5000    
   X13.3321      Y13.0413      R2.5000    
   X13.8316      Y12.6248      R2.5000    
   X14.2063      Y12.0932      R2.5000    
   X14.4306      Y11.4827      R2.5000    
   X14.4893      Y10.8350      R2.5000    
   X14.3784      Y10.1942      R2.5000    
   X14.1054      Y9.6039       R2.5000    
   X13.6889      Y9.1043       R2.5000    
   X13.1573      Y8.7296       R2.5000    
   X12.5468      Y8.5053       R2.5000    
   X11.8991      Y8.4466       R2.5000    
   X11.2582      Y8.5575       R2.5000    
   X10.6679      Y8.8306       R2.5000    
   X10.1684      Y9.2471       R2.5000    
(Pass: 4)
G1   Z-0.400    
G17 G2   X9.7937       Y9.7787       R2.5000    
   X9.5694       Y10.3891      R2.5000    
   X9.5107       Y11.0368      R2.5000    
   X9.6216       Y11.6777      R2.5000    
   X9.8946       Y12.2680      R2.5000    
   X10.3111      Y12.7675      R2.5000    
   X10.8427      Y13.1422      R2.5000    
   X11.4532      Y13.3665      R2.5000    
   X12.1009      Y13.4252      R2.5000    
   X12.7418      Y13.3143      R2.5000    
   X13.3321      Y13.0413      R2.5000    
   X13.8316      Y12.6248      R2.5000    
   X14.2063      Y12.0932      R2.5000    
   X14.4306      Y11.4827      R2.5000    
   X14.4893      Y10.8350      R2.5000    
   X14.3784      Y10.1942      R2.5000    
   X14.1054      Y9.6039       R2.5000    
   X13.6889      Y9.1043       R2.5000    
   X13.1573      Y8.7296       R2.5000    
   X12.5468      Y8.5053       R2.5000    
   X11.8991      Y8.4466       R2.5000    
   X11.2582      Y8.5575       R2.5000    
   X10.6679      Y8.8306       R2.5000    
   X10.1684      Y9.2471       R2.5000    
(Pass: 5)
G1   Z-0.500    
G17 G2   X9.7937       Y9.7787       R2.5000    
   X9.5694       Y10.3891      R2.5000    
   X9.5107       Y11.0368      R2.5000    
   X9.6216       Y11.6777      R2.5000    
   X9.8946       Y12.2680      R2.5000    
   X10.3111      Y12.7675      R2.5000    
   X10.8427      Y13.1422      R2.5000    
   X11.4532      Y13.3665      R2.5000    
   X12.1009      Y13.4252      R2.5000    
   X12.7418      Y13.3143      R2.5000    
   X13.3321      Y13.0413      R2.5000    
   X13.8316      Y12.6248      R2.5000    
   X14.2063      Y12.0932      R2.5000    
   X14.4306      Y11.4827      R2.5000    
   X14.4893      Y10.8350      R2.5000    
   X14.3784      Y10.1942      R2.5000    
   X14.1054      Y9.6039       R2.5000    
   X13.6889      Y9.1043       R2.5000    
   X13.1573      Y8.7296       R2.5000    
   X12.5468      Y8.5053       R2.5000    
   X11.8991      Y8.4466       R2.5000    
   X11.2582      Y8.5575       R2.5000    
   X10.6679      Y8.8306       R2.5000    
   X10.1684      Y9.2471       R2.5000    
(Pass: 6)
G1   Z-0.600    
G17 G2   X9.7937       Y9.7787       R2.5000    
   X9.5694       Y10.3891      R2.5000    
   X9.5107       Y11.0368      R2.5000    
   X9.6216       Y11.6777      R2.5000    
   X9.8946       Y12.2680      R2.5000    
   X10.3111      Y12.7675      R2.5000    
   X10.8427      Y13.1422      R2.5000    
   X11.4532      Y13.3665      R2.5000    
   X12.1009      Y13.4252      R2.5000    
   X12.7418      Y13.3143      R2.5000    
   X13.3321      Y13.0413      R2.5000    
   X13.8316      Y12.6248      R2.5000    
   X14.2063      Y12.0932      R2.5000    
   X14.4306      Y11.4827      R2.5000    
   X14.4893      Y10.8350      R2.5000    
   X14.3784      Y10.1942      R2.5000    
   X14.1054      Y9.6039       R2.5000    
   X13.6889      Y9.1043       R2.5000    
   X13.1573      Y8.7296       R2.5000    
   X12.5468      Y8.5053       R2.5000    
   X11.8991      Y8.4466       R2.5000    
   X11.2582      Y8.5575       R2.5000    
   X10.6679      Y8.8306       R2.5000    
   X10.1684      Y9.2471       R2.5000    
(Pass: 7)
G1   Z-0.700    
G17 G2   X9.7937       Y9.7787       R2.5000    
   X9.5694       Y10.3891      R2.5000    
   X9.5107       Y11.0368      R2.5000    
   X9.6216       Y11.6777      R2.5000    
   X9.8946       Y12.2680      R2.5000    
   X10.3111      Y12.7675      R2.5000    
   X10.8427      Y13.1422      R2.5000    
   X11.4532      Y13.3665      R2.5000    
   X12.1009      Y13.4252      R2.5000    
   X12.7418      Y13.3143      R2.5000    
   X13.3321      Y13.0413      R2.5000    
   X13.8316      Y12.6248      R2.5000    
   X14.2063      Y12.0932      R2.5000    
   X14.4306      Y11.4827      R2.5000    
   X14.4893      Y10.8350      R2.5000    
   X14.3784      Y10.1942      R2.5000    
   X14.1054      Y9.6039       R2.5000    
   X13.6889      Y9.1043       R2.5000    
   X13.1573      Y8.7296       R2.5000    
   X12.5468      Y8.5053       R2.5000    
   X11.8991      Y8.4466       R2.5000    
   X11.2582      Y8.5575       R2.5000    
   X10.6679      Y8.8306       R2.5000    
   X10.1684      Y9.2471       R2.5000    
(Pass: 8)
G1   Z-0.800    
G17 G2   X9.7937       Y9.7787       R2.5000    
   X9.5694       Y10.3891      R2.5000    
   X9.5107       Y11.0368      R2.5000    
   X9.6216       Y11.6777      R2.5000    
   X9.8946       Y12.2680      R2.5000    
   X10.3111      Y12.7675      R2.5000    
   X10.8427      Y13.1422      R2.5000    
   X11.4532      Y13.3665      R2.5000    
   X12.1009      Y13.4252      R2.5000    
   X12.7418      Y13.3143      R2.5000    
   X13.3321      Y13.0413      R2.5000    
   X13.8316      Y12.6248      R2.5000    
   X14.2063      Y12.0932      R2.5000    
   X14.4306      Y11.4827      R2.5000    
   X14.4893      Y10.8350      R2.5000    
   X14.3784      Y10.1942      R2.5000    
   X14.1054      Y9.6039       R2.5000    
   X13.6889      Y9.1043       R2.5000    
   X13.1573      Y8.7296       R2.5000    
   X12.5468      Y8.5053       R2.5000    
   X11.8991      Y8.4466       R2.5000    
   X11.2582      Y8.5575       R2.5000    
   X10.6679      Y8.8306       R2.5000    
   X10.1684      Y9.2471       R2.5000    
(Pass: 9)
G1   Z-0.900    
G17 G2   X9.7937       Y9.7787       R2.5000    
   X9.5694       Y10.3891      R2.5000    
   X9.5107       Y11.0368      R2.5000    
   X9.6216       Y11.6777      R2.5000    
   X9.8946       Y12.2680      R2.5000    
   X10.3111      Y12.7675      R2.5000    
   X10.8427      Y13.1422      R2.5000    
   X11.4532      Y13.3665      R2.5000    
   X12.1009      Y13.4252      R2.5000    
   X12.7418      Y13.3143      R2.5000    
   X13.3321      Y13.0413      R2.5000    
   X13.8316      Y12.6248      R2.5000    
   X14.2063      Y12.0932      R2.5000    
   X14.4306      Y11.4827      R2.5000    
   X14.4893      Y10.8350      R2.5000    
   X14.3784      Y10.1942      R2.5000    
   X14.1054      Y9.6039       R2.5000    
   X13.6889      Y9.1043       R2.5000    
   X13.1573      Y8.7296       R2.5000    
   X12.5468      Y8.5053       R2.5000    
   X11.8991      Y8.4466       R2.5000    
   X11.2582      Y8.5575       R2.5000    
   X10.6679      Y8.8306       R2.5000    
   X10.1684      Y9.2471       R2.5000    
(Pass: 10)
G1   Z-1.000    
G17 G2   X9.7937       Y9.7787       R2.5000    
   X9.5694       Y10.3891      R2.5000    
   X9.5107       Y11.0368      R2.5000    
   X9.6216       Y11.6777      R2.5000    
   X9.8946       Y12.2680      R2.5000    
   X10.3111      Y12.7675      R2.5000    
   X10.8427      Y13.1422      R2.5000    
   X11.4532      Y13.3665      R2.5000    
   X12.1009      Y13.4252      R2.5000    
   X12.7418      Y13.3143      R2.5000    
   X13.3321      Y13.0413      R2.5000    
   X13.8316      Y12.6248      R2.5000    
   X14.2063      Y12.0932      R2.5000    
   X14.4306      Y11.4827      R2.5000    
   X14.4893      Y10.8350      R2.5000    
   X14.3784      Y10.1942      R2.5000    
   X14.1054      Y9.6039       R2.5000    
   X13.6889      Y9.1043       R2.5000    
   X13.1573      Y8.7296       R2.5000    
   X12.5468      Y8.5053       R2.5000    
   X11.8991      Y8.4466       R2.5000    
   X11.2582      Y8.5575       R2.5000    
   X10.6679      Y8.8306       R2.5000    
   X10.1684      Y9.2471       R2.5000    
(Pass: 11)
G1   Z-1.100    
G17 G2   X9.7937       Y9.7787       R2.5000    
   X9.5694       Y10.3891      R2.5000    
   X9.5107       Y11.0368      R2.5000    
   X9.6216       Y11.6777      R2.5000    
   X9.8946       Y12.2680      R2.5000    
   X10.3111      Y12.7675      R2.5000    
   X10.8427      Y13.1422      R2.5000    
   X11.4532      Y13.3665      R2.5000    
   X12.1009      Y13.4252      R2.5000    
   X12.7418      Y13.3143      R2.5000    
   X13.3321      Y13.0413      R2.5000    
   X13.8316      Y12.6248      R2.5000    
   X14.2063      Y12.0932      R2.5000    
   X14.4306      Y11.4827      R2.5000    
   X14.4893      Y10.8350      R2.5000    
   X14.3784      Y10.1942      R2.5000    
   X14.1054      Y9.6039       R2.5000    
   X13.6889      Y9.1043       R2.5000    
   X13.1573      Y8.7296       R2.5000    
   X12.5468      Y8.5053       R2.5000    
   X11.8991      Y8.4466       R2.5000    
   X11.2582      Y8.5575       R2.5000    
   X10.6679      Y8.8306       R2.5000    
   X10.1684      Y9.2471       R2.5000    
(Pass: 12)
G1   Z-1.200    
G17 G2   X9.7937       Y9.7787       R2.5000    
   X9.5694       Y10.3891      R2.5000    
   X9.5107       Y11.0368      R2.5000    
   X9.6216       Y11.6777      R2.5000    
   X9.8946       Y12.2680      R2.5000    
   X10.3111      Y12.7675      R2.5000    
   X10.8427      Y13.1422      R2.5000    
   X11.4532      Y13.3665      R2.5000    
   X12.1009      Y13.4252      R2.5000    
   X12.7418      Y13.3143      R2.5000    
   X13.3321      Y13.0413      R2.5000    
   X13.8316      Y12.6248      R2.5000    
   X14.2063      Y12.0932      R2.5000    
   X14.4306      Y11.4827      R2.5000    
   X14.4893      Y10.8350      R2.5000    
   X14.3784      Y10.1942      R2.5000    
   X14.1054      Y9.6039       R2.5000    
   X13.6889      Y9.1043       R2.5000    
   X13.1573      Y8.7296       R2.5000    
   X12.5468      Y8.5053       R2.5000    
   X11.8991      Y8.4466       R2.5000    
   X11.2582      Y8.5575       R2.5000    
   X10.6679      Y8.8306       R2.5000    
   X10.1684      Y9.2471       R2.5000    
(Pass: 13)
G1   Z-1.300    
G17 G2   X9.7937       Y9.7787       R2.5000    
   X9.5694       Y10.3891      R2.5000    
   X9.5107       Y11.0368      R2.5000    
   X9.6216       Y11.6777      R2.5000    
   X9.8946       Y12.2680      R2.5000    
   X10.3111      Y12.7675      R2.5000    
   X10.8427      Y13.1422      R2.5000    
   X11.4532      Y13.3665      R2.5000    
   X12.1009      Y13.4252      R2.5000    
   X12.7418      Y13.3143      R2.5000    
   X13.3321      Y13.0413      R2.5000    
   X13.8316      Y12.6248      R2.5000    
   X14.2063      Y12.0932      R2.5000    
   X14.4306      Y11.4827      R2.5000    
   X14.4893      Y10.8350      R2.5000    
   X14.3784      Y10.1942      R2.5000    
   X14.1054      Y9.6039       R2.5000    
   X13.6889      Y9.1043       R2.5000    
   X13.1573      Y8.7296       R2.5000    
   X12.5468      Y8.5053       R2.5000    
   X11.8991      Y8.4466       R2.5000    
   X11.2582      Y8.5575       R2.5000    
   X10.6679      Y8.8306       R2.5000    
   X10.1684      Y9.2471       R2.5000    
(Pass: 14)
G1   Z-1.400    
G17 G2   X9.7937       Y9.7787       R2.5000    
   X9.5694       Y10.3891      R2.5000    
   X9.5107       Y11.0368      R2.5000    
   X9.6216       Y11.6777      R2.5000    
   X9.8946       Y12.2680      R2.5000    
   X10.3111      Y12.7675      R2.5000    
   X10.8427      Y13.1422      R2.5000    
   X11.4532      Y13.3665      R2.5000    
   X12.1009      Y13.4252      R2.5000    
   X12.7418      Y13.3143      R2.5000    
   X13.3321      Y13.0413      R2.5000    
   X13.8316      Y12.6248      R2.5000    
   X14.2063      Y12.0932      R2.5000    
   X14.4306      Y11.4827      R2.5000    
   X14.4893      Y10.8350      R2.5000    
   X14.3784      Y10.1942      R2.5000    
   X14.1054      Y9.6039       R2.5000    
   X13.6889      Y9.1043       R2.5000    
   X13.1573      Y8.7296       R2.5000    
   X12.5468      Y8.5053       R2.5000    
   X11.8991      Y8.4466       R2.5000    
   X11.2582      Y8.5575       R2.5000    
   X10.6679      Y8.8306       R2.5000    
   X10.1684      Y9.2471       R2.5000    
(Pass: 15)
G1   Z-1.500    
G17 G2   X9.7937       Y9.7787       R2.5000    
   X9.5694       Y10.3891      R2.5000    
   X9.5107       Y11.0368      R2.5000    
   X9.6216       Y11.6777      R2.5000    
   X9.8946       Y12.2680      R2.5000    
   X10.3111      Y12.7675      R2.5000    
   X10.8427      Y13.1422      R2.5000    
   X11.4532      Y13.3665      R2.5000    
   X12.1009      Y13.4252      R2.5000    
   X12.7418      Y13.3143      R2.5000    
   X13.3321      Y13.0413      R2.5000    
   X13.8316      Y12.6248      R2.5000    
   X14.2063      Y12.0932      R2.5000    
   X14.4306      Y11.4827      R2.5000    
   X14.4893      Y10.8350      R2.5000    
   X14.3784      Y10.1942      R2.5000    
   X14.1054      Y9.6039       R2.5000    
   X13.6889      Y9.1043       R2.5000    
   X13.1573      Y8.7296       R2.5000    
   X12.5468      Y8.5053       R2.5000    
   X11.8991      Y8.4466       R2.5000    
   X11.2582      Y8.5575       R2.5000    
   X10.6679      Y8.8306       R2.5000    
   X10.1684      Y9.2471       R2.5000    
(Pass: 16)
G1   Z-1.600    
G17 G2   X9.7937       Y9.7787       R2.5000    
   X9.5694       Y10.3891      R2.5000    
   X9.5107       Y11.0368      R2.5000    
   X9.6216       Y11.6777      R2.5000    
   X9.8946       Y12.2680      R2.5000    
   X10.3111      Y12.7675      R2.5000    
   X10.8427      Y13.1422      R2.5000    
   X11.4532      Y13.3665      R2.5000    
   X12.1009      Y13.4252      R2.5000    
   X12.7418      Y13.3143      R2.5000    
   X13.3321      Y13.0413      R2.5000    
   X13.8316      Y12.6248      R2.5000    
   X14.2063      Y12.0932      R2.5000    
   X14.4306      Y11.4827      R2.5000    
   X14.4893      Y10.8350      R2.5000    
   X14.3784      Y10.1942      R2.5000    
   X14.1054      Y9.6039       R2.5000    
   X13.6889      Y9.1043       R2.5000    
   X13.1573      Y8.7296       R2.5000    
   X12.5468      Y8.5053       R2.5000    
   X11.8991      Y8.4466       R2.5000    
   X11.2582      Y8.5575       R2.5000    
   X10.6679      Y8.8306       R2.5000    
   X10.1684      Y9.2471       R2.5000    
(Pass: 17)
G1   Z-1.700    
G17 G2   X9.7937       Y9.7787       R2.5000    
   X9.5694       Y10.3891      R2.5000    
   X9.5107       Y11.0368      R2.5000    
   X9.6216       Y11.6777      R2.5000    
   X9.8946       Y12.2680      R2.5000    
   X10.3111      Y12.7675      R2.5000    
   X10.8427      Y13.1422      R2.5000    
   X11.4532      Y13.3665      R2.5000    
   X12.1009      Y13.4252      R2.5000    
   X12.7418      Y13.3143      R2.5000    
   X13.3321      Y13.0413      R2.5000    
   X13.8316      Y12.6248      R2.5000    
   X14.2063      Y12.0932      R2.5000    
   X14.4306      Y11.4827      R2.5000    
   X14.4893      Y10.8350      R2.5000    
   X14.3784      Y10.1942      R2.5000    
   X14.1054      Y9.6039       R2.5000    
   X13.6889      Y9.1043       R2.5000    
   X13.1573      Y8.7296       R2.5000    
   X12.5468      Y8.5053       R2.5000    
   X11.8991      Y8.4466       R2.5000    
   X11.2582      Y8.5575       R2.5000    
   X10.6679      Y8.8306       R2.5000    
   X10.1684      Y9.2471       R2.5000    
(Pass: 18)
G1   Z-1.800    
G17 G2   X9.7937       Y9.7787       R2.5000    
   X9.5694       Y10.3891      R2.5000    
   X9.5107       Y11.0368      R2.5000    
   X9.6216       Y11.6777      R2.5000    
   X9.8946       Y12.2680      R2.5000    
   X10.3111      Y12.7675      R2.5000    
   X10.8427      Y13.1422      R2.5000    
   X11.4532      Y13.3665      R2.5000    
   X12.1009      Y13.4252      R2.5000    
   X12.7418      Y13.3143      R2.5000    
   X13.3321      Y13.0413      R2.5000    
   X13.8316      Y12.6248      R2.5000    
   X14.2063      Y12.0932      R2.5000    
   X14.4306      Y11.4827      R2.5000    
   X14.4893      Y10.8350      R2.5000    
   X14.3784      Y10.1942      R2.5000    
   X14.1054      Y9.6039       R2.5000    
   X13.6889      Y9.1043       R2.5000    
   X13.1573      Y8.7296       R2.5000    
   X12.5468      Y8.5053       R2.5000    
   X11.8991      Y8.4466       R2.5000    
   X11.2582      Y8.5575       R2.5000    
   X10.6679      Y8.8306       R2.5000    
   X10.1684      Y9.2471       R2.5000    
(Pass: 19)
G1   Z-1.900    
G17 G2   X9.7937       Y9.7787       R2.5000    
   X9.5694       Y10.3891      R2.5000    
   X9.5107       Y11.0368      R2.5000    
   X9.6216       Y11.6777      R2.5000    
   X9.8946       Y12.2680      R2.5000    
   X10.3111      Y12.7675      R2.5000    
   X10.8427      Y13.1422      R2.5000    
   X11.4532      Y13.3665      R2.5000    
   X12.1009      Y13.4252      R2.5000    
   X12.7418      Y13.3143      R2.5000    
   X13.3321      Y13.0413      R2.5000    
   X13.8316      Y12.6248      R2.5000    
   X14.2063      Y12.0932      R2.5000    
   X14.4306      Y11.4827      R2.5000    
   X14.4893      Y10.8350      R2.5000    
   X14.3784      Y10.1942      R2.5000    
   X14.1054      Y9.6039       R2.5000    
   X13.6889      Y9.1043       R2.5000    
   X13.1573      Y8.7296       R2.5000    
   X12.5468      Y8.5053       R2.5000    
   X11.8991      Y8.4466       R2.5000    
   X11.2582      Y8.5575       R2.5000    
   X10.6679      Y8.8306       R2.5000    
   X10.1684      Y9.2471       R2.5000    
(Pass: 20)
G1   Z-2.000    
G17 G2   X9.7937       Y9.7787       R2.5000    
   X9.5694       Y10.3891      R2.5000    
   X9.5107       Y11.0368      R2.5000    
   X9.6216       Y11.6777      R2.5000    
   X9.8946       Y12.2680      R2.5000    
   X10.3111      Y12.7675      R2.5000    
   X10.8427      Y13.1422      R2.5000    
   X11.4532      Y13.3665      R2.5000    
   X12.1009      Y13.4252      R2.5000    
   X12.7418      Y13.3143      R2.5000    
   X13.3321      Y13.0413      R2.5000    
   X13.8316      Y12.6248      R2.5000    
   X14.2063      Y12.0932      R2.5000    
   X14.4306      Y11.4827      R2.5000    
   X14.4893      Y10.8350      R2.5000    
   X14.3784      Y10.1942      R2.5000    
   X14.1054      Y9.6039       R2.5000    
   X13.6889      Y9.1043       R2.5000    
   X13.1573      Y8.7296       R2.5000    
   X12.5468      Y8.5053       R2.5000    
   X11.8991      Y8.4466       R2.5000    
   X11.2582      Y8.5575       R2.5000    
   X10.6679      Y8.8306       R2.5000    
   X10.1684      Y9.2471       R2.5000    
(Pass: 21)
G1   Z-2.100    
G17 G2   X9.7937       Y9.7787       R2.5000    
   X9.5694       Y10.3891      R2.5000    
   X9.5107       Y11.0368      R2.5000    
   X9.6216       Y11.6777      R2.5000    
   X9.8946       Y12.2680      R2.5000    
   X10.3111      Y12.7675      R2.5000    
   X10.8427      Y13.1422      R2.5000    
   X11.4532      Y13.3665      R2.5000    
   X12.1009      Y13.4252      R2.5000    
   X12.7418      Y13.3143      R2.5000    
   X13.3321      Y13.0413      R2.5000    
   X13.8316      Y12.6248      R2.5000    
   X14.2063      Y12.0932      R2.5000    
   X14.4306      Y11.4827      R2.5000    
   X14.4893      Y10.8350      R2.5000    
   X14.3784      Y10.1942      R2.5000    
   X14.1054      Y9.6039       R2.5000    
   X13.6889      Y9.1043       R2.5000    
   X13.1573      Y8.7296       R2.5000    
   X12.5468      Y8.5053       R2.5000    
   X11.8991      Y8.4466       R2.5000    
   X11.2582      Y8.5575       R2.5000    
   X10.6679      Y8.8306       R2.5000    
   X10.1684      Y9.2471       R2.5000    
(Pass: 22)
G1   Z-2.200    
G17 G2   X9.7937       Y9.7787       R2.5000    
   X9.5694       Y10.3891      R2.5000    
   X9.5107       Y11.0368      R2.5000    
   X9.6216       Y11.6777      R2.5000    
   X9.8946       Y12.2680      R2.5000    
   X10.3111      Y12.7675      R2.5000    
   X10.8427      Y13.1422      R2.5000    
   X11.4532      Y13.3665      R2.5000    
   X12.1009      Y13.4252      R2.5000    
   X12.7418      Y13.3143      R2.5000    
   X13.3321      Y13.0413      R2.5000    
   X13.8316      Y12.6248      R2.5000    
   X14.2063      Y12.0932      R2.5000    
   X14.4306      Y11.4827      R2.5000    
   X14.4893      Y10.8350      R2.5000    
   X14.3784      Y10.1942      R2.5000    
   X14.1054      Y9.6039       R2.5000    
   X13.6889      Y9.1043       R2.5000    
   X13.1573      Y8.7296       R2.5000    
   X12.5468      Y8.5053       R2.5000    
   X11.8991      Y8.4466       R2.5000    
   X11.2582      Y8.5575       R2.5000    
   X10.6679      Y8.8306       R2.5000    
   X10.1684      Y9.2471       R2.5000    
(Pass: 23)
G1   Z-2.300    
G17 G2   X9.7937       Y9.7787       R2.5000    
   X9.5694       Y10.3891      R2.5000    
   X9.5107       Y11.0368      R2.5000    
   X9.6216       Y11.6777      R2.5000    
   X9.8946       Y12.2680      R2.5000    
   X10.3111      Y12.7675      R2.5000    
   X10.8427      Y13.1422      R2.5000    
   X11.4532      Y13.3665      R2.5000    
   X12.1009      Y13.4252      R2.5000    
   X12.7418      Y13.3143      R2.5000    
   X13.3321      Y13.0413      R2.5000    
   X13.8316      Y12.6248      R2.5000    
   X14.2063      Y12.0932      R2.5000    
   X14.4306      Y11.4827      R2.5000    
   X14.4893      Y10.8350      R2.5000    
   X14.3784      Y10.1942      R2.5000    
   X14.1054      Y9.6039       R2.5000    
   X13.6889      Y9.1043       R2.5000    
   X13.1573      Y8.7296       R2.5000    
   X12.5468      Y8.5053       R2.5000    
   X11.8991      Y8.4466       R2.5000    
   X11.2582      Y8.5575       R2.5000    
   X10.6679      Y8.8306       R2.5000    
   X10.1684      Y9.2471       R2.5000    
(Pass: 24)
G1   Z-2.400    
G17 G2   X9.7937       Y9.7787       R2.5000    
   X9.5694       Y10.3891      R2.5000    
   X9.5107       Y11.0368      R2.5000    
   X9.6216       Y11.6777      R2.5000    
   X9.8946       Y12.2680      R2.5000    
   X10.3111      Y12.7675      R2.5000    
   X10.8427      Y13.1422      R2.5000    
   X11.4532      Y13.3665      R2.5000    
   X12.1009      Y13.4252      R2.5000    
   X12.7418      Y13.3143      R2.5000    
   X13.3321      Y13.0413      R2.5000    
   X13.8316      Y12.6248      R2.5000    
   X14.2063      Y12.0932      R2.5000    
   X14.4306      Y11.4827      R2.5000    
   X14.4893      Y10.8350      R2.5000    
   X14.3784      Y10.1942      R2.5000    
   X14.1054      Y9.6039       R2.5000    
   X13.6889      Y9.1043       R2.5000    
   X13.1573      Y8.7296       R2.5000    
   X12.5468      Y8.5053       R2.5000    
   X11.8991      Y8.4466       R2.5000    
   X11.2582      Y8.5575       R2.5000    
   X10.6679      Y8.8306       R2.5000    
   X10.1684      Y9.2471       R2.5000    
(Pass: 25)
G1   Z-2.500    
G17 G2   X9.7937       Y9.7787       R2.5000    
   X9.5694       Y10.3891      R2.5000    
   X9.5107       Y11.0368      R2.5000    
   X9.6216       Y11.6777      R2.5000    
   X9.8946       Y12.2680      R2.5000    
   X10.3111      Y12.7675      R2.5000    
   X10.8427      Y13.1422      R2.5000    
   X11.4532      Y13.3665      R2.5000    
   X12.1009      Y13.4252      R2.5000    
   X12.7418      Y13.3143      R2.5000    
   X13.3321      Y13.0413      R2.5000    
   X13.8316      Y12.6248      R2.5000    
   X14.2063      Y12.0932      R2.5000    
   X14.4306      Y11.4827      R2.5000    
   X14.4893      Y10.8350      R2.5000    
   X14.3784      Y10.1942      R2.5000    
   X14.1054      Y9.6039       R2.5000    
   X13.6889      Y9.1043       R2.5000    
   X13.1573      Y8.7296       R2.5000    
   X12.5468      Y8.5053       R2.5000    
   X11.8991      Y8.4466       R2.5000    
   X11.2582      Y8.5575       R2.5000    
   X10.6679      Y8.8306       R2.5000    
   X10.1684      Y9.2471       R2.5000    
(Pass: 26)
G1   Z-2.600    
G17 G2   X9.7937       Y9.7787       R2.5000    
   X9.5694       Y10.3891      R2.5000    
   X9.5107       Y11.0368      R2.5000    
   X9.6216       Y11.6777      R2.5000    
   X9.8946       Y12.2680      R2.5000    
   X10.3111      Y12.7675      R2.5000    
   X10.8427      Y13.1422      R2.5000    
   X11.4532      Y13.3665      R2.5000    
   X12.1009      Y13.4252      R2.5000    
   X12.7418      Y13.3143      R2.5000    
   X13.3321      Y13.0413      R2.5000    
   X13.8316      Y12.6248      R2.5000    
   X14.2063      Y12.0932      R2.5000    
   X14.4306      Y11.4827      R2.5000    
   X14.4893      Y10.8350      R2.5000    
   X14.3784      Y10.1942      R2.5000    
   X14.1054      Y9.6039       R2.5000    
   X13.6889      Y9.1043       R2.5000    
   X13.1573      Y8.7296       R2.5000    
   X12.5468      Y8.5053       R2.5000    
   X11.8991      Y8.4466       R2.5000    
   X11.2582      Y8.5575       R2.5000    
   X10.6679      Y8.8306       R2.5000    
   X10.1684      Y9.2471       R2.5000    
(Pass: 27)
G1   Z-2.700    
G17 G2   X9.7937       Y9.7787       R2.5000    
   X9.5694       Y10.3891      R2.5000    
   X9.5107       Y11.0368      R2.5000    
   X9.6216       Y11.6777      R2.5000    
   X9.8946       Y12.2680      R2.5000    
   X10.3111      Y12.7675      R2.5000    
   X10.8427      Y13.1422      R2.5000    
   X11.4532      Y13.3665      R2.5000    
   X12.1009      Y13.4252      R2.5000    
   X12.7418      Y13.3143      R2.5000    
   X13.3321      Y13.0413      R2.5000    
   X13.8316      Y12.6248      R2.5000    
   X14.2063      Y12.0932      R2.5000    
   X14.4306      Y11.4827      R2.5000    
   X14.4893      Y10.8350      R2.5000    
   X14.3784      Y10.1942      R2.5000    
   X14.1054      Y9.6039       R2.5000    
   X13.6889      Y9.1043       R2.5000    
   X13.1573      Y8.7296       R2.5000    
   X12.5468      Y8.5053       R2.5000    
   X11.8991      Y8.4466       R2.5000    
   X11.2582      Y8.5575       R2.5000    
   X10.6679      Y8.8306       R2.5000    
   X10.1684      Y9.2471       R2.5000    
(Pass: 28)
G1   Z-2.800    
G17 G2   X9.7937       Y9.7787       R2.5000    
   X9.5694       Y10.3891      R2.5000    
   X9.5107       Y11.0368      R2.5000    
   X9.6216       Y11.6777      R2.5000    
   X9.8946       Y12.2680      R2.5000    
   X10.3111      Y12.7675      R2.5000    
   X10.8427      Y13.1422      R2.5000    
   X11.4532      Y13.3665      R2.5000    
   X12.1009      Y13.4252      R2.5000    
   X12.7418      Y13.3143      R2.5000    
   X13.3321      Y13.0413      R2.5000    
   X13.8316      Y12.6248      R2.5000    
   X14.2063      Y12.0932      R2.5000    
   X14.4306      Y11.4827      R2.5000    
   X14.4893      Y10.8350      R2.5000    
   X14.3784      Y10.1942      R2.5000    
   X14.1054      Y9.6039       R2.5000    
   X13.6889      Y9.1043       R2.5000    
   X13.1573      Y8.7296       R2.5000    
   X12.5468      Y8.5053       R2.5000    
   X11.8991      Y8.4466       R2.5000    
   X11.2582      Y8.5575       R2.5000    
   X10.6679      Y8.8306       R2.5000    
   X10.1684      Y9.2471       R2.5000    
(Pass: 29)
G1   Z-2.900    
G17 G2   X9.7937       Y9.7787       R2.5000    
   X9.5694       Y10.3891      R2.5000    
   X9.5107       Y11.0368      R2.5000    
   X9.6216       Y11.6777      R2.5000    
   X9.8946       Y12.2680      R2.5000    
   X10.3111      Y12.7675      R2.5000    
   X10.8427      Y13.1422      R2.5000    
   X11.4532      Y13.3665      R2.5000    
   X12.1009      Y13.4252      R2.5000    
   X12.7418      Y13.3143      R2.5000    
   X13.3321      Y13.0413      R2.5000    
   X13.8316      Y12.6248      R2.5000    
   X14.2063      Y12.0932      R2.5000    
   X14.4306      Y11.4827      R2.5000    
   X14.4893      Y10.8350      R2.5000    
   X14.3784      Y10.1942      R2.5000    
   X14.1054      Y9.6039       R2.5000    
   X13.6889      Y9.1043       R2.5000    
   X13.1573      Y8.7296       R2.5000    
   X12.5468      Y8.5053       R2.5000    
   X11.8991      Y8.4466       R2.5000    
   X11.2582      Y8.5575       R2.5000    
   X10.6679      Y8.8306       R2.5000    
   X10.1684      Y9.2471       R2.5000    
(Pass: 30)
G1   Z-3.000    
G17 G2   X9.7937       Y9.7787       R2.5000    
   X9.5694       Y10.3891      R2.5000    
   X9.5107       Y11.0368      R2.5000    
   X9.6216       Y11.6777      R2.5000    
   X9.8946       Y12.2680      R2.5000    
   X10.3111      Y12.7675      R2.5000    
   X10.8427      Y13.1422      R2.5000    
   X11.4532      Y13.3665      R2.5000    
   X12.1009      Y13.4252      R2.5000    
   X12.7418      Y13.3143      R2.5000    
   X13.3321      Y13.0413      R2.5000    
   X13.8316      Y12.6248      R2.5000    
   X14.2063      Y12.0932      R2.5000    
   X14.4306      Y11.4827      R2.5000    
   X14.4893      Y10.8350      R2.5000    
   X14.3784      Y10.1942      R2.5000    
   X14.1054      Y9.6039       R2.5000    
   X13.6889      Y9.1043       R2.5000    
   X13.1573      Y8.7296       R2.5000    
   X12.5468      Y8.5053       R2.5000    
   X11.8991      Y8.4466       R2.5000    
   X11.2582      Y8.5575       R2.5000    
   X10.6679      Y8.8306       R2.5000    
   X10.1684      Y9.2471       R2.5000    
(Pass: 31)
G1   Z-3.100    
G17 G2   X9.7937       Y9.7787       R2.5000    
   X9.5694       Y10.3891      R2.5000    
   X9.5107       Y11.0368      R2.5000    
   X9.6216       Y11.6777      R2.5000    
   X9.8946       Y12.2680      R2.5000    
   X10.3111      Y12.7675      R2.5000    
   X10.8427      Y13.1422      R2.5000    
   X11.4532      Y13.3665      R2.5000    
   X12.1009      Y13.4252      R2.5000    
   X12.7418      Y13.3143      R2.5000    
   X13.3321      Y13.0413      R2.5000    
   X13.8316      Y12.6248      R2.5000    
   X14.2063      Y12.0932      R2.5000    
   X14.4306      Y11.4827      R2.5000    
   X14.4893      Y10.8350      R2.5000    
   X14.3784      Y10.1942      R2.5000    
   X14.1054      Y9.6039       R2.5000    
   X13.6889      Y9.1043       R2.5000    
   X13.1573      Y8.7296       R2.5000    
   X12.5468      Y8.5053       R2.5000    
   X11.8991      Y8.4466       R2.5000    
   X11.2582      Y8.5575       R2.5000    
   X10.6679      Y8.8306       R2.5000    
   X10.1684      Y9.2471       R2.5000    
(Pass: 32)
G1   Z-3.200    
G17 G2   X9.7937       Y9.7787       R2.5000    
   X9.5694       Y10.3891      R2.5000    
   X9.5107       Y11.0368      R2.5000    
   X9.6216       Y11.6777      R2.5000    
   X9.8946       Y12.2680      R2.5000    
   X10.3111      Y12.7675      R2.5000    
   X10.8427      Y13.1422      R2.5000    
   X11.4532      Y13.3665      R2.5000    
   X12.1009      Y13.4252      R2.5000    
   X12.7418      Y13.3143      R2.5000    
   X13.3321      Y13.0413      R2.5000    
   X13.8316      Y12.6248      R2.5000    
   X14.2063      Y12.0932      R2.5000    
   X14.4306      Y11.4827      R2.5000    
   X14.4893      Y10.8350      R2.5000    
   X14.3784      Y10.1942      R2.5000    
   X14.1054      Y9.6039       R2.5000    
   X13.6889      Y9.1043       R2.5000    
   X13.1573      Y8.7296       R2.5000    
   X12.5468      Y8.5053       R2.5000    
   X11.8991      Y8.4466       R2.5000    
   X11.2582      Y8.5575       R2.5000    
   X10.6679      Y8.8306       R2.5000    
   X10.1684      Y9.2471       R2.5000    
(Pass: 33)
G1   Z-3.300    
G17 G2   X9.7937       Y9.7787       R2.5000    
   X9.5694       Y10.3891      R2.5000    
   X9.5107       Y11.0368      R2.5000    
   X9.6216       Y11.6777      R2.5000    
   X9.8946       Y12.2680      R2.5000    
   X10.3111      Y12.7675      R2.5000    
   X10.8427      Y13.1422      R2.5000    
   X11.4532      Y13.3665      R2.5000    
   X12.1009      Y13.4252      R2.5000    
   X12.7418      Y13.3143      R2.5000    
   X13.3321      Y13.0413      R2.5000    
   X13.8316      Y12.6248      R2.5000    
   X14.2063      Y12.0932      R2.5000    
   X14.4306      Y11.4827      R2.5000    
   X14.4893      Y10.8350      R2.5000    
   X14.3784      Y10.1942      R2.5000    
   X14.1054      Y9.6039       R2.5000    
   X13.6889      Y9.1043       R2.5000    
   X13.1573      Y8.7296       R2.5000    
   X12.5468      Y8.5053       R2.5000    
   X11.8991      Y8.4466       R2.5000    
   X11.2582      Y8.5575       R2.5000    
   X10.6679      Y8.8306       R2.5000    
   X10.1684      Y9.2471       R2.5000    
(Pass: 34)
G1   Z-3.400    
G17 G2   X9.7937       Y9.7787       R2.5000    
   X9.5694       Y10.3891      R2.5000    
   X9.5107       Y11.0368      R2.5000    
   X9.6216       Y11.6777      R2.5000    
   X9.8946       Y12.2680      R2.5000    
   X10.3111      Y12.7675      R2.5000    
   X10.8427      Y13.1422      R2.5000    
   X11.4532      Y13.3665      R2.5000    
   X12.1009      Y13.4252      R2.5000    
   X12.7418      Y13.3143      R2.5000    
   X13.3321      Y13.0413      R2.5000    
   X13.8316      Y12.6248      R2.5000    
   X14.2063      Y12.0932      R2.5000    
   X14.4306      Y11.4827      R2.5000    
   X14.4893      Y10.8350      R2.5000    
   X14.3784      Y10.1942      R2.5000    
   X14.1054      Y9.6039       R2.5000    
   X13.6889      Y9.1043       R2.5000    
   X13.1573      Y8.7296       R2.5000    
   X12.5468      Y8.5053       R2.5000    
   X11.8991      Y8.4466       R2.5000    
   X11.2582      Y8.5575       R2.5000    
   X10.6679      Y8.8306       R2.5000    
   X10.1684      Y9.2471       R2.5000    
(Pass: 35)
G1   Z-3.500    
G17 G2   X9.7937       Y9.7787       R2.5000    
   X9.5694       Y10.3891      R2.5000    
   X9.5107       Y11.0368      R2.5000    
   X9.6216       Y11.6777      R2.5000    
   X9.8946       Y12.2680      R2.5000    
   X10.3111      Y12.7675      R2.5000    
   X10.8427      Y13.1422      R2.5000    
   X11.4532      Y13.3665      R2.5000    
   X12.1009      Y13.4252      R2.5000    
   X12.7418      Y13.3143      R2.5000    
   X13.3321      Y13.0413      R2.5000    
   X13.8316      Y12.6248      R2.5000    
   X14.2063      Y12.0932      R2.5000    
   X14.4306      Y11.4827      R2.5000    
   X14.4893      Y10.8350      R2.5000    
   X14.3784      Y10.1942      R2.5000    
   X14.1054      Y9.6039       R2.5000    
   X13.6889      Y9.1043       R2.5000    
   X13.1573      Y8.7296       R2.5000    
   X12.5468      Y8.5053       R2.5000    
   X11.8991      Y8.4466       R2.5000    
   X11.2582      Y8.5575       R2.5000    
   X10.6679      Y8.8306       R2.5000    
   X10.1684      Y9.2471       R2.5000    
G0   Z5.000     
(Pass: 1)
   X25.700       Y16.195    
G1   Z-0.100     F400 
G17 G2   X25.5498      Y16.5573      R1.5100    
   X25.4986      Y16.9459      R1.5100    
   X25.5498      Y17.3345      R1.5100    
   X25.6998      Y17.6966      R1.5100    
   X25.9384      Y18.0076      R1.5100    
   X26.2493      Y18.2461      R1.5100    
   X26.6114      Y18.3961      R1.5100    
   X27.0000      Y18.4473      R1.5100    
   X27.3886      Y18.3961      R1.5100    
   X27.7507      Y18.2461      R1.5100    
   X28.0616      Y18.0076      R1.5100    
   X28.3002      Y17.6966      R1.5100    
   X28.4502      Y17.3345      R1.5100    
   X28.5014      Y16.9459      R1.5100    
   X28.4502      Y16.5573      R1.5100    
   X28.3002      Y16.1952      R1.5100    
   X28.0616      Y15.8843      R1.5100    
   X27.7507      Y15.6457      R1.5100    
   X27.3886      Y15.4957      R1.5100    
   X27.0000      Y15.4446      R1.5100    
   X26.6114      Y15.4957      R1.5100    
   X26.2493      Y15.6457      R1.5100    
   X25.9384      Y15.8843      R1.5100    
   X25.6998      Y16.1952      R1.5100    
(Pass: 2)
G1   Z-0.200    
G17 G2   X25.5498      Y16.5573      R1.5100    
   X25.4986      Y16.9459      R1.5100    
   X25.5498      Y17.3345      R1.5100    
   X25.6998      Y17.6966      R1.5100    
   X25.9384      Y18.0076      R1.5100    
   X26.2493      Y18.2461      R1.5100    
   X26.6114      Y18.3961      R1.5100    
   X27.0000      Y18.4473      R1.5100    
   X27.3886      Y18.3961      R1.5100    
   X27.7507      Y18.2461      R1.5100    
   X28.0616      Y18.0076      R1.5100    
   X28.3002      Y17.6966      R1.5100    
   X28.4502      Y17.3345      R1.5100    
   X28.5014      Y16.9459      R1.5100    
   X28.4502      Y16.5573      R1.5100    
   X28.3002      Y16.1952      R1.5100    
   X28.0616      Y15.8843      R1.5100    
   X27.7507      Y15.6457      R1.5100    
   X27.3886      Y15.4957      R1.5100    
   X27.0000      Y15.4446      R1.5100    
   X26.6114      Y15.4957      R1.5100    
   X26.2493      Y15.6457      R1.5100    
   X25.9384      Y15.8843      R1.5100    
   X25.6998      Y16.1952      R1.5100    
(Pass: 3)
G1   Z-0.300    
G17 G2   X25.5498      Y16.5573      R1.5100    
   X25.4986      Y16.9459      R1.5100    
   X25.5498      Y17.3345      R1.5100    
   X25.6998      Y17.6966      R1.5100    
   X25.9384      Y18.0076      R1.5100    
   X26.2493      Y18.2461      R1.5100    
   X26.6114      Y18.3961      R1.5100    
   X27.0000      Y18.4473      R1.5100    
   X27.3886      Y18.3961      R1.5100    
   X27.7507      Y18.2461      R1.5100    
   X28.0616      Y18.0076      R1.5100    
   X28.3002      Y17.6966      R1.5100    
   X28.4502      Y17.3345      R1.5100    
   X28.5014      Y16.9459      R1.5100    
   X28.4502      Y16.5573      R1.5100    
   X28.3002      Y16.1952      R1.5100    
   X28.0616      Y15.8843      R1.5100    
   X27.7507      Y15.6457      R1.5100    
   X27.3886      Y15.4957      R1.5100    
   X27.0000      Y15.4446      R1.5100    
   X26.6114      Y15.4957      R1.5100    
   X26.2493      Y15.6457      R1.5100    
   X25.9384      Y15.8843      R1.5100    
   X25.6998      Y16.1952      R1.5100    
(Pass: 4)
G1   Z-0.400    
G17 G2   X25.5498      Y16.5573      R1.5100    
   X25.4986      Y16.9459      R1.5100    
   X25.5498      Y17.3345      R1.5100    
   X25.6998      Y17.6966      R1.5100    
   X25.9384      Y18.0076      R1.5100    
   X26.2493      Y18.2461      R1.5100    
   X26.6114      Y18.3961      R1.5100    
   X27.0000      Y18.4473      R1.5100    
   X27.3886      Y18.3961      R1.5100    
   X27.7507      Y18.2461      R1.5100    
   X28.0616      Y18.0076      R1.5100    
   X28.3002      Y17.6966      R1.5100    
   X28.4502      Y17.3345      R1.5100    
   X28.5014      Y16.9459      R1.5100    
   X28.4502      Y16.5573      R1.5100    
   X28.3002      Y16.1952      R1.5100    
   X28.0616      Y15.8843      R1.5100    
   X27.7507      Y15.6457      R1.5100    
   X27.3886      Y15.4957      R1.5100    
   X27.0000      Y15.4446      R1.5100    
   X26.6114      Y15.4957      R1.5100    
   X26.2493      Y15.6457      R1.5100    
   X25.9384      Y15.8843      R1.5100    
   X25.6998      Y16.1952      R1.5100    
(Pass: 5)
G1   Z-0.500    
G17 G2   X25.5498      Y16.5573      R1.5100    
   X25.4986      Y16.9459      R1.5100    
   X25.5498      Y17.3345      R1.5100    
   X25.6998      Y17.6966      R1.5100    
   X25.9384      Y18.0076      R1.5100    
   X26.2493      Y18.2461      R1.5100    
   X26.6114      Y18.3961      R1.5100    
   X27.0000      Y18.4473      R1.5100    
   X27.3886      Y18.3961      R1.5100    
   X27.7507      Y18.2461      R1.5100    
   X28.0616      Y18.0076      R1.5100    
   X28.3002      Y17.6966      R1.5100    
   X28.4502      Y17.3345      R1.5100    
   X28.5014      Y16.9459      R1.5100    
   X28.4502      Y16.5573      R1.5100    
   X28.3002      Y16.1952      R1.5100    
   X28.0616      Y15.8843      R1.5100    
   X27.7507      Y15.6457      R1.5100    
   X27.3886      Y15.4957      R1.5100    
   X27.0000      Y15.4446      R1.5100    
   X26.6114      Y15.4957      R1.5100    
   X26.2493      Y15.6457      R1.5100    
   X25.9384      Y15.8843      R1.5100    
   X25.6998      Y16.1952      R1.5100    
(Pass: 6)
G1   Z-0.600    
G17 G2   X25.5498      Y16.5573      R1.5100    
   X25.4986      Y16.9459      R1.5100    
   X25.5498      Y17.3345      R1.5100    
   X25.6998      Y17.6966      R1.5100    
   X25.9384      Y18.0076      R1.5100    
   X26.2493      Y18.2461      R1.5100    
   X26.6114      Y18.3961      R1.5100    
   X27.0000      Y18.4473      R1.5100    
   X27.3886      Y18.3961      R1.5100    
   X27.7507      Y18.2461      R1.5100    
   X28.0616      Y18.0076      R1.5100    
   X28.3002      Y17.6966      R1.5100    
   X28.4502      Y17.3345      R1.5100    
   X28.5014      Y16.9459      R1.5100    
   X28.4502      Y16.5573      R1.5100    
   X28.3002      Y16.1952      R1.5100    
   X28.0616      Y15.8843      R1.5100    
   X27.7507      Y15.6457      R1.5100    
   X27.3886      Y15.4957      R1.5100    
   X27.0000      Y15.4446      R1.5100    
   X26.6114      Y15.4957      R1.5100    
   X26.2493      Y15.6457      R1.5100    
   X25.9384      Y15.8843      R1.5100    
   X25.6998      Y16.1952      R1.5100    
(Pass: 7)
G1   Z-0.700    
G17 G2   X25.5498      Y16.5573      R1.5100    
   X25.4986      Y16.9459      R1.5100    
   X25.5498      Y17.3345      R1.5100    
   X25.6998      Y17.6966      R1.5100    
   X25.9384      Y18.0076      R1.5100    
   X26.2493      Y18.2461      R1.5100    
   X26.6114      Y18.3961      R1.5100    
   X27.0000      Y18.4473      R1.5100    
   X27.3886      Y18.3961      R1.5100    
   X27.7507      Y18.2461      R1.5100    
   X28.0616      Y18.0076      R1.5100    
   X28.3002      Y17.6966      R1.5100    
   X28.4502      Y17.3345      R1.5100    
   X28.5014      Y16.9459      R1.5100    
   X28.4502      Y16.5573      R1.5100    
   X28.3002      Y16.1952      R1.5100    
   X28.0616      Y15.8843      R1.5100    
   X27.7507      Y15.6457      R1.5100    
   X27.3886      Y15.4957      R1.5100    
   X27.0000      Y15.4446      R1.5100    
   X26.6114      Y15.4957      R1.5100    
   X26.2493      Y15.6457      R1.5100    
   X25.9384      Y15.8843      R1.5100    
   X25.6998      Y16.1952      R1.5100    
(Pass: 8)
G1   Z-0.800    
G17 G2   X25.5498      Y16.5573      R1.5100    
   X25.4986      Y16.9459      R1.5100    
   X25.5498      Y17.3345      R1.5100    
   X25.6998      Y17.6966      R1.5100    
   X25.9384      Y18.0076      R1.5100    
   X26.2493      Y18.2461      R1.5100    
   X26.6114      Y18.3961      R1.5100    
   X27.0000      Y18.4473      R1.5100    
   X27.3886      Y18.3961      R1.5100    
   X27.7507      Y18.2461      R1.5100    
   X28.0616      Y18.0076      R1.5100    
   X28.3002      Y17.6966      R1.5100    
   X28.4502      Y17.3345      R1.5100    
   X28.5014      Y16.9459      R1.5100    
   X28.4502      Y16.5573      R1.5100    
   X28.3002      Y16.1952      R1.5100    
   X28.0616      Y15.8843      R1.5100    
   X27.7507      Y15.6457      R1.5100    
   X27.3886      Y15.4957      R1.5100    
   X27.0000      Y15.4446      R1.5100    
   X26.6114      Y15.4957      R1.5100    
   X26.2493      Y15.6457      R1.5100    
   X25.9384      Y15.8843      R1.5100    
   X25.6998      Y16.1952      R1.5100    
(Pass: 9)
G1   Z-0.900    
G17 G2   X25.5498      Y16.5573      R1.5100    
   X25.4986      Y16.9459      R1.5100    
   X25.5498      Y17.3345      R1.5100    
   X25.6998      Y17.6966      R1.5100    
   X25.9384      Y18.0076      R1.5100    
   X26.2493      Y18.2461      R1.5100    
   X26.6114      Y18.3961      R1.5100    
   X27.0000      Y18.4473      R1.5100    
   X27.3886      Y18.3961      R1.5100    
   X27.7507      Y18.2461      R1.5100    
   X28.0616      Y18.0076      R1.5100    
   X28.3002      Y17.6966      R1.5100    
   X28.4502      Y17.3345      R1.5100    
   X28.5014      Y16.9459      R1.5100    
   X28.4502      Y16.5573      R1.5100    
   X28.3002      Y16.1952      R1.5100    
   X28.0616      Y15.8843      R1.5100    
   X27.7507      Y15.6457      R1.5100    
   X27.3886      Y15.4957      R1.5100    
   X27.0000      Y15.4446      R1.5100    
   X26.6114      Y15.4957      R1.5100    
   X26.2493      Y15.6457      R1.5100    
   X25.9384      Y15.8843      R1.5100    
   X25.6998      Y16.1952      R1.5100    
(Pass: 10)
G1   Z-1.000    
G17 G2   X25.5498      Y16.5573      R1.5100    
   X25.4986      Y16.9459      R1.5100    
   X25.5498      Y17.3345      R1.5100    
   X25.6998      Y17.6966      R1.5100    
   X25.9384      Y18.0076      R1.5100    
   X26.2493      Y18.2461      R1.5100    
   X26.6114      Y18.3961      R1.5100    
   X27.0000      Y18.4473      R1.5100    
   X27.3886      Y18.3961      R1.5100    
   X27.7507      Y18.2461      R1.5100    
   X28.0616      Y18.0076      R1.5100    
   X28.3002      Y17.6966      R1.5100    
   X28.4502      Y17.3345      R1.5100    
   X28.5014      Y16.9459      R1.5100    
   X28.4502      Y16.5573      R1.5100    
   X28.3002      Y16.1952      R1.5100    
   X28.0616      Y15.8843      R1.5100    
   X27.7507      Y15.6457      R1.5100    
   X27.3886      Y15.4957      R1.5100    
   X27.0000      Y15.4446      R1.5100    
   X26.6114      Y15.4957      R1.5100    
   X26.2493      Y15.6457      R1.5100    
   X25.9384      Y15.8843      R1.5100    
   X25.6998      Y16.1952      R1.5100    
(Pass: 11)
G1   Z-1.100    
G17 G2   X25.5498      Y16.5573      R1.5100    
   X25.4986      Y16.9459      R1.5100    
   X25.5498      Y17.3345      R1.5100    
   X25.6998      Y17.6966      R1.5100    
   X25.9384      Y18.0076      R1.5100    
   X26.2493      Y18.2461      R1.5100    
   X26.6114      Y18.3961      R1.5100    
   X27.0000      Y18.4473      R1.5100    
   X27.3886      Y18.3961      R1.5100    
   X27.7507      Y18.2461      R1.5100    
   X28.0616      Y18.0076      R1.5100    
   X28.3002      Y17.6966      R1.5100    
   X28.4502      Y17.3345      R1.5100    
   X28.5014      Y16.9459      R1.5100    
   X28.4502      Y16.5573      R1.5100    
   X28.3002      Y16.1952      R1.5100    
   X28.0616      Y15.8843      R1.5100    
   X27.7507      Y15.6457      R1.5100    
   X27.3886      Y15.4957      R1.5100    
   X27.0000      Y15.4446      R1.5100    
   X26.6114      Y15.4957      R1.5100    
   X26.2493      Y15.6457      R1.5100    
   X25.9384      Y15.8843      R1.5100    
   X25.6998      Y16.1952      R1.5100    
(Pass: 12)
G1   Z-1.200    
G17 G2   X25.5498      Y16.5573      R1.5100    
   X25.4986      Y16.9459      R1.5100    
   X25.5498      Y17.3345      R1.5100    
   X25.6998      Y17.6966      R1.5100    
   X25.9384      Y18.0076      R1.5100    
   X26.2493      Y18.2461      R1.5100    
   X26.6114      Y18.3961      R1.5100    
   X27.0000      Y18.4473      R1.5100    
   X27.3886      Y18.3961      R1.5100    
   X27.7507      Y18.2461      R1.5100    
   X28.0616      Y18.0076      R1.5100    
   X28.3002      Y17.6966      R1.5100    
   X28.4502      Y17.3345      R1.5100    
   X28.5014      Y16.9459      R1.5100    
   X28.4502      Y16.5573      R1.5100    
   X28.3002      Y16.1952      R1.5100    
   X28.0616      Y15.8843      R1.5100    
   X27.7507      Y15.6457      R1.5100    
   X27.3886      Y15.4957      R1.5100    
   X27.0000      Y15.4446      R1.5100    
   X26.6114      Y15.4957      R1.5100    
   X26.2493      Y15.6457      R1.5100    
   X25.9384      Y15.8843      R1.5100    
   X25.6998      Y16.1952      R1.5100    
(Pass: 13)
G1   Z-1.300    
G17 G2   X25.5498      Y16.5573      R1.5100    
   X25.4986      Y16.9459      R1.5100    
   X25.5498      Y17.3345      R1.5100    
   X25.6998      Y17.6966      R1.5100    
   X25.9384      Y18.0076      R1.5100    
   X26.2493      Y18.2461      R1.5100    
   X26.6114      Y18.3961      R1.5100    
   X27.0000      Y18.4473      R1.5100    
   X27.3886      Y18.3961      R1.5100    
   X27.7507      Y18.2461      R1.5100    
   X28.0616      Y18.0076      R1.5100    
   X28.3002      Y17.6966      R1.5100    
   X28.4502      Y17.3345      R1.5100    
   X28.5014      Y16.9459      R1.5100    
   X28.4502      Y16.5573      R1.5100    
   X28.3002      Y16.1952      R1.5100    
   X28.0616      Y15.8843      R1.5100    
   X27.7507      Y15.6457      R1.5100    
   X27.3886      Y15.4957      R1.5100    
   X27.0000      Y15.4446      R1.5100    
   X26.6114      Y15.4957      R1.5100    
   X26.2493      Y15.6457      R1.5100    
   X25.9384      Y15.8843      R1.5100    
   X25.6998      Y16.1952      R1.5100    
(Pass: 14)
G1   Z-1.400    
G17 G2   X25.5498      Y16.5573      R1.5100    
   X25.4986      Y16.9459      R1.5100    
   X25.5498      Y17.3345      R1.5100    
   X25.6998      Y17.6966      R1.5100    
   X25.9384      Y18.0076      R1.5100    
   X26.2493      Y18.2461      R1.5100    
   X26.6114      Y18.3961      R1.5100    
   X27.0000      Y18.4473      R1.5100    
   X27.3886      Y18.3961      R1.5100    
   X27.7507      Y18.2461      R1.5100    
   X28.0616      Y18.0076      R1.5100    
   X28.3002      Y17.6966      R1.5100    
   X28.4502      Y17.3345      R1.5100    
   X28.5014      Y16.9459      R1.5100    
   X28.4502      Y16.5573      R1.5100    
   X28.3002      Y16.1952      R1.5100    
   X28.0616      Y15.8843      R1.5100    
   X27.7507      Y15.6457      R1.5100    
   X27.3886      Y15.4957      R1.5100    
   X27.0000      Y15.4446      R1.5100    
   X26.6114      Y15.4957      R1.5100    
   X26.2493      Y15.6457      R1.5100    
   X25.9384      Y15.8843      R1.5100    
   X25.6998      Y16.1952      R1.5100    
(Pass: 15)
G1   Z-1.500    
G17 G2   X25.5498      Y16.5573      R1.5100    
   X25.4986      Y16.9459      R1.5100    
   X25.5498      Y17.3345      R1.5100    
   X25.6998      Y17.6966      R1.5100    
   X25.9384      Y18.0076      R1.5100    
   X26.2493      Y18.2461      R1.5100    
   X26.6114      Y18.3961      R1.5100    
   X27.0000      Y18.4473      R1.5100    
   X27.3886      Y18.3961      R1.5100    
   X27.7507      Y18.2461      R1.5100    
   X28.0616      Y18.0076      R1.5100    
   X28.3002      Y17.6966      R1.5100    
   X28.4502      Y17.3345      R1.5100    
   X28.5014      Y16.9459      R1.5100    
   X28.4502      Y16.5573      R1.5100    
   X28.3002      Y16.1952      R1.5100    
   X28.0616      Y15.8843      R1.5100    
   X27.7507      Y15.6457      R1.5100    
   X27.3886      Y15.4957      R1.5100    
   X27.0000      Y15.4446      R1.5100    
   X26.6114      Y15.4957      R1.5100    
   X26.2493      Y15.6457      R1.5100    
   X25.9384      Y15.8843      R1.5100    
   X25.6998      Y16.1952      R1.5100    
(Pass: 16)
G1   Z-1.600    
G17 G2   X25.5498      Y16.5573      R1.5100    
   X25.4986      Y16.9459      R1.5100    
   X25.5498      Y17.3345      R1.5100    
   X25.6998      Y17.6966      R1.5100    
   X25.9384      Y18.0076      R1.5100    
   X26.2493      Y18.2461      R1.5100    
   X26.6114      Y18.3961      R1.5100    
   X27.0000      Y18.4473      R1.5100    
   X27.3886      Y18.3961      R1.5100    
   X27.7507      Y18.2461      R1.5100    
   X28.0616      Y18.0076      R1.5100    
   X28.3002      Y17.6966      R1.5100    
   X28.4502      Y17.3345      R1.5100    
   X28.5014      Y16.9459      R1.5100    
   X28.4502      Y16.5573      R1.5100    
   X28.3002      Y16.1952      R1.5100    
   X28.0616      Y15.8843      R1.5100    
   X27.7507      Y15.6457      R1.5100    
   X27.3886      Y15.4957      R1.5100    
   X27.0000      Y15.4446      R1.5100    
   X26.6114      Y15.4957      R1.5100    
   X26.2493      Y15.6457      R1.5100    
   X25.9384      Y15.8843      R1.5100    
   X25.6998      Y16.1952      R1.5100    
(Pass: 17)
G1   Z-1.700    
G17 G2   X25.5498      Y16.5573      R1.5100    
   X25.4986      Y16.9459      R1.5100    
   X25.5498      Y17.3345      R1.5100    
   X25.6998      Y17.6966      R1.5100    
   X25.9384      Y18.0076      R1.5100    
   X26.2493      Y18.2461      R1.5100    
   X26.6114      Y18.3961      R1.5100    
   X27.0000      Y18.4473      R1.5100    
   X27.3886      Y18.3961      R1.5100    
   X27.7507      Y18.2461      R1.5100    
   X28.0616      Y18.0076      R1.5100    
   X28.3002      Y17.6966      R1.5100    
   X28.4502      Y17.3345      R1.5100    
   X28.5014      Y16.9459      R1.5100    
   X28.4502      Y16.5573      R1.5100    
   X28.3002      Y16.1952      R1.5100    
   X28.0616      Y15.8843      R1.5100    
   X27.7507      Y15.6457      R1.5100    
   X27.3886      Y15.4957      R1.5100    
   X27.0000      Y15.4446      R1.5100    
   X26.6114      Y15.4957      R1.5100    
   X26.2493      Y15.6457      R1.5100    
   X25.9384      Y15.8843      R1.5100    
   X25.6998      Y16.1952      R1.5100    
(Pass: 18)
G1   Z-1.800    
G17 G2   X25.5498      Y16.5573      R1.5100    
   X25.4986      Y16.9459      R1.5100    
   X25.5498      Y17.3345      R1.5100    
   X25.6998      Y17.6966      R1.5100    
   X25.9384      Y18.0076      R1.5100    
   X26.2493      Y18.2461      R1.5100    
   X26.6114      Y18.3961      R1.5100    
   X27.0000      Y18.4473      R1.5100    
   X27.3886      Y18.3961      R1.5100    
   X27.7507      Y18.2461      R1.5100    
   X28.0616      Y18.0076      R1.5100    
   X28.3002      Y17.6966      R1.5100    
   X28.4502      Y17.3345      R1.5100    
   X28.5014      Y16.9459      R1.5100    
   X28.4502      Y16.5573      R1.5100    
   X28.3002      Y16.1952      R1.5100    
   X28.0616      Y15.8843      R1.5100    
   X27.7507      Y15.6457      R1.5100    
   X27.3886      Y15.4957      R1.5100    
   X27.0000      Y15.4446      R1.5100    
   X26.6114      Y15.4957      R1.5100    
   X26.2493      Y15.6457      R1.5100    
   X25.9384      Y15.8843      R1.5100    
   X25.6998      Y16.1952      R1.5100    
(Pass: 19)
G1   Z-1.900    
G17 G2   X25.5498      Y16.5573      R1.5100    
   X25.4986      Y16.9459      R1.5100    
   X25.5498      Y17.3345      R1.5100    
   X25.6998      Y17.6966      R1.5100    
   X25.9384      Y18.0076      R1.5100    
   X26.2493      Y18.2461      R1.5100    
   X26.6114      Y18.3961      R1.5100    
   X27.0000      Y18.4473      R1.5100    
   X27.3886      Y18.3961      R1.5100    
   X27.7507      Y18.2461      R1.5100    
   X28.0616      Y18.0076      R1.5100    
   X28.3002      Y17.6966      R1.5100    
   X28.4502      Y17.3345      R1.5100    
   X28.5014      Y16.9459      R1.5100    
   X28.4502      Y16.5573      R1.5100    
   X28.3002      Y16.1952      R1.5100    
   X28.0616      Y15.8843      R1.5100    
   X27.7507      Y15.6457      R1.5100    
   X27.3886      Y15.4957      R1.5100    
   X27.0000      Y15.4446      R1.5100    
   X26.6114      Y15.4957      R1.5100    
   X26.2493      Y15.6457      R1.5100    
   X25.9384      Y15.8843      R1.5100    
   X25.6998      Y16.1952      R1.5100    
(Pass: 20)
G1   Z-2.000    
G17 G2   X25.5498      Y16.5573      R1.5100    
   X25.4986      Y16.9459      R1.5100    
   X25.5498      Y17.3345      R1.5100    
   X25.6998      Y17.6966      R1.5100    
   X25.9384      Y18.0076      R1.5100    
   X26.2493      Y18.2461      R1.5100    
   X26.6114      Y18.3961      R1.5100    
   X27.0000      Y18.4473      R1.5100    
   X27.3886      Y18.3961      R1.5100    
   X27.7507      Y18.2461      R1.5100    
   X28.0616      Y18.0076      R1.5100    
   X28.3002      Y17.6966      R1.5100    
   X28.4502      Y17.3345      R1.5100    
   X28.5014      Y16.9459      R1.5100    
   X28.4502      Y16.5573      R1.5100    
   X28.3002      Y16.1952      R1.5100    
   X28.0616      Y15.8843      R1.5100    
   X27.7507      Y15.6457      R1.5100    
   X27.3886      Y15.4957      R1.5100    
   X27.0000      Y15.4446      R1.5100    
   X26.6114      Y15.4957      R1.5100    
   X26.2493      Y15.6457      R1.5100    
   X25.9384      Y15.8843      R1.5100    
   X25.6998      Y16.1952      R1.5100    
(Pass: 21)
G1   Z-2.100    
G17 G2   X25.5498      Y16.5573      R1.5100    
   X25.4986      Y16.9459      R1.5100    
   X25.5498      Y17.3345      R1.5100    
   X25.6998      Y17.6966      R1.5100    
   X25.9384      Y18.0076      R1.5100    
   X26.2493      Y18.2461      R1.5100    
   X26.6114      Y18.3961      R1.5100    
   X27.0000      Y18.4473      R1.5100    
   X27.3886      Y18.3961      R1.5100    
   X27.7507      Y18.2461      R1.5100    
   X28.0616      Y18.0076      R1.5100    
   X28.3002      Y17.6966      R1.5100    
   X28.4502      Y17.3345      R1.5100    
   X28.5014      Y16.9459      R1.5100    
   X28.4502      Y16.5573      R1.5100    
   X28.3002      Y16.1952      R1.5100    
   X28.0616      Y15.8843      R1.5100    
   X27.7507      Y15.6457      R1.5100    
   X27.3886      Y15.4957      R1.5100    
   X27.0000      Y15.4446      R1.5100    
   X26.6114      Y15.4957      R1.5100    
   X26.2493      Y15.6457      R1.5100    
   X25.9384      Y15.8843      R1.5100    
   X25.6998      Y16.1952      R1.5100    
(Pass: 22)
G1   Z-2.200    
G17 G2   X25.5498      Y16.5573      R1.5100    
   X25.4986      Y16.9459      R1.5100    
   X25.5498      Y17.3345      R1.5100    
   X25.6998      Y17.6966      R1.5100    
   X25.9384      Y18.0076      R1.5100    
   X26.2493      Y18.2461      R1.5100    
   X26.6114      Y18.3961      R1.5100    
   X27.0000      Y18.4473      R1.5100    
   X27.3886      Y18.3961      R1.5100    
   X27.7507      Y18.2461      R1.5100    
   X28.0616      Y18.0076      R1.5100    
   X28.3002      Y17.6966      R1.5100    
   X28.4502      Y17.3345      R1.5100    
   X28.5014      Y16.9459      R1.5100    
   X28.4502      Y16.5573      R1.5100    
   X28.3002      Y16.1952      R1.5100    
   X28.0616      Y15.8843      R1.5100    
   X27.7507      Y15.6457      R1.5100    
   X27.3886      Y15.4957      R1.5100    
   X27.0000      Y15.4446      R1.5100    
   X26.6114      Y15.4957      R1.5100    
   X26.2493      Y15.6457      R1.5100    
   X25.9384      Y15.8843      R1.5100    
   X25.6998      Y16.1952      R1.5100    
(Pass: 23)
G1   Z-2.300    
G17 G2   X25.5498      Y16.5573      R1.5100    
   X25.4986      Y16.9459      R1.5100    
   X25.5498      Y17.3345      R1.5100    
   X25.6998      Y17.6966      R1.5100    
   X25.9384      Y18.0076      R1.5100    
   X26.2493      Y18.2461      R1.5100    
   X26.6114      Y18.3961      R1.5100    
   X27.0000      Y18.4473      R1.5100    
   X27.3886      Y18.3961      R1.5100    
   X27.7507      Y18.2461      R1.5100    
   X28.0616      Y18.0076      R1.5100    
   X28.3002      Y17.6966      R1.5100    
   X28.4502      Y17.3345      R1.5100    
   X28.5014      Y16.9459      R1.5100    
   X28.4502      Y16.5573      R1.5100    
   X28.3002      Y16.1952      R1.5100    
   X28.0616      Y15.8843      R1.5100    
   X27.7507      Y15.6457      R1.5100    
   X27.3886      Y15.4957      R1.5100    
   X27.0000      Y15.4446      R1.5100    
   X26.6114      Y15.4957      R1.5100    
   X26.2493      Y15.6457      R1.5100    
   X25.9384      Y15.8843      R1.5100    
   X25.6998      Y16.1952      R1.5100    
(Pass: 24)
G1   Z-2.400    
G17 G2   X25.5498      Y16.5573      R1.5100    
   X25.4986      Y16.9459      R1.5100    
   X25.5498      Y17.3345      R1.5100    
   X25.6998      Y17.6966      R1.5100    
   X25.9384      Y18.0076      R1.5100    
   X26.2493      Y18.2461      R1.5100    
   X26.6114      Y18.3961      R1.5100    
   X27.0000      Y18.4473      R1.5100    
   X27.3886      Y18.3961      R1.5100    
   X27.7507      Y18.2461      R1.5100    
   X28.0616      Y18.0076      R1.5100    
   X28.3002      Y17.6966      R1.5100    
   X28.4502      Y17.3345      R1.5100    
   X28.5014      Y16.9459      R1.5100    
   X28.4502      Y16.5573      R1.5100    
   X28.3002      Y16.1952      R1.5100    
   X28.0616      Y15.8843      R1.5100    
   X27.7507      Y15.6457      R1.5100    
   X27.3886      Y15.4957      R1.5100    
   X27.0000      Y15.4446      R1.5100    
   X26.6114      Y15.4957      R1.5100    
   X26.2493      Y15.6457      R1.5100    
   X25.9384      Y15.8843      R1.5100    
   X25.6998      Y16.1952      R1.5100    
(Pass: 25)
G1   Z-2.500    
G17 G2   X25.5498      Y16.5573      R1.5100    
   X25.4986      Y16.9459      R1.5100    
   X25.5498      Y17.3345      R1.5100    
   X25.6998      Y17.6966      R1.5100    
   X25.9384      Y18.0076      R1.5100    
   X26.2493      Y18.2461      R1.5100    
   X26.6114      Y18.3961      R1.5100    
   X27.0000      Y18.4473      R1.5100    
   X27.3886      Y18.3961      R1.5100    
   X27.7507      Y18.2461      R1.5100    
   X28.0616      Y18.0076      R1.5100    
   X28.3002      Y17.6966      R1.5100    
   X28.4502      Y17.3345      R1.5100    
   X28.5014      Y16.9459      R1.5100    
   X28.4502      Y16.5573      R1.5100    
   X28.3002      Y16.1952      R1.5100    
   X28.0616      Y15.8843      R1.5100    
   X27.7507      Y15.6457      R1.5100    
   X27.3886      Y15.4957      R1.5100    
   X27.0000      Y15.4446      R1.5100    
   X26.6114      Y15.4957      R1.5100    
   X26.2493      Y15.6457      R1.5100    
   X25.9384      Y15.8843      R1.5100    
   X25.6998      Y16.1952      R1.5100    
(Pass: 26)
G1   Z-2.600    
G17 G2   X25.5498      Y16.5573      R1.5100    
   X25.4986      Y16.9459      R1.5100    
   X25.5498      Y17.3345      R1.5100    
   X25.6998      Y17.6966      R1.5100    
   X25.9384      Y18.0076      R1.5100    
   X26.2493      Y18.2461      R1.5100    
   X26.6114      Y18.3961      R1.5100    
   X27.0000      Y18.4473      R1.5100    
   X27.3886      Y18.3961      R1.5100    
   X27.7507      Y18.2461      R1.5100    
   X28.0616      Y18.0076      R1.5100    
   X28.3002      Y17.6966      R1.5100    
   X28.4502      Y17.3345      R1.5100    
   X28.5014      Y16.9459      R1.5100    
   X28.4502      Y16.5573      R1.5100    
   X28.3002      Y16.1952      R1.5100    
   X28.0616      Y15.8843      R1.5100    
   X27.7507      Y15.6457      R1.5100    
   X27.3886      Y15.4957      R1.5100    
   X27.0000      Y15.4446      R1.5100    
   X26.6114      Y15.4957      R1.5100    
   X26.2493      Y15.6457      R1.5100    
   X25.9384      Y15.8843      R1.5100    
   X25.6998      Y16.1952      R1.5100    
(Pass: 27)
G1   Z-2.700    
G17 G2   X25.5498      Y16.5573      R1.5100    
   X25.4986      Y16.9459      R1.5100    
   X25.5498      Y17.3345      R1.5100    
   X25.6998      Y17.6966      R1.5100    
   X25.9384      Y18.0076      R1.5100    
   X26.2493      Y18.2461      R1.5100    
   X26.6114      Y18.3961      R1.5100    
   X27.0000      Y18.4473      R1.5100    
   X27.3886      Y18.3961      R1.5100    
   X27.7507      Y18.2461      R1.5100    
   X28.0616      Y18.0076      R1.5100    
   X28.3002      Y17.6966      R1.5100    
   X28.4502      Y17.3345      R1.5100    
   X28.5014      Y16.9459      R1.5100    
   X28.4502      Y16.5573      R1.5100    
   X28.3002      Y16.1952      R1.5100    
   X28.0616      Y15.8843      R1.5100    
   X27.7507      Y15.6457      R1.5100    
   X27.3886      Y15.4957      R1.5100    
   X27.0000      Y15.4446      R1.5100    
   X26.6114      Y15.4957      R1.5100    
   X26.2493      Y15.6457      R1.5100    
   X25.9384      Y15.8843      R1.5100    
   X25.6998      Y16.1952      R1.5100    
(Pass: 28)
G1   Z-2.800    
G17 G2   X25.5498      Y16.5573      R1.5100    
   X25.4986      Y16.9459      R1.5100    
   X25.5498      Y17.3345      R1.5100    
   X25.6998      Y17.6966      R1.5100    
   X25.9384      Y18.0076      R1.5100    
   X26.2493      Y18.2461      R1.5100    
   X26.6114      Y18.3961      R1.5100    
   X27.0000      Y18.4473      R1.5100    
   X27.3886      Y18.3961      R1.5100    
   X27.7507      Y18.2461      R1.5100    
   X28.0616      Y18.0076      R1.5100    
   X28.3002      Y17.6966      R1.5100    
   X28.4502      Y17.3345      R1.5100    
   X28.5014      Y16.9459      R1.5100    
   X28.4502      Y16.5573      R1.5100    
   X28.3002      Y16.1952      R1.5100    
   X28.0616      Y15.8843      R1.5100    
   X27.7507      Y15.6457      R1.5100    
   X27.3886      Y15.4957      R1.5100    
   X27.0000      Y15.4446      R1.5100    
   X26.6114      Y15.4957      R1.5100    
   X26.2493      Y15.6457      R1.5100    
   X25.9384      Y15.8843      R1.5100    
   X25.6998      Y16.1952      R1.5100    
(Pass: 29)
G1   Z-2.900    
G17 G2   X25.5498      Y16.5573      R1.5100    
   X25.4986      Y16.9459      R1.5100    
   X25.5498      Y17.3345      R1.5100    
   X25.6998      Y17.6966      R1.5100    
   X25.9384      Y18.0076      R1.5100    
   X26.2493      Y18.2461      R1.5100    
   X26.6114      Y18.3961      R1.5100    
   X27.0000      Y18.4473      R1.5100    
   X27.3886      Y18.3961      R1.5100    
   X27.7507      Y18.2461      R1.5100    
   X28.0616      Y18.0076      R1.5100    
   X28.3002      Y17.6966      R1.5100    
   X28.4502      Y17.3345      R1.5100    
   X28.5014      Y16.9459      R1.5100    
   X28.4502      Y16.5573      R1.5100    
   X28.3002      Y16.1952      R1.5100    
   X28.0616      Y15.8843      R1.5100    
   X27.7507      Y15.6457      R1.5100    
   X27.3886      Y15.4957      R1.5100    
   X27.0000      Y15.4446      R1.5100    
   X26.6114      Y15.4957      R1.5100    
   X26.2493      Y15.6457      R1.5100    
   X25.9384      Y15.8843      R1.5100    
   X25.6998      Y16.1952      R1.5100    
(Pass: 30)
G1   Z-3.000    
G17 G2   X25.5498      Y16.5573      R1.5100    
   X25.4986      Y16.9459      R1.5100    
   X25.5498      Y17.3345      R1.5100    
   X25.6998      Y17.6966      R1.5100    
   X25.9384      Y18.0076      R1.5100    
   X26.2493      Y18.2461      R1.5100    
   X26.6114      Y18.3961      R1.5100    
   X27.0000      Y18.4473      R1.5100    
   X27.3886      Y18.3961      R1.5100    
   X27.7507      Y18.2461      R1.5100    
   X28.0616      Y18.0076      R1.5100    
   X28.3002      Y17.6966      R1.5100    
   X28.4502      Y17.3345      R1.5100    
   X28.5014      Y16.9459      R1.5100    
   X28.4502      Y16.5573      R1.5100    
   X28.3002      Y16.1952      R1.5100    
   X28.0616      Y15.8843      R1.5100    
   X27.7507      Y15.6457      R1.5100    
   X27.3886      Y15.4957      R1.5100    
   X27.0000      Y15.4446      R1.5100    
   X26.6114      Y15.4957      R1.5100    
   X26.2493      Y15.6457      R1.5100    
   X25.9384      Y15.8843      R1.5100    
   X25.6998      Y16.1952      R1.5100    
(Pass: 31)
G1   Z-3.100    
G17 G2   X25.5498      Y16.5573      R1.5100    
   X25.4986      Y16.9459      R1.5100    
   X25.5498      Y17.3345      R1.5100    
   X25.6998      Y17.6966      R1.5100    
   X25.9384      Y18.0076      R1.5100    
   X26.2493      Y18.2461      R1.5100    
   X26.6114      Y18.3961      R1.5100    
   X27.0000      Y18.4473      R1.5100    
   X27.3886      Y18.3961      R1.5100    
   X27.7507      Y18.2461      R1.5100    
   X28.0616      Y18.0076      R1.5100    
   X28.3002      Y17.6966      R1.5100    
   X28.4502      Y17.3345      R1.5100    
   X28.5014      Y16.9459      R1.5100    
   X28.4502      Y16.5573      R1.5100    
   X28.3002      Y16.1952      R1.5100    
   X28.0616      Y15.8843      R1.5100    
   X27.7507      Y15.6457      R1.5100    
   X27.3886      Y15.4957      R1.5100    
   X27.0000      Y15.4446      R1.5100    
   X26.6114      Y15.4957      R1.5100    
   X26.2493      Y15.6457      R1.5100    
   X25.9384      Y15.8843      R1.5100    
   X25.6998      Y16.1952      R1.5100    
(Pass: 32)
G1   Z-3.200    
G17 G2   X25.5498      Y16.5573      R1.5100    
   X25.4986      Y16.9459      R1.5100    
   X25.5498      Y17.3345      R1.5100    
   X25.6998      Y17.6966      R1.5100    
   X25.9384      Y18.0076      R1.5100    
   X26.2493      Y18.2461      R1.5100    
   X26.6114      Y18.3961      R1.5100    
   X27.0000      Y18.4473      R1.5100    
   X27.3886      Y18.3961      R1.5100    
   X27.7507      Y18.2461      R1.5100    
   X28.0616      Y18.0076      R1.5100    
   X28.3002      Y17.6966      R1.5100    
   X28.4502      Y17.3345      R1.5100    
   X28.5014      Y16.9459      R1.5100    
   X28.4502      Y16.5573      R1.5100    
   X28.3002      Y16.1952      R1.5100    
   X28.0616      Y15.8843      R1.5100    
   X27.7507      Y15.6457      R1.5100    
   X27.3886      Y15.4957      R1.5100    
   X27.0000      Y15.4446      R1.5100    
   X26.6114      Y15.4957      R1.5100    
   X26.2493      Y15.6457      R1.5100    
   X25.9384      Y15.8843      R1.5100    
   X25.6998      Y16.1952      R1.5100    
(Pass: 33)
G1   Z-3.300    
G17 G2   X25.5498      Y16.5573      R1.5100    
   X25.4986      Y16.9459      R1.5100    
   X25.5498      Y17.3345      R1.5100    
   X25.6998      Y17.6966      R1.5100    
   X25.9384      Y18.0076      R1.5100    
   X26.2493      Y18.2461      R1.5100    
   X26.6114      Y18.3961      R1.5100    
   X27.0000      Y18.4473      R1.5100    
   X27.3886      Y18.3961      R1.5100    
   X27.7507      Y18.2461      R1.5100    
   X28.0616      Y18.0076      R1.5100    
   X28.3002      Y17.6966      R1.5100    
   X28.4502      Y17.3345      R1.5100    
   X28.5014      Y16.9459      R1.5100    
   X28.4502      Y16.5573      R1.5100    
   X28.3002      Y16.1952      R1.5100    
   X28.0616      Y15.8843      R1.5100    
   X27.7507      Y15.6457      R1.5100    
   X27.3886      Y15.4957      R1.5100    
   X27.0000      Y15.4446      R1.5100    
   X26.6114      Y15.4957      R1.5100    
   X26.2493      Y15.6457      R1.5100    
   X25.9384      Y15.8843      R1.5100    
   X25.6998      Y16.1952      R1.5100    
(Pass: 34)
G1   Z-3.400    
G17 G2   X25.5498      Y16.5573      R1.5100    
   X25.4986      Y16.9459      R1.5100    
   X25.5498      Y17.3345      R1.5100    
   X25.6998      Y17.6966      R1.5100    
   X25.9384      Y18.0076      R1.5100    
   X26.2493      Y18.2461      R1.5100    
   X26.6114      Y18.3961      R1.5100    
   X27.0000      Y18.4473      R1.5100    
   X27.3886      Y18.3961      R1.5100    
   X27.7507      Y18.2461      R1.5100    
   X28.0616      Y18.0076      R1.5100    
   X28.3002      Y17.6966      R1.5100    
   X28.4502      Y17.3345      R1.5100    
   X28.5014      Y16.9459      R1.5100    
   X28.4502      Y16.5573      R1.5100    
   X28.3002      Y16.1952      R1.5100    
   X28.0616      Y15.8843      R1.5100    
   X27.7507      Y15.6457      R1.5100    
   X27.3886      Y15.4957      R1.5100    
   X27.0000      Y15.4446      R1.5100    
   X26.6114      Y15.4957      R1.5100    
   X26.2493      Y15.6457      R1.5100    
   X25.9384      Y15.8843      R1.5100    
   X25.6998      Y16.1952      R1.5100    
(Pass: 35)
G1   Z-3.500    
G17 G2   X25.5498      Y16.5573      R1.5100    
   X25.4986      Y16.9459      R1.5100    
   X25.5498      Y17.3345      R1.5100    
   X25.6998      Y17.6966      R1.5100    
   X25.9384      Y18.0076      R1.5100    
   X26.2493      Y18.2461      R1.5100    
   X26.6114      Y18.3961      R1.5100    
   X27.0000      Y18.4473      R1.5100    
   X27.3886      Y18.3961      R1.5100    
   X27.7507      Y18.2461      R1.5100    
   X28.0616      Y18.0076      R1.5100    
   X28.3002      Y17.6966      R1.5100    
   X28.4502      Y17.3345      R1.5100    
   X28.5014      Y16.9459      R1.5100    
   X28.4502      Y16.5573      R1.5100    
   X28.3002      Y16.1952      R1.5100    
   X28.0616      Y15.8843      R1.5100    
   X27.7507      Y15.6457      R1.5100    
   X27.3886      Y15.4957      R1.5100    
   X27.0000      Y15.4446      R1.5100    
   X26.6114      Y15.4957      R1.5100    
   X26.2493      Y15.6457      R1.5100    
   X25.9384      Y15.8843      R1.5100    
   X25.6998      Y16.1952      R1.5100    
G0   Z5.000     
(Pass: 1)
   X27.000       Y25.435    
G1   Z-0.100     F400 
G17 G2   X26.6114      Y25.4857      R1.5100    
   X26.2493      Y25.6357      R1.5100    
   X25.9384      Y25.8743      R1.5100    
   X25.6998      Y26.1852      R1.5100    
   X25.5498      Y26.5473      R1.5100    
   X25.4986      Y26.9359      R1.5100    
   X25.5498      Y27.3245      R1.5100    
   X25.6998      Y27.6866      R1.5100    
   X25.9384      Y27.9976      R1.5100    
   X26.2493      Y28.2361      R1.5100    
   X26.6114      Y28.3861      R1.5100    
   X27.0000      Y28.4373      R1.5100    
   X27.3886      Y28.3861      R1.5100    
   X27.7507      Y28.2361      R1.5100    
   X28.0616      Y27.9976      R1.5100    
   X28.3002      Y27.6866      R1.5100    
   X28.4502      Y27.3245      R1.5100    
   X28.5014      Y26.9359      R1.5100    
   X28.4502      Y26.5473      R1.5100    
   X28.3002      Y26.1852      R1.5100    
   X28.0616      Y25.8743      R1.5100    
   X27.7507      Y25.6357      R1.5100    
   X27.3886      Y25.4857      R1.5100    
   X27.0000      Y25.4346      R1.5100    
(Pass: 2)
G1   Z-0.200    
G17 G2   X26.6114      Y25.4857      R1.5100    
   X26.2493      Y25.6357      R1.5100    
   X25.9384      Y25.8743      R1.5100    
   X25.6998      Y26.1852      R1.5100    
   X25.5498      Y26.5473      R1.5100    
   X25.4986      Y26.9359      R1.5100    
   X25.5498      Y27.3245      R1.5100    
   X25.6998      Y27.6866      R1.5100    
   X25.9384      Y27.9976      R1.5100    
   X26.2493      Y28.2361      R1.5100    
   X26.6114      Y28.3861      R1.5100    
   X27.0000      Y28.4373      R1.5100    
   X27.3886      Y28.3861      R1.5100    
   X27.7507      Y28.2361      R1.5100    
   X28.0616      Y27.9976      R1.5100    
   X28.3002      Y27.6866      R1.5100    
   X28.4502      Y27.3245      R1.5100    
   X28.5014      Y26.9359      R1.5100    
   X28.4502      Y26.5473      R1.5100    
   X28.3002      Y26.1852      R1.5100    
   X28.0616      Y25.8743      R1.5100    
   X27.7507      Y25.6357      R1.5100    
   X27.3886      Y25.4857      R1.5100    
   X27.0000      Y25.4346      R1.5100    
(Pass: 3)
G1   Z-0.300    
G17 G2   X26.6114      Y25.4857      R1.5100    
   X26.2493      Y25.6357      R1.5100    
   X25.9384      Y25.8743      R1.5100    
   X25.6998      Y26.1852      R1.5100    
   X25.5498      Y26.5473      R1.5100    
   X25.4986      Y26.9359      R1.5100    
   X25.5498      Y27.3245      R1.5100    
   X25.6998      Y27.6866      R1.5100    
   X25.9384      Y27.9976      R1.5100    
   X26.2493      Y28.2361      R1.5100    
   X26.6114      Y28.3861      R1.5100    
   X27.0000      Y28.4373      R1.5100    
   X27.3886      Y28.3861      R1.5100    
   X27.7507      Y28.2361      R1.5100    
   X28.0616      Y27.9976      R1.5100    
   X28.3002      Y27.6866      R1.5100    
   X28.4502      Y27.3245      R1.5100    
   X28.5014      Y26.9359      R1.5100    
   X28.4502      Y26.5473      R1.5100    
   X28.3002      Y26.1852      R1.5100    
   X28.0616      Y25.8743      R1.5100    
   X27.7507      Y25.6357      R1.5100    
   X27.3886      Y25.4857      R1.5100    
   X27.0000      Y25.4346      R1.5100    
(Pass: 4)
G1   Z-0.400    
G17 G2   X26.6114      Y25.4857      R1.5100    
   X26.2493      Y25.6357      R1.5100    
   X25.9384      Y25.8743      R1.5100    
   X25.6998      Y26.1852      R1.5100    
   X25.5498      Y26.5473      R1.5100    
   X25.4986      Y26.9359      R1.5100    
   X25.5498      Y27.3245      R1.5100    
   X25.6998      Y27.6866      R1.5100    
   X25.9384      Y27.9976      R1.5100    
   X26.2493      Y28.2361      R1.5100    
   X26.6114      Y28.3861      R1.5100    
   X27.0000      Y28.4373      R1.5100    
   X27.3886      Y28.3861      R1.5100    
   X27.7507      Y28.2361      R1.5100    
   X28.0616      Y27.9976      R1.5100    
   X28.3002      Y27.6866      R1.5100    
   X28.4502      Y27.3245      R1.5100    
   X28.5014      Y26.9359      R1.5100    
   X28.4502      Y26.5473      R1.5100    
   X28.3002      Y26.1852      R1.5100    
   X28.0616      Y25.8743      R1.5100    
   X27.7507      Y25.6357      R1.5100    
   X27.3886      Y25.4857      R1.5100    
   X27.0000      Y25.4346      R1.5100    
(Pass: 5)
G1   Z-0.500    
G17 G2   X26.6114      Y25.4857      R1.5100    
   X26.2493      Y25.6357      R1.5100    
   X25.9384      Y25.8743      R1.5100    
   X25.6998      Y26.1852      R1.5100    
   X25.5498      Y26.5473      R1.5100    
   X25.4986      Y26.9359      R1.5100    
   X25.5498      Y27.3245      R1.5100    
   X25.6998      Y27.6866      R1.5100    
   X25.9384      Y27.9976      R1.5100    
   X26.2493      Y28.2361      R1.5100    
   X26.6114      Y28.3861      R1.5100    
   X27.0000      Y28.4373      R1.5100    
   X27.3886      Y28.3861      R1.5100    
   X27.7507      Y28.2361      R1.5100    
   X28.0616      Y27.9976      R1.5100    
   X28.3002      Y27.6866      R1.5100    
   X28.4502      Y27.3245      R1.5100    
   X28.5014      Y26.9359      R1.5100    
   X28.4502      Y26.5473      R1.5100    
   X28.3002      Y26.1852      R1.5100    
   X28.0616      Y25.8743      R1.5100    
   X27.7507      Y25.6357      R1.5100    
   X27.3886      Y25.4857      R1.5100    
   X27.0000      Y25.4346      R1.5100    
(Pass: 6)
G1   Z-0.600    
G17 G2   X26.6114      Y25.4857      R1.5100    
   X26.2493      Y25.6357      R1.5100    
   X25.9384      Y25.8743      R1.5100    
   X25.6998      Y26.1852      R1.5100    
   X25.5498      Y26.5473      R1.5100    
   X25.4986      Y26.9359      R1.5100    
   X25.5498      Y27.3245      R1.5100    
   X25.6998      Y27.6866      R1.5100    
   X25.9384      Y27.9976      R1.5100    
   X26.2493      Y28.2361      R1.5100    
   X26.6114      Y28.3861      R1.5100    
   X27.0000      Y28.4373      R1.5100    
   X27.3886      Y28.3861      R1.5100    
   X27.7507      Y28.2361      R1.5100    
   X28.0616      Y27.9976      R1.5100    
   X28.3002      Y27.6866      R1.5100    
   X28.4502      Y27.3245      R1.5100    
   X28.5014      Y26.9359      R1.5100    
   X28.4502      Y26.5473      R1.5100    
   X28.3002      Y26.1852      R1.5100    
   X28.0616      Y25.8743      R1.5100    
   X27.7507      Y25.6357      R1.5100    
   X27.3886      Y25.4857      R1.5100    
   X27.0000      Y25.4346      R1.5100    
(Pass: 7)
G1   Z-0.700    
G17 G2   X26.6114      Y25.4857      R1.5100    
   X26.2493      Y25.6357      R1.5100    
   X25.9384      Y25.8743      R1.5100    
   X25.6998      Y26.1852      R1.5100    
   X25.5498      Y26.5473      R1.5100    
   X25.4986      Y26.9359      R1.5100    
   X25.5498      Y27.3245      R1.5100    
   X25.6998      Y27.6866      R1.5100    
   X25.9384      Y27.9976      R1.5100    
   X26.2493      Y28.2361      R1.5100    
   X26.6114      Y28.3861      R1.5100    
   X27.0000      Y28.4373      R1.5100    
   X27.3886      Y28.3861      R1.5100    
   X27.7507      Y28.2361      R1.5100    
   X28.0616      Y27.9976      R1.5100    
   X28.3002      Y27.6866      R1.5100    
   X28.4502      Y27.3245      R1.5100    
   X28.5014      Y26.9359      R1.5100    
   X28.4502      Y26.5473      R1.5100    
   X28.3002      Y26.1852      R1.5100    
   X28.0616      Y25.8743      R1.5100    
   X27.7507      Y25.6357      R1.5100    
   X27.3886      Y25.4857      R1.5100    
   X27.0000      Y25.4346      R1.5100    
(Pass: 8)
G1   Z-0.800    
G17 G2   X26.6114      Y25.4857      R1.5100    
   X26.2493      Y25.6357      R1.5100    
   X25.9384      Y25.8743      R1.5100    
   X25.6998      Y26.1852      R1.5100    
   X25.5498      Y26.5473      R1.5100    
   X25.4986      Y26.9359      R1.5100    
   X25.5498      Y27.3245      R1.5100    
   X25.6998      Y27.6866      R1.5100    
   X25.9384      Y27.9976      R1.5100    
   X26.2493      Y28.2361      R1.5100    
   X26.6114      Y28.3861      R1.5100    
   X27.0000      Y28.4373      R1.5100    
   X27.3886      Y28.3861      R1.5100    
   X27.7507      Y28.2361      R1.5100    
   X28.0616      Y27.9976      R1.5100    
   X28.3002      Y27.6866      R1.5100    
   X28.4502      Y27.3245      R1.5100    
   X28.5014      Y26.9359      R1.5100    
   X28.4502      Y26.5473      R1.5100    
   X28.3002      Y26.1852      R1.5100    
   X28.0616      Y25.8743      R1.5100    
   X27.7507      Y25.6357      R1.5100    
   X27.3886      Y25.4857      R1.5100    
   X27.0000      Y25.4346      R1.5100    
(Pass: 9)
G1   Z-0.900    
G17 G2   X26.6114      Y25.4857      R1.5100    
   X26.2493      Y25.6357      R1.5100    
   X25.9384      Y25.8743      R1.5100    
   X25.6998      Y26.1852      R1.5100    
   X25.5498      Y26.5473      R1.5100    
   X25.4986      Y26.9359      R1.5100    
   X25.5498      Y27.3245      R1.5100    
   X25.6998      Y27.6866      R1.5100    
   X25.9384      Y27.9976      R1.5100    
   X26.2493      Y28.2361      R1.5100    
   X26.6114      Y28.3861      R1.5100    
   X27.0000      Y28.4373      R1.5100    
   X27.3886      Y28.3861      R1.5100    
   X27.7507      Y28.2361      R1.5100    
   X28.0616      Y27.9976      R1.5100    
   X28.3002      Y27.6866      R1.5100    
   X28.4502      Y27.3245      R1.5100    
   X28.5014      Y26.9359      R1.5100    
   X28.4502      Y26.5473      R1.5100    
   X28.3002      Y26.1852      R1.5100    
   X28.0616      Y25.8743      R1.5100    
   X27.7507      Y25.6357      R1.5100    
   X27.3886      Y25.4857      R1.5100    
   X27.0000      Y25.4346      R1.5100    
(Pass: 10)
G1   Z-1.000    
G17 G2   X26.6114      Y25.4857      R1.5100    
   X26.2493      Y25.6357      R1.5100    
   X25.9384      Y25.8743      R1.5100    
   X25.6998      Y26.1852      R1.5100    
   X25.5498      Y26.5473      R1.5100    
   X25.4986      Y26.9359      R1.5100    
   X25.5498      Y27.3245      R1.5100    
   X25.6998      Y27.6866      R1.5100    
   X25.9384      Y27.9976      R1.5100    
   X26.2493      Y28.2361      R1.5100    
   X26.6114      Y28.3861      R1.5100    
   X27.0000      Y28.4373      R1.5100    
   X27.3886      Y28.3861      R1.5100    
   X27.7507      Y28.2361      R1.5100    
   X28.0616      Y27.9976      R1.5100    
   X28.3002      Y27.6866      R1.5100    
   X28.4502      Y27.3245      R1.5100    
   X28.5014      Y26.9359      R1.5100    
   X28.4502      Y26.5473      R1.5100    
   X28.3002      Y26.1852      R1.5100    
   X28.0616      Y25.8743      R1.5100    
   X27.7507      Y25.6357      R1.5100    
   X27.3886      Y25.4857      R1.5100    
   X27.0000      Y25.4346      R1.5100    
(Pass: 11)
G1   Z-1.100    
G17 G2   X26.6114      Y25.4857      R1.5100    
   X26.2493      Y25.6357      R1.5100    
   X25.9384      Y25.8743      R1.5100    
   X25.6998      Y26.1852      R1.5100    
   X25.5498      Y26.5473      R1.5100    
   X25.4986      Y26.9359      R1.5100    
   X25.5498      Y27.3245      R1.5100    
   X25.6998      Y27.6866      R1.5100    
   X25.9384      Y27.9976      R1.5100    
   X26.2493      Y28.2361      R1.5100    
   X26.6114      Y28.3861      R1.5100    
   X27.0000      Y28.4373      R1.5100    
   X27.3886      Y28.3861      R1.5100    
   X27.7507      Y28.2361      R1.5100    
   X28.0616      Y27.9976      R1.5100    
   X28.3002      Y27.6866      R1.5100    
   X28.4502      Y27.3245      R1.5100    
   X28.5014      Y26.9359      R1.5100    
   X28.4502      Y26.5473      R1.5100    
   X28.3002      Y26.1852      R1.5100    
   X28.0616      Y25.8743      R1.5100    
   X27.7507      Y25.6357      R1.5100    
   X27.3886      Y25.4857      R1.5100    
   X27.0000      Y25.4346      R1.5100    
(Pass: 12)
G1   Z-1.200    
G17 G2   X26.6114      Y25.4857      R1.5100    
   X26.2493      Y25.6357      R1.5100    
   X25.9384      Y25.8743      R1.5100    
   X25.6998      Y26.1852      R1.5100    
   X25.5498      Y26.5473      R1.5100    
   X25.4986      Y26.9359      R1.5100    
   X25.5498      Y27.3245      R1.5100    
   X25.6998      Y27.6866      R1.5100    
   X25.9384      Y27.9976      R1.5100    
   X26.2493      Y28.2361      R1.5100    
   X26.6114      Y28.3861      R1.5100    
   X27.0000      Y28.4373      R1.5100    
   X27.3886      Y28.3861      R1.5100    
   X27.7507      Y28.2361      R1.5100    
   X28.0616      Y27.9976      R1.5100    
   X28.3002      Y27.6866      R1.5100    
   X28.4502      Y27.3245      R1.5100    
   X28.5014      Y26.9359      R1.5100    
   X28.4502      Y26.5473      R1.5100    
   X28.3002      Y26.1852      R1.5100    
   X28.0616      Y25.8743      R1.5100    
   X27.7507      Y25.6357      R1.5100    
   X27.3886      Y25.4857      R1.5100    
   X27.0000      Y25.4346      R1.5100    
(Pass: 13)
G1   Z-1.300    
G17 G2   X26.6114      Y25.4857      R1.5100    
   X26.2493      Y25.6357      R1.5100    
   X25.9384      Y25.8743      R1.5100    
   X25.6998      Y26.1852      R1.5100    
   X25.5498      Y26.5473      R1.5100    
   X25.4986      Y26.9359      R1.5100    
   X25.5498      Y27.3245      R1.5100    
   X25.6998      Y27.6866      R1.5100    
   X25.9384      Y27.9976      R1.5100    
   X26.2493      Y28.2361      R1.5100    
   X26.6114      Y28.3861      R1.5100    
   X27.0000      Y28.4373      R1.5100    
   X27.3886      Y28.3861      R1.5100    
   X27.7507      Y28.2361      R1.5100    
   X28.0616      Y27.9976      R1.5100    
   X28.3002      Y27.6866      R1.5100    
   X28.4502      Y27.3245      R1.5100    
   X28.5014      Y26.9359      R1.5100    
   X28.4502      Y26.5473      R1.5100    
   X28.3002      Y26.1852      R1.5100    
   X28.0616      Y25.8743      R1.5100    
   X27.7507      Y25.6357      R1.5100    
   X27.3886      Y25.4857      R1.5100    
   X27.0000      Y25.4346      R1.5100    
(Pass: 14)
G1   Z-1.400    
G17 G2   X26.6114      Y25.4857      R1.5100    
   X26.2493      Y25.6357      R1.5100    
   X25.9384      Y25.8743      R1.5100    
   X25.6998      Y26.1852      R1.5100    
   X25.5498      Y26.5473      R1.5100    
   X25.4986      Y26.9359      R1.5100    
   X25.5498      Y27.3245      R1.5100    
   X25.6998      Y27.6866      R1.5100    
   X25.9384      Y27.9976      R1.5100    
   X26.2493      Y28.2361      R1.5100    
   X26.6114      Y28.3861      R1.5100    
   X27.0000      Y28.4373      R1.5100    
   X27.3886      Y28.3861      R1.5100    
   X27.7507      Y28.2361      R1.5100    
   X28.0616      Y27.9976      R1.5100    
   X28.3002      Y27.6866      R1.5100    
   X28.4502      Y27.3245      R1.5100    
   X28.5014      Y26.9359      R1.5100    
   X28.4502      Y26.5473      R1.5100    
   X28.3002      Y26.1852      R1.5100    
   X28.0616      Y25.8743      R1.5100    
   X27.7507      Y25.6357      R1.5100    
   X27.3886      Y25.4857      R1.5100    
   X27.0000      Y25.4346      R1.5100    
(Pass: 15)
G1   Z-1.500    
G17 G2   X26.6114      Y25.4857      R1.5100    
   X26.2493      Y25.6357      R1.5100    
   X25.9384      Y25.8743      R1.5100    
   X25.6998      Y26.1852      R1.5100    
   X25.5498      Y26.5473      R1.5100    
   X25.4986      Y26.9359      R1.5100    
   X25.5498      Y27.3245      R1.5100    
   X25.6998      Y27.6866      R1.5100    
   X25.9384      Y27.9976      R1.5100    
   X26.2493      Y28.2361      R1.5100    
   X26.6114      Y28.3861      R1.5100    
   X27.0000      Y28.4373      R1.5100    
   X27.3886      Y28.3861      R1.5100    
   X27.7507      Y28.2361      R1.5100    
   X28.0616      Y27.9976      R1.5100    
   X28.3002      Y27.6866      R1.5100    
   X28.4502      Y27.3245      R1.5100    
   X28.5014      Y26.9359      R1.5100    
   X28.4502      Y26.5473      R1.5100    
   X28.3002      Y26.1852      R1.5100    
   X28.0616      Y25.8743      R1.5100    
   X27.7507      Y25.6357      R1.5100    
   X27.3886      Y25.4857      R1.5100    
   X27.0000      Y25.4346      R1.5100    
(Pass: 16)
G1   Z-1.600    
G17 G2   X26.6114      Y25.4857      R1.5100    
   X26.2493      Y25.6357      R1.5100    
   X25.9384      Y25.8743      R1.5100    
   X25.6998      Y26.1852      R1.5100    
   X25.5498      Y26.5473      R1.5100    
   X25.4986      Y26.9359      R1.5100    
   X25.5498      Y27.3245      R1.5100    
   X25.6998      Y27.6866      R1.5100    
   X25.9384      Y27.9976      R1.5100    
   X26.2493      Y28.2361      R1.5100    
   X26.6114      Y28.3861      R1.5100    
   X27.0000      Y28.4373      R1.5100    
   X27.3886      Y28.3861      R1.5100    
   X27.7507      Y28.2361      R1.5100    
   X28.0616      Y27.9976      R1.5100    
   X28.3002      Y27.6866      R1.5100    
   X28.4502      Y27.3245      R1.5100    
   X28.5014      Y26.9359      R1.5100    
   X28.4502      Y26.5473      R1.5100    
   X28.3002      Y26.1852      R1.5100    
   X28.0616      Y25.8743      R1.5100    
   X27.7507      Y25.6357      R1.5100    
   X27.3886      Y25.4857      R1.5100    
   X27.0000      Y25.4346      R1.5100    
(Pass: 17)
G1   Z-1.700    
G17 G2   X26.6114      Y25.4857      R1.5100    
   X26.2493      Y25.6357      R1.5100    
   X25.9384      Y25.8743      R1.5100    
   X25.6998      Y26.1852      R1.5100    
   X25.5498      Y26.5473      R1.5100    
   X25.4986      Y26.9359      R1.5100    
   X25.5498      Y27.3245      R1.5100    
   X25.6998      Y27.6866      R1.5100    
   X25.9384      Y27.9976      R1.5100    
   X26.2493      Y28.2361      R1.5100    
   X26.6114      Y28.3861      R1.5100    
   X27.0000      Y28.4373      R1.5100    
   X27.3886      Y28.3861      R1.5100    
   X27.7507      Y28.2361      R1.5100    
   X28.0616      Y27.9976      R1.5100    
   X28.3002      Y27.6866      R1.5100    
   X28.4502      Y27.3245      R1.5100    
   X28.5014      Y26.9359      R1.5100    
   X28.4502      Y26.5473      R1.5100    
   X28.3002      Y26.1852      R1.5100    
   X28.0616      Y25.8743      R1.5100    
   X27.7507      Y25.6357      R1.5100    
   X27.3886      Y25.4857      R1.5100    
   X27.0000      Y25.4346      R1.5100    
(Pass: 18)
G1   Z-1.800    
G17 G2   X26.6114      Y25.4857      R1.5100    
   X26.2493      Y25.6357      R1.5100    
   X25.9384      Y25.8743      R1.5100    
   X25.6998      Y26.1852      R1.5100    
   X25.5498      Y26.5473      R1.5100    
   X25.4986      Y26.9359      R1.5100    
   X25.5498      Y27.3245      R1.5100    
   X25.6998      Y27.6866      R1.5100    
   X25.9384      Y27.9976      R1.5100    
   X26.2493      Y28.2361      R1.5100    
   X26.6114      Y28.3861      R1.5100    
   X27.0000      Y28.4373      R1.5100    
   X27.3886      Y28.3861      R1.5100    
   X27.7507      Y28.2361      R1.5100    
   X28.0616      Y27.9976      R1.5100    
   X28.3002      Y27.6866      R1.5100    
   X28.4502      Y27.3245      R1.5100    
   X28.5014      Y26.9359      R1.5100    
   X28.4502      Y26.5473      R1.5100    
   X28.3002      Y26.1852      R1.5100    
   X28.0616      Y25.8743      R1.5100    
   X27.7507      Y25.6357      R1.5100    
   X27.3886      Y25.4857      R1.5100    
   X27.0000      Y25.4346      R1.5100    
(Pass: 19)
G1   Z-1.900    
G17 G2   X26.6114      Y25.4857      R1.5100    
   X26.2493      Y25.6357      R1.5100    
   X25.9384      Y25.8743      R1.5100    
   X25.6998      Y26.1852      R1.5100    
   X25.5498      Y26.5473      R1.5100    
   X25.4986      Y26.9359      R1.5100    
   X25.5498      Y27.3245      R1.5100    
   X25.6998      Y27.6866      R1.5100    
   X25.9384      Y27.9976      R1.5100    
   X26.2493      Y28.2361      R1.5100    
   X26.6114      Y28.3861      R1.5100    
   X27.0000      Y28.4373      R1.5100    
   X27.3886      Y28.3861      R1.5100    
   X27.7507      Y28.2361      R1.5100    
   X28.0616      Y27.9976      R1.5100    
   X28.3002      Y27.6866      R1.5100    
   X28.4502      Y27.3245      R1.5100    
   X28.5014      Y26.9359      R1.5100    
   X28.4502      Y26.5473      R1.5100    
   X28.3002      Y26.1852      R1.5100    
   X28.0616      Y25.8743      R1.5100    
   X27.7507      Y25.6357      R1.5100    
   X27.3886      Y25.4857      R1.5100    
   X27.0000      Y25.4346      R1.5100    
(Pass: 20)
G1   Z-2.000    
G17 G2   X26.6114      Y25.4857      R1.5100    
   X26.2493      Y25.6357      R1.5100    
   X25.9384      Y25.8743      R1.5100    
   X25.6998      Y26.1852      R1.5100    
   X25.5498      Y26.5473      R1.5100    
   X25.4986      Y26.9359      R1.5100    
   X25.5498      Y27.3245      R1.5100    
   X25.6998      Y27.6866      R1.5100    
   X25.9384      Y27.9976      R1.5100    
   X26.2493      Y28.2361      R1.5100    
   X26.6114      Y28.3861      R1.5100    
   X27.0000      Y28.4373      R1.5100    
   X27.3886      Y28.3861      R1.5100    
   X27.7507      Y28.2361      R1.5100    
   X28.0616      Y27.9976      R1.5100    
   X28.3002      Y27.6866      R1.5100    
   X28.4502      Y27.3245      R1.5100    
   X28.5014      Y26.9359      R1.5100    
   X28.4502      Y26.5473      R1.5100    
   X28.3002      Y26.1852      R1.5100    
   X28.0616      Y25.8743      R1.5100    
   X27.7507      Y25.6357      R1.5100    
   X27.3886      Y25.4857      R1.5100    
   X27.0000      Y25.4346      R1.5100    
(Pass: 21)
G1   Z-2.100    
G17 G2   X26.6114      Y25.4857      R1.5100    
   X26.2493      Y25.6357      R1.5100    
   X25.9384      Y25.8743      R1.5100    
   X25.6998      Y26.1852      R1.5100    
   X25.5498      Y26.5473      R1.5100    
   X25.4986      Y26.9359      R1.5100    
   X25.5498      Y27.3245      R1.5100    
   X25.6998      Y27.6866      R1.5100    
   X25.9384      Y27.9976      R1.5100    
   X26.2493      Y28.2361      R1.5100    
   X26.6114      Y28.3861      R1.5100    
   X27.0000      Y28.4373      R1.5100    
   X27.3886      Y28.3861      R1.5100    
   X27.7507      Y28.2361      R1.5100    
   X28.0616      Y27.9976      R1.5100    
   X28.3002      Y27.6866      R1.5100    
   X28.4502      Y27.3245      R1.5100    
   X28.5014      Y26.9359      R1.5100    
   X28.4502      Y26.5473      R1.5100    
   X28.3002      Y26.1852      R1.5100    
   X28.0616      Y25.8743      R1.5100    
   X27.7507      Y25.6357      R1.5100    
   X27.3886      Y25.4857      R1.5100    
   X27.0000      Y25.4346      R1.5100    
(Pass: 22)
G1   Z-2.200    
G17 G2   X26.6114      Y25.4857      R1.5100    
   X26.2493      Y25.6357      R1.5100    
   X25.9384      Y25.8743      R1.5100    
   X25.6998      Y26.1852      R1.5100    
   X25.5498      Y26.5473      R1.5100    
   X25.4986      Y26.9359      R1.5100    
   X25.5498      Y27.3245      R1.5100    
   X25.6998      Y27.6866      R1.5100    
   X25.9384      Y27.9976      R1.5100    
   X26.2493      Y28.2361      R1.5100    
   X26.6114      Y28.3861      R1.5100    
   X27.0000      Y28.4373      R1.5100    
   X27.3886      Y28.3861      R1.5100    
   X27.7507      Y28.2361      R1.5100    
   X28.0616      Y27.9976      R1.5100    
   X28.3002      Y27.6866      R1.5100    
   X28.4502      Y27.3245      R1.5100    
   X28.5014      Y26.9359      R1.5100    
   X28.4502      Y26.5473      R1.5100    
   X28.3002      Y26.1852      R1.5100    
   X28.0616      Y25.8743      R1.5100    
   X27.7507      Y25.6357      R1.5100    
   X27.3886      Y25.4857      R1.5100    
   X27.0000      Y25.4346      R1.5100    
(Pass: 23)
G1   Z-2.300    
G17 G2   X26.6114      Y25.4857      R1.5100    
   X26.2493      Y25.6357      R1.5100    
   X25.9384      Y25.8743      R1.5100    
   X25.6998      Y26.1852      R1.5100    
   X25.5498      Y26.5473      R1.5100    
   X25.4986      Y26.9359      R1.5100    
   X25.5498      Y27.3245      R1.5100    
   X25.6998      Y27.6866      R1.5100    
   X25.9384      Y27.9976      R1.5100    
   X26.2493      Y28.2361      R1.5100    
   X26.6114      Y28.3861      R1.5100    
   X27.0000      Y28.4373      R1.5100    
   X27.3886      Y28.3861      R1.5100    
   X27.7507      Y28.2361      R1.5100    
   X28.0616      Y27.9976      R1.5100    
   X28.3002      Y27.6866      R1.5100    
   X28.4502      Y27.3245      R1.5100    
   X28.5014      Y26.9359      R1.5100    
   X28.4502      Y26.5473      R1.5100    
   X28.3002      Y26.1852      R1.5100    
   X28.0616      Y25.8743      R1.5100    
   X27.7507      Y25.6357      R1.5100    
   X27.3886      Y25.4857      R1.5100    
   X27.0000      Y25.4346      R1.5100    
(Pass: 24)
G1   Z-2.400    
G17 G2   X26.6114      Y25.4857      R1.5100    
   X26.2493      Y25.6357      R1.5100    
   X25.9384      Y25.8743      R1.5100    
   X25.6998      Y26.1852      R1.5100    
   X25.5498      Y26.5473      R1.5100    
   X25.4986      Y26.9359      R1.5100    
   X25.5498      Y27.3245      R1.5100    
   X25.6998      Y27.6866      R1.5100    
