%
(Generated by SketchUcam {1.2})
(File: PowerPanel.skp)
(Bit diameter: 3.0mm)
(Feed rate: 400.0mm/min)
(Material Thickness: 6.5mm)
(Material length: 558.8mm X width: 1066.8mm)
(Overhead Gantry: true)
(Retract feed rate NOT limited to plunge feed rate)
(Multipass enabled, Depth = 0.5mm)
(Optimization is ON)
(www.PhlatBoyz.com)
G90 G21 G49 
M3 S11000
G0   Z5.000     
(Pass: 1)
   X17.327       Y38.480    
G1   Z-0.500     F400 
G17 G2   X16.9566      Y38.7062      R1.6750    
   X16.6573      Y39.0204      R1.6750    
   X16.4495      Y39.4012      R1.6750    
   X16.3474      Y39.8229      R1.6750    
   X16.3579      Y40.2567      R1.6750    
   X16.4803      Y40.6730      R1.6750    
   X16.7062      Y41.0434      R1.6750    
   X17.0204      Y41.3427      R1.6750    
   X17.4012      Y41.5505      R1.6750    
   X17.8229      Y41.6526      R1.6750    
   X18.2567      Y41.6421      R1.6750    
   X18.6730      Y41.5197      R1.6750    
   X19.0434      Y41.2938      R1.6750    
   X19.3427      Y40.9796      R1.6750    
   X19.5505      Y40.5988      R1.6750    
   X19.6526      Y40.1771      R1.6750    
   X19.6421      Y39.7433      R1.6750    
   X19.5197      Y39.3270      R1.6750    
   X19.2938      Y38.9566      R1.6750    
   X18.9796      Y38.6573      R1.6750    
   X18.5988      Y38.4495      R1.6750    
   X18.1771      Y38.3474      R1.6750    
   X17.7433      Y38.3579      R1.6750    
   X17.3270      Y38.4803      R1.6750    
(Pass: 2)
G1   Z-1.000    
G17 G2   X16.9566      Y38.7062      R1.6750    
   X16.6573      Y39.0204      R1.6750    
   X16.4495      Y39.4012      R1.6750    
   X16.3474      Y39.8229      R1.6750    
   X16.3579      Y40.2567      R1.6750    
   X16.4803      Y40.6730      R1.6750    
   X16.7062      Y41.0434      R1.6750    
   X17.0204      Y41.3427      R1.6750    
   X17.4012      Y41.5505      R1.6750    
   X17.8229      Y41.6526      R1.6750    
   X18.2567      Y41.6421      R1.6750    
   X18.6730      Y41.5197      R1.6750    
   X19.0434      Y41.2938      R1.6750    
   X19.3427      Y40.9796      R1.6750    
   X19.5505      Y40.5988      R1.6750    
   X19.6526      Y40.1771      R1.6750    
   X19.6421      Y39.7433      R1.6750    
   X19.5197      Y39.3270      R1.6750    
   X19.2938      Y38.9566      R1.6750    
   X18.9796      Y38.6573      R1.6750    
   X18.5988      Y38.4495      R1.6750    
   X18.1771      Y38.3474      R1.6750    
   X17.7433      Y38.3579      R1.6750    
   X17.3270      Y38.4803      R1.6750    
(Pass: 3)
G1   Z-1.500    
G17 G2   X16.9566      Y38.7062      R1.6750    
   X16.6573      Y39.0204      R1.6750    
   X16.4495      Y39.4012      R1.6750    
   X16.3474      Y39.8229      R1.6750    
   X16.3579      Y40.2567      R1.6750    
   X16.4803      Y40.6730      R1.6750    
   X16.7062      Y41.0434      R1.6750    
   X17.0204      Y41.3427      R1.6750    
   X17.4012      Y41.5505      R1.6750    
   X17.8229      Y41.6526      R1.6750    
   X18.2567      Y41.6421      R1.6750    
   X18.6730      Y41.5197      R1.6750    
   X19.0434      Y41.2938      R1.6750    
   X19.3427      Y40.9796      R1.6750    
   X19.5505      Y40.5988      R1.6750    
   X19.6526      Y40.1771      R1.6750    
   X19.6421      Y39.7433      R1.6750    
   X19.5197      Y39.3270      R1.6750    
   X19.2938      Y38.9566      R1.6750    
   X18.9796      Y38.6573      R1.6750    
   X18.5988      Y38.4495      R1.6750    
   X18.1771      Y38.3474      R1.6750    
   X17.7433      Y38.3579      R1.6750    
   X17.3270      Y38.4803      R1.6750    
(Pass: 4)
G1   Z-2.000    
G17 G2   X16.9566      Y38.7062      R1.6750    
   X16.6573      Y39.0204      R1.6750    
   X16.4495      Y39.4012      R1.6750    
   X16.3474      Y39.8229      R1.6750    
   X16.3579      Y40.2567      R1.6750    
   X16.4803      Y40.6730      R1.6750    
   X16.7062      Y41.0434      R1.6750    
   X17.0204      Y41.3427      R1.6750    
   X17.4012      Y41.5505      R1.6750    
   X17.8229      Y41.6526      R1.6750    
   X18.2567      Y41.6421      R1.6750    
   X18.6730      Y41.5197      R1.6750    
   X19.0434      Y41.2938      R1.6750    
   X19.3427      Y40.9796      R1.6750    
   X19.5505      Y40.5988      R1.6750    
   X19.6526      Y40.1771      R1.6750    
   X19.6421      Y39.7433      R1.6750    
   X19.5197      Y39.3270      R1.6750    
   X19.2938      Y38.9566      R1.6750    
   X18.9796      Y38.6573      R1.6750    
   X18.5988      Y38.4495      R1.6750    
   X18.1771      Y38.3474      R1.6750    
   X17.7433      Y38.3579      R1.6750    
   X17.3270      Y38.4803      R1.6750    
(Pass: 5)
G1   Z-2.500    
G17 G2   X16.9566      Y38.7062      R1.6750    
   X16.6573      Y39.0204      R1.6750    
   X16.4495      Y39.4012      R1.6750    
   X16.3474      Y39.8229      R1.6750    
   X16.3579      Y40.2567      R1.6750    
   X16.4803      Y40.6730      R1.6750    
   X16.7062      Y41.0434      R1.6750    
   X17.0204      Y41.3427      R1.6750    
   X17.4012      Y41.5505      R1.6750    
   X17.8229      Y41.6526      R1.6750    
   X18.2567      Y41.6421      R1.6750    
   X18.6730      Y41.5197      R1.6750    
   X19.0434      Y41.2938      R1.6750    
   X19.3427      Y40.9796      R1.6750    
   X19.5505      Y40.5988      R1.6750    
   X19.6526      Y40.1771      R1.6750    
   X19.6421      Y39.7433      R1.6750    
   X19.5197      Y39.3270      R1.6750    
   X19.2938      Y38.9566      R1.6750    
   X18.9796      Y38.6573      R1.6750    
   X18.5988      Y38.4495      R1.6750    
   X18.1771      Y38.3474      R1.6750    
   X17.7433      Y38.3579      R1.6750    
   X17.3270      Y38.4803      R1.6750    
(Pass: 6)
G1   Z-3.000    
G17 G2   X16.9566      Y38.7062      R1.6750    
   X16.6573      Y39.0204      R1.6750    
   X16.4495      Y39.4012      R1.6750    
   X16.3474      Y39.8229      R1.6750    
   X16.3579      Y40.2567      R1.6750    
   X16.4803      Y40.6730      R1.6750    
   X16.7062      Y41.0434      R1.6750    
   X17.0204      Y41.3427      R1.6750    
   X17.4012      Y41.5505      R1.6750    
   X17.8229      Y41.6526      R1.6750    
   X18.2567      Y41.6421      R1.6750    
   X18.6730      Y41.5197      R1.6750    
   X19.0434      Y41.2938      R1.6750    
   X19.3427      Y40.9796      R1.6750    
   X19.5505      Y40.5988      R1.6750    
   X19.6526      Y40.1771      R1.6750    
   X19.6421      Y39.7433      R1.6750    
   X19.5197      Y39.3270      R1.6750    
   X19.2938      Y38.9566      R1.6750    
   X18.9796      Y38.6573      R1.6750    
   X18.5988      Y38.4495      R1.6750    
   X18.1771      Y38.3474      R1.6750    
   X17.7433      Y38.3579      R1.6750    
   X17.3270      Y38.4803      R1.6750    
(Pass: 7)
G1   Z-3.500    
G17 G2   X16.9566      Y38.7062      R1.6750    
   X16.6573      Y39.0204      R1.6750    
   X16.4495      Y39.4012      R1.6750    
   X16.3474      Y39.8229      R1.6750    
   X16.3579      Y40.2567      R1.6750    
   X16.4803      Y40.6730      R1.6750    
   X16.7062      Y41.0434      R1.6750    
   X17.0204      Y41.3427      R1.6750    
   X17.4012      Y41.5505      R1.6750    
   X17.8229      Y41.6526      R1.6750    
   X18.2567      Y41.6421      R1.6750    
   X18.6730      Y41.5197      R1.6750    
   X19.0434      Y41.2938      R1.6750    
   X19.3427      Y40.9796      R1.6750    
   X19.5505      Y40.5988      R1.6750    
   X19.6526      Y40.1771      R1.6750    
   X19.6421      Y39.7433      R1.6750    
   X19.5197      Y39.3270      R1.6750    
   X19.2938      Y38.9566      R1.6750    
   X18.9796      Y38.6573      R1.6750    
   X18.5988      Y38.4495      R1.6750    
   X18.1771      Y38.3474      R1.6750    
   X17.7433      Y38.3579      R1.6750    
   X17.3270      Y38.4803      R1.6750    
(Pass: 8)
G1   Z-4.000    
G17 G2   X16.9566      Y38.7062      R1.6750    
   X16.6573      Y39.0204      R1.6750    
   X16.4495      Y39.4012      R1.6750    
   X16.3474      Y39.8229      R1.6750    
   X16.3579      Y40.2567      R1.6750    
   X16.4803      Y40.6730      R1.6750    
   X16.7062      Y41.0434      R1.6750    
   X17.0204      Y41.3427      R1.6750    
   X17.4012      Y41.5505      R1.6750    
   X17.8229      Y41.6526      R1.6750    
   X18.2567      Y41.6421      R1.6750    
   X18.6730      Y41.5197      R1.6750    
   X19.0434      Y41.2938      R1.6750    
   X19.3427      Y40.9796      R1.6750    
   X19.5505      Y40.5988      R1.6750    
   X19.6526      Y40.1771      R1.6750    
   X19.6421      Y39.7433      R1.6750    
   X19.5197      Y39.3270      R1.6750    
   X19.2938      Y38.9566      R1.6750    
   X18.9796      Y38.6573      R1.6750    
   X18.5988      Y38.4495      R1.6750    
   X18.1771      Y38.3474      R1.6750    
   X17.7433      Y38.3579      R1.6750    
   X17.3270      Y38.4803      R1.6750    
(Pass: 9)
G1   Z-4.500    
G17 G2   X16.9566      Y38.7062      R1.6750    
   X16.6573      Y39.0204      R1.6750    
   X16.4495      Y39.4012      R1.6750    
   X16.3474      Y39.8229      R1.6750    
   X16.3579      Y40.2567      R1.6750    
   X16.4803      Y40.6730      R1.6750    
   X16.7062      Y41.0434      R1.6750    
   X17.0204      Y41.3427      R1.6750    
   X17.4012      Y41.5505      R1.6750    
   X17.8229      Y41.6526      R1.6750    
   X18.2567      Y41.6421      R1.6750    
   X18.6730      Y41.5197      R1.6750    
   X19.0434      Y41.2938      R1.6750    
   X19.3427      Y40.9796      R1.6750    
   X19.5505      Y40.5988      R1.6750    
   X19.6526      Y40.1771      R1.6750    
   X19.6421      Y39.7433      R1.6750    
   X19.5197      Y39.3270      R1.6750    
   X19.2938      Y38.9566      R1.6750    
   X18.9796      Y38.6573      R1.6750    
   X18.5988      Y38.4495      R1.6750    
   X18.1771      Y38.3474      R1.6750    
   X17.7433      Y38.3579      R1.6750    
   X17.3270      Y38.4803      R1.6750    
(Pass: 10)
G1   Z-5.000    
G17 G2   X16.9566      Y38.7062      R1.6750    
   X16.6573      Y39.0204      R1.6750    
   X16.4495      Y39.4012      R1.6750    
   X16.3474      Y39.8229      R1.6750    
   X16.3579      Y40.2567      R1.6750    
   X16.4803      Y40.6730      R1.6750    
   X16.7062      Y41.0434      R1.6750    
   X17.0204      Y41.3427      R1.6750    
   X17.4012      Y41.5505      R1.6750    
   X17.8229      Y41.6526      R1.6750    
   X18.2567      Y41.6421      R1.6750    
   X18.6730      Y41.5197      R1.6750    
   X19.0434      Y41.2938      R1.6750    
   X19.3427      Y40.9796      R1.6750    
   X19.5505      Y40.5988      R1.6750    
   X19.6526      Y40.1771      R1.6750    
   X19.6421      Y39.7433      R1.6750    
   X19.5197      Y39.3270      R1.6750    
   X19.2938      Y38.9566      R1.6750    
   X18.9796      Y38.6573      R1.6750    
   X18.5988      Y38.4495      R1.6750    
   X18.1771      Y38.3474      R1.6750    
   X17.7433      Y38.3579      R1.6750    
   X17.3270      Y38.4803      R1.6750    
(Pass: 11)
G1   Z-5.500    
G17 G2   X16.9566      Y38.7062      R1.6750    
   X16.6573      Y39.0204      R1.6750    
   X16.4495      Y39.4012      R1.6750    
   X16.3474      Y39.8229      R1.6750    
   X16.3579      Y40.2567      R1.6750    
   X16.4803      Y40.6730      R1.6750    
   X16.7062      Y41.0434      R1.6750    
   X17.0204      Y41.3427      R1.6750    
   X17.4012      Y41.5505      R1.6750    
   X17.8229      Y41.6526      R1.6750    
   X18.2567      Y41.6421      R1.6750    
   X18.6730      Y41.5197      R1.6750    
   X19.0434      Y41.2938      R1.6750    
   X19.3427      Y40.9796      R1.6750    
   X19.5505      Y40.5988      R1.6750    
   X19.6526      Y40.1771      R1.6750    
   X19.6421      Y39.7433      R1.6750    
   X19.5197      Y39.3270      R1.6750    
   X19.2938      Y38.9566      R1.6750    
   X18.9796      Y38.6573      R1.6750    
   X18.5988      Y38.4495      R1.6750    
   X18.1771      Y38.3474      R1.6750    
   X17.7433      Y38.3579      R1.6750    
   X17.3270      Y38.4803      R1.6750    
(Pass: 12)
G1   Z-6.000    
G17 G2   X16.9566      Y38.7062      R1.6750    
   X16.6573      Y39.0204      R1.6750    
   X16.4495      Y39.4012      R1.6750    
   X16.3474      Y39.8229      R1.6750    
   X16.3579      Y40.2567      R1.6750    
   X16.4803      Y40.6730      R1.6750    
   X16.7062      Y41.0434      R1.6750    
   X17.0204      Y41.3427      R1.6750    
   X17.4012      Y41.5505      R1.6750    
   X17.8229      Y41.6526      R1.6750    
   X18.2567      Y41.6421      R1.6750    
   X18.6730      Y41.5197      R1.6750    
   X19.0434      Y41.2938      R1.6750    
   X19.3427      Y40.9796      R1.6750    
   X19.5505      Y40.5988      R1.6750    
   X19.6526      Y40.1771      R1.6750    
   X19.6421      Y39.7433      R1.6750    
   X19.5197      Y39.3270      R1.6750    
   X19.2938      Y38.9566      R1.6750    
   X18.9796      Y38.6573      R1.6750    
   X18.5988      Y38.4495      R1.6750    
   X18.1771      Y38.3474      R1.6750    
   X17.7433      Y38.3579      R1.6750    
   X17.3270      Y38.4803      R1.6750    
(Pass: 13)
G1   Z-6.500    
G17 G2   X16.9566      Y38.7062      R1.6750    
   X16.6573      Y39.0204      R1.6750    
   X16.4495      Y39.4012      R1.6750    
   X16.3474      Y39.8229      R1.6750    
   X16.3579      Y40.2567      R1.6750    
   X16.4803      Y40.6730      R1.6750    
   X16.7062      Y41.0434      R1.6750    
   X17.0204      Y41.3427      R1.6750    
   X17.4012      Y41.5505      R1.6750    
   X17.8229      Y41.6526      R1.6750    
   X18.2567      Y41.6421      R1.6750    
   X18.6730      Y41.5197      R1.6750    
   X19.0434      Y41.2938      R1.6750    
   X19.3427      Y40.9796      R1.6750    
   X19.5505      Y40.5988      R1.6750    
   X19.6526      Y40.1771      R1.6750    
   X19.6421      Y39.7433      R1.6750    
   X19.5197      Y39.3270      R1.6750    
   X19.2938      Y38.9566      R1.6750    
   X18.9796      Y38.6573      R1.6750    
   X18.5988      Y38.4495      R1.6750    
   X18.1771      Y38.3474      R1.6750    
   X17.7433      Y38.3579      R1.6750    
   X17.3270      Y38.4803      R1.6750    
G0   Z5.000     
(Pass: 1)
   X52.339       Y39.941    
G1   Z-0.500     F400 
G17 G2   X52.3803      Y40.3730      R1.6750    
   X52.5321      Y40.7795      R1.6750    
   X52.7838      Y41.1328      R1.6750    
   X53.1185      Y41.4090      R1.6750    
   X53.5132      Y41.5892      R1.6750    
   X53.9411      Y41.6610      R1.6750    
   X54.3730      Y41.6197      R1.6750    
   X54.7795      Y41.4679      R1.6750    
   X55.1328      Y41.2162      R1.6750    
   X55.4090      Y40.8815      R1.6750    
   X55.5892      Y40.4868      R1.6750    
   X55.6610      Y40.0589      R1.6750    
   X55.6197      Y39.6270      R1.6750    
   X55.4679      Y39.2205      R1.6750    
   X55.2162      Y38.8672      R1.6750    
   X54.8815      Y38.5910      R1.6750    
   X54.4868      Y38.4108      R1.6750    
   X54.0589      Y38.3390      R1.6750    
   X53.6270      Y38.3803      R1.6750    
   X53.2205      Y38.5321      R1.6750    
   X52.8672      Y38.7838      R1.6750    
   X52.5910      Y39.1185      R1.6750    
   X52.4108      Y39.5132      R1.6750    
   X52.3390      Y39.9411      R1.6750    
(Pass: 2)
G1   Z-1.000    
G17 G2   X52.3803      Y40.3730      R1.6750    
   X52.5321      Y40.7795      R1.6750    
   X52.7838      Y41.1328      R1.6750    
   X53.1185      Y41.4090      R1.6750    
   X53.5132      Y41.5892      R1.6750    
   X53.9411      Y41.6610      R1.6750    
   X54.3730      Y41.6197      R1.6750    
   X54.7795      Y41.4679      R1.6750    
   X55.1328      Y41.2162      R1.6750    
   X55.4090      Y40.8815      R1.6750    
   X55.5892      Y40.4868      R1.6750    
   X55.6610      Y40.0589      R1.6750    
   X55.6197      Y39.6270      R1.6750    
   X55.4679      Y39.2205      R1.6750    
   X55.2162      Y38.8672      R1.6750    
   X54.8815      Y38.5910      R1.6750    
   X54.4868      Y38.4108      R1.6750    
   X54.0589      Y38.3390      R1.6750    
   X53.6270      Y38.3803      R1.6750    
   X53.2205      Y38.5321      R1.6750    
   X52.8672      Y38.7838      R1.6750    
   X52.5910      Y39.1185      R1.6750    
   X52.4108      Y39.5132      R1.6750    
   X52.3390      Y39.9411      R1.6750    
(Pass: 3)
G1   Z-1.500    
G17 G2   X52.3803      Y40.3730      R1.6750    
   X52.5321      Y40.7795      R1.6750    
   X52.7838      Y41.1328      R1.6750    
   X53.1185      Y41.4090      R1.6750    
   X53.5132      Y41.5892      R1.6750    
   X53.9411      Y41.6610      R1.6750    
   X54.3730      Y41.6197      R1.6750    
   X54.7795      Y41.4679      R1.6750    
   X55.1328      Y41.2162      R1.6750    
   X55.4090      Y40.8815      R1.6750    
   X55.5892      Y40.4868      R1.6750    
   X55.6610      Y40.0589      R1.6750    
   X55.6197      Y39.6270      R1.6750    
   X55.4679      Y39.2205      R1.6750    
   X55.2162      Y38.8672      R1.6750    
   X54.8815      Y38.5910      R1.6750    
   X54.4868      Y38.4108      R1.6750    
   X54.0589      Y38.3390      R1.6750    
   X53.6270      Y38.3803      R1.6750    
   X53.2205      Y38.5321      R1.6750    
   X52.8672      Y38.7838      R1.6750    
   X52.5910      Y39.1185      R1.6750    
   X52.4108      Y39.5132      R1.6750    
   X52.3390      Y39.9411      R1.6750    
(Pass: 4)
G1   Z-2.000    
G17 G2   X52.3803      Y40.3730      R1.6750    
   X52.5321      Y40.7795      R1.6750    
   X52.7838      Y41.1328      R1.6750    
   X53.1185      Y41.4090      R1.6750    
   X53.5132      Y41.5892      R1.6750    
   X53.9411      Y41.6610      R1.6750    
   X54.3730      Y41.6197      R1.6750    
   X54.7795      Y41.4679      R1.6750    
   X55.1328      Y41.2162      R1.6750    
   X55.4090      Y40.8815      R1.6750    
   X55.5892      Y40.4868      R1.6750    
   X55.6610      Y40.0589      R1.6750    
   X55.6197      Y39.6270      R1.6750    
   X55.4679      Y39.2205      R1.6750    
   X55.2162      Y38.8672      R1.6750    
   X54.8815      Y38.5910      R1.6750    
   X54.4868      Y38.4108      R1.6750    
   X54.0589      Y38.3390      R1.6750    
   X53.6270      Y38.3803      R1.6750    
   X53.2205      Y38.5321      R1.6750    
   X52.8672      Y38.7838      R1.6750    
   X52.5910      Y39.1185      R1.6750    
   X52.4108      Y39.5132      R1.6750    
   X52.3390      Y39.9411      R1.6750    
(Pass: 5)
G1   Z-2.500    
G17 G2   X52.3803      Y40.3730      R1.6750    
   X52.5321      Y40.7795      R1.6750    
   X52.7838      Y41.1328      R1.6750    
   X53.1185      Y41.4090      R1.6750    
   X53.5132      Y41.5892      R1.6750    
   X53.9411      Y41.6610      R1.6750    
   X54.3730      Y41.6197      R1.6750    
   X54.7795      Y41.4679      R1.6750    
   X55.1328      Y41.2162      R1.6750    
   X55.4090      Y40.8815      R1.6750    
   X55.5892      Y40.4868      R1.6750    
   X55.6610      Y40.0589      R1.6750    
   X55.6197      Y39.6270      R1.6750    
   X55.4679      Y39.2205      R1.6750    
   X55.2162      Y38.8672      R1.6750    
   X54.8815      Y38.5910      R1.6750    
   X54.4868      Y38.4108      R1.6750    
   X54.0589      Y38.3390      R1.6750    
   X53.6270      Y38.3803      R1.6750    
   X53.2205      Y38.5321      R1.6750    
   X52.8672      Y38.7838      R1.6750    
   X52.5910      Y39.1185      R1.6750    
   X52.4108      Y39.5132      R1.6750    
   X52.3390      Y39.9411      R1.6750    
(Pass: 6)
G1   Z-3.000    
G17 G2   X52.3803      Y40.3730      R1.6750    
   X52.5321      Y40.7795      R1.6750    
   X52.7838      Y41.1328      R1.6750    
   X53.1185      Y41.4090      R1.6750    
   X53.5132      Y41.5892      R1.6750    
   X53.9411      Y41.6610      R1.6750    
   X54.3730      Y41.6197      R1.6750    
   X54.7795      Y41.4679      R1.6750    
   X55.1328      Y41.2162      R1.6750    
   X55.4090      Y40.8815      R1.6750    
   X55.5892      Y40.4868      R1.6750    
   X55.6610      Y40.0589      R1.6750    
   X55.6197      Y39.6270      R1.6750    
   X55.4679      Y39.2205      R1.6750    
   X55.2162      Y38.8672      R1.6750    
   X54.8815      Y38.5910      R1.6750    
   X54.4868      Y38.4108      R1.6750    
   X54.0589      Y38.3390      R1.6750    
   X53.6270      Y38.3803      R1.6750    
   X53.2205      Y38.5321      R1.6750    
   X52.8672      Y38.7838      R1.6750    
   X52.5910      Y39.1185      R1.6750    
   X52.4108      Y39.5132      R1.6750    
   X52.3390      Y39.9411      R1.6750    
(Pass: 7)
G1   Z-3.500    
G17 G2   X52.3803      Y40.3730      R1.6750    
   X52.5321      Y40.7795      R1.6750    
   X52.7838      Y41.1328      R1.6750    
   X53.1185      Y41.4090      R1.6750    
   X53.5132      Y41.5892      R1.6750    
   X53.9411      Y41.6610      R1.6750    
   X54.3730      Y41.6197      R1.6750    
   X54.7795      Y41.4679      R1.6750    
   X55.1328      Y41.2162      R1.6750    
   X55.4090      Y40.8815      R1.6750    
   X55.5892      Y40.4868      R1.6750    
   X55.6610      Y40.0589      R1.6750    
   X55.6197      Y39.6270      R1.6750    
   X55.4679      Y39.2205      R1.6750    
   X55.2162      Y38.8672      R1.6750    
   X54.8815      Y38.5910      R1.6750    
   X54.4868      Y38.4108      R1.6750    
   X54.0589      Y38.3390      R1.6750    
   X53.6270      Y38.3803      R1.6750    
   X53.2205      Y38.5321      R1.6750    
   X52.8672      Y38.7838      R1.6750    
   X52.5910      Y39.1185      R1.6750    
   X52.4108      Y39.5132      R1.6750    
   X52.3390      Y39.9411      R1.6750    
(Pass: 8)
G1   Z-4.000    
G17 G2   X52.3803      Y40.3730      R1.6750    
   X52.5321      Y40.7795      R1.6750    
   X52.7838      Y41.1328      R1.6750    
   X53.1185      Y41.4090      R1.6750    
   X53.5132      Y41.5892      R1.6750    
   X53.9411      Y41.6610      R1.6750    
   X54.3730      Y41.6197      R1.6750    
   X54.7795      Y41.4679      R1.6750    
   X55.1328      Y41.2162      R1.6750    
   X55.4090      Y40.8815      R1.6750    
   X55.5892      Y40.4868      R1.6750    
   X55.6610      Y40.0589      R1.6750    
   X55.6197      Y39.6270      R1.6750    
   X55.4679      Y39.2205      R1.6750    
   X55.2162      Y38.8672      R1.6750    
   X54.8815      Y38.5910      R1.6750    
   X54.4868      Y38.4108      R1.6750    
   X54.0589      Y38.3390      R1.6750    
   X53.6270      Y38.3803      R1.6750    
   X53.2205      Y38.5321      R1.6750    
   X52.8672      Y38.7838      R1.6750    
   X52.5910      Y39.1185      R1.6750    
   X52.4108      Y39.5132      R1.6750    
   X52.3390      Y39.9411      R1.6750    
(Pass: 9)
G1   Z-4.500    
G17 G2   X52.3803      Y40.3730      R1.6750    
   X52.5321      Y40.7795      R1.6750    
   X52.7838      Y41.1328      R1.6750    
   X53.1185      Y41.4090      R1.6750    
   X53.5132      Y41.5892      R1.6750    
   X53.9411      Y41.6610      R1.6750    
   X54.3730      Y41.6197      R1.6750    
   X54.7795      Y41.4679      R1.6750    
   X55.1328      Y41.2162      R1.6750    
   X55.4090      Y40.8815      R1.6750    
   X55.5892      Y40.4868      R1.6750    
   X55.6610      Y40.0589      R1.6750    
   X55.6197      Y39.6270      R1.6750    
   X55.4679      Y39.2205      R1.6750    
   X55.2162      Y38.8672      R1.6750    
   X54.8815      Y38.5910      R1.6750    
   X54.4868      Y38.4108      R1.6750    
   X54.0589      Y38.3390      R1.6750    
   X53.6270      Y38.3803      R1.6750    
   X53.2205      Y38.5321      R1.6750    
   X52.8672      Y38.7838      R1.6750    
   X52.5910      Y39.1185      R1.6750    
   X52.4108      Y39.5132      R1.6750    
   X52.3390      Y39.9411      R1.6750    
(Pass: 10)
G1   Z-5.000    
G17 G2   X52.3803      Y40.3730      R1.6750    
   X52.5321      Y40.7795      R1.6750    
   X52.7838      Y41.1328      R1.6750    
   X53.1185      Y41.4090      R1.6750    
   X53.5132      Y41.5892      R1.6750    
   X53.9411      Y41.6610      R1.6750    
   X54.3730      Y41.6197      R1.6750    
   X54.7795      Y41.4679      R1.6750    
   X55.1328      Y41.2162      R1.6750    
   X55.4090      Y40.8815      R1.6750    
   X55.5892      Y40.4868      R1.6750    
   X55.6610      Y40.0589      R1.6750    
   X55.6197      Y39.6270      R1.6750    
   X55.4679      Y39.2205      R1.6750    
   X55.2162      Y38.8672      R1.6750    
   X54.8815      Y38.5910      R1.6750    
   X54.4868      Y38.4108      R1.6750    
   X54.0589      Y38.3390      R1.6750    
   X53.6270      Y38.3803      R1.6750    
   X53.2205      Y38.5321      R1.6750    
   X52.8672      Y38.7838      R1.6750    
   X52.5910      Y39.1185      R1.6750    
   X52.4108      Y39.5132      R1.6750    
   X52.3390      Y39.9411      R1.6750    
(Pass: 11)
G1   Z-5.500    
G17 G2   X52.3803      Y40.3730      R1.6750    
   X52.5321      Y40.7795      R1.6750    
   X52.7838      Y41.1328      R1.6750    
   X53.1185      Y41.4090      R1.6750    
   X53.5132      Y41.5892      R1.6750    
   X53.9411      Y41.6610      R1.6750    
   X54.3730      Y41.6197      R1.6750    
   X54.7795      Y41.4679      R1.6750    
   X55.1328      Y41.2162      R1.6750    
   X55.4090      Y40.8815      R1.6750    
   X55.5892      Y40.4868      R1.6750    
   X55.6610      Y40.0589      R1.6750    
   X55.6197      Y39.6270      R1.6750    
   X55.4679      Y39.2205      R1.6750    
   X55.2162      Y38.8672      R1.6750    
   X54.8815      Y38.5910      R1.6750    
   X54.4868      Y38.4108      R1.6750    
   X54.0589      Y38.3390      R1.6750    
   X53.6270      Y38.3803      R1.6750    
   X53.2205      Y38.5321      R1.6750    
   X52.8672      Y38.7838      R1.6750    
   X52.5910      Y39.1185      R1.6750    
   X52.4108      Y39.5132      R1.6750    
   X52.3390      Y39.9411      R1.6750    
(Pass: 12)
G1   Z-6.000    
G17 G2   X52.3803      Y40.3730      R1.6750    
   X52.5321      Y40.7795      R1.6750    
   X52.7838      Y41.1328      R1.6750    
   X53.1185      Y41.4090      R1.6750    
   X53.5132      Y41.5892      R1.6750    
   X53.9411      Y41.6610      R1.6750    
   X54.3730      Y41.6197      R1.6750    
   X54.7795      Y41.4679      R1.6750    
   X55.1328      Y41.2162      R1.6750    
   X55.4090      Y40.8815      R1.6750    
   X55.5892      Y40.4868      R1.6750    
   X55.6610      Y40.0589      R1.6750    
   X55.6197      Y39.6270      R1.6750    
   X55.4679      Y39.2205      R1.6750    
   X55.2162      Y38.8672      R1.6750    
   X54.8815      Y38.5910      R1.6750    
   X54.4868      Y38.4108      R1.6750    
   X54.0589      Y38.3390      R1.6750    
   X53.6270      Y38.3803      R1.6750    
   X53.2205      Y38.5321      R1.6750    
   X52.8672      Y38.7838      R1.6750    
   X52.5910      Y39.1185      R1.6750    
   X52.4108      Y39.5132      R1.6750    
   X52.3390      Y39.9411      R1.6750    
(Pass: 13)
G1   Z-6.500    
G17 G2   X52.3803      Y40.3730      R1.6750    
   X52.5321      Y40.7795      R1.6750    
   X52.7838      Y41.1328      R1.6750    
   X53.1185      Y41.4090      R1.6750    
   X53.5132      Y41.5892      R1.6750    
   X53.9411      Y41.6610      R1.6750    
   X54.3730      Y41.6197      R1.6750    
   X54.7795      Y41.4679      R1.6750    
   X55.1328      Y41.2162      R1.6750    
   X55.4090      Y40.8815      R1.6750    
   X55.5892      Y40.4868      R1.6750    
   X55.6610      Y40.0589      R1.6750    
   X55.6197      Y39.6270      R1.6750    
   X55.4679      Y39.2205      R1.6750    
   X55.2162      Y38.8672      R1.6750    
   X54.8815      Y38.5910      R1.6750    
   X54.4868      Y38.4108      R1.6750    
   X54.0589      Y38.3390      R1.6750    
   X53.6270      Y38.3803      R1.6750    
   X53.2205      Y38.5321      R1.6750    
   X52.8672      Y38.7838      R1.6750    
   X52.5910      Y39.1185      R1.6750    
   X52.4108      Y39.5132      R1.6750    
   X52.3390      Y39.9411      R1.6750    
G0   Z5.000     
(Pass: 1)
   X173.520      Y124.706   
G1   Z-0.500     F400 
G17 G2   X167.8627     Y136.3201     R49.5000   
   X165.4038     Y149.0026     R49.5000   
   X166.3112     Y161.8895     R49.5000   
   X170.5230     Y174.1023     R49.5000   
   X177.7522     Y184.8089     R49.5000   
   X187.5061     Y193.2797     R49.5000   
   X199.1201     Y198.9373     R49.5000   
   X211.8026     Y201.3962     R49.5000   
   X224.6895     Y200.4888     R49.5000   
   X236.9023     Y196.2770     R49.5000   
   X247.6089     Y189.0478     R49.5000   
   X256.0797     Y179.2939     R49.5000   
   X261.7373     Y167.6799     R49.5000   
   X264.1962     Y154.9974     R49.5000   
   X263.2888     Y142.1105     R49.5000   
   X259.0770     Y129.8977     R49.5000   
   X251.8478     Y119.1911     R49.5000   
   X242.0939     Y110.7203     R49.5000   
   X230.4799     Y105.0627     R49.5000   
   X217.7974     Y102.6038     R49.5000   
   X204.9105     Y103.5112     R49.5000   
   X192.6977     Y107.7230     R49.5000   
   X181.9911     Y114.9522     R49.5000   
   X173.5203     Y124.7061     R49.5000   
(Pass: 2)
G1   Z-1.000    
G17 G2   X167.8627     Y136.3201     R49.5000   
   X165.4038     Y149.0026     R49.5000   
   X166.3112     Y161.8895     R49.5000   
   X170.5230     Y174.1023     R49.5000   
   X177.7522     Y184.8089     R49.5000   
   X187.5061     Y193.2797     R49.5000   
   X199.1201     Y198.9373     R49.5000   
   X211.8026     Y201.3962     R49.5000   
   X224.6895     Y200.4888     R49.5000   
   X236.9023     Y196.2770     R49.5000   
   X247.6089     Y189.0478     R49.5000   
   X256.0797     Y179.2939     R49.5000   
   X261.7373     Y167.6799     R49.5000   
   X264.1962     Y154.9974     R49.5000   
   X263.2888     Y142.1105     R49.5000   
   X259.0770     Y129.8977     R49.5000   
   X251.8478     Y119.1911     R49.5000   
   X242.0939     Y110.7203     R49.5000   
   X230.4799     Y105.0627     R49.5000   
   X217.7974     Y102.6038     R49.5000   
   X204.9105     Y103.5112     R49.5000   
   X192.6977     Y107.7230     R49.5000   
   X181.9911     Y114.9522     R49.5000   
   X173.5203     Y124.7061     R49.5000   
(Pass: 3)
G1   Z-1.500    
G17 G2   X167.8627     Y136.3201     R49.5000   
   X165.4038     Y149.0026     R49.5000   
   X166.3112     Y161.8895     R49.5000   
   X170.5230     Y174.1023     R49.5000   
   X177.7522     Y184.8089     R49.5000   
   X187.5061     Y193.2797     R49.5000   
   X199.1201     Y198.9373     R49.5000   
   X211.8026     Y201.3962     R49.5000   
   X224.6895     Y200.4888     R49.5000   
   X236.9023     Y196.2770     R49.5000   
   X247.6089     Y189.0478     R49.5000   
   X256.0797     Y179.2939     R49.5000   
   X261.7373     Y167.6799     R49.5000   
   X264.1962     Y154.9974     R49.5000   
   X263.2888     Y142.1105     R49.5000   
   X259.0770     Y129.8977     R49.5000   
   X251.8478     Y119.1911     R49.5000   
   X242.0939     Y110.7203     R49.5000   
   X230.4799     Y105.0627     R49.5000   
   X217.7974     Y102.6038     R49.5000   
   X204.9105     Y103.5112     R49.5000   
   X192.6977     Y107.7230     R49.5000   
   X181.9911     Y114.9522     R49.5000   
   X173.5203     Y124.7061     R49.5000   
(Pass: 4)
G1   Z-2.000    
G17 G2   X167.8627     Y136.3201     R49.5000   
   X165.4038     Y149.0026     R49.5000   
   X166.3112     Y161.8895     R49.5000   
   X170.5230     Y174.1023     R49.5000   
   X177.7522     Y184.8089     R49.5000   
   X187.5061     Y193.2797     R49.5000   
   X199.1201     Y198.9373     R49.5000   
   X211.8026     Y201.3962     R49.5000   
   X224.6895     Y200.4888     R49.5000   
   X236.9023     Y196.2770     R49.5000   
   X247.6089     Y189.0478     R49.5000   
   X256.0797     Y179.2939     R49.5000   
   X261.7373     Y167.6799     R49.5000   
   X264.1962     Y154.9974     R49.5000   
   X263.2888     Y142.1105     R49.5000   
   X259.0770     Y129.8977     R49.5000   
   X251.8478     Y119.1911     R49.5000   
   X242.0939     Y110.7203     R49.5000   
   X230.4799     Y105.0627     R49.5000   
   X217.7974     Y102.6038     R49.5000   
   X204.9105     Y103.5112     R49.5000   
   X192.6977     Y107.7230     R49.5000   
   X181.9911     Y114.9522     R49.5000   
   X173.5203     Y124.7061     R49.5000   
(Pass: 5)
G1   Z-2.500    
G17 G2   X167.8627     Y136.3201     R49.5000   
   X165.4038     Y149.0026     R49.5000   
   X166.3112     Y161.8895     R49.5000   
   X170.5230     Y174.1023     R49.5000   
   X177.7522     Y184.8089     R49.5000   
   X187.5061     Y193.2797     R49.5000   
   X199.1201     Y198.9373     R49.5000   
   X211.8026     Y201.3962     R49.5000   
   X224.6895     Y200.4888     R49.5000   
   X236.9023     Y196.2770     R49.5000   
   X247.6089     Y189.0478     R49.5000   
   X256.0797     Y179.2939     R49.5000   
   X261.7373     Y167.6799     R49.5000   
   X264.1962     Y154.9974     R49.5000   
   X263.2888     Y142.1105     R49.5000   
   X259.0770     Y129.8977     R49.5000   
   X251.8478     Y119.1911     R49.5000   
   X242.0939     Y110.7203     R49.5000   
   X230.4799     Y105.0627     R49.5000   
   X217.7974     Y102.6038     R49.5000   
   X204.9105     Y103.5112     R49.5000   
   X192.6977     Y107.7230     R49.5000   
   X181.9911     Y114.9522     R49.5000   
   X173.5203     Y124.7061     R49.5000   
(Pass: 6)
G1   Z-3.000    
G17 G2   X167.8627     Y136.3201     R49.5000   
   X165.4038     Y149.0026     R49.5000   
   X166.3112     Y161.8895     R49.5000   
   X170.5230     Y174.1023     R49.5000   
   X177.7522     Y184.8089     R49.5000   
   X187.5061     Y193.2797     R49.5000   
   X199.1201     Y198.9373     R49.5000   
   X211.8026     Y201.3962     R49.5000   
   X224.6895     Y200.4888     R49.5000   
   X236.9023     Y196.2770     R49.5000   
   X247.6089     Y189.0478     R49.5000   
   X256.0797     Y179.2939     R49.5000   
   X261.7373     Y167.6799     R49.5000   
   X264.1962     Y154.9974     R49.5000   
   X263.2888     Y142.1105     R49.5000   
   X259.0770     Y129.8977     R49.5000   
   X251.8478     Y119.1911     R49.5000   
   X242.0939     Y110.7203     R49.5000   
   X230.4799     Y105.0627     R49.5000   
   X217.7974     Y102.6038     R49.5000   
   X204.9105     Y103.5112     R49.5000   
   X192.6977     Y107.7230     R49.5000   
   X181.9911     Y114.9522     R49.5000   
   X173.5203     Y124.7061     R49.5000   
(Pass: 7)
G1   Z-3.500    
G17 G2   X167.8627     Y136.3201     R49.5000   
   X165.4038     Y149.0026     R49.5000   
   X166.3112     Y161.8895     R49.5000   
   X170.5230     Y174.1023     R49.5000   
   X177.7522     Y184.8089     R49.5000   
   X187.5061     Y193.2797     R49.5000   
   X199.1201     Y198.9373     R49.5000   
   X211.8026     Y201.3962     R49.5000   
   X224.6895     Y200.4888     R49.5000   
   X236.9023     Y196.2770     R49.5000   
   X247.6089     Y189.0478     R49.5000   
   X256.0797     Y179.2939     R49.5000   
   X261.7373     Y167.6799     R49.5000   
   X264.1962     Y154.9974     R49.5000   
   X263.2888     Y142.1105     R49.5000   
   X259.0770     Y129.8977     R49.5000   
   X251.8478     Y119.1911     R49.5000   
   X242.0939     Y110.7203     R49.5000   
   X230.4799     Y105.0627     R49.5000   
   X217.7974     Y102.6038     R49.5000   
   X204.9105     Y103.5112     R49.5000   
   X192.6977     Y107.7230     R49.5000   
   X181.9911     Y114.9522     R49.5000   
   X173.5203     Y124.7061     R49.5000   
(Pass: 8)
G1   Z-4.000    
G17 G2   X167.8627     Y136.3201     R49.5000   
   X165.4038     Y149.0026     R49.5000   
   X166.3112     Y161.8895     R49.5000   
   X170.5230     Y174.1023     R49.5000   
   X177.7522     Y184.8089     R49.5000   
   X187.5061     Y193.2797     R49.5000   
   X199.1201     Y198.9373     R49.5000   
   X211.8026     Y201.3962     R49.5000   
   X224.6895     Y200.4888     R49.5000   
   X236.9023     Y196.2770     R49.5000   
   X247.6089     Y189.0478     R49.5000   
   X256.0797     Y179.2939     R49.5000   
   X261.7373     Y167.6799     R49.5000   
   X264.1962     Y154.9974     R49.5000   
   X263.2888     Y142.1105     R49.5000   
   X259.0770     Y129.8977     R49.5000   
   X251.8478     Y119.1911     R49.5000   
   X242.0939     Y110.7203     R49.5000   
   X230.4799     Y105.0627     R49.5000   
   X217.7974     Y102.6038     R49.5000   
   X204.9105     Y103.5112     R49.5000   
   X192.6977     Y107.7230     R49.5000   
   X181.9911     Y114.9522     R49.5000   
   X173.5203     Y124.7061     R49.5000   
(Pass: 9)
G1   Z-4.500    
G17 G2   X167.8627     Y136.3201     R49.5000   
   X165.4038     Y149.0026     R49.5000   
   X166.3112     Y161.8895     R49.5000   
   X170.5230     Y174.1023     R49.5000   
   X177.7522     Y184.8089     R49.5000   
   X187.5061     Y193.2797     R49.5000   
   X199.1201     Y198.9373     R49.5000   
   X211.8026     Y201.3962     R49.5000   
   X224.6895     Y200.4888     R49.5000   
   X236.9023     Y196.2770     R49.5000   
   X247.6089     Y189.0478     R49.5000   
   X256.0797     Y179.2939     R49.5000   
   X261.7373     Y167.6799     R49.5000   
   X264.1962     Y154.9974     R49.5000   
   X263.2888     Y142.1105     R49.5000   
   X259.0770     Y129.8977     R49.5000   
   X251.8478     Y119.1911     R49.5000   
   X242.0939     Y110.7203     R49.5000   
   X230.4799     Y105.0627     R49.5000   
   X217.7974     Y102.6038     R49.5000   
   X204.9105     Y103.5112     R49.5000   
   X192.6977     Y107.7230     R49.5000   
   X181.9911     Y114.9522     R49.5000   
   X173.5203     Y124.7061     R49.5000   
(Pass: 10)
G1   Z-5.000    
G17 G2   X167.8627     Y136.3201     R49.5000   
   X165.4038     Y149.0026     R49.5000   
   X166.3112     Y161.8895     R49.5000   
   X170.5230     Y174.1023     R49.5000   
   X177.7522     Y184.8089     R49.5000   
   X187.5061     Y193.2797     R49.5000   
   X199.1201     Y198.9373     R49.5000   
   X211.8026     Y201.3962     R49.5000   
   X224.6895     Y200.4888     R49.5000   
   X236.9023     Y196.2770     R49.5000   
   X247.6089     Y189.0478     R49.5000   
   X256.0797     Y179.2939     R49.5000   
   X261.7373     Y167.6799     R49.5000   
   X264.1962     Y154.9974     R49.5000   
   X263.2888     Y142.1105     R49.5000   
   X259.0770     Y129.8977     R49.5000   
   X251.8478     Y119.1911     R49.5000   
   X242.0939     Y110.7203     R49.5000   
   X230.4799     Y105.0627     R49.5000   
   X217.7974     Y102.6038     R49.5000   
   X204.9105     Y103.5112     R49.5000   
   X192.6977     Y107.7230     R49.5000   
   X181.9911     Y114.9522     R49.5000   
   X173.5203     Y124.7061     R49.5000   
(Pass: 11)
G1   Z-5.500    
G17 G2   X167.8627     Y136.3201     R49.5000   
   X165.4038     Y149.0026     R49.5000   
   X166.3112     Y161.8895     R49.5000   
   X170.5230     Y174.1023     R49.5000   
   X177.7522     Y184.8089     R49.5000   
   X187.5061     Y193.2797     R49.5000   
   X199.1201     Y198.9373     R49.5000   
   X211.8026     Y201.3962     R49.5000   
   X224.6895     Y200.4888     R49.5000   
   X236.9023     Y196.2770     R49.5000   
   X247.6089     Y189.0478     R49.5000   
   X256.0797     Y179.2939     R49.5000   
   X261.7373     Y167.6799     R49.5000   
   X264.1962     Y154.9974     R49.5000   
   X263.2888     Y142.1105     R49.5000   
   X259.0770     Y129.8977     R49.5000   
   X251.8478     Y119.1911     R49.5000   
   X242.0939     Y110.7203     R49.5000   
   X230.4799     Y105.0627     R49.5000   
   X217.7974     Y102.6038     R49.5000   
   X204.9105     Y103.5112     R49.5000   
   X192.6977     Y107.7230     R49.5000   
   X181.9911     Y114.9522     R49.5000   
   X173.5203     Y124.7061     R49.5000   
(Pass: 12)
G1   Z-6.000    
G17 G2   X167.8627     Y136.3201     R49.5000   
   X165.4038     Y149.0026     R49.5000   
   X166.3112     Y161.8895     R49.5000   
   X170.5230     Y174.1023     R49.5000   
   X177.7522     Y184.8089     R49.5000   
   X187.5061     Y193.2797     R49.5000   
   X199.1201     Y198.9373     R49.5000   
   X211.8026     Y201.3962     R49.5000   
   X224.6895     Y200.4888     R49.5000   
   X236.9023     Y196.2770     R49.5000   
   X247.6089     Y189.0478     R49.5000   
   X256.0797     Y179.2939     R49.5000   
   X261.7373     Y167.6799     R49.5000   
   X264.1962     Y154.9974     R49.5000   
   X263.2888     Y142.1105     R49.5000   
   X259.0770     Y129.8977     R49.5000   
   X251.8478     Y119.1911     R49.5000   
   X242.0939     Y110.7203     R49.5000   
   X230.4799     Y105.0627     R49.5000   
   X217.7974     Y102.6038     R49.5000   
   X204.9105     Y103.5112     R49.5000   
   X192.6977     Y107.7230     R49.5000   
   X181.9911     Y114.9522     R49.5000   
   X173.5203     Y124.7061     R49.5000   
(Pass: 13)
G1   Z-6.500    
G17 G2   X167.8627     Y136.3201     R49.5000   
   X165.4038     Y149.0026     R49.5000   
   X166.3112     Y161.8895     R49.5000   
   X170.5230     Y174.1023     R49.5000   
   X177.7522     Y184.8089     R49.5000   
   X187.5061     Y193.2797     R49.5000   
   X199.1201     Y198.9373     R49.5000   
   X211.8026     Y201.3962     R49.5000   
   X224.6895     Y200.4888     R49.5000   
   X236.9023     Y196.2770     R49.5000   
   X247.6089     Y189.0478     R49.5000   
   X256.0797     Y179.2939     R49.5000   
   X261.7373     Y167.6799     R49.5000   
   X264.1962     Y154.9974     R49.5000   
   X263.2888     Y142.1105     R49.5000   
   X259.0770     Y129.8977     R49.5000   
   X251.8478     Y119.1911     R49.5000   
   X242.0939     Y110.7203     R49.5000   
   X230.4799     Y105.0627     R49.5000   
   X217.7974     Y102.6038     R49.5000   
   X204.9105     Y103.5112     R49.5000   
   X192.6977     Y107.7230     R49.5000   
   X181.9911     Y114.9522     R49.5000   
   X173.5203     Y124.7061     R49.5000   
G0   Z5.000     
(Pass: 1)
   X129.000      Y179.300   
G1   Z-0.500     F400 
   X105.000   
   Y223.300   
   X129.000   
   Y179.300   
(Pass: 2)
   Z-1.000    
   X105.000   
   Y223.300   
   X129.000   
   Y179.300   
(Pass: 3)
   Z-1.500    
   X105.000   
   Y223.300   
   X129.000   
   Y179.300   
(Pass: 4)
   Z-2.000    
   X105.000   
   Y223.300   
   X129.000   
   Y179.300   
(Pass: 5)
   Z-2.500    
   X105.000   
   Y223.300   
   X129.000   
   Y179.300   
(Pass: 6)
   Z-3.000    
   X105.000   
   Y223.300   
   X129.000   
   Y179.300   
(Pass: 7)
   Z-3.500    
   X105.000   
   Y223.300   
   X129.000   
   Y179.300   
(Pass: 8)
   Z-4.000    
   X105.000   
   Y223.300   
   X129.000   
   Y179.300   
(Pass: 9)
   Z-4.500    
   X105.000   
   Y223.300   
   X129.000   
   Y179.300   
(Pass: 10)
   Z-5.000    
   X105.000   
   Y223.300   
   X129.000   
   Y179.300   
(Pass: 11)
   Z-5.500    
   X105.000   
   Y223.300   
   X129.000   
   Y179.300   
(Pass: 12)
   Z-6.000    
   X105.000   
   Y223.300   
   X129.000   
   Y179.300   
(Pass: 13)
   Z-6.500    
   X105.000   
   Y223.300   
   X129.000   
   Y179.300   
G0   Z5.000     
(Pass: 1)
   X119.455      Y255.636   
G1   Z-0.500     F400 
G17 G2   X117.0000     Y255.3129     R9.5000    
   X114.5446     Y255.6362     R9.5000    
   X112.2565     Y256.5840     R9.5000    
   X110.2916     Y258.0916     R9.5000    
   X108.7840     Y260.0565     R9.5000    
   X107.8362     Y262.3446     R9.5000    
   X107.5129     Y264.8000     R9.5000    
   X107.8362     Y267.2554     R9.5000    
   X108.7840     Y269.5435     R9.5000    
   X110.2916     Y271.5084     R9.5000    
   X112.2565     Y273.0160     R9.5000    
   X114.5446     Y273.9638     R9.5000    
   X117.0000     Y274.2871     R9.5000    
   X119.4554     Y273.9638     R9.5000    
   X121.7435     Y273.0160     R9.5000    
   X123.7084     Y271.5084     R9.5000    
   X125.2160     Y269.5435     R9.5000    
   X126.1638     Y267.2554     R9.5000    
   X126.4871     Y264.8000     R9.5000    
   X126.1638     Y262.3446     R9.5000    
   X125.2160     Y260.0565     R9.5000    
   X123.7084     Y258.0916     R9.5000    
   X121.7435     Y256.5840     R9.5000    
   X119.4554     Y255.6362     R9.5000    
(Pass: 2)
G1   Z-1.000    
G17 G2   X117.0000     Y255.3129     R9.5000    
   X114.5446     Y255.6362     R9.5000    
   X112.2565     Y256.5840     R9.5000    
   X110.2916     Y258.0916     R9.5000    
   X108.7840     Y260.0565     R9.5000    
   X107.8362     Y262.3446     R9.5000    
   X107.5129     Y264.8000     R9.5000    
   X107.8362     Y267.2554     R9.5000    
   X108.7840     Y269.5435     R9.5000    
   X110.2916     Y271.5084     R9.5000    
   X112.2565     Y273.0160     R9.5000    
   X114.5446     Y273.9638     R9.5000    
   X117.0000     Y274.2871     R9.5000    
   X119.4554     Y273.9638     R9.5000    
   X121.7435     Y273.0160     R9.5000    
   X123.7084     Y271.5084     R9.5000    
   X125.2160     Y269.5435     R9.5000    
   X126.1638     Y267.2554     R9.5000    
   X126.4871     Y264.8000     R9.5000    
   X126.1638     Y262.3446     R9.5000    
   X125.2160     Y260.0565     R9.5000    
   X123.7084     Y258.0916     R9.5000    
   X121.7435     Y256.5840     R9.5000    
   X119.4554     Y255.6362     R9.5000    
(Pass: 3)
G1   Z-1.500    
G17 G2   X117.0000     Y255.3129     R9.5000    
   X114.5446     Y255.6362     R9.5000    
   X112.2565     Y256.5840     R9.5000    
   X110.2916     Y258.0916     R9.5000    
   X108.7840     Y260.0565     R9.5000    
   X107.8362     Y262.3446     R9.5000    
   X107.5129     Y264.8000     R9.5000    
   X107.8362     Y267.2554     R9.5000    
   X108.7840     Y269.5435     R9.5000    
   X110.2916     Y271.5084     R9.5000    
   X112.2565     Y273.0160     R9.5000    
   X114.5446     Y273.9638     R9.5000    
   X117.0000     Y274.2871     R9.5000    
   X119.4554     Y273.9638     R9.5000    
   X121.7435     Y273.0160     R9.5000    
   X123.7084     Y271.5084     R9.5000    
   X125.2160     Y269.5435     R9.5000    
   X126.1638     Y267.2554     R9.5000    
   X126.4871     Y264.8000     R9.5000    
   X126.1638     Y262.3446     R9.5000    
   X125.2160     Y260.0565     R9.5000    
   X123.7084     Y258.0916     R9.5000    
   X121.7435     Y256.5840     R9.5000    
   X119.4554     Y255.6362     R9.5000    
(Pass: 4)
G1   Z-2.000    
G17 G2   X117.0000     Y255.3129     R9.5000    
   X114.5446     Y255.6362     R9.5000    
   X112.2565     Y256.5840     R9.5000    
   X110.2916     Y258.0916     R9.5000    
   X108.7840     Y260.0565     R9.5000    
   X107.8362     Y262.3446     R9.5000    
   X107.5129     Y264.8000     R9.5000    
   X107.8362     Y267.2554     R9.5000    
   X108.7840     Y269.5435     R9.5000    
   X110.2916     Y271.5084     R9.5000    
   X112.2565     Y273.0160     R9.5000    
   X114.5446     Y273.9638     R9.5000    
   X117.0000     Y274.2871     R9.5000    
   X119.4554     Y273.9638     R9.5000    
   X121.7435     Y273.0160     R9.5000    
   X123.7084     Y271.5084     R9.5000    
   X125.2160     Y269.5435     R9.5000    
   X126.1638     Y267.2554     R9.5000    
   X126.4871     Y264.8000     R9.5000    
   X126.1638     Y262.3446     R9.5000    
   X125.2160     Y260.0565     R9.5000    
   X123.7084     Y258.0916     R9.5000    
   X121.7435     Y256.5840     R9.5000    
   X119.4554     Y255.6362     R9.5000    
(Pass: 5)
G1   Z-2.500    
G17 G2   X117.0000     Y255.3129     R9.5000    
   X114.5446     Y255.6362     R9.5000    
   X112.2565     Y256.5840     R9.5000    
   X110.2916     Y258.0916     R9.5000    
   X108.7840     Y260.0565     R9.5000    
   X107.8362     Y262.3446     R9.5000    
   X107.5129     Y264.8000     R9.5000    
   X107.8362     Y267.2554     R9.5000    
   X108.7840     Y269.5435     R9.5000    
   X110.2916     Y271.5084     R9.5000    
   X112.2565     Y273.0160     R9.5000    
   X114.5446     Y273.9638     R9.5000    
   X117.0000     Y274.2871     R9.5000    
   X119.4554     Y273.9638     R9.5000    
   X121.7435     Y273.0160     R9.5000    
   X123.7084     Y271.5084     R9.5000    
   X125.2160     Y269.5435     R9.5000    
   X126.1638     Y267.2554     R9.5000    
   X126.4871     Y264.8000     R9.5000    
   X126.1638     Y262.3446     R9.5000    
   X125.2160     Y260.0565     R9.5000    
   X123.7084     Y258.0916     R9.5000    
   X121.7435     Y256.5840     R9.5000    
   X119.4554     Y255.6362     R9.5000    
(Pass: 6)
G1   Z-3.000    
G17 G2   X117.0000     Y255.3129     R9.5000    
   X114.5446     Y255.6362     R9.5000    
   X112.2565     Y256.5840     R9.5000    
   X110.2916     Y258.0916     R9.5000    
   X108.7840     Y260.0565     R9.5000    
   X107.8362     Y262.3446     R9.5000    
   X107.5129     Y264.8000     R9.5000    
   X107.8362     Y267.2554     R9.5000    
   X108.7840     Y269.5435     R9.5000    
   X110.2916     Y271.5084     R9.5000    
   X112.2565     Y273.0160     R9.5000    
   X114.5446     Y273.9638     R9.5000    
   X117.0000     Y274.2871     R9.5000    
   X119.4554     Y273.9638     R9.5000    
   X121.7435     Y273.0160     R9.5000    
   X123.7084     Y271.5084     R9.5000    
   X125.2160     Y269.5435     R9.5000    
   X126.1638     Y267.2554     R9.5000    
   X126.4871     Y264.8000     R9.5000    
   X126.1638     Y262.3446     R9.5000    
   X125.2160     Y260.0565     R9.5000    
   X123.7084     Y258.0916     R9.5000    
   X121.7435     Y256.5840     R9.5000    
   X119.4554     Y255.6362     R9.5000    
(Pass: 7)
G1   Z-3.500    
G17 G2   X117.0000     Y255.3129     R9.5000    
   X114.5446     Y255.6362     R9.5000    
   X112.2565     Y256.5840     R9.5000    
   X110.2916     Y258.0916     R9.5000    
   X108.7840     Y260.0565     R9.5000    
   X107.8362     Y262.3446     R9.5000    
   X107.5129     Y264.8000     R9.5000    
   X107.8362     Y267.2554     R9.5000    
   X108.7840     Y269.5435     R9.5000    
   X110.2916     Y271.5084     R9.5000    
   X112.2565     Y273.0160     R9.5000    
   X114.5446     Y273.9638     R9.5000    
   X117.0000     Y274.2871     R9.5000    
   X119.4554     Y273.9638     R9.5000    
   X121.7435     Y273.0160     R9.5000    
   X123.7084     Y271.5084     R9.5000    
   X125.2160     Y269.5435     R9.5000    
   X126.1638     Y267.2554     R9.5000    
   X126.4871     Y264.8000     R9.5000    
   X126.1638     Y262.3446     R9.5000    
   X125.2160     Y260.0565     R9.5000    
   X123.7084     Y258.0916     R9.5000    
   X121.7435     Y256.5840     R9.5000    
   X119.4554     Y255.6362     R9.5000    
(Pass: 8)
G1   Z-4.000    
G17 G2   X117.0000     Y255.3129     R9.5000    
   X114.5446     Y255.6362     R9.5000    
   X112.2565     Y256.5840     R9.5000    
   X110.2916     Y258.0916     R9.5000    
   X108.7840     Y260.0565     R9.5000    
   X107.8362     Y262.3446     R9.5000    
   X107.5129     Y264.8000     R9.5000    
   X107.8362     Y267.2554     R9.5000    
   X108.7840     Y269.5435     R9.5000    
   X110.2916     Y271.5084     R9.5000    
   X112.2565     Y273.0160     R9.5000    
   X114.5446     Y273.9638     R9.5000    
   X117.0000     Y274.2871     R9.5000    
   X119.4554     Y273.9638     R9.5000    
   X121.7435     Y273.0160     R9.5000    
   X123.7084     Y271.5084     R9.5000    
   X125.2160     Y269.5435     R9.5000    
   X126.1638     Y267.2554     R9.5000    
   X126.4871     Y264.8000     R9.5000    
   X126.1638     Y262.3446     R9.5000    
   X125.2160     Y260.0565     R9.5000    
   X123.7084     Y258.0916     R9.5000    
   X121.7435     Y256.5840     R9.5000    
   X119.4554     Y255.6362     R9.5000    
(Pass: 9)
G1   Z-4.500    
G17 G2   X117.0000     Y255.3129     R9.5000    
   X114.5446     Y255.6362     R9.5000    
   X112.2565     Y256.5840     R9.5000    
   X110.2916     Y258.0916     R9.5000    
   X108.7840     Y260.0565     R9.5000    
   X107.8362     Y262.3446     R9.5000    
   X107.5129     Y264.8000     R9.5000    
   X107.8362     Y267.2554     R9.5000    
   X108.7840     Y269.5435     R9.5000    
   X110.2916     Y271.5084     R9.5000    
   X112.2565     Y273.0160     R9.5000    
   X114.5446     Y273.9638     R9.5000    
   X117.0000     Y274.2871     R9.5000    
   X119.4554     Y273.9638     R9.5000    
   X121.7435     Y273.0160     R9.5000    
   X123.7084     Y271.5084     R9.5000    
   X125.2160     Y269.5435     R9.5000    
   X126.1638     Y267.2554     R9.5000    
   X126.4871     Y264.8000     R9.5000    
   X126.1638     Y262.3446     R9.5000    
   X125.2160     Y260.0565     R9.5000    
   X123.7084     Y258.0916     R9.5000    
   X121.7435     Y256.5840     R9.5000    
   X119.4554     Y255.6362     R9.5000    
(Pass: 10)
G1   Z-5.000    
G17 G2   X117.0000     Y255.3129     R9.5000    
   X114.5446     Y255.6362     R9.5000    
   X112.2565     Y256.5840     R9.5000    
   X110.2916     Y258.0916     R9.5000    
   X108.7840     Y260.0565     R9.5000    
   X107.8362     Y262.3446     R9.5000    
   X107.5129     Y264.8000     R9.5000    
   X107.8362     Y267.2554     R9.5000    
   X108.7840     Y269.5435     R9.5000    
   X110.2916     Y271.5084     R9.5000    
   X112.2565     Y273.0160     R9.5000    
   X114.5446     Y273.9638     R9.5000    
   X117.0000     Y274.2871     R9.5000    
   X119.4554     Y273.9638     R9.5000    
   X121.7435     Y273.0160     R9.5000    
   X123.7084     Y271.5084     R9.5000    
   X125.2160     Y269.5435     R9.5000    
   X126.1638     Y267.2554     R9.5000    
   X126.4871     Y264.8000     R9.5000    
   X126.1638     Y262.3446     R9.5000    
   X125.2160     Y260.0565     R9.5000    
   X123.7084     Y258.0916     R9.5000    
   X121.7435     Y256.5840     R9.5000    
   X119.4554     Y255.6362     R9.5000    
(Pass: 11)
G1   Z-5.500    
G17 G2   X117.0000     Y255.3129     R9.5000    
   X114.5446     Y255.6362     R9.5000    
   X112.2565     Y256.5840     R9.5000    
   X110.2916     Y258.0916     R9.5000    
   X108.7840     Y260.0565     R9.5000    
   X107.8362     Y262.3446     R9.5000    
   X107.5129     Y264.8000     R9.5000    
   X107.8362     Y267.2554     R9.5000    
   X108.7840     Y269.5435     R9.5000    
   X110.2916     Y271.5084     R9.5000    
   X112.2565     Y273.0160     R9.5000    
   X114.5446     Y273.9638     R9.5000    
   X117.0000     Y274.2871     R9.5000    
   X119.4554     Y273.9638     R9.5000    
   X121.7435     Y273.0160     R9.5000    
   X123.7084     Y271.5084     R9.5000    
   X125.2160     Y269.5435     R9.5000    
   X126.1638     Y267.2554     R9.5000    
   X126.4871     Y264.8000     R9.5000    
   X126.1638     Y262.3446     R9.5000    
   X125.2160     Y260.0565     R9.5000    
   X123.7084     Y258.0916     R9.5000    
   X121.7435     Y256.5840     R9.5000    
   X119.4554     Y255.6362     R9.5000    
(Pass: 12)
G1   Z-6.000    
G17 G2   X117.0000     Y255.3129     R9.5000    
   X114.5446     Y255.6362     R9.5000    
   X112.2565     Y256.5840     R9.5000    
   X110.2916     Y258.0916     R9.5000    
   X108.7840     Y260.0565     R9.5000    
   X107.8362     Y262.3446     R9.5000    
   X107.5129     Y264.8000     R9.5000    
   X107.8362     Y267.2554     R9.5000    
   X108.7840     Y269.5435     R9.5000    
   X110.2916     Y271.5084     R9.5000    
   X112.2565     Y273.0160     R9.5000    
   X114.5446     Y273.9638     R9.5000    
   X117.0000     Y274.2871     R9.5000    
   X119.4554     Y273.9638     R9.5000    
   X121.7435     Y273.0160     R9.5000    
   X123.7084     Y271.5084     R9.5000    
   X125.2160     Y269.5435     R9.5000    
   X126.1638     Y267.2554     R9.5000    
   X126.4871     Y264.8000     R9.5000    
   X126.1638     Y262.3446     R9.5000    
   X125.2160     Y260.0565     R9.5000    
   X123.7084     Y258.0916     R9.5000    
   X121.7435     Y256.5840     R9.5000    
   X119.4554     Y255.6362     R9.5000    
(Pass: 13)
G1   Z-6.500    
G17 G2   X117.0000     Y255.3129     R9.5000    
   X114.5446     Y255.6362     R9.5000    
   X112.2565     Y256.5840     R9.5000    
   X110.2916     Y258.0916     R9.5000    
   X108.7840     Y260.0565     R9.5000    
   X107.8362     Y262.3446     R9.5000    
   X107.5129     Y264.8000     R9.5000    
   X107.8362     Y267.2554     R9.5000    
   X108.7840     Y269.5435     R9.5000    
   X110.2916     Y271.5084     R9.5000    
   X112.2565     Y273.0160     R9.5000    
   X114.5446     Y273.9638     R9.5000    
   X117.0000     Y274.2871     R9.5000    
   X119.4554     Y273.9638     R9.5000    
   X121.7435     Y273.0160     R9.5000    
   X123.7084     Y271.5084     R9.5000    
   X125.2160     Y269.5435     R9.5000    
   X126.1638     Y267.2554     R9.5000    
   X126.4871     Y264.8000     R9.5000    
   X126.1638     Y262.3446     R9.5000    
   X125.2160     Y260.0565     R9.5000    
   X123.7084     Y258.0916     R9.5000    
   X121.7435     Y256.5840     R9.5000    
   X119.4554     Y255.6362     R9.5000    
G0   Z5.000     
(Pass: 1)
   X55.631       Y264.478   
G1   Z-0.500     F400 
G17 G2   X55.4917      Y264.0670     R1.6750    
   X55.2511      Y263.7059     R1.6750    
   X54.9253      Y263.4193     R1.6750    
   X54.5364      Y263.2269     R1.6750    
   X54.1110      Y263.1417     R1.6750    
   X53.6780      Y263.1694     R1.6750    
   X53.2670      Y263.3083     R1.6750    
   X52.9059      Y263.5489     R1.6750    
   X52.6193      Y263.8747     R1.6750    
   X52.4269      Y264.2636     R1.6750    
   X52.3417      Y264.6890     R1.6750    
   X52.3694      Y265.1220     R1.6750    
   X52.5083      Y265.5330     R1.6750    
   X52.7489      Y265.8941     R1.6750    
   X53.0747      Y266.1807     R1.6750    
   X53.4636      Y266.3731     R1.6750    
   X53.8890      Y266.4583     R1.6750    
   X54.3220      Y266.4306     R1.6750    
   X54.7330      Y266.2917     R1.6750    
   X55.0941      Y266.0511     R1.6750    
   X55.3807      Y265.7253     R1.6750    
   X55.5731      Y265.3364     R1.6750    
   X55.6583      Y264.9110     R1.6750    
   X55.6306      Y264.4780     R1.6750    
(Pass: 2)
G1   Z-1.000    
G17 G2   X55.4917      Y264.0670     R1.6750    
   X55.2511      Y263.7059     R1.6750    
   X54.9253      Y263.4193     R1.6750    
   X54.5364      Y263.2269     R1.6750    
   X54.1110      Y263.1417     R1.6750    
   X53.6780      Y263.1694     R1.6750    
   X53.2670      Y263.3083     R1.6750    
   X52.9059      Y263.5489     R1.6750    
   X52.6193      Y263.8747     R1.6750    
   X52.4269      Y264.2636     R1.6750    
   X52.3417      Y264.6890     R1.6750    
   X52.3694      Y265.1220     R1.6750    
   X52.5083      Y265.5330     R1.6750    
   X52.7489      Y265.8941     R1.6750    
   X53.0747      Y266.1807     R1.6750    
   X53.4636      Y266.3731     R1.6750    
   X53.8890      Y266.4583     R1.6750    
   X54.3220      Y266.4306     R1.6750    
   X54.7330      Y266.2917     R1.6750    
   X55.0941      Y266.0511     R1.6750    
   X55.3807      Y265.7253     R1.6750    
   X55.5731      Y265.3364     R1.6750    
   X55.6583      Y264.9110     R1.6750    
   X55.6306      Y264.4780     R1.6750    
(Pass: 3)
G1   Z-1.500    
G17 G2   X55.4917      Y264.0670     R1.6750    
   X55.2511      Y263.7059     R1.6750    
   X54.9253      Y263.4193     R1.6750    
   X54.5364      Y263.2269     R1.6750    
   X54.1110      Y263.1417     R1.6750    
   X53.6780      Y263.1694     R1.6750    
   X53.2670      Y263.3083     R1.6750    
   X52.9059      Y263.5489     R1.6750    
   X52.6193      Y263.8747     R1.6750    
   X52.4269      Y264.2636     R1.6750    
   X52.3417      Y264.6890     R1.6750    
   X52.3694      Y265.1220     R1.6750    
   X52.5083      Y265.5330     R1.6750    
   X52.7489      Y265.8941     R1.6750    
   X53.0747      Y266.1807     R1.6750    
   X53.4636      Y266.3731     R1.6750    
   X53.8890      Y266.4583     R1.6750    
   X54.3220      Y266.4306     R1.6750    
   X54.7330      Y266.2917     R1.6750    
   X55.0941      Y266.0511     R1.6750    
   X55.3807      Y265.7253     R1.6750    
   X55.5731      Y265.3364     R1.6750    
   X55.6583      Y264.9110     R1.6750    
   X55.6306      Y264.4780     R1.6750    
(Pass: 4)
G1   Z-2.000    
G17 G2   X55.4917      Y264.0670     R1.6750    
   X55.2511      Y263.7059     R1.6750    
   X54.9253      Y263.4193     R1.6750    
   X54.5364      Y263.2269     R1.6750    
   X54.1110      Y263.1417     R1.6750    
   X53.6780      Y263.1694     R1.6750    
   X53.2670      Y263.3083     R1.6750    
   X52.9059      Y263.5489     R1.6750    
   X52.6193      Y263.8747     R1.6750    
   X52.4269      Y264.2636     R1.6750    
   X52.3417      Y264.6890     R1.6750    
   X52.3694      Y265.1220     R1.6750    
   X52.5083      Y265.5330     R1.6750    
   X52.7489      Y265.8941     R1.6750    
   X53.0747      Y266.1807     R1.6750    
   X53.4636      Y266.3731     R1.6750    
   X53.8890      Y266.4583     R1.6750    
   X54.3220      Y266.4306     R1.6750    
   X54.7330      Y266.2917     R1.6750    
   X55.0941      Y266.0511     R1.6750    
   X55.3807      Y265.7253     R1.6750    
   X55.5731      Y265.3364     R1.6750    
   X55.6583      Y264.9110     R1.6750    
   X55.6306      Y264.4780     R1.6750    
(Pass: 5)
G1   Z-2.500    
G17 G2   X55.4917      Y264.0670     R1.6750    
   X55.2511      Y263.7059     R1.6750    
   X54.9253      Y263.4193     R1.6750    
   X54.5364      Y263.2269     R1.6750    
   X54.1110      Y263.1417     R1.6750    
   X53.6780      Y263.1694     R1.6750    
   X53.2670      Y263.3083     R1.6750    
   X52.9059      Y263.5489     R1.6750    
   X52.6193      Y263.8747     R1.6750    
   X52.4269      Y264.2636     R1.6750    
   X52.3417      Y264.6890     R1.6750    
   X52.3694      Y265.1220     R1.6750    
   X52.5083      Y265.5330     R1.6750    
   X52.7489      Y265.8941     R1.6750    
   X53.0747      Y266.1807     R1.6750    
   X53.4636      Y266.3731     R1.6750    
   X53.8890      Y266.4583     R1.6750    
   X54.3220      Y266.4306     R1.6750    
   X54.7330      Y266.2917     R1.6750    
   X55.0941      Y266.0511     R1.6750    
   X55.3807      Y265.7253     R1.6750    
   X55.5731      Y265.3364     R1.6750    
   X55.6583      Y264.9110     R1.6750    
   X55.6306      Y264.4780     R1.6750    
(Pass: 6)
G1   Z-3.000    
G17 G2   X55.4917      Y264.0670     R1.6750    
   X55.2511      Y263.7059     R1.6750    
   X54.9253      Y263.4193     R1.6750    
   X54.5364      Y263.2269     R1.6750    
   X54.1110      Y263.1417     R1.6750    
   X53.6780      Y263.1694     R1.6750    
   X53.2670      Y263.3083     R1.6750    
   X52.9059      Y263.5489     R1.6750    
   X52.6193      Y263.8747     R1.6750    
   X52.4269      Y264.2636     R1.6750    
   X52.3417      Y264.6890     R1.6750    
   X52.3694      Y265.1220     R1.6750    
   X52.5083      Y265.5330     R1.6750    
   X52.7489      Y265.8941     R1.6750    
   X53.0747      Y266.1807     R1.6750    
   X53.4636      Y266.3731     R1.6750    
   X53.8890      Y266.4583     R1.6750    
   X54.3220      Y266.4306     R1.6750    
   X54.7330      Y266.2917     R1.6750    
   X55.0941      Y266.0511     R1.6750    
   X55.3807      Y265.7253     R1.6750    
   X55.5731      Y265.3364     R1.6750    
   X55.6583      Y264.9110     R1.6750    
   X55.6306      Y264.4780     R1.6750    
(Pass: 7)
G1   Z-3.500    
G17 G2   X55.4917      Y264.0670     R1.6750    
   X55.2511      Y263.7059     R1.6750    
   X54.9253      Y263.4193     R1.6750    
   X54.5364      Y263.2269     R1.6750    
   X54.1110      Y263.1417     R1.6750    
   X53.6780      Y263.1694     R1.6750    
   X53.2670      Y263.3083     R1.6750    
   X52.9059      Y263.5489     R1.6750    
   X52.6193      Y263.8747     R1.6750    
   X52.4269      Y264.2636     R1.6750    
   X52.3417      Y264.6890     R1.6750    
   X52.3694      Y265.1220     R1.6750    
   X52.5083      Y265.5330     R1.6750    
   X52.7489      Y265.8941     R1.6750    
   X53.0747      Y266.1807     R1.6750    
   X53.4636      Y266.3731     R1.6750    
   X53.8890      Y266.4583     R1.6750    
   X54.3220      Y266.4306     R1.6750    
   X54.7330      Y266.2917     R1.6750    
   X55.0941      Y266.0511     R1.6750    
   X55.3807      Y265.7253     R1.6750    
   X55.5731      Y265.3364     R1.6750    
   X55.6583      Y264.9110     R1.6750    
   X55.6306      Y264.4780     R1.6750    
(Pass: 8)
G1   Z-4.000    
G17 G2   X55.4917      Y264.0670     R1.6750    
   X55.2511      Y263.7059     R1.6750    
   X54.9253      Y263.4193     R1.6750    
   X54.5364      Y263.2269     R1.6750    
   X54.1110      Y263.1417     R1.6750    
   X53.6780      Y263.1694     R1.6750    
   X53.2670      Y263.3083     R1.6750    
   X52.9059      Y263.5489     R1.6750    
   X52.6193      Y263.8747     R1.6750    
   X52.4269      Y264.2636     R1.6750    
   X52.3417      Y264.6890     R1.6750    
   X52.3694      Y265.1220     R1.6750    
   X52.5083      Y265.5330     R1.6750    
   X52.7489      Y265.8941     R1.6750    
   X53.0747      Y266.1807     R1.6750    
   X53.4636      Y266.3731     R1.6750    
   X53.8890      Y266.4583     R1.6750    
   X54.3220      Y266.4306     R1.6750    
   X54.7330      Y266.2917     R1.6750    
   X55.0941      Y266.0511     R1.6750    
   X55.3807      Y265.7253     R1.6750    
   X55.5731      Y265.3364     R1.6750    
   X55.6583      Y264.9110     R1.6750    
   X55.6306      Y264.4780     R1.6750    
(Pass: 9)
G1   Z-4.500    
G17 G2   X55.4917      Y264.0670     R1.6750    
   X55.2511      Y263.7059     R1.6750    
   X54.9253      Y263.4193     R1.6750    
   X54.5364      Y263.2269     R1.6750    
   X54.1110      Y263.1417     R1.6750    
   X53.6780      Y263.1694     R1.6750    
   X53.2670      Y263.3083     R1.6750    
   X52.9059      Y263.5489     R1.6750    
   X52.6193      Y263.8747     R1.6750    
   X52.4269      Y264.2636     R1.6750    
   X52.3417      Y264.6890     R1.6750    
   X52.3694      Y265.1220     R1.6750    
   X52.5083      Y265.5330     R1.6750    
   X52.7489      Y265.8941     R1.6750    
   X53.0747      Y266.1807     R1.6750    
   X53.4636      Y266.3731     R1.6750    
   X53.8890      Y266.4583     R1.6750    
   X54.3220      Y266.4306     R1.6750    
   X54.7330      Y266.2917     R1.6750    
   X55.0941      Y266.0511     R1.6750    
   X55.3807      Y265.7253     R1.6750    
   X55.5731      Y265.3364     R1.6750    
   X55.6583      Y264.9110     R1.6750    
   X55.6306      Y264.4780     R1.6750    
(Pass: 10)
G1   Z-5.000    
G17 G2   X55.4917      Y264.0670     R1.6750    
   X55.2511      Y263.7059     R1.6750    
   X54.9253      Y263.4193     R1.6750    
   X54.5364      Y263.2269     R1.6750    
   X54.1110      Y263.1417     R1.6750    
   X53.6780      Y263.1694     R1.6750    
   X53.2670      Y263.3083     R1.6750    
   X52.9059      Y263.5489     R1.6750    
   X52.6193      Y263.8747     R1.6750    
   X52.4269      Y264.2636     R1.6750    
   X52.3417      Y264.6890     R1.6750    
   X52.3694      Y265.1220     R1.6750    
   X52.5083      Y265.5330     R1.6750    
   X52.7489      Y265.8941     R1.6750    
   X53.0747      Y266.1807     R1.6750    
   X53.4636      Y266.3731     R1.6750    
   X53.8890      Y266.4583     R1.6750    
   X54.3220      Y266.4306     R1.6750    
   X54.7330      Y266.2917     R1.6750    
   X55.0941      Y266.0511     R1.6750    
   X55.3807      Y265.7253     R1.6750    
   X55.5731      Y265.3364     R1.6750    
   X55.6583      Y264.9110     R1.6750    
   X55.6306      Y264.4780     R1.6750    
(Pass: 11)
G1   Z-5.500    
G17 G2   X55.4917      Y264.0670     R1.6750    
   X55.2511      Y263.7059     R1.6750    
   X54.9253      Y263.4193     R1.6750    
   X54.5364      Y263.2269     R1.6750    
   X54.1110      Y263.1417     R1.6750    
   X53.6780      Y263.1694     R1.6750    
   X53.2670      Y263.3083     R1.6750    
   X52.9059      Y263.5489     R1.6750    
   X52.6193      Y263.8747     R1.6750    
   X52.4269      Y264.2636     R1.6750    
   X52.3417      Y264.6890     R1.6750    
   X52.3694      Y265.1220     R1.6750    
   X52.5083      Y265.5330     R1.6750    
   X52.7489      Y265.8941     R1.6750    
   X53.0747      Y266.1807     R1.6750    
   X53.4636      Y266.3731     R1.6750    
   X53.8890      Y266.4583     R1.6750    
   X54.3220      Y266.4306     R1.6750    
   X54.7330      Y266.2917     R1.6750    
   X55.0941      Y266.0511     R1.6750    
   X55.3807      Y265.7253     R1.6750    
   X55.5731      Y265.3364     R1.6750    
   X55.6583      Y264.9110     R1.6750    
   X55.6306      Y264.4780     R1.6750    
(Pass: 12)
G1   Z-6.000    
G17 G2   X55.4917      Y264.0670     R1.6750    
   X55.2511      Y263.7059     R1.6750    
   X54.9253      Y263.4193     R1.6750    
   X54.5364      Y263.2269     R1.6750    
   X54.1110      Y263.1417     R1.6750    
   X53.6780      Y263.1694     R1.6750    
   X53.2670      Y263.3083     R1.6750    
   X52.9059      Y263.5489     R1.6750    
   X52.6193      Y263.8747     R1.6750    
   X52.4269      Y264.2636     R1.6750    
   X52.3417      Y264.6890     R1.6750    
   X52.3694      Y265.1220     R1.6750    
   X52.5083      Y265.5330     R1.6750    
   X52.7489      Y265.8941     R1.6750    
   X53.0747      Y266.1807     R1.6750    
   X53.4636      Y266.3731     R1.6750    
   X53.8890      Y266.4583     R1.6750    
   X54.3220      Y266.4306     R1.6750    
   X54.7330      Y266.2917     R1.6750    
   X55.0941      Y266.0511     R1.6750    
   X55.3807      Y265.7253     R1.6750    
   X55.5731      Y265.3364     R1.6750    
   X55.6583      Y264.9110     R1.6750    
   X55.6306      Y264.4780     R1.6750    
(Pass: 13)
G1   Z-6.500    
G17 G2   X55.4917      Y264.0670     R1.6750    
   X55.2511      Y263.7059     R1.6750    
   X54.9253      Y263.4193     R1.6750    
   X54.5364      Y263.2269     R1.6750    
   X54.1110      Y263.1417     R1.6750    
   X53.6780      Y263.1694     R1.6750    
   X53.2670      Y263.3083     R1.6750    
   X52.9059      Y263.5489     R1.6750    
   X52.6193      Y263.8747     R1.6750    
   X52.4269      Y264.2636     R1.6750    
   X52.3417      Y264.6890     R1.6750    
   X52.3694      Y265.1220     R1.6750    
   X52.5083      Y265.5330     R1.6750    
   X52.7489      Y265.8941     R1.6750    
   X53.0747      Y266.1807     R1.6750    
   X53.4636      Y266.3731     R1.6750    
   X53.8890      Y266.4583     R1.6750    
   X54.3220      Y266.4306     R1.6750    
   X54.7330      Y266.2917     R1.6750    
   X55.0941      Y266.0511     R1.6750    
   X55.3807      Y265.7253     R1.6750    
   X55.5731      Y265.3364     R1.6750    
   X55.6583      Y264.9110     R1.6750    
   X55.6306      Y264.4780     R1.6750    
G0   Z5.000     
(Pass: 1)
   X19.660       Y264.889   
G1   Z-0.500     F400 
G17 G2   X19.6262      Y264.4565     R1.6750    
   X19.4818      Y264.0473     R1.6750    
   X19.2365      Y263.6894     R1.6750    
   X18.9070      Y263.4072     R1.6750    
   X18.5156      Y263.2199     R1.6750    
   X18.0890      Y263.1403     R1.6750    
   X17.6565      Y263.1738     R1.6750    
   X17.2473      Y263.3182     R1.6750    
   X16.8894      Y263.5635     R1.6750    
   X16.6072      Y263.8930     R1.6750    
   X16.4199      Y264.2844     R1.6750    
   X16.3403      Y264.7110     R1.6750    
   X16.3738      Y265.1435     R1.6750    
   X16.5182      Y265.5527     R1.6750    
   X16.7635      Y265.9106     R1.6750    
   X17.0930      Y266.1928     R1.6750    
   X17.4844      Y266.3801     R1.6750    
   X17.9110      Y266.4597     R1.6750    
   X18.3435      Y266.4262     R1.6750    
   X18.7527      Y266.2818     R1.6750    
   X19.1106      Y266.0365     R1.6750    
   X19.3928      Y265.7070     R1.6750    
   X19.5801      Y265.3156     R1.6750    
   X19.6597      Y264.8890     R1.6750    
(Pass: 2)
G1   Z-1.000    
G17 G2   X19.6262      Y264.4565     R1.6750    
   X19.4818      Y264.0473     R1.6750    
   X19.2365      Y263.6894     R1.6750    
   X18.9070      Y263.4072     R1.6750    
   X18.5156      Y263.2199     R1.6750    
   X18.0890      Y263.1403     R1.6750    
   X17.6565      Y263.1738     R1.6750    
   X17.2473      Y263.3182     R1.6750    
   X16.8894      Y263.5635     R1.6750    
   X16.6072      Y263.8930     R1.6750    
   X16.4199      Y264.2844     R1.6750    
   X16.3403      Y264.7110     R1.6750    
   X16.3738      Y265.1435     R1.6750    
   X16.5182      Y265.5527     R1.6750    
   X16.7635      Y265.9106     R1.6750    
   X17.0930      Y266.1928     R1.6750    
   X17.4844      Y266.3801     R1.6750    
   X17.9110      Y266.4597     R1.6750    
   X18.3435      Y266.4262     R1.6750    
   X18.7527      Y266.2818     R1.6750    
   X19.1106      Y266.0365     R1.6750    
   X19.3928      Y265.7070     R1.6750    
   X19.5801      Y265.3156     R1.6750    
   X19.6597      Y264.8890     R1.6750    
(Pass: 3)
G1   Z-1.500    
G17 G2   X19.6262      Y264.4565     R1.6750    
   X19.4818      Y264.0473     R1.6750    
   X19.2365      Y263.6894     R1.6750    
   X18.9070      Y263.4072     R1.6750    
   X18.5156      Y263.2199     R1.6750    
   X18.0890      Y263.1403     R1.6750    
   X17.6565      Y263.1738     R1.6750    
   X17.2473      Y263.3182     R1.6750    
   X16.8894      Y263.5635     R1.6750    
   X16.6072      Y263.8930     R1.6750    
   X16.4199      Y264.2844     R1.6750    
   X16.3403      Y264.7110     R1.6750    
   X16.3738      Y265.1435     R1.6750    
   X16.5182      Y265.5527     R1.6750    
   X16.7635      Y265.9106     R1.6750    
   X17.0930      Y266.1928     R1.6750    
   X17.4844      Y266.3801     R1.6750    
   X17.9110      Y266.4597     R1.6750    
   X18.3435      Y266.4262     R1.6750    
   X18.7527      Y266.2818     R1.6750    
   X19.1106      Y266.0365     R1.6750    
   X19.3928      Y265.7070     R1.6750    
   X19.5801      Y265.3156     R1.6750    
   X19.6597      Y264.8890     R1.6750    
(Pass: 4)
G1   Z-2.000    
G17 G2   X19.6262      Y264.4565     R1.6750    
   X19.4818      Y264.0473     R1.6750    
   X19.2365      Y263.6894     R1.6750    
   X18.9070      Y263.4072     R1.6750    
   X18.5156      Y263.2199     R1.6750    
   X18.0890      Y263.1403     R1.6750    
   X17.6565      Y263.1738     R1.6750    
   X17.2473      Y263.3182     R1.6750    
   X16.8894      Y263.5635     R1.6750    
   X16.6072      Y263.8930     R1.6750    
   X16.4199      Y264.2844     R1.6750    
   X16.3403      Y264.7110     R1.6750    
   X16.3738      Y265.1435     R1.6750    
   X16.5182      Y265.5527     R1.6750    
   X16.7635      Y265.9106     R1.6750    
   X17.0930      Y266.1928     R1.6750    
   X17.4844      Y266.3801     R1.6750    
   X17.9110      Y266.4597     R1.6750    
   X18.3435      Y266.4262     R1.6750    
   X18.7527      Y266.2818     R1.6750    
   X19.1106      Y266.0365     R1.6750    
   X19.3928      Y265.7070     R1.6750    
   X19.5801      Y265.3156     R1.6750    
   X19.6597      Y264.8890     R1.6750    
(Pass: 5)
G1   Z-2.500    
G17 G2   X19.6262      Y264.4565     R1.6750    
   X19.4818      Y264.0473     R1.6750    
   X19.2365      Y263.6894     R1.6750    
   X18.9070      Y263.4072     R1.6750    
   X18.5156      Y263.2199     R1.6750    
   X18.0890      Y263.1403     R1.6750    
   X17.6565      Y263.1738     R1.6750    
   X17.2473      Y263.3182     R1.6750    
   X16.8894      Y263.5635     R1.6750    
   X16.6072      Y263.8930     R1.6750    
   X16.4199      Y264.2844     R1.6750    
   X16.3403      Y264.7110     R1.6750    
   X16.3738      Y265.1435     R1.6750    
   X16.5182      Y265.5527     R1.6750    
   X16.7635      Y265.9106     R1.6750    
   X17.0930      Y266.1928     R1.6750    
   X17.4844      Y266.3801     R1.6750    
   X17.9110      Y266.4597     R1.6750    
   X18.3435      Y266.4262     R1.6750    
   X18.7527      Y266.2818     R1.6750    
   X19.1106      Y266.0365     R1.6750    
   X19.3928      Y265.7070     R1.6750    
   X19.5801      Y265.3156     R1.6750    
   X19.6597      Y264.8890     R1.6750    
(Pass: 6)
G1   Z-3.000    
G17 G2   X19.6262      Y264.4565     R1.6750    
   X19.4818      Y264.0473     R1.6750    
   X19.2365      Y263.6894     R1.6750    
   X18.9070      Y263.4072     R1.6750    
   X18.5156      Y263.2199     R1.6750    
   X18.0890      Y263.1403     R1.6750    
   X17.6565      Y263.1738     R1.6750    
   X17.2473      Y263.3182     R1.6750    
   X16.8894      Y263.5635     R1.6750    
   X16.6072      Y263.8930     R1.6750    
   X16.4199      Y264.2844     R1.6750    
   X16.3403      Y264.7110     R1.6750    
   X16.3738      Y265.1435     R1.6750    
   X16.5182      Y265.5527     R1.6750    
   X16.7635      Y265.9106     R1.6750    
   X17.0930      Y266.1928     R1.6750    
   X17.4844      Y266.3801     R1.6750    
   X17.9110      Y266.4597     R1.6750    
   X18.3435      Y266.4262     R1.6750    
   X18.7527      Y266.2818     R1.6750    
   X19.1106      Y266.0365     R1.6750    
   X19.3928      Y265.7070     R1.6750    
   X19.5801      Y265.3156     R1.6750    
   X19.6597      Y264.8890     R1.6750    
(Pass: 7)
G1   Z-3.500    
G17 G2   X19.6262      Y264.4565     R1.6750    
   X19.4818      Y264.0473     R1.6750    
   X19.2365      Y263.6894     R1.6750    
   X18.9070      Y263.4072     R1.6750    
   X18.5156      Y263.2199     R1.6750    
   X18.0890      Y263.1403     R1.6750    
   X17.6565      Y263.1738     R1.6750    
   X17.2473      Y263.3182     R1.6750    
   X16.8894      Y263.5635     R1.6750    
   X16.6072      Y263.8930     R1.6750    
   X16.4199      Y264.2844     R1.6750    
   X16.3403      Y264.7110     R1.6750    
   X16.3738      Y265.1435     R1.6750    
   X16.5182      Y265.5527     R1.6750    
   X16.7635      Y265.9106     R1.6750    
   X17.0930      Y266.1928     R1.6750    
   X17.4844      Y266.3801     R1.6750    
   X17.9110      Y266.4597     R1.6750    
   X18.3435      Y266.4262     R1.6750    
   X18.7527      Y266.2818     R1.6750    
   X19.1106      Y266.0365     R1.6750    
   X19.3928      Y265.7070     R1.6750    
   X19.5801      Y265.3156     R1.6750    
   X19.6597      Y264.8890     R1.6750    
(Pass: 8)
G1   Z-4.000    
G17 G2   X19.6262      Y264.4565     R1.6750    
   X19.4818      Y264.0473     R1.6750    
   X19.2365      Y263.6894     R1.6750    
   X18.9070      Y263.4072     R1.6750    
   X18.5156      Y263.2199     R1.6750    
   X18.0890      Y263.1403     R1.6750    
   X17.6565      Y263.1738     R1.6750    
   X17.2473      Y263.3182     R1.6750    
   X16.8894      Y263.5635     R1.6750    
   X16.6072      Y263.8930     R1.6750    
   X16.4199      Y264.2844     R1.6750    
   X16.3403      Y264.7110     R1.6750    
   X16.3738      Y265.1435     R1.6750    
   X16.5182      Y265.5527     R1.6750    
   X16.7635      Y265.9106     R1.6750    
   X17.0930      Y266.1928     R1.6750    
   X17.4844      Y266.3801     R1.6750    
   X17.9110      Y266.4597     R1.6750    
   X18.3435      Y266.4262     R1.6750    
   X18.7527      Y266.2818     R1.6750    
   X19.1106      Y266.0365     R1.6750    
   X19.3928      Y265.7070     R1.6750    
   X19.5801      Y265.3156     R1.6750    
   X19.6597      Y264.8890     R1.6750    
(Pass: 9)
G1   Z-4.500    
G17 G2   X19.6262      Y264.4565     R1.6750    
   X19.4818      Y264.0473     R1.6750    
   X19.2365      Y263.6894     R1.6750    
   X18.9070      Y263.4072     R1.6750    
   X18.5156      Y263.2199     R1.6750    
   X18.0890      Y263.1403     R1.6750    
   X17.6565      Y263.1738     R1.6750    
   X17.2473      Y263.3182     R1.6750    
   X16.8894      Y263.5635     R1.6750    
   X16.6072      Y263.8930     R1.6750    
   X16.4199      Y264.2844     R1.6750    
   X16.3403      Y264.7110     R1.6750    
   X16.3738      Y265.1435     R1.6750    
   X16.5182      Y265.5527     R1.6750    
   X16.7635      Y265.9106     R1.6750    
   X17.0930      Y266.1928     R1.6750    
   X17.4844      Y266.3801     R1.6750    
   X17.9110      Y266.4597     R1.6750    
   X18.3435      Y266.4262     R1.6750    
   X18.7527      Y266.2818     R1.6750    
   X19.1106      Y266.0365     R1.6750    
   X19.3928      Y265.7070     R1.6750    
   X19.5801      Y265.3156     R1.6750    
   X19.6597      Y264.8890     R1.6750    
(Pass: 10)
G1   Z-5.000    
G17 G2   X19.6262      Y264.4565     R1.6750    
   X19.4818      Y264.0473     R1.6750    
   X19.2365      Y263.6894     R1.6750    
   X18.9070      Y263.4072     R1.6750    
   X18.5156      Y263.2199     R1.6750    
   X18.0890      Y263.1403     R1.6750    
   X17.6565      Y263.1738     R1.6750    
   X17.2473      Y263.3182     R1.6750    
   X16.8894      Y263.5635     R1.6750    
   X16.6072      Y263.8930     R1.6750    
   X16.4199      Y264.2844     R1.6750    
   X16.3403      Y264.7110     R1.6750    
   X16.3738      Y265.1435     R1.6750    
   X16.5182      Y265.5527     R1.6750    
   X16.7635      Y265.9106     R1.6750    
   X17.0930      Y266.1928     R1.6750    
   X17.4844      Y266.3801     R1.6750    
   X17.9110      Y266.4597     R1.6750    
   X18.3435      Y266.4262     R1.6750    
   X18.7527      Y266.2818     R1.6750    
   X19.1106      Y266.0365     R1.6750    
   X19.3928      Y265.7070     R1.6750    
   X19.5801      Y265.3156     R1.6750    
   X19.6597      Y264.8890     R1.6750    
(Pass: 11)
G1   Z-5.500    
G17 G2   X19.6262      Y264.4565     R1.6750    
   X19.4818      Y264.0473     R1.6750    
   X19.2365      Y263.6894     R1.6750    
   X18.9070      Y263.4072     R1.6750    
   X18.5156      Y263.2199     R1.6750    
   X18.0890      Y263.1403     R1.6750    
   X17.6565      Y263.1738     R1.6750    
   X17.2473      Y263.3182     R1.6750    
   X16.8894      Y263.5635     R1.6750    
   X16.6072      Y263.8930     R1.6750    
   X16.4199      Y264.2844     R1.6750    
   X16.3403      Y264.7110     R1.6750    
   X16.3738      Y265.1435     R1.6750    
   X16.5182      Y265.5527     R1.6750    
   X16.7635      Y265.9106     R1.6750    
   X17.0930      Y266.1928     R1.6750    
   X17.4844      Y266.3801     R1.6750    
   X17.9110      Y266.4597     R1.6750    
   X18.3435      Y266.4262     R1.6750    
   X18.7527      Y266.2818     R1.6750    
   X19.1106      Y266.0365     R1.6750    
   X19.3928      Y265.7070     R1.6750    
   X19.5801      Y265.3156     R1.6750    
   X19.6597      Y264.8890     R1.6750    
(Pass: 12)
G1   Z-6.000    
G17 G2   X19.6262      Y264.4565     R1.6750    
   X19.4818      Y264.0473     R1.6750    
   X19.2365      Y263.6894     R1.6750    
   X18.9070      Y263.4072     R1.6750    
   X18.5156      Y263.2199     R1.6750    
   X18.0890      Y263.1403     R1.6750    
   X17.6565      Y263.1738     R1.6750    
   X17.2473      Y263.3182     R1.6750    
   X16.8894      Y263.5635     R1.6750    
   X16.6072      Y263.8930     R1.6750    
   X16.4199      Y264.2844     R1.6750    
   X16.3403      Y264.7110     R1.6750    
   X16.3738      Y265.1435     R1.6750    
   X16.5182      Y265.5527     R1.6750    
   X16.7635      Y265.9106     R1.6750    
   X17.0930      Y266.1928     R1.6750    
   X17.4844      Y266.3801     R1.6750    
   X17.9110      Y266.4597     R1.6750    
   X18.3435      Y266.4262     R1.6750    
   X18.7527      Y266.2818     R1.6750    
   X19.1106      Y266.0365     R1.6750    
   X19.3928      Y265.7070     R1.6750    
   X19.5801      Y265.3156     R1.6750    
   X19.6597      Y264.8890     R1.6750    
(Pass: 13)
G1   Z-6.500    
G17 G2   X19.6262      Y264.4565     R1.6750    
   X19.4818      Y264.0473     R1.6750    
   X19.2365      Y263.6894     R1.6750    
   X18.9070      Y263.4072     R1.6750    
   X18.5156      Y263.2199     R1.6750    
   X18.0890      Y263.1403     R1.6750    
   X17.6565      Y263.1738     R1.6750    
   X17.2473      Y263.3182     R1.6750    
   X16.8894      Y263.5635     R1.6750    
   X16.6072      Y263.8930     R1.6750    
   X16.4199      Y264.2844     R1.6750    
   X16.3403      Y264.7110     R1.6750    
   X16.3738      Y265.1435     R1.6750    
   X16.5182      Y265.5527     R1.6750    
   X16.7635      Y265.9106     R1.6750    
   X17.0930      Y266.1928     R1.6750    
   X17.4844      Y266.3801     R1.6750    
   X17.9110      Y266.4597     R1.6750    
   X18.3435      Y266.4262     R1.6750    
   X18.7527      Y266.2818     R1.6750    
   X19.1106      Y266.0365     R1.6750    
   X19.3928      Y265.7070     R1.6750    
   X19.5801      Y265.3156     R1.6750    
   X19.6597      Y264.8890     R1.6750    
G0   Z5.000     
G0 X0 Y0 (home)
M05
M30
%
