%
(Generated by SketchUcam {1.2})
(File: Purse Bottom.skp)
(Bit diameter: 3.0mm)
(Feed rate: 300.0mm/min)
(Material Thickness: 4.0mm)
(Material length: 558.8mm X width: 1066.8mm)
(Overhead Gantry: true)
(Retract feed rate NOT limited to plunge feed rate)
(Multipass enabled, Depth = 1.0mm)
(Optimization is ON)
(www.PhlatBoyz.com)
G90 G21 G49 
M3 S8000
G0   Z10.000    
(Pass: 1)
   X8.444        Y8.810     
G1   Z-1.000     F300 
G17 G3   X9.8406       Y7.5850       R14.2000   
   X11.3854      Y6.5528       R14.2000   
   X13.0517      Y5.7311       R14.2000   
   X14.8109      Y5.1339       R14.2000   
   X16.6331      Y4.7715       R14.2000   
   X18.4379      Y4.6532       R14.2000   
G1   X336.036   
G17 G3   X337.8409     Y4.7715       R14.2000   
   X339.6631     Y5.1339       R14.2000   
   X341.4223     Y5.7311       R14.2000   
   X343.0886     Y6.5528       R14.2000   
   X344.6334     Y7.5850       R14.2000   
   X346.0302     Y8.8100       R14.2000   
   X347.2552     Y10.2068      R14.2000   
   X348.2873     Y11.7516      R14.2000   
   X349.1091     Y13.4178      R14.2000   
   X349.7062     Y15.1771      R14.2000   
   X350.0687     Y16.9993      R14.2000   
   X350.1870     Y18.8041      R14.2000   
G1   Y57.002    
G17 G3   X350.0687     Y58.8071      R14.2000   
   X349.7062     Y60.6292      R14.2000   
   X349.1091     Y62.3885      R14.2000   
   X348.2873     Y64.0548      R14.2000   
   X347.2552     Y65.5995      R14.2000   
   X346.0302     Y66.9964      R14.2000   
   X344.6334     Y68.2213      R14.2000   
   X343.0886     Y69.2535      R14.2000   
   X341.4223     Y70.0752      R14.2000   
   X339.6631     Y70.6724      R14.2000   
   X337.8409     Y71.0349      R14.2000   
   X336.0361     Y71.1532      R14.2000   
G1   X18.438    
G17 G3   X16.6331      Y71.0349      R14.2000   
   X14.8109      Y70.6724      R14.2000   
   X13.0517      Y70.0752      R14.2000   
   X11.3854      Y69.2535      R14.2000   
   X9.8406       Y68.2213      R14.2000   
   X8.4438       Y66.9964      R14.2000   
   X7.2188       Y65.5995      R14.2000   
   X6.1866       Y64.0548      R14.2000   
   X5.3649       Y62.3885      R14.2000   
   X4.7677       Y60.6292      R14.2000   
   X4.4053       Y58.8071      R14.2000   
   X4.2870       Y57.0023      R14.2000   
G1   Y18.804    
G17 G3   X4.4053       Y16.9993      R14.2000   
   X4.7677       Y15.1771      R14.2000   
   X5.3649       Y13.4178      R14.2000   
   X6.1866       Y11.7516      R14.2000   
   X7.2188       Y10.2068      R14.2000   
   X8.4438       Y8.8100       R14.2000   
(Pass: 2)
G1   Z-2.000    
G17 G3   X9.8406       Y7.5850       R14.2000   
   X11.3854      Y6.5528       R14.2000   
   X13.0517      Y5.7311       R14.2000   
   X14.8109      Y5.1339       R14.2000   
   X16.6331      Y4.7715       R14.2000   
   X18.4379      Y4.6532       R14.2000   
G1   X336.036   
G17 G3   X337.8409     Y4.7715       R14.2000   
   X339.6631     Y5.1339       R14.2000   
   X341.4223     Y5.7311       R14.2000   
   X343.0886     Y6.5528       R14.2000   
   X344.6334     Y7.5850       R14.2000   
   X346.0302     Y8.8100       R14.2000   
   X347.2552     Y10.2068      R14.2000   
   X348.2873     Y11.7516      R14.2000   
   X349.1091     Y13.4178      R14.2000   
   X349.7062     Y15.1771      R14.2000   
   X350.0687     Y16.9993      R14.2000   
   X350.1870     Y18.8041      R14.2000   
G1   Y57.002    
G17 G3   X350.0687     Y58.8071      R14.2000   
   X349.7062     Y60.6292      R14.2000   
   X349.1091     Y62.3885      R14.2000   
   X348.2873     Y64.0548      R14.2000   
   X347.2552     Y65.5995      R14.2000   
   X346.0302     Y66.9964      R14.2000   
   X344.6334     Y68.2213      R14.2000   
   X343.0886     Y69.2535      R14.2000   
   X341.4223     Y70.0752      R14.2000   
   X339.6631     Y70.6724      R14.2000   
   X337.8409     Y71.0349      R14.2000   
   X336.0361     Y71.1532      R14.2000   
G1   X18.438    
G17 G3   X16.6331      Y71.0349      R14.2000   
   X14.8109      Y70.6724      R14.2000   
   X13.0517      Y70.0752      R14.2000   
   X11.3854      Y69.2535      R14.2000   
   X9.8406       Y68.2213      R14.2000   
   X8.4438       Y66.9964      R14.2000   
   X7.2188       Y65.5995      R14.2000   
   X6.1866       Y64.0548      R14.2000   
   X5.3649       Y62.3885      R14.2000   
   X4.7677       Y60.6292      R14.2000   
   X4.4053       Y58.8071      R14.2000   
   X4.2870       Y57.0023      R14.2000   
G1   Y18.804    
G17 G3   X4.4053       Y16.9993      R14.2000   
   X4.7677       Y15.1771      R14.2000   
   X5.3649       Y13.4178      R14.2000   
   X6.1866       Y11.7516      R14.2000   
   X7.2188       Y10.2068      R14.2000   
   X8.4438       Y8.8100       R14.2000   
(Pass: 3)
G1   Z-3.000    
G17 G3   X9.8406       Y7.5850       R14.2000   
   X11.3854      Y6.5528       R14.2000   
   X13.0517      Y5.7311       R14.2000   
   X14.8109      Y5.1339       R14.2000   
   X16.6331      Y4.7715       R14.2000   
   X18.4379      Y4.6532       R14.2000   
G1   X336.036   
G17 G3   X337.8409     Y4.7715       R14.2000   
   X339.6631     Y5.1339       R14.2000   
   X341.4223     Y5.7311       R14.2000   
   X343.0886     Y6.5528       R14.2000   
   X344.6334     Y7.5850       R14.2000   
   X346.0302     Y8.8100       R14.2000   
   X347.2552     Y10.2068      R14.2000   
   X348.2873     Y11.7516      R14.2000   
   X349.1091     Y13.4178      R14.2000   
   X349.7062     Y15.1771      R14.2000   
   X350.0687     Y16.9993      R14.2000   
   X350.1870     Y18.8041      R14.2000   
G1   Y57.002    
G17 G3   X350.0687     Y58.8071      R14.2000   
   X349.7062     Y60.6292      R14.2000   
   X349.1091     Y62.3885      R14.2000   
   X348.2873     Y64.0548      R14.2000   
   X347.2552     Y65.5995      R14.2000   
   X346.0302     Y66.9964      R14.2000   
   X344.6334     Y68.2213      R14.2000   
   X343.0886     Y69.2535      R14.2000   
   X341.4223     Y70.0752      R14.2000   
   X339.6631     Y70.6724      R14.2000   
   X337.8409     Y71.0349      R14.2000   
   X336.0361     Y71.1532      R14.2000   
G1   X18.438    
G17 G3   X16.6331      Y71.0349      R14.2000   
   X14.8109      Y70.6724      R14.2000   
   X13.0517      Y70.0752      R14.2000   
   X11.3854      Y69.2535      R14.2000   
   X9.8406       Y68.2213      R14.2000   
   X8.4438       Y66.9964      R14.2000   
   X7.2188       Y65.5995      R14.2000   
   X6.1866       Y64.0548      R14.2000   
   X5.3649       Y62.3885      R14.2000   
   X4.7677       Y60.6292      R14.2000   
   X4.4053       Y58.8071      R14.2000   
   X4.2870       Y57.0023      R14.2000   
G1   Y18.804    
G17 G3   X4.4053       Y16.9993      R14.2000   
   X4.7677       Y15.1771      R14.2000   
   X5.3649       Y13.4178      R14.2000   
   X6.1866       Y11.7516      R14.2000   
   X7.2188       Y10.2068      R14.2000   
   X8.4438       Y8.8100       R14.2000   
(Pass: 4)
G1   Z-4.000    
G17 G3   X9.8406       Y7.5850       R14.2000   
   X11.3854      Y6.5528       R14.2000   
   X13.0517      Y5.7311       R14.2000   
   X14.8109      Y5.1339       R14.2000   
   X16.6331      Y4.7715       R14.2000   
   X18.4379      Y4.6532       R14.2000   
G1   X336.036   
G17 G3   X337.8409     Y4.7715       R14.2000   
   X339.6631     Y5.1339       R14.2000   
   X341.4223     Y5.7311       R14.2000   
   X343.0886     Y6.5528       R14.2000   
   X344.6334     Y7.5850       R14.2000   
   X346.0302     Y8.8100       R14.2000   
   X347.2552     Y10.2068      R14.2000   
   X348.2873     Y11.7516      R14.2000   
   X349.1091     Y13.4178      R14.2000   
   X349.7062     Y15.1771      R14.2000   
   X350.0687     Y16.9993      R14.2000   
   X350.1870     Y18.8041      R14.2000   
G1   Y57.002    
G17 G3   X350.0687     Y58.8071      R14.2000   
   X349.7062     Y60.6292      R14.2000   
   X349.1091     Y62.3885      R14.2000   
   X348.2873     Y64.0548      R14.2000   
   X347.2552     Y65.5995      R14.2000   
   X346.0302     Y66.9964      R14.2000   
   X344.6334     Y68.2213      R14.2000   
   X343.0886     Y69.2535      R14.2000   
   X341.4223     Y70.0752      R14.2000   
   X339.6631     Y70.6724      R14.2000   
   X337.8409     Y71.0349      R14.2000   
   X336.0361     Y71.1532      R14.2000   
G1   X18.438    
G17 G3   X16.6331      Y71.0349      R14.2000   
   X14.8109      Y70.6724      R14.2000   
   X13.0517      Y70.0752      R14.2000   
   X11.3854      Y69.2535      R14.2000   
   X9.8406       Y68.2213      R14.2000   
   X8.4438       Y66.9964      R14.2000   
   X7.2188       Y65.5995      R14.2000   
   X6.1866       Y64.0548      R14.2000   
   X5.3649       Y62.3885      R14.2000   
   X4.7677       Y60.6292      R14.2000   
   X4.4053       Y58.8071      R14.2000   
   X4.2870       Y57.0023      R14.2000   
G1   Y18.804    
G17 G3   X4.4053       Y16.9993      R14.2000   
   X4.7677       Y15.1771      R14.2000   
   X5.3649       Y13.4178      R14.2000   
   X6.1866       Y11.7516      R14.2000   
   X7.2188       Y10.2068      R14.2000   
   X8.4438       Y8.8100       R14.2000   
G0   Z10.000    
G0 X0 Y0 (home)
M05
M30
%
