%
(Generated by SketchUcam {1.2})
(File: Resurface.skp)
(Bit diameter: 31.8mm)
(Feed rate: 600.0mm/min)
(Plunge Feed rate: 2540.0mm/min)
(Material Thickness: 10.0mm)
(Material length: 2600.0mm X width: 1400.0mm)
(Overhead Gantry: true)
(Retract feed rate NOT limited to plunge feed rate)
(Multipass enabled, Depth = 0.1mm)
(Optimization is ON)
(www.PhlatBoyz.com)
G90 G21 G49 
M3 S15000
G0   Z10.000    
(Pass: 1)
   X69.080       Y19.080    
G1   Z-0.100     F2540
   Y2470.920   F600 
   X91.340    
   Y19.080    
   X113.600   
   Y2470.920  
   X135.860   
   Y19.080    
   X158.120   
   Y2470.920  
   X180.380   
   Y19.080    
   X202.640   
   Y2470.920  
   X224.900   
   Y19.080    
   X247.160   
   Y2470.920  
   X269.420   
   Y19.080    
   X291.680   
   Y2470.920  
   X313.940   
   Y19.080    
   X336.200   
   Y2470.920  
   X358.460   
   Y19.080    
   X380.720   
   Y2470.920  
   X402.980   
   Y19.080    
   X425.240   
   Y2470.920  
   X447.500   
   Y19.080    
   X469.760   
   Y2470.920  
   X492.020   
   Y19.080    
   X514.280   
   Y2470.920  
   X536.540   
   Y19.080    
   X558.800   
   Y2470.920  
   X581.060   
   Y19.080    
   X603.320   
   Y2470.920  
   X625.580   
   Y19.080    
   X647.840   
   Y2470.920  
   X670.100   
   Y19.080    
   X692.360   
   Y2470.920  
   X714.620   
   Y19.080    
   X736.880   
   Y2470.920  
   X759.140   
   Y19.080    
   X781.400   
   Y2470.920  
   X803.660   
   Y19.080    
   X825.920   
   Y2470.920  
   X848.180   
   Y19.080    
   X870.440   
   Y2470.920  
   X892.700   
   Y19.080    
   X914.960   
   Y2470.920  
   X937.220   
   Y19.080    
   X959.480   
   Y2470.920  
   X981.740   
   Y19.080    
   X1004.000  
   Y2470.920  
   X1026.260  
   Y19.080    
   X1048.520  
   Y2470.920  
   X1070.780  
   Y19.080    
   X1093.040  
   Y2470.920  
   X1115.300  
   Y19.080    
   X1137.560  
   Y2470.920  
   X1159.820  
   Y19.080    
   X1182.080  
   Y2470.920  
   X1204.340  
   Y19.080    
   X1226.600  
   Y2470.920  
   X1248.860  
   Y19.080    
   X1271.120  
   Y2470.920  
   X1293.380  
   Y19.080    
G0   Z10.000    
(Pass: 1)
   X1314.100     Y15.900    
G1   Z-0.100     F2540
   Y2474.100   F600 
   X65.900    
   Y15.900    
   X1314.100  
G0   Z10.000    
G0 X0 Y0 (home)
M05
M30
%
