%
(Generated by SketchUcam {1.2})
(File: Resurface.skp)
(Bit diameter: 31.8mm)
(Feed rate: 1500.0mm/min)
(Plunge Feed rate: 2540.0mm/min)
(Material Thickness: 10.0mm)
(Material length: 1250.0mm X width: 1260.0mm)
(Overhead Gantry: true)
(Retract feed rate NOT limited to plunge feed rate)
(Multipass enabled, Depth = 0.1mm)
(Optimization is ON)
(www.PhlatBoyz.com)
G90 G21 G49 
M3 S10000
G0   Z10.000    
(Pass: 1)
   X41.340       Y19.080    
G1   Z-0.100     F2540
(move y= 99.642520 GT max of 49.21259842519685)
   Y1250.000   F1500
G0   Z10.000    
(move y= 99.642520 GT max of 49.21259842519685)
   X63.600    
G1   Z-0.100     F2540
   Y19.080     F1500
   X85.860    
(move y= 99.642520 GT max of 49.21259842519685)
   Y1250.000  
G0   Z10.000    
(move y= 99.642520 GT max of 49.21259842519685)
   X108.120   
G1   Z-0.100     F2540
   Y19.080     F1500
   X130.380   
(move y= 99.642520 GT max of 49.21259842519685)
   Y1250.000  
G0   Z10.000    
(move y= 99.642520 GT max of 49.21259842519685)
   X152.640   
G1   Z-0.100     F2540
   Y19.080     F1500
   X174.900   
(move y= 99.642520 GT max of 49.21259842519685)
   Y1250.000  
G0   Z10.000    
(move y= 99.642520 GT max of 49.21259842519685)
   X197.160   
G1   Z-0.100     F2540
   Y19.080     F1500
   X219.420   
(move y= 99.642520 GT max of 49.21259842519685)
   Y1250.000  
G0   Z10.000    
(move y= 99.642520 GT max of 49.21259842519685)
   X241.680   
G1   Z-0.100     F2540
   Y19.080     F1500
   X263.940   
(move y= 99.642520 GT max of 49.21259842519685)
   Y1250.000  
G0   Z10.000    
(move y= 99.642520 GT max of 49.21259842519685)
   X286.200   
G1   Z-0.100     F2540
   Y19.080     F1500
   X308.460   
(move y= 99.642520 GT max of 49.21259842519685)
   Y1250.000  
G0   Z10.000    
(move y= 99.642520 GT max of 49.21259842519685)
   X330.720   
G1   Z-0.100     F2540
   Y19.080     F1500
   X352.980   
(move y= 99.642520 GT max of 49.21259842519685)
   Y1250.000  
G0   Z10.000    
(move y= 99.642520 GT max of 49.21259842519685)
   X375.240   
G1   Z-0.100     F2540
   Y19.080     F1500
   X397.500   
(move y= 99.642520 GT max of 49.21259842519685)
   Y1250.000  
G0   Z10.000    
(move y= 99.642520 GT max of 49.21259842519685)
   X419.760   
G1   Z-0.100     F2540
   Y19.080     F1500
   X442.020   
(move y= 99.642520 GT max of 49.21259842519685)
   Y1250.000  
G0   Z10.000    
(move y= 99.642520 GT max of 49.21259842519685)
   X464.280   
G1   Z-0.100     F2540
   Y19.080     F1500
   X486.540   
(move y= 99.642520 GT max of 49.21259842519685)
   Y1250.000  
G0   Z10.000    
(move y= 99.642520 GT max of 49.21259842519685)
   X508.800   
G1   Z-0.100     F2540
   Y19.080     F1500
   X531.060   
(move y= 99.642520 GT max of 49.21259842519685)
   Y1250.000  
G0   Z10.000    
(move y= 99.642520 GT max of 49.21259842519685)
   X553.320   
G1   Z-0.100     F2540
   Y19.080     F1500
   X575.580   
(move y= 99.642520 GT max of 49.21259842519685)
   Y1250.000  
G0   Z10.000    
(move y= 99.642520 GT max of 49.21259842519685)
   X597.840   
G1   Z-0.100     F2540
   Y19.080     F1500
   X620.100   
(move y= 99.642520 GT max of 49.21259842519685)
   Y1250.000  
G0   Z10.000    
(move y= 99.642520 GT max of 49.21259842519685)
   X642.360   
G1   Z-0.100     F2540
   Y19.080     F1500
   X664.620   
(move y= 99.642520 GT max of 49.21259842519685)
   Y1250.000  
G0   Z10.000    
(move y= 99.642520 GT max of 49.21259842519685)
   X686.880   
G1   Z-0.100     F2540
   Y19.080     F1500
   X709.140   
(move y= 99.642520 GT max of 49.21259842519685)
   Y1250.000  
G0   Z10.000    
(move y= 99.642520 GT max of 49.21259842519685)
   X731.400   
G1   Z-0.100     F2540
   Y19.080     F1500
   X753.660   
(move y= 99.642520 GT max of 49.21259842519685)
   Y1250.000  
G0   Z10.000    
(move y= 99.642520 GT max of 49.21259842519685)
   X775.920   
G1   Z-0.100     F2540
   Y19.080     F1500
   X798.180   
(move y= 99.642520 GT max of 49.21259842519685)
   Y1250.000  
G0   Z10.000    
(move y= 99.642520 GT max of 49.21259842519685)
   X820.440   
G1   Z-0.100     F2540
   Y19.080     F1500
   X842.700   
(move y= 99.642520 GT max of 49.21259842519685)
   Y1250.000  
G0   Z10.000    
(move y= 99.642520 GT max of 49.21259842519685)
   X864.960   
G1   Z-0.100     F2540
   Y19.080     F1500
   X887.220   
(move y= 99.642520 GT max of 49.21259842519685)
   Y1250.000  
G0   Z10.000    
(move y= 99.642520 GT max of 49.21259842519685)
   X909.480   
G1   Z-0.100     F2540
   Y19.080     F1500
   X931.740   
(move y= 99.642520 GT max of 49.21259842519685)
   Y1250.000  
G0   Z10.000    
(move y= 99.642520 GT max of 49.21259842519685)
   X954.000   
G1   Z-0.100     F2540
   Y19.080     F1500
   X976.260   
(move y= 99.642520 GT max of 49.21259842519685)
   Y1250.000  
G0   Z10.000    
(move y= 99.642520 GT max of 49.21259842519685)
   X998.520   
G1   Z-0.100     F2540
   Y19.080     F1500
   X1020.780  
(move y= 99.642520 GT max of 49.21259842519685)
   Y1250.000  
G0   Z10.000    
(move y= 99.642520 GT max of 49.21259842519685)
   X1043.040  
G1   Z-0.100     F2540
   Y19.080     F1500
   X1065.300  
(move y= 99.642520 GT max of 49.21259842519685)
   Y1250.000  
G0   Z10.000    
(move y= 99.642520 GT max of 49.21259842519685)
   X1087.560  
G1   Z-0.100     F2540
   Y19.080     F1500
   X1109.820  
(move y= 99.642520 GT max of 49.21259842519685)
   Y1250.000  
G0   Z10.000    
(move y= 99.642520 GT max of 49.21259842519685)
   X1132.080  
G1   Z-0.100     F2540
   Y19.080     F1500
   X1154.340  
(move y= 99.642520 GT max of 49.21259842519685)
   Y1250.000  
G0   Z10.000    
(move y= 99.642520 GT max of 49.21259842519685)
   X1176.600  
G1   Z-0.100     F2540
   Y19.080     F1500
   X1198.860  
(move y= 99.642520 GT max of 49.21259842519685)
   Y1250.000  
G0   Z10.000    
(move y= 99.642520 GT max of 49.21259842519685)
   X1221.120  
G1   Z-0.100     F2540
   Y19.080     F1500
G0   Z10.000    
(Pass: 1)
   X1234.100     Y15.900    
G1   Z-0.100     F2540
(move y= 99.767717 GT max of 49.21259842519685)
   Y1250.000   F1500
(move y= 99.767717 GT max of 49.21259842519685)
   X15.900    
   Y15.900    
   X1234.100  
G0   Z10.000    
G0 X0 Y0 (home)
M05
M30
%
