%
(Generated by SketchUcam {1.2})
(File: Resurface.skp)
(Bit diameter: 31.8mm)
(Feed rate: 1500.0mm/min)
(Plunge Feed rate: 2540.0mm/min)
(Material Thickness: 10.0mm)
(Material length: 2550.0mm X width: 1260.0mm)
(Overhead Gantry: true)
(Retract feed rate NOT limited to plunge feed rate)
(Multipass enabled, Depth = 0.1mm)
(Optimization is ON)
(www.PhlatBoyz.com)
G90 G21 G49 
M3 S10000
G0   Z10.000    
(Pass: 1)
   X41.340       Y19.080    
G1   Z-0.100     F2540
   Y2530.920   F1500
   X63.600    
   Y19.080    
   X85.860    
   Y2530.920  
   X108.120   
   Y19.080    
   X130.380   
   Y2530.920  
   X152.640   
   Y19.080    
   X174.900   
   Y2530.920  
   X197.160   
   Y19.080    
   X219.420   
   Y2530.920  
   X241.680   
   Y19.080    
   X263.940   
   Y2530.920  
   X286.200   
   Y19.080    
   X308.460   
   Y2530.920  
   X330.720   
   Y19.080    
   X352.980   
   Y2530.920  
   X375.240   
   Y19.080    
   X397.500   
   Y2530.920  
   X419.760   
   Y19.080    
   X442.020   
   Y2530.920  
   X464.280   
   Y19.080    
   X486.540   
   Y2530.920  
   X508.800   
   Y19.080    
   X531.060   
   Y2530.920  
   X553.320   
   Y19.080    
   X575.580   
   Y2530.920  
   X597.840   
   Y19.080    
   X620.100   
   Y2530.920  
   X642.360   
   Y19.080    
   X664.620   
   Y2530.920  
   X686.880   
   Y19.080    
   X709.140   
   Y2530.920  
   X731.400   
   Y19.080    
   X753.660   
   Y2530.920  
   X775.920   
   Y19.080    
   X798.180   
   Y2530.920  
   X820.440   
   Y19.080    
   X842.700   
   Y2530.920  
   X864.960   
   Y19.080    
   X887.220   
   Y2530.920  
   X909.480   
   Y19.080    
   X931.740   
   Y2530.920  
   X954.000   
   Y19.080    
   X976.260   
   Y2530.920  
   X998.520   
   Y19.080    
   X1020.780  
   Y2530.920  
   X1043.040  
   Y19.080    
   X1065.300  
   Y2530.920  
   X1087.560  
   Y19.080    
   X1109.820  
   Y2530.920  
   X1132.080  
   Y19.080    
   X1154.340  
   Y2530.920  
   X1176.600  
   Y19.080    
   X1198.860  
   Y2530.920  
   X1221.120  
   Y19.080    
G0   Z10.000    
(Pass: 1)
   X1234.100     Y15.900    
G1   Z-0.100     F2540
   Y2534.100   F1500
   X15.900    
   Y15.900    
   X1234.100  
G0   Z10.000    
G0 X0 Y0 (home)
M05
M30
%
