%
(Generated by SketchUcam {1.2})
(File: Router Plates.skp)
(Bit diameter: 3.0mm)
(Feed rate: 400.0mm/min)
(Plunge Feed rate: 200.0mm/min)
(Material Thickness: 6.0mm)
(Material length: 300.0mm X width: 600.0mm)
(Overhead Gantry: true)
(Retract feed rate NOT limited to plunge feed rate)
(Multipass enabled, Depth = 2.0mm)
(Optimization is ON)
(Z ZERO IS TABLETOP)
(www.PhlatBoyz.com)
G90 G21 G49 
M3 S15000
G0   Z16.000    
(Pass: 1)
   X25.006       Y53.334    
G1   Z4.000      F200 
G17 G2   X24.7682      Y53.4327      R1.0000     F400 
   X24.5638      Y53.5895      R1.0000    
   X24.4069      Y53.7940      R1.0000    
   X24.3083      Y54.0320      R1.0000    
   X24.2618      Y54.3852      R1.0000    
G1   Y61.000    
G17 G2   X24.3143      Y61.3549      R1.0000    
   X24.4129      Y61.5930      R1.0000    
   X24.5698      Y61.7974      R1.0000    
   X24.7742      Y61.9543      R1.0000    
   X25.0123      Y62.0529      R1.0000    
   X25.2677      Y62.0865      R1.0000    
   X25.5232      Y62.0529      R1.0000    
   X25.7613      Y61.9543      R1.0000    
   X25.9657      Y61.7974      R1.0000    
   X26.1226      Y61.5930      R1.0000    
   X26.2212      Y61.3549      R1.0000    
   X26.2677      Y61.0018      R1.0000    
G1   Y54.386    
G17 G2   X26.2152      Y54.0320      R1.0000    
   X26.1166      Y53.7940      R1.0000    
   X25.9597      Y53.5895      R1.0000    
   X25.7553      Y53.4327      R1.0000    
   X25.5172      Y53.3341      R1.0000    
   X25.2617      Y53.3004      R1.0000    
   X25.0063      Y53.3341      R1.0000    
(Pass: 2)
G1   Z2.000      F200 
G17 G2   X24.7682      Y53.4327      R1.0000     F400 
   X24.5638      Y53.5895      R1.0000    
   X24.4069      Y53.7940      R1.0000    
   X24.3083      Y54.0320      R1.0000    
   X24.2618      Y54.3852      R1.0000    
G1   Y61.000    
G17 G2   X24.3143      Y61.3549      R1.0000    
   X24.4129      Y61.5930      R1.0000    
   X24.5698      Y61.7974      R1.0000    
   X24.7742      Y61.9543      R1.0000    
   X25.0123      Y62.0529      R1.0000    
   X25.2677      Y62.0865      R1.0000    
   X25.5232      Y62.0529      R1.0000    
   X25.7613      Y61.9543      R1.0000    
   X25.9657      Y61.7974      R1.0000    
   X26.1226      Y61.5930      R1.0000    
   X26.2212      Y61.3549      R1.0000    
   X26.2677      Y61.0018      R1.0000    
G1   Y54.386    
G17 G2   X26.2152      Y54.0320      R1.0000    
   X26.1166      Y53.7940      R1.0000    
   X25.9597      Y53.5895      R1.0000    
   X25.7553      Y53.4327      R1.0000    
   X25.5172      Y53.3341      R1.0000    
   X25.2617      Y53.3004      R1.0000    
   X25.0063      Y53.3341      R1.0000    
(Pass: 3)
G1   Z0.000      F200 
G17 G2   X24.7682      Y53.4327      R1.0000     F400 
   X24.5638      Y53.5895      R1.0000    
   X24.4069      Y53.7940      R1.0000    
   X24.3083      Y54.0320      R1.0000    
   X24.2618      Y54.3852      R1.0000    
G1   Y61.000    
G17 G2   X24.3143      Y61.3549      R1.0000    
   X24.4129      Y61.5930      R1.0000    
   X24.5698      Y61.7974      R1.0000    
   X24.7742      Y61.9543      R1.0000    
   X25.0123      Y62.0529      R1.0000    
   X25.2677      Y62.0865      R1.0000    
   X25.5232      Y62.0529      R1.0000    
   X25.7613      Y61.9543      R1.0000    
   X25.9657      Y61.7974      R1.0000    
   X26.1226      Y61.5930      R1.0000    
   X26.2212      Y61.3549      R1.0000    
   X26.2677      Y61.0018      R1.0000    
G1   Y54.386    
G17 G2   X26.2152      Y54.0320      R1.0000    
   X26.1166      Y53.7940      R1.0000    
   X25.9597      Y53.5895      R1.0000    
   X25.7553      Y53.4327      R1.0000    
   X25.5172      Y53.3341      R1.0000    
   X25.2617      Y53.3004      R1.0000    
   X25.0063      Y53.3341      R1.0000    
(Pass: 4)
G1   Z-2.000     F200 
G17 G2   X24.7682      Y53.4327      R1.0000     F400 
   X24.5638      Y53.5895      R1.0000    
   X24.4069      Y53.7940      R1.0000    
   X24.3083      Y54.0320      R1.0000    
   X24.2618      Y54.3852      R1.0000    
G1   Y61.000    
G17 G2   X24.3143      Y61.3549      R1.0000    
   X24.4129      Y61.5930      R1.0000    
   X24.5698      Y61.7974      R1.0000    
   X24.7742      Y61.9543      R1.0000    
   X25.0123      Y62.0529      R1.0000    
   X25.2677      Y62.0865      R1.0000    
   X25.5232      Y62.0529      R1.0000    
   X25.7613      Y61.9543      R1.0000    
   X25.9657      Y61.7974      R1.0000    
   X26.1226      Y61.5930      R1.0000    
   X26.2212      Y61.3549      R1.0000    
   X26.2677      Y61.0018      R1.0000    
G1   Y54.386    
G17 G2   X26.2152      Y54.0320      R1.0000    
   X26.1166      Y53.7940      R1.0000    
   X25.9597      Y53.5895      R1.0000    
   X25.7553      Y53.4327      R1.0000    
   X25.5172      Y53.3341      R1.0000    
   X25.2617      Y53.3004      R1.0000    
   X25.0063      Y53.3341      R1.0000    
(Pass: 5)
G1   Z-2.400     F200 
G17 G2   X24.7682      Y53.4327      R1.0000     F400 
   X24.5638      Y53.5895      R1.0000    
   X24.4069      Y53.7940      R1.0000    
   X24.3083      Y54.0320      R1.0000    
   X24.2618      Y54.3852      R1.0000    
G1   Y61.000    
G17 G2   X24.3143      Y61.3549      R1.0000    
   X24.4129      Y61.5930      R1.0000    
   X24.5698      Y61.7974      R1.0000    
   X24.7742      Y61.9543      R1.0000    
   X25.0123      Y62.0529      R1.0000    
   X25.2677      Y62.0865      R1.0000    
   X25.5232      Y62.0529      R1.0000    
   X25.7613      Y61.9543      R1.0000    
   X25.9657      Y61.7974      R1.0000    
   X26.1226      Y61.5930      R1.0000    
   X26.2212      Y61.3549      R1.0000    
   X26.2677      Y61.0018      R1.0000    
G1   Y54.386    
G17 G2   X26.2152      Y54.0320      R1.0000    
   X26.1166      Y53.7940      R1.0000    
   X25.9597      Y53.5895      R1.0000    
   X25.7553      Y53.4327      R1.0000    
   X25.5172      Y53.3341      R1.0000    
   X25.2617      Y53.3004      R1.0000    
   X25.0063      Y53.3341      R1.0000    
(BREAK pass 5)
G0   Z16.000    
(Pass: 1)
   X34.308       Y54.032    
G1   Z4.000      F200 
G17 G2   X34.2618      Y54.3852      R1.0000     F400 
G1   Y61.000    
G17 G2   X34.3143      Y61.3549      R1.0000    
   X34.4129      Y61.5930      R1.0000    
   X34.5698      Y61.7974      R1.0000    
   X34.7742      Y61.9543      R1.0000    
   X35.0123      Y62.0529      R1.0000    
   X35.2677      Y62.0865      R1.0000    
   X35.5232      Y62.0529      R1.0000    
   X35.7613      Y61.9543      R1.0000    
   X35.9657      Y61.7974      R1.0000    
   X36.1226      Y61.5930      R1.0000    
   X36.2212      Y61.3549      R1.0000    
   X36.2677      Y61.0018      R1.0000    
G1   Y54.386    
G17 G2   X36.2152      Y54.0320      R1.0000    
   X36.1166      Y53.7940      R1.0000    
   X35.9597      Y53.5895      R1.0000    
   X35.7553      Y53.4327      R1.0000    
   X35.5172      Y53.3341      R1.0000    
   X35.2617      Y53.3004      R1.0000    
   X35.0063      Y53.3341      R1.0000    
   X34.7682      Y53.4327      R1.0000    
   X34.5638      Y53.5895      R1.0000    
   X34.4069      Y53.7940      R1.0000    
   X34.3083      Y54.0320      R1.0000    
(Pass: 2)
G1   Z2.000      F200 
G17 G2   X34.2618      Y54.3852      R1.0000     F400 
G1   Y61.000    
G17 G2   X34.3143      Y61.3549      R1.0000    
   X34.4129      Y61.5930      R1.0000    
   X34.5698      Y61.7974      R1.0000    
   X34.7742      Y61.9543      R1.0000    
   X35.0123      Y62.0529      R1.0000    
   X35.2677      Y62.0865      R1.0000    
   X35.5232      Y62.0529      R1.0000    
   X35.7613      Y61.9543      R1.0000    
   X35.9657      Y61.7974      R1.0000    
   X36.1226      Y61.5930      R1.0000    
   X36.2212      Y61.3549      R1.0000    
   X36.2677      Y61.0018      R1.0000    
G1   Y54.386    
G17 G2   X36.2152      Y54.0320      R1.0000    
   X36.1166      Y53.7940      R1.0000    
   X35.9597      Y53.5895      R1.0000    
   X35.7553      Y53.4327      R1.0000    
   X35.5172      Y53.3341      R1.0000    
   X35.2617      Y53.3004      R1.0000    
   X35.0063      Y53.3341      R1.0000    
   X34.7682      Y53.4327      R1.0000    
   X34.5638      Y53.5895      R1.0000    
   X34.4069      Y53.7940      R1.0000    
   X34.3083      Y54.0320      R1.0000    
(Pass: 3)
G1   Z0.000      F200 
G17 G2   X34.2618      Y54.3852      R1.0000     F400 
G1   Y61.000    
G17 G2   X34.3143      Y61.3549      R1.0000    
   X34.4129      Y61.5930      R1.0000    
   X34.5698      Y61.7974      R1.0000    
   X34.7742      Y61.9543      R1.0000    
   X35.0123      Y62.0529      R1.0000    
   X35.2677      Y62.0865      R1.0000    
   X35.5232      Y62.0529      R1.0000    
   X35.7613      Y61.9543      R1.0000    
   X35.9657      Y61.7974      R1.0000    
   X36.1226      Y61.5930      R1.0000    
   X36.2212      Y61.3549      R1.0000    
   X36.2677      Y61.0018      R1.0000    
G1   Y54.386    
G17 G2   X36.2152      Y54.0320      R1.0000    
   X36.1166      Y53.7940      R1.0000    
   X35.9597      Y53.5895      R1.0000    
   X35.7553      Y53.4327      R1.0000    
   X35.5172      Y53.3341      R1.0000    
   X35.2617      Y53.3004      R1.0000    
   X35.0063      Y53.3341      R1.0000    
   X34.7682      Y53.4327      R1.0000    
   X34.5638      Y53.5895      R1.0000    
   X34.4069      Y53.7940      R1.0000    
   X34.3083      Y54.0320      R1.0000    
(Pass: 4)
G1   Z-2.000     F200 
G17 G2   X34.2618      Y54.3852      R1.0000     F400 
G1   Y61.000    
G17 G2   X34.3143      Y61.3549      R1.0000    
   X34.4129      Y61.5930      R1.0000    
   X34.5698      Y61.7974      R1.0000    
   X34.7742      Y61.9543      R1.0000    
   X35.0123      Y62.0529      R1.0000    
   X35.2677      Y62.0865      R1.0000    
   X35.5232      Y62.0529      R1.0000    
   X35.7613      Y61.9543      R1.0000    
   X35.9657      Y61.7974      R1.0000    
   X36.1226      Y61.5930      R1.0000    
   X36.2212      Y61.3549      R1.0000    
   X36.2677      Y61.0018      R1.0000    
G1   Y54.386    
G17 G2   X36.2152      Y54.0320      R1.0000    
   X36.1166      Y53.7940      R1.0000    
   X35.9597      Y53.5895      R1.0000    
   X35.7553      Y53.4327      R1.0000    
   X35.5172      Y53.3341      R1.0000    
   X35.2617      Y53.3004      R1.0000    
   X35.0063      Y53.3341      R1.0000    
   X34.7682      Y53.4327      R1.0000    
   X34.5638      Y53.5895      R1.0000    
   X34.4069      Y53.7940      R1.0000    
   X34.3083      Y54.0320      R1.0000    
(Pass: 5)
G1   Z-2.400     F200 
G17 G2   X34.2618      Y54.3852      R1.0000     F400 
G1   Y61.000    
G17 G2   X34.3143      Y61.3549      R1.0000    
   X34.4129      Y61.5930      R1.0000    
   X34.5698      Y61.7974      R1.0000    
   X34.7742      Y61.9543      R1.0000    
   X35.0123      Y62.0529      R1.0000    
   X35.2677      Y62.0865      R1.0000    
   X35.5232      Y62.0529      R1.0000    
   X35.7613      Y61.9543      R1.0000    
   X35.9657      Y61.7974      R1.0000    
   X36.1226      Y61.5930      R1.0000    
   X36.2212      Y61.3549      R1.0000    
   X36.2677      Y61.0018      R1.0000    
G1   Y54.386    
G17 G2   X36.2152      Y54.0320      R1.0000    
   X36.1166      Y53.7940      R1.0000    
   X35.9597      Y53.5895      R1.0000    
   X35.7553      Y53.4327      R1.0000    
   X35.5172      Y53.3341      R1.0000    
   X35.2617      Y53.3004      R1.0000    
   X35.0063      Y53.3341      R1.0000    
   X34.7682      Y53.4327      R1.0000    
   X34.5638      Y53.5895      R1.0000    
   X34.4069      Y53.7940      R1.0000    
   X34.3083      Y54.0320      R1.0000    
(BREAK pass 5)
G0   Z16.000    
(Pass: 1)
   X44.252       Y54.385    
G1   Z4.000      F200 
   Y61.000     F400 
G17 G2   X44.3047      Y61.3549      R1.0000    
   X44.4033      Y61.5930      R1.0000    
   X44.5602      Y61.7974      R1.0000    
   X44.7646      Y61.9543      R1.0000    
   X45.0026      Y62.0529      R1.0000    
   X45.2581      Y62.0865      R1.0000    
   X45.5136      Y62.0529      R1.0000    
   X45.7516      Y61.9543      R1.0000    
   X45.9561      Y61.7974      R1.0000    
   X46.1129      Y61.5930      R1.0000    
   X46.2115      Y61.3549      R1.0000    
   X46.2580      Y61.0018      R1.0000    
G1   Y54.386    
G17 G2   X46.2055      Y54.0320      R1.0000    
   X46.1069      Y53.7940      R1.0000    
   X45.9501      Y53.5895      R1.0000    
   X45.7456      Y53.4327      R1.0000    
   X45.5076      Y53.3341      R1.0000    
   X45.2521      Y53.3004      R1.0000    
   X44.9966      Y53.3341      R1.0000    
   X44.7586      Y53.4327      R1.0000    
   X44.5541      Y53.5895      R1.0000    
   X44.3973      Y53.7940      R1.0000    
   X44.2987      Y54.0320      R1.0000    
   X44.2522      Y54.3852      R1.0000    
(Pass: 2)
G1   Z2.000      F200 
   Y61.000     F400 
G17 G2   X44.3047      Y61.3549      R1.0000    
   X44.4033      Y61.5930      R1.0000    
   X44.5602      Y61.7974      R1.0000    
   X44.7646      Y61.9543      R1.0000    
   X45.0026      Y62.0529      R1.0000    
   X45.2581      Y62.0865      R1.0000    
   X45.5136      Y62.0529      R1.0000    
   X45.7516      Y61.9543      R1.0000    
   X45.9561      Y61.7974      R1.0000    
   X46.1129      Y61.5930      R1.0000    
   X46.2115      Y61.3549      R1.0000    
   X46.2580      Y61.0018      R1.0000    
G1   Y54.386    
G17 G2   X46.2055      Y54.0320      R1.0000    
   X46.1069      Y53.7940      R1.0000    
   X45.9501      Y53.5895      R1.0000    
   X45.7456      Y53.4327      R1.0000    
   X45.5076      Y53.3341      R1.0000    
   X45.2521      Y53.3004      R1.0000    
   X44.9966      Y53.3341      R1.0000    
   X44.7586      Y53.4327      R1.0000    
   X44.5541      Y53.5895      R1.0000    
   X44.3973      Y53.7940      R1.0000    
   X44.2987      Y54.0320      R1.0000    
   X44.2522      Y54.3852      R1.0000    
(Pass: 3)
G1   Z0.000      F200 
   Y61.000     F400 
G17 G2   X44.3047      Y61.3549      R1.0000    
   X44.4033      Y61.5930      R1.0000    
   X44.5602      Y61.7974      R1.0000    
   X44.7646      Y61.9543      R1.0000    
   X45.0026      Y62.0529      R1.0000    
   X45.2581      Y62.0865      R1.0000    
   X45.5136      Y62.0529      R1.0000    
   X45.7516      Y61.9543      R1.0000    
   X45.9561      Y61.7974      R1.0000    
   X46.1129      Y61.5930      R1.0000    
   X46.2115      Y61.3549      R1.0000    
   X46.2580      Y61.0018      R1.0000    
G1   Y54.386    
G17 G2   X46.2055      Y54.0320      R1.0000    
   X46.1069      Y53.7940      R1.0000    
   X45.9501      Y53.5895      R1.0000    
   X45.7456      Y53.4327      R1.0000    
   X45.5076      Y53.3341      R1.0000    
   X45.2521      Y53.3004      R1.0000    
   X44.9966      Y53.3341      R1.0000    
   X44.7586      Y53.4327      R1.0000    
   X44.5541      Y53.5895      R1.0000    
   X44.3973      Y53.7940      R1.0000    
   X44.2987      Y54.0320      R1.0000    
   X44.2522      Y54.3852      R1.0000    
(Pass: 4)
G1   Z-2.000     F200 
   Y61.000     F400 
G17 G2   X44.3047      Y61.3549      R1.0000    
   X44.4033      Y61.5930      R1.0000    
   X44.5602      Y61.7974      R1.0000    
   X44.7646      Y61.9543      R1.0000    
   X45.0026      Y62.0529      R1.0000    
   X45.2581      Y62.0865      R1.0000    
   X45.5136      Y62.0529      R1.0000    
   X45.7516      Y61.9543      R1.0000    
   X45.9561      Y61.7974      R1.0000    
   X46.1129      Y61.5930      R1.0000    
   X46.2115      Y61.3549      R1.0000    
   X46.2580      Y61.0018      R1.0000    
G1   Y54.386    
G17 G2   X46.2055      Y54.0320      R1.0000    
   X46.1069      Y53.7940      R1.0000    
   X45.9501      Y53.5895      R1.0000    
   X45.7456      Y53.4327      R1.0000    
   X45.5076      Y53.3341      R1.0000    
   X45.2521      Y53.3004      R1.0000    
   X44.9966      Y53.3341      R1.0000    
   X44.7586      Y53.4327      R1.0000    
   X44.5541      Y53.5895      R1.0000    
   X44.3973      Y53.7940      R1.0000    
   X44.2987      Y54.0320      R1.0000    
   X44.2522      Y54.3852      R1.0000    
(Pass: 5)
G1   Z-2.400     F200 
   Y61.000     F400 
G17 G2   X44.3047      Y61.3549      R1.0000    
   X44.4033      Y61.5930      R1.0000    
   X44.5602      Y61.7974      R1.0000    
   X44.7646      Y61.9543      R1.0000    
   X45.0026      Y62.0529      R1.0000    
   X45.2581      Y62.0865      R1.0000    
   X45.5136      Y62.0529      R1.0000    
   X45.7516      Y61.9543      R1.0000    
   X45.9561      Y61.7974      R1.0000    
   X46.1129      Y61.5930      R1.0000    
   X46.2115      Y61.3549      R1.0000    
   X46.2580      Y61.0018      R1.0000    
G1   Y54.386    
G17 G2   X46.2055      Y54.0320      R1.0000    
   X46.1069      Y53.7940      R1.0000    
   X45.9501      Y53.5895      R1.0000    
   X45.7456      Y53.4327      R1.0000    
   X45.5076      Y53.3341      R1.0000    
   X45.2521      Y53.3004      R1.0000    
   X44.9966      Y53.3341      R1.0000    
   X44.7586      Y53.4327      R1.0000    
   X44.5541      Y53.5895      R1.0000    
   X44.3973      Y53.7940      R1.0000    
   X44.2987      Y54.0320      R1.0000    
   X44.2522      Y54.3852      R1.0000    
(BREAK pass 5)
G0   Z16.000    
(Pass: 1)
   X54.262    
G1   Z4.000      F200 
   Y61.000     F400 
G17 G2   X54.3143      Y61.3549      R1.0000    
   X54.4129      Y61.5930      R1.0000    
   X54.5698      Y61.7974      R1.0000    
   X54.7742      Y61.9543      R1.0000    
   X55.0123      Y62.0529      R1.0000    
   X55.2677      Y62.0865      R1.0000    
   X55.5232      Y62.0529      R1.0000    
   X55.7613      Y61.9543      R1.0000    
   X55.9657      Y61.7974      R1.0000    
   X56.1226      Y61.5930      R1.0000    
   X56.2212      Y61.3549      R1.0000    
   X56.2677      Y61.0018      R1.0000    
G1   Y54.386    
G17 G2   X56.2152      Y54.0320      R1.0000    
   X56.1166      Y53.7940      R1.0000    
   X55.9597      Y53.5895      R1.0000    
   X55.7553      Y53.4327      R1.0000    
   X55.5172      Y53.3341      R1.0000    
   X55.2617      Y53.3004      R1.0000    
   X55.0063      Y53.3341      R1.0000    
   X54.7682      Y53.4327      R1.0000    
   X54.5638      Y53.5895      R1.0000    
   X54.4069      Y53.7940      R1.0000    
   X54.3083      Y54.0320      R1.0000    
   X54.2618      Y54.3852      R1.0000    
(Pass: 2)
G1   Z2.000      F200 
   Y61.000     F400 
G17 G2   X54.3143      Y61.3549      R1.0000    
   X54.4129      Y61.5930      R1.0000    
   X54.5698      Y61.7974      R1.0000    
   X54.7742      Y61.9543      R1.0000    
   X55.0123      Y62.0529      R1.0000    
   X55.2677      Y62.0865      R1.0000    
   X55.5232      Y62.0529      R1.0000    
   X55.7613      Y61.9543      R1.0000    
   X55.9657      Y61.7974      R1.0000    
   X56.1226      Y61.5930      R1.0000    
   X56.2212      Y61.3549      R1.0000    
   X56.2677      Y61.0018      R1.0000    
G1   Y54.386    
G17 G2   X56.2152      Y54.0320      R1.0000    
   X56.1166      Y53.7940      R1.0000    
   X55.9597      Y53.5895      R1.0000    
   X55.7553      Y53.4327      R1.0000    
   X55.5172      Y53.3341      R1.0000    
   X55.2617      Y53.3004      R1.0000    
   X55.0063      Y53.3341      R1.0000    
   X54.7682      Y53.4327      R1.0000    
   X54.5638      Y53.5895      R1.0000    
   X54.4069      Y53.7940      R1.0000    
   X54.3083      Y54.0320      R1.0000    
   X54.2618      Y54.3852      R1.0000    
(Pass: 3)
G1   Z0.000      F200 
   Y61.000     F400 
G17 G2   X54.3143      Y61.3549      R1.0000    
   X54.4129      Y61.5930      R1.0000    
   X54.5698      Y61.7974      R1.0000    
   X54.7742      Y61.9543      R1.0000    
   X55.0123      Y62.0529      R1.0000    
   X55.2677      Y62.0865      R1.0000    
   X55.5232      Y62.0529      R1.0000    
   X55.7613      Y61.9543      R1.0000    
   X55.9657      Y61.7974      R1.0000    
   X56.1226      Y61.5930      R1.0000    
   X56.2212      Y61.3549      R1.0000    
   X56.2677      Y61.0018      R1.0000    
G1   Y54.386    
G17 G2   X56.2152      Y54.0320      R1.0000    
   X56.1166      Y53.7940      R1.0000    
   X55.9597      Y53.5895      R1.0000    
   X55.7553      Y53.4327      R1.0000    
   X55.5172      Y53.3341      R1.0000    
   X55.2617      Y53.3004      R1.0000    
   X55.0063      Y53.3341      R1.0000    
   X54.7682      Y53.4327      R1.0000    
   X54.5638      Y53.5895      R1.0000    
   X54.4069      Y53.7940      R1.0000    
   X54.3083      Y54.0320      R1.0000    
   X54.2618      Y54.3852      R1.0000    
(Pass: 4)
G1   Z-2.000     F200 
   Y61.000     F400 
G17 G2   X54.3143      Y61.3549      R1.0000    
   X54.4129      Y61.5930      R1.0000    
   X54.5698      Y61.7974      R1.0000    
   X54.7742      Y61.9543      R1.0000    
   X55.0123      Y62.0529      R1.0000    
   X55.2677      Y62.0865      R1.0000    
   X55.5232      Y62.0529      R1.0000    
   X55.7613      Y61.9543      R1.0000    
   X55.9657      Y61.7974      R1.0000    
   X56.1226      Y61.5930      R1.0000    
   X56.2212      Y61.3549      R1.0000    
   X56.2677      Y61.0018      R1.0000    
G1   Y54.386    
G17 G2   X56.2152      Y54.0320      R1.0000    
   X56.1166      Y53.7940      R1.0000    
   X55.9597      Y53.5895      R1.0000    
   X55.7553      Y53.4327      R1.0000    
   X55.5172      Y53.3341      R1.0000    
   X55.2617      Y53.3004      R1.0000    
   X55.0063      Y53.3341      R1.0000    
   X54.7682      Y53.4327      R1.0000    
   X54.5638      Y53.5895      R1.0000    
   X54.4069      Y53.7940      R1.0000    
   X54.3083      Y54.0320      R1.0000    
   X54.2618      Y54.3852      R1.0000    
(Pass: 5)
G1   Z-2.400     F200 
   Y61.000     F400 
G17 G2   X54.3143      Y61.3549      R1.0000    
   X54.4129      Y61.5930      R1.0000    
   X54.5698      Y61.7974      R1.0000    
   X54.7742      Y61.9543      R1.0000    
   X55.0123      Y62.0529      R1.0000    
   X55.2677      Y62.0865      R1.0000    
   X55.5232      Y62.0529      R1.0000    
   X55.7613      Y61.9543      R1.0000    
   X55.9657      Y61.7974      R1.0000    
   X56.1226      Y61.5930      R1.0000    
   X56.2212      Y61.3549      R1.0000    
   X56.2677      Y61.0018      R1.0000    
G1   Y54.386    
G17 G2   X56.2152      Y54.0320      R1.0000    
   X56.1166      Y53.7940      R1.0000    
   X55.9597      Y53.5895      R1.0000    
   X55.7553      Y53.4327      R1.0000    
   X55.5172      Y53.3341      R1.0000    
   X55.2617      Y53.3004      R1.0000    
   X55.0063      Y53.3341      R1.0000    
   X54.7682      Y53.4327      R1.0000    
   X54.5638      Y53.5895      R1.0000    
   X54.4069      Y53.7940      R1.0000    
   X54.3083      Y54.0320      R1.0000    
   X54.2618      Y54.3852      R1.0000    
(BREAK pass 5)
G0   Z16.000    
(Pass: 1)
   X64.262    
G1   Z4.000      F200 
   Y61.000     F400 
G17 G2   X64.3143      Y61.3549      R1.0000    
   X64.4129      Y61.5930      R1.0000    
   X64.5698      Y61.7974      R1.0000    
   X64.7742      Y61.9543      R1.0000    
   X65.0123      Y62.0529      R1.0000    
   X65.2677      Y62.0865      R1.0000    
   X65.5232      Y62.0529      R1.0000    
   X65.7613      Y61.9543      R1.0000    
   X65.9657      Y61.7974      R1.0000    
   X66.1226      Y61.5930      R1.0000    
   X66.2212      Y61.3549      R1.0000    
   X66.2677      Y61.0018      R1.0000    
G1   Y54.386    
G17 G2   X66.2152      Y54.0320      R1.0000    
   X66.1166      Y53.7940      R1.0000    
   X65.9597      Y53.5895      R1.0000    
   X65.7553      Y53.4327      R1.0000    
   X65.5172      Y53.3341      R1.0000    
   X65.2617      Y53.3004      R1.0000    
   X65.0063      Y53.3341      R1.0000    
   X64.7682      Y53.4327      R1.0000    
   X64.5638      Y53.5895      R1.0000    
   X64.4069      Y53.7940      R1.0000    
   X64.3083      Y54.0320      R1.0000    
   X64.2618      Y54.3852      R1.0000    
(Pass: 2)
G1   Z2.000      F200 
   Y61.000     F400 
G17 G2   X64.3143      Y61.3549      R1.0000    
   X64.4129      Y61.5930      R1.0000    
   X64.5698      Y61.7974      R1.0000    
   X64.7742      Y61.9543      R1.0000    
   X65.0123      Y62.0529      R1.0000    
   X65.2677      Y62.0865      R1.0000    
   X65.5232      Y62.0529      R1.0000    
   X65.7613      Y61.9543      R1.0000    
   X65.9657      Y61.7974      R1.0000    
   X66.1226      Y61.5930      R1.0000    
   X66.2212      Y61.3549      R1.0000    
   X66.2677      Y61.0018      R1.0000    
G1   Y54.386    
G17 G2   X66.2152      Y54.0320      R1.0000    
   X66.1166      Y53.7940      R1.0000    
   X65.9597      Y53.5895      R1.0000    
   X65.7553      Y53.4327      R1.0000    
   X65.5172      Y53.3341      R1.0000    
   X65.2617      Y53.3004      R1.0000    
   X65.0063      Y53.3341      R1.0000    
   X64.7682      Y53.4327      R1.0000    
   X64.5638      Y53.5895      R1.0000    
   X64.4069      Y53.7940      R1.0000    
   X64.3083      Y54.0320      R1.0000    
   X64.2618      Y54.3852      R1.0000    
(Pass: 3)
G1   Z0.000      F200 
   Y61.000     F400 
G17 G2   X64.3143      Y61.3549      R1.0000    
   X64.4129      Y61.5930      R1.0000    
   X64.5698      Y61.7974      R1.0000    
   X64.7742      Y61.9543      R1.0000    
   X65.0123      Y62.0529      R1.0000    
   X65.2677      Y62.0865      R1.0000    
   X65.5232      Y62.0529      R1.0000    
   X65.7613      Y61.9543      R1.0000    
   X65.9657      Y61.7974      R1.0000    
   X66.1226      Y61.5930      R1.0000    
   X66.2212      Y61.3549      R1.0000    
   X66.2677      Y61.0018      R1.0000    
G1   Y54.386    
G17 G2   X66.2152      Y54.0320      R1.0000    
   X66.1166      Y53.7940      R1.0000    
   X65.9597      Y53.5895      R1.0000    
   X65.7553      Y53.4327      R1.0000    
   X65.5172      Y53.3341      R1.0000    
   X65.2617      Y53.3004      R1.0000    
   X65.0063      Y53.3341      R1.0000    
   X64.7682      Y53.4327      R1.0000    
   X64.5638      Y53.5895      R1.0000    
   X64.4069      Y53.7940      R1.0000    
   X64.3083      Y54.0320      R1.0000    
   X64.2618      Y54.3852      R1.0000    
(Pass: 4)
G1   Z-2.000     F200 
   Y61.000     F400 
G17 G2   X64.3143      Y61.3549      R1.0000    
   X64.4129      Y61.5930      R1.0000    
   X64.5698      Y61.7974      R1.0000    
   X64.7742      Y61.9543      R1.0000    
   X65.0123      Y62.0529      R1.0000    
   X65.2677      Y62.0865      R1.0000    
   X65.5232      Y62.0529      R1.0000    
   X65.7613      Y61.9543      R1.0000    
   X65.9657      Y61.7974      R1.0000    
   X66.1226      Y61.5930      R1.0000    
   X66.2212      Y61.3549      R1.0000    
   X66.2677      Y61.0018      R1.0000    
G1   Y54.386    
G17 G2   X66.2152      Y54.0320      R1.0000    
   X66.1166      Y53.7940      R1.0000    
   X65.9597      Y53.5895      R1.0000    
   X65.7553      Y53.4327      R1.0000    
   X65.5172      Y53.3341      R1.0000    
   X65.2617      Y53.3004      R1.0000    
   X65.0063      Y53.3341      R1.0000    
   X64.7682      Y53.4327      R1.0000    
   X64.5638      Y53.5895      R1.0000    
   X64.4069      Y53.7940      R1.0000    
   X64.3083      Y54.0320      R1.0000    
   X64.2618      Y54.3852      R1.0000    
(Pass: 5)
G1   Z-2.400     F200 
   Y61.000     F400 
G17 G2   X64.3143      Y61.3549      R1.0000    
   X64.4129      Y61.5930      R1.0000    
   X64.5698      Y61.7974      R1.0000    
   X64.7742      Y61.9543      R1.0000    
   X65.0123      Y62.0529      R1.0000    
   X65.2677      Y62.0865      R1.0000    
   X65.5232      Y62.0529      R1.0000    
   X65.7613      Y61.9543      R1.0000    
   X65.9657      Y61.7974      R1.0000    
   X66.1226      Y61.5930      R1.0000    
   X66.2212      Y61.3549      R1.0000    
   X66.2677      Y61.0018      R1.0000    
G1   Y54.386    
G17 G2   X66.2152      Y54.0320      R1.0000    
   X66.1166      Y53.7940      R1.0000    
   X65.9597      Y53.5895      R1.0000    
   X65.7553      Y53.4327      R1.0000    
   X65.5172      Y53.3341      R1.0000    
   X65.2617      Y53.3004      R1.0000    
   X65.0063      Y53.3341      R1.0000    
   X64.7682      Y53.4327      R1.0000    
   X64.5638      Y53.5895      R1.0000    
   X64.4069      Y53.7940      R1.0000    
   X64.3083      Y54.0320      R1.0000    
   X64.2618      Y54.3852      R1.0000    
(BREAK pass 5)
G0   Z16.000    
(Pass: 1)
   X68.781       Y76.612    
G1   Z4.000      F200 
G17 G2   X68.3965      Y76.6631      R1.5000     F400 
   X68.0379      Y76.8116      R1.5000    
   X67.7299      Y77.0480      R1.5000    
   X67.4936      Y77.3559      R1.5000    
   X67.3450      Y77.7146      R1.5000    
   X67.2943      Y78.0995      R1.5000    
   X67.3450      Y78.4843      R1.5000    
   X67.4936      Y78.8430      R1.5000    
   X67.7299      Y79.1510      R1.5000    
   X68.0379      Y79.3873      R1.5000    
   X68.3965      Y79.5358      R1.5000    
   X68.7814      Y79.5865      R1.5000    
   X69.1663      Y79.5358      R1.5000    
   X69.5249      Y79.3873      R1.5000    
   X69.8329      Y79.1510      R1.5000    
   X70.0692      Y78.8430      R1.5000    
   X70.2178      Y78.4843      R1.5000    
   X70.2684      Y78.0995      R1.5000    
   X70.2178      Y77.7146      R1.5000    
   X70.0692      Y77.3559      R1.5000    
   X69.8329      Y77.0480      R1.5000    
   X69.5249      Y76.8116      R1.5000    
   X69.1663      Y76.6631      R1.5000    
   X68.7814      Y76.6124      R1.5000    
(Pass: 2)
G1   Z2.000      F200 
G17 G2   X68.3965      Y76.6631      R1.5000     F400 
   X68.0379      Y76.8116      R1.5000    
   X67.7299      Y77.0480      R1.5000    
   X67.4936      Y77.3559      R1.5000    
   X67.3450      Y77.7146      R1.5000    
   X67.2943      Y78.0995      R1.5000    
   X67.3450      Y78.4843      R1.5000    
   X67.4936      Y78.8430      R1.5000    
   X67.7299      Y79.1510      R1.5000    
   X68.0379      Y79.3873      R1.5000    
   X68.3965      Y79.5358      R1.5000    
   X68.7814      Y79.5865      R1.5000    
   X69.1663      Y79.5358      R1.5000    
   X69.5249      Y79.3873      R1.5000    
   X69.8329      Y79.1510      R1.5000    
   X70.0692      Y78.8430      R1.5000    
   X70.2178      Y78.4843      R1.5000    
   X70.2684      Y78.0995      R1.5000    
   X70.2178      Y77.7146      R1.5000    
   X70.0692      Y77.3559      R1.5000    
   X69.8329      Y77.0480      R1.5000    
   X69.5249      Y76.8116      R1.5000    
   X69.1663      Y76.6631      R1.5000    
   X68.7814      Y76.6124      R1.5000    
(Pass: 3)
G1   Z0.000      F200 
G17 G2   X68.3965      Y76.6631      R1.5000     F400 
   X68.0379      Y76.8116      R1.5000    
   X67.7299      Y77.0480      R1.5000    
   X67.4936      Y77.3559      R1.5000    
   X67.3450      Y77.7146      R1.5000    
   X67.2943      Y78.0995      R1.5000    
   X67.3450      Y78.4843      R1.5000    
   X67.4936      Y78.8430      R1.5000    
   X67.7299      Y79.1510      R1.5000    
   X68.0379      Y79.3873      R1.5000    
   X68.3965      Y79.5358      R1.5000    
   X68.7814      Y79.5865      R1.5000    
   X69.1663      Y79.5358      R1.5000    
   X69.5249      Y79.3873      R1.5000    
   X69.8329      Y79.1510      R1.5000    
   X70.0692      Y78.8430      R1.5000    
   X70.2178      Y78.4843      R1.5000    
   X70.2684      Y78.0995      R1.5000    
   X70.2178      Y77.7146      R1.5000    
   X70.0692      Y77.3559      R1.5000    
   X69.8329      Y77.0480      R1.5000    
   X69.5249      Y76.8116      R1.5000    
   X69.1663      Y76.6631      R1.5000    
   X68.7814      Y76.6124      R1.5000    
(Pass: 4)
G1   Z-2.000     F200 
G17 G2   X68.3965      Y76.6631      R1.5000     F400 
   X68.0379      Y76.8116      R1.5000    
   X67.7299      Y77.0480      R1.5000    
   X67.4936      Y77.3559      R1.5000    
   X67.3450      Y77.7146      R1.5000    
   X67.2943      Y78.0995      R1.5000    
   X67.3450      Y78.4843      R1.5000    
   X67.4936      Y78.8430      R1.5000    
   X67.7299      Y79.1510      R1.5000    
   X68.0379      Y79.3873      R1.5000    
   X68.3965      Y79.5358      R1.5000    
   X68.7814      Y79.5865      R1.5000    
   X69.1663      Y79.5358      R1.5000    
   X69.5249      Y79.3873      R1.5000    
   X69.8329      Y79.1510      R1.5000    
   X70.0692      Y78.8430      R1.5000    
   X70.2178      Y78.4843      R1.5000    
   X70.2684      Y78.0995      R1.5000    
   X70.2178      Y77.7146      R1.5000    
   X70.0692      Y77.3559      R1.5000    
   X69.8329      Y77.0480      R1.5000    
   X69.5249      Y76.8116      R1.5000    
   X69.1663      Y76.6631      R1.5000    
   X68.7814      Y76.6124      R1.5000    
(Pass: 5)
G1   Z-2.400     F200 
G17 G2   X68.3965      Y76.6631      R1.5000     F400 
   X68.0379      Y76.8116      R1.5000    
   X67.7299      Y77.0480      R1.5000    
   X67.4936      Y77.3559      R1.5000    
   X67.3450      Y77.7146      R1.5000    
   X67.2943      Y78.0995      R1.5000    
   X67.3450      Y78.4843      R1.5000    
   X67.4936      Y78.8430      R1.5000    
   X67.7299      Y79.1510      R1.5000    
   X68.0379      Y79.3873      R1.5000    
   X68.3965      Y79.5358      R1.5000    
   X68.7814      Y79.5865      R1.5000    
   X69.1663      Y79.5358      R1.5000    
   X69.5249      Y79.3873      R1.5000    
   X69.8329      Y79.1510      R1.5000    
   X70.0692      Y78.8430      R1.5000    
   X70.2178      Y78.4843      R1.5000    
   X70.2684      Y78.0995      R1.5000    
   X70.2178      Y77.7146      R1.5000    
   X70.0692      Y77.3559      R1.5000    
   X69.8329      Y77.0480      R1.5000    
   X69.5249      Y76.8116      R1.5000    
   X69.1663      Y76.6631      R1.5000    
   X68.7814      Y76.6124      R1.5000    
(BREAK pass 5)
G0   Z16.000    
(Pass: 1)
   X49.197       Y78.270    
G1   Z4.000      F200 
G17 G2   X49.1738      Y77.7525      R4.0000     F400 
   X49.1062      Y77.2385      R4.0000    
   X48.9497      Y76.7442      R4.0000    
   X48.7513      Y76.2652      R4.0000    
   X48.4723      Y75.8283      R4.0000    
   X48.1567      Y75.4170      R4.0000    
   X47.7741      Y75.0671      R4.0000    
   X47.3628      Y74.7515      R4.0000    
   X46.9027      Y74.5126      R4.0000    
   X46.4237      Y74.3142      R4.0000    
   X45.9174      Y74.2026      R4.0000    
   X45.4034      Y74.1349      R4.0000    
   X44.8855      Y74.1581      R4.0000    
   X44.3715      Y74.2258      R4.0000    
   X43.8772      Y74.3822      R4.0000    
   X43.3982      Y74.5806      R4.0000    
   X42.9613      Y74.8596      R4.0000    
   X42.5500      Y75.1752      R4.0000    
   X42.2001      Y75.5578      R4.0000    
   X41.8845      Y75.9691      R4.0000    
   X41.6456      Y76.4293      R4.0000    
   X41.4472      Y76.9082      R4.0000    
   X41.3356      Y77.4145      R4.0000    
   X41.2679      Y77.9285      R4.0000    
   X41.2911      Y78.4464      R4.0000    
   X41.3588      Y78.9605      R4.0000    
   X41.5152      Y79.4547      R4.0000    
   X41.7136      Y79.9337      R4.0000    
   X41.9926      Y80.3706      R4.0000    
   X42.3082      Y80.7820      R4.0000    
   X42.6908      Y81.1318      R4.0000    
   X43.1022      Y81.4474      R4.0000    
   X43.5623      Y81.6863      R4.0000    
   X44.0413      Y81.8847      R4.0000    
   X44.5475      Y81.9963      R4.0000    
   X45.0615      Y82.0640      R4.0000    
   X45.5794      Y82.0408      R4.0000    
   X46.0935      Y81.9732      R4.0000    
   X46.5877      Y81.8167      R4.0000    
   X47.0667      Y81.6183      R4.0000    
   X47.5037      Y81.3393      R4.0000    
   X47.9150      Y81.0237      R4.0000    
   X48.2648      Y80.6411      R4.0000    
   X48.5804      Y80.2298      R4.0000    
   X48.8193      Y79.7696      R4.0000    
   X49.0177      Y79.2907      R4.0000    
   X49.1293      Y78.7844      R4.0000    
   X49.1970      Y78.2704      R4.0000    
(Pass: 2)
G1   Z2.000      F200 
G17 G2   X49.1738      Y77.7525      R4.0000     F400 
   X49.1062      Y77.2385      R4.0000    
   X48.9497      Y76.7442      R4.0000    
   X48.7513      Y76.2652      R4.0000    
   X48.4723      Y75.8283      R4.0000    
   X48.1567      Y75.4170      R4.0000    
   X47.7741      Y75.0671      R4.0000    
   X47.3628      Y74.7515      R4.0000    
   X46.9027      Y74.5126      R4.0000    
   X46.4237      Y74.3142      R4.0000    
   X45.9174      Y74.2026      R4.0000    
   X45.4034      Y74.1349      R4.0000    
   X44.8855      Y74.1581      R4.0000    
   X44.3715      Y74.2258      R4.0000    
   X43.8772      Y74.3822      R4.0000    
   X43.3982      Y74.5806      R4.0000    
   X42.9613      Y74.8596      R4.0000    
   X42.5500      Y75.1752      R4.0000    
   X42.2001      Y75.5578      R4.0000    
   X41.8845      Y75.9691      R4.0000    
   X41.6456      Y76.4293      R4.0000    
   X41.4472      Y76.9082      R4.0000    
   X41.3356      Y77.4145      R4.0000    
   X41.2679      Y77.9285      R4.0000    
   X41.2911      Y78.4464      R4.0000    
   X41.3588      Y78.9605      R4.0000    
   X41.5152      Y79.4547      R4.0000    
   X41.7136      Y79.9337      R4.0000    
   X41.9926      Y80.3706      R4.0000    
   X42.3082      Y80.7820      R4.0000    
   X42.6908      Y81.1318      R4.0000    
   X43.1022      Y81.4474      R4.0000    
   X43.5623      Y81.6863      R4.0000    
   X44.0413      Y81.8847      R4.0000    
   X44.5475      Y81.9963      R4.0000    
   X45.0615      Y82.0640      R4.0000    
   X45.5794      Y82.0408      R4.0000    
   X46.0935      Y81.9732      R4.0000    
   X46.5877      Y81.8167      R4.0000    
   X47.0667      Y81.6183      R4.0000    
   X47.5037      Y81.3393      R4.0000    
   X47.9150      Y81.0237      R4.0000    
   X48.2648      Y80.6411      R4.0000    
   X48.5804      Y80.2298      R4.0000    
   X48.8193      Y79.7696      R4.0000    
   X49.0177      Y79.2907      R4.0000    
   X49.1293      Y78.7844      R4.0000    
   X49.1970      Y78.2704      R4.0000    
(Pass: 3)
G1   Z0.000      F200 
G17 G2   X49.1738      Y77.7525      R4.0000     F400 
   X49.1062      Y77.2385      R4.0000    
   X48.9497      Y76.7442      R4.0000    
   X48.7513      Y76.2652      R4.0000    
   X48.4723      Y75.8283      R4.0000    
   X48.1567      Y75.4170      R4.0000    
   X47.7741      Y75.0671      R4.0000    
   X47.3628      Y74.7515      R4.0000    
   X46.9027      Y74.5126      R4.0000    
   X46.4237      Y74.3142      R4.0000    
   X45.9174      Y74.2026      R4.0000    
   X45.4034      Y74.1349      R4.0000    
   X44.8855      Y74.1581      R4.0000    
   X44.3715      Y74.2258      R4.0000    
   X43.8772      Y74.3822      R4.0000    
   X43.3982      Y74.5806      R4.0000    
   X42.9613      Y74.8596      R4.0000    
   X42.5500      Y75.1752      R4.0000    
   X42.2001      Y75.5578      R4.0000    
   X41.8845      Y75.9691      R4.0000    
   X41.6456      Y76.4293      R4.0000    
   X41.4472      Y76.9082      R4.0000    
   X41.3356      Y77.4145      R4.0000    
   X41.2679      Y77.9285      R4.0000    
   X41.2911      Y78.4464      R4.0000    
   X41.3588      Y78.9605      R4.0000    
   X41.5152      Y79.4547      R4.0000    
   X41.7136      Y79.9337      R4.0000    
   X41.9926      Y80.3706      R4.0000    
   X42.3082      Y80.7820      R4.0000    
   X42.6908      Y81.1318      R4.0000    
   X43.1022      Y81.4474      R4.0000    
   X43.5623      Y81.6863      R4.0000    
   X44.0413      Y81.8847      R4.0000    
   X44.5475      Y81.9963      R4.0000    
   X45.0615      Y82.0640      R4.0000    
   X45.5794      Y82.0408      R4.0000    
   X46.0935      Y81.9732      R4.0000    
   X46.5877      Y81.8167      R4.0000    
   X47.0667      Y81.6183      R4.0000    
   X47.5037      Y81.3393      R4.0000    
   X47.9150      Y81.0237      R4.0000    
   X48.2648      Y80.6411      R4.0000    
   X48.5804      Y80.2298      R4.0000    
   X48.8193      Y79.7696      R4.0000    
   X49.0177      Y79.2907      R4.0000    
   X49.1293      Y78.7844      R4.0000    
   X49.1970      Y78.2704      R4.0000    
(Pass: 4)
G1   Z-2.000     F200 
G17 G2   X49.1738      Y77.7525      R4.0000     F400 
   X49.1062      Y77.2385      R4.0000    
   X48.9497      Y76.7442      R4.0000    
   X48.7513      Y76.2652      R4.0000    
   X48.4723      Y75.8283      R4.0000    
   X48.1567      Y75.4170      R4.0000    
   X47.7741      Y75.0671      R4.0000    
   X47.3628      Y74.7515      R4.0000    
   X46.9027      Y74.5126      R4.0000    
   X46.4237      Y74.3142      R4.0000    
   X45.9174      Y74.2026      R4.0000    
   X45.4034      Y74.1349      R4.0000    
   X44.8855      Y74.1581      R4.0000    
   X44.3715      Y74.2258      R4.0000    
   X43.8772      Y74.3822      R4.0000    
   X43.3982      Y74.5806      R4.0000    
   X42.9613      Y74.8596      R4.0000    
   X42.5500      Y75.1752      R4.0000    
   X42.2001      Y75.5578      R4.0000    
   X41.8845      Y75.9691      R4.0000    
   X41.6456      Y76.4293      R4.0000    
   X41.4472      Y76.9082      R4.0000    
   X41.3356      Y77.4145      R4.0000    
   X41.2679      Y77.9285      R4.0000    
   X41.2911      Y78.4464      R4.0000    
   X41.3588      Y78.9605      R4.0000    
   X41.5152      Y79.4547      R4.0000    
   X41.7136      Y79.9337      R4.0000    
   X41.9926      Y80.3706      R4.0000    
   X42.3082      Y80.7820      R4.0000    
   X42.6908      Y81.1318      R4.0000    
   X43.1022      Y81.4474      R4.0000    
   X43.5623      Y81.6863      R4.0000    
   X44.0413      Y81.8847      R4.0000    
   X44.5475      Y81.9963      R4.0000    
   X45.0615      Y82.0640      R4.0000    
   X45.5794      Y82.0408      R4.0000    
   X46.0935      Y81.9732      R4.0000    
   X46.5877      Y81.8167      R4.0000    
   X47.0667      Y81.6183      R4.0000    
   X47.5037      Y81.3393      R4.0000    
   X47.9150      Y81.0237      R4.0000    
   X48.2648      Y80.6411      R4.0000    
   X48.5804      Y80.2298      R4.0000    
   X48.8193      Y79.7696      R4.0000    
   X49.0177      Y79.2907      R4.0000    
   X49.1293      Y78.7844      R4.0000    
   X49.1970      Y78.2704      R4.0000    
(Pass: 5)
G1   Z-2.400     F200 
G17 G2   X49.1738      Y77.7525      R4.0000     F400 
   X49.1062      Y77.2385      R4.0000    
   X48.9497      Y76.7442      R4.0000    
   X48.7513      Y76.2652      R4.0000    
   X48.4723      Y75.8283      R4.0000    
   X48.1567      Y75.4170      R4.0000    
   X47.7741      Y75.0671      R4.0000    
   X47.3628      Y74.7515      R4.0000    
   X46.9027      Y74.5126      R4.0000    
   X46.4237      Y74.3142      R4.0000    
   X45.9174      Y74.2026      R4.0000    
   X45.4034      Y74.1349      R4.0000    
   X44.8855      Y74.1581      R4.0000    
   X44.3715      Y74.2258      R4.0000    
   X43.8772      Y74.3822      R4.0000    
   X43.3982      Y74.5806      R4.0000    
   X42.9613      Y74.8596      R4.0000    
   X42.5500      Y75.1752      R4.0000    
   X42.2001      Y75.5578      R4.0000    
   X41.8845      Y75.9691      R4.0000    
   X41.6456      Y76.4293      R4.0000    
   X41.4472      Y76.9082      R4.0000    
   X41.3356      Y77.4145      R4.0000    
   X41.2679      Y77.9285      R4.0000    
   X41.2911      Y78.4464      R4.0000    
   X41.3588      Y78.9605      R4.0000    
   X41.5152      Y79.4547      R4.0000    
   X41.7136      Y79.9337      R4.0000    
   X41.9926      Y80.3706      R4.0000    
   X42.3082      Y80.7820      R4.0000    
   X42.6908      Y81.1318      R4.0000    
   X43.1022      Y81.4474      R4.0000    
   X43.5623      Y81.6863      R4.0000    
   X44.0413      Y81.8847      R4.0000    
   X44.5475      Y81.9963      R4.0000    
   X45.0615      Y82.0640      R4.0000    
   X45.5794      Y82.0408      R4.0000    
   X46.0935      Y81.9732      R4.0000    
   X46.5877      Y81.8167      R4.0000    
   X47.0667      Y81.6183      R4.0000    
   X47.5037      Y81.3393      R4.0000    
   X47.9150      Y81.0237      R4.0000    
   X48.2648      Y80.6411      R4.0000    
   X48.5804      Y80.2298      R4.0000    
   X48.8193      Y79.7696      R4.0000    
   X49.0177      Y79.2907      R4.0000    
   X49.1293      Y78.7844      R4.0000    
   X49.1970      Y78.2704      R4.0000    
(BREAK pass 5)
G0   Z16.000    
(Pass: 1)
   X23.207    
G1   Z4.000      F200 
G17 G2   X23.2068      Y77.9054      R1.5000     F400 
   X23.1063      Y77.5304      R1.5000    
   X22.9122      Y77.1942      R1.5000    
   X22.6377      Y76.9197      R1.5000    
   X22.3015      Y76.7256      R1.5000    
   X21.9266      Y76.6251      R1.5000    
   X21.5384      Y76.6251      R1.5000    
   X21.1634      Y76.7256      R1.5000    
   X20.8272      Y76.9197      R1.5000    
   X20.5527      Y77.1942      R1.5000    
   X20.3586      Y77.5304      R1.5000    
   X20.2581      Y77.9054      R1.5000    
   X20.2581      Y78.2936      R1.5000    
   X20.3586      Y78.6685      R1.5000    
   X20.5527      Y79.0047      R1.5000    
   X20.8272      Y79.2792      R1.5000    
   X21.1634      Y79.4733      R1.5000    
   X21.5384      Y79.5738      R1.5000    
   X21.9266      Y79.5738      R1.5000    
   X22.3015      Y79.4733      R1.5000    
   X22.6377      Y79.2792      R1.5000    
   X22.9122      Y79.0047      R1.5000    
   X23.1063      Y78.6685      R1.5000    
   X23.2068      Y78.2936      R1.5000    
(Pass: 2)
G1   Z2.000      F200 
G17 G2   X23.2068      Y77.9054      R1.5000     F400 
   X23.1063      Y77.5304      R1.5000    
   X22.9122      Y77.1942      R1.5000    
   X22.6377      Y76.9197      R1.5000    
   X22.3015      Y76.7256      R1.5000    
   X21.9266      Y76.6251      R1.5000    
   X21.5384      Y76.6251      R1.5000    
   X21.1634      Y76.7256      R1.5000    
   X20.8272      Y76.9197      R1.5000    
   X20.5527      Y77.1942      R1.5000    
   X20.3586      Y77.5304      R1.5000    
   X20.2581      Y77.9054      R1.5000    
   X20.2581      Y78.2936      R1.5000    
   X20.3586      Y78.6685      R1.5000    
   X20.5527      Y79.0047      R1.5000    
   X20.8272      Y79.2792      R1.5000    
   X21.1634      Y79.4733      R1.5000    
   X21.5384      Y79.5738      R1.5000    
   X21.9266      Y79.5738      R1.5000    
   X22.3015      Y79.4733      R1.5000    
   X22.6377      Y79.2792      R1.5000    
   X22.9122      Y79.0047      R1.5000    
   X23.1063      Y78.6685      R1.5000    
   X23.2068      Y78.2936      R1.5000    
(Pass: 3)
G1   Z0.000      F200 
G17 G2   X23.2068      Y77.9054      R1.5000     F400 
   X23.1063      Y77.5304      R1.5000    
   X22.9122      Y77.1942      R1.5000    
   X22.6377      Y76.9197      R1.5000    
   X22.3015      Y76.7256      R1.5000    
   X21.9266      Y76.6251      R1.5000    
   X21.5384      Y76.6251      R1.5000    
   X21.1634      Y76.7256      R1.5000    
   X20.8272      Y76.9197      R1.5000    
   X20.5527      Y77.1942      R1.5000    
   X20.3586      Y77.5304      R1.5000    
   X20.2581      Y77.9054      R1.5000    
   X20.2581      Y78.2936      R1.5000    
   X20.3586      Y78.6685      R1.5000    
   X20.5527      Y79.0047      R1.5000    
   X20.8272      Y79.2792      R1.5000    
   X21.1634      Y79.4733      R1.5000    
   X21.5384      Y79.5738      R1.5000    
   X21.9266      Y79.5738      R1.5000    
   X22.3015      Y79.4733      R1.5000    
   X22.6377      Y79.2792      R1.5000    
   X22.9122      Y79.0047      R1.5000    
   X23.1063      Y78.6685      R1.5000    
   X23.2068      Y78.2936      R1.5000    
(Pass: 4)
G1   Z-2.000     F200 
G17 G2   X23.2068      Y77.9054      R1.5000     F400 
   X23.1063      Y77.5304      R1.5000    
   X22.9122      Y77.1942      R1.5000    
   X22.6377      Y76.9197      R1.5000    
   X22.3015      Y76.7256      R1.5000    
   X21.9266      Y76.6251      R1.5000    
   X21.5384      Y76.6251      R1.5000    
   X21.1634      Y76.7256      R1.5000    
   X20.8272      Y76.9197      R1.5000    
   X20.5527      Y77.1942      R1.5000    
   X20.3586      Y77.5304      R1.5000    
   X20.2581      Y77.9054      R1.5000    
   X20.2581      Y78.2936      R1.5000    
   X20.3586      Y78.6685      R1.5000    
   X20.5527      Y79.0047      R1.5000    
   X20.8272      Y79.2792      R1.5000    
   X21.1634      Y79.4733      R1.5000    
   X21.5384      Y79.5738      R1.5000    
   X21.9266      Y79.5738      R1.5000    
   X22.3015      Y79.4733      R1.5000    
   X22.6377      Y79.2792      R1.5000    
   X22.9122      Y79.0047      R1.5000    
   X23.1063      Y78.6685      R1.5000    
   X23.2068      Y78.2936      R1.5000    
(Pass: 5)
G1   Z-2.400     F200 
G17 G2   X23.2068      Y77.9054      R1.5000     F400 
   X23.1063      Y77.5304      R1.5000    
   X22.9122      Y77.1942      R1.5000    
   X22.6377      Y76.9197      R1.5000    
   X22.3015      Y76.7256      R1.5000    
   X21.9266      Y76.6251      R1.5000    
   X21.5384      Y76.6251      R1.5000    
   X21.1634      Y76.7256      R1.5000    
   X20.8272      Y76.9197      R1.5000    
   X20.5527      Y77.1942      R1.5000    
   X20.3586      Y77.5304      R1.5000    
   X20.2581      Y77.9054      R1.5000    
   X20.2581      Y78.2936      R1.5000    
   X20.3586      Y78.6685      R1.5000    
   X20.5527      Y79.0047      R1.5000    
   X20.8272      Y79.2792      R1.5000    
   X21.1634      Y79.4733      R1.5000    
   X21.5384      Y79.5738      R1.5000    
   X21.9266      Y79.5738      R1.5000    
   X22.3015      Y79.4733      R1.5000    
   X22.6377      Y79.2792      R1.5000    
   X22.9122      Y79.0047      R1.5000    
   X23.1063      Y78.6685      R1.5000    
   X23.2068      Y78.2936      R1.5000    
(BREAK pass 5)
G0   Z16.000    
(Pass: 1)
   X44.181       Y100.548   
G1   Z4.000      F200 
G17 G2   X43.9446      Y100.8559     R1.5000     F400 
   X43.7961      Y101.2146     R1.5000    
   X43.7454      Y101.5995     R1.5000    
   X43.7961      Y101.9843     R1.5000    
   X43.9446      Y102.3430     R1.5000    
   X44.1810      Y102.6510     R1.5000    
   X44.4889      Y102.8873     R1.5000    
   X44.8476      Y103.0358     R1.5000    
   X45.2325      Y103.0865     R1.5000    
   X45.6173      Y103.0358     R1.5000    
   X45.9760      Y102.8873     R1.5000    
   X46.2840      Y102.6510     R1.5000    
   X46.5203      Y102.3430     R1.5000    
   X46.6689      Y101.9843     R1.5000    
   X46.7195      Y101.5995     R1.5000    
   X46.6689      Y101.2146     R1.5000    
   X46.5203      Y100.8559     R1.5000    
   X46.2840      Y100.5480     R1.5000    
   X45.9760      Y100.3116     R1.5000    
   X45.6173      Y100.1631     R1.5000    
   X45.2325      Y100.1124     R1.5000    
   X44.8476      Y100.1631     R1.5000    
   X44.4889      Y100.3116     R1.5000    
   X44.1810      Y100.5480     R1.5000    
(Pass: 2)
G1   Z2.000      F200 
G17 G2   X43.9446      Y100.8559     R1.5000     F400 
   X43.7961      Y101.2146     R1.5000    
   X43.7454      Y101.5995     R1.5000    
   X43.7961      Y101.9843     R1.5000    
   X43.9446      Y102.3430     R1.5000    
   X44.1810      Y102.6510     R1.5000    
   X44.4889      Y102.8873     R1.5000    
   X44.8476      Y103.0358     R1.5000    
   X45.2325      Y103.0865     R1.5000    
   X45.6173      Y103.0358     R1.5000    
   X45.9760      Y102.8873     R1.5000    
   X46.2840      Y102.6510     R1.5000    
   X46.5203      Y102.3430     R1.5000    
   X46.6689      Y101.9843     R1.5000    
   X46.7195      Y101.5995     R1.5000    
   X46.6689      Y101.2146     R1.5000    
   X46.5203      Y100.8559     R1.5000    
   X46.2840      Y100.5480     R1.5000    
   X45.9760      Y100.3116     R1.5000    
   X45.6173      Y100.1631     R1.5000    
   X45.2325      Y100.1124     R1.5000    
   X44.8476      Y100.1631     R1.5000    
   X44.4889      Y100.3116     R1.5000    
   X44.1810      Y100.5480     R1.5000    
(Pass: 3)
G1   Z0.000      F200 
G17 G2   X43.9446      Y100.8559     R1.5000     F400 
   X43.7961      Y101.2146     R1.5000    
   X43.7454      Y101.5995     R1.5000    
   X43.7961      Y101.9843     R1.5000    
   X43.9446      Y102.3430     R1.5000    
   X44.1810      Y102.6510     R1.5000    
   X44.4889      Y102.8873     R1.5000    
   X44.8476      Y103.0358     R1.5000    
   X45.2325      Y103.0865     R1.5000    
   X45.6173      Y103.0358     R1.5000    
   X45.9760      Y102.8873     R1.5000    
   X46.2840      Y102.6510     R1.5000    
   X46.5203      Y102.3430     R1.5000    
   X46.6689      Y101.9843     R1.5000    
   X46.7195      Y101.5995     R1.5000    
   X46.6689      Y101.2146     R1.5000    
   X46.5203      Y100.8559     R1.5000    
   X46.2840      Y100.5480     R1.5000    
   X45.9760      Y100.3116     R1.5000    
   X45.6173      Y100.1631     R1.5000    
   X45.2325      Y100.1124     R1.5000    
   X44.8476      Y100.1631     R1.5000    
   X44.4889      Y100.3116     R1.5000    
   X44.1810      Y100.5480     R1.5000    
(Pass: 4)
G1   Z-2.000     F200 
G17 G2   X43.9446      Y100.8559     R1.5000     F400 
   X43.7961      Y101.2146     R1.5000    
   X43.7454      Y101.5995     R1.5000    
   X43.7961      Y101.9843     R1.5000    
   X43.9446      Y102.3430     R1.5000    
   X44.1810      Y102.6510     R1.5000    
   X44.4889      Y102.8873     R1.5000    
   X44.8476      Y103.0358     R1.5000    
   X45.2325      Y103.0865     R1.5000    
   X45.6173      Y103.0358     R1.5000    
   X45.9760      Y102.8873     R1.5000    
   X46.2840      Y102.6510     R1.5000    
   X46.5203      Y102.3430     R1.5000    
   X46.6689      Y101.9843     R1.5000    
   X46.7195      Y101.5995     R1.5000    
   X46.6689      Y101.2146     R1.5000    
   X46.5203      Y100.8559     R1.5000    
   X46.2840      Y100.5480     R1.5000    
   X45.9760      Y100.3116     R1.5000    
   X45.6173      Y100.1631     R1.5000    
   X45.2325      Y100.1124     R1.5000    
   X44.8476      Y100.1631     R1.5000    
   X44.4889      Y100.3116     R1.5000    
   X44.1810      Y100.5480     R1.5000    
(Pass: 5)
G1   Z-2.400     F200 
G17 G2   X43.9446      Y100.8559     R1.5000     F400 
   X43.7961      Y101.2146     R1.5000    
   X43.7454      Y101.5995     R1.5000    
   X43.7961      Y101.9843     R1.5000    
   X43.9446      Y102.3430     R1.5000    
   X44.1810      Y102.6510     R1.5000    
   X44.4889      Y102.8873     R1.5000    
   X44.8476      Y103.0358     R1.5000    
   X45.2325      Y103.0865     R1.5000    
   X45.6173      Y103.0358     R1.5000    
   X45.9760      Y102.8873     R1.5000    
   X46.2840      Y102.6510     R1.5000    
   X46.5203      Y102.3430     R1.5000    
   X46.6689      Y101.9843     R1.5000    
   X46.7195      Y101.5995     R1.5000    
   X46.6689      Y101.2146     R1.5000    
   X46.5203      Y100.8559     R1.5000    
   X46.2840      Y100.5480     R1.5000    
   X45.9760      Y100.3116     R1.5000    
   X45.6173      Y100.1631     R1.5000    
   X45.2325      Y100.1124     R1.5000    
   X44.8476      Y100.1631     R1.5000    
   X44.4889      Y100.3116     R1.5000    
   X44.1810      Y100.5480     R1.5000    
(BREAK pass 5)
G0   Z16.000    
(Pass: 1)
   X36.719       Y109.433   
G1   Z4.000      F200 
   X35.041       Y109.328    F400 
   X33.346       Y109.007   
   X31.708       Y108.477   
   X30.154       Y107.748   
   X28.711       Y106.829   
   X27.429       Y105.758   
   X17.225       Y95.612    
   X16.462       Y94.784    
   X16.068       Y94.259    
   X15.453       Y93.246    
   X14.972       Y92.139    
   X14.653       Y91.004    
   X14.541       Y90.361    
   X14.464       Y89.238    
   Y50.869    
G17 G3   X14.5290      Y50.0301      R7.0125    
   X14.7117      Y49.1553      R7.0125    
   X15.0120      Y48.3127      R7.0125    
   X15.4240      Y47.5171      R7.0125    
   X15.9395      Y46.7822      R7.0125    
   X16.5489      Y46.1205      R7.0125    
   X17.2408      Y45.5426      R7.0125    
   X18.0030      Y45.0576      R7.0125    
   X18.8224      Y44.6727      R7.0125    
   X19.6852      Y44.3938      R7.0125    
   X20.5771      Y44.2248      R7.0125    
   X21.4369      Y44.1712      R7.0125    
G1   X68.935    
G17 G3   X69.7952      Y44.2248      R7.0125    
   X70.6872      Y44.3938      R7.0125    
   X71.5500      Y44.6727      R7.0125    
   X72.3694      Y45.0576      R7.0125    
   X73.1316      Y45.5426      R7.0125    
   X73.8235      Y46.1205      R7.0125    
   X74.4328      Y46.7822      R7.0125    
   X74.9484      Y47.5171      R7.0125    
   X75.3603      Y48.3127      R7.0125    
   X75.6607      Y49.1553      R7.0125    
   X75.8434      Y50.0301      R7.0125    
   X75.9012      Y50.8701      R7.0125    
G1   Y89.788    
   X75.712       Y90.980    
   X75.386       Y92.139    
   X74.904       Y93.246    
   X74.277       Y94.281    
   X73.509       Y95.234    
   X61.561       Y106.310   
   X60.190       Y107.311   
   X58.689       Y108.137   
   X57.089       Y108.768   
   X55.419       Y109.194   
   X53.707       Y109.409   
   X36.719    
(Pass: 2)
   Z2.000      F200 
   X35.041       Y109.328    F400 
   X33.346       Y109.007   
   X31.708       Y108.477   
   X30.154       Y107.748   
   X28.711       Y106.829   
   X27.429       Y105.758   
   X17.225       Y95.612    
   X16.462       Y94.784    
   X16.068       Y94.259    
   X15.453       Y93.246    
   X14.972       Y92.139    
   X14.653       Y91.004    
   X14.541       Y90.361    
   X14.464       Y89.238    
   Y50.869    
G17 G3   X14.5290      Y50.0301      R7.0125    
   X14.7117      Y49.1553      R7.0125    
   X15.0120      Y48.3127      R7.0125    
   X15.4240      Y47.5171      R7.0125    
   X15.9395      Y46.7822      R7.0125    
   X16.5489      Y46.1205      R7.0125    
   X17.2408      Y45.5426      R7.0125    
   X18.0030      Y45.0576      R7.0125    
   X18.8224      Y44.6727      R7.0125    
   X19.6852      Y44.3938      R7.0125    
   X20.5771      Y44.2248      R7.0125    
   X21.4369      Y44.1712      R7.0125    
G1   X68.935    
G17 G3   X69.7952      Y44.2248      R7.0125    
   X70.6872      Y44.3938      R7.0125    
   X71.5500      Y44.6727      R7.0125    
   X72.3694      Y45.0576      R7.0125    
   X73.1316      Y45.5426      R7.0125    
   X73.8235      Y46.1205      R7.0125    
   X74.4328      Y46.7822      R7.0125    
   X74.9484      Y47.5171      R7.0125    
   X75.3603      Y48.3127      R7.0125    
   X75.6607      Y49.1553      R7.0125    
   X75.8434      Y50.0301      R7.0125    
   X75.9012      Y50.8701      R7.0125    
G1   Y89.788    
   X75.712       Y90.980    
   X75.386       Y92.139    
   X74.904       Y93.246    
   X74.277       Y94.281    
   X73.509       Y95.234    
   X61.561       Y106.310   
   X60.190       Y107.311   
   X58.689       Y108.137   
   X57.089       Y108.768   
   X55.419       Y109.194   
   X53.707       Y109.409   
   X36.719    
(Pass: 3)
   Z0.000      F200 
   X35.041       Y109.328    F400 
   X33.346       Y109.007   
   X31.708       Y108.477   
   X30.154       Y107.748   
   X28.711       Y106.829   
   X27.429       Y105.758   
   X17.225       Y95.612    
   X16.462       Y94.784    
   X16.068       Y94.259    
   X15.453       Y93.246    
   X14.972       Y92.139    
   X14.653       Y91.004    
   X14.541       Y90.361    
   X14.464       Y89.238    
   Y50.869    
G17 G3   X14.5290      Y50.0301      R7.0125    
   X14.7117      Y49.1553      R7.0125    
   X15.0120      Y48.3127      R7.0125    
   X15.4240      Y47.5171      R7.0125    
   X15.9395      Y46.7822      R7.0125    
   X16.5489      Y46.1205      R7.0125    
   X17.2408      Y45.5426      R7.0125    
   X18.0030      Y45.0576      R7.0125    
   X18.8224      Y44.6727      R7.0125    
   X19.6852      Y44.3938      R7.0125    
   X20.5771      Y44.2248      R7.0125    
   X21.4369      Y44.1712      R7.0125    
G1   X68.935    
G17 G3   X69.7952      Y44.2248      R7.0125    
   X70.6872      Y44.3938      R7.0125    
   X71.5500      Y44.6727      R7.0125    
   X72.3694      Y45.0576      R7.0125    
   X73.1316      Y45.5426      R7.0125    
   X73.8235      Y46.1205      R7.0125    
   X74.4328      Y46.7822      R7.0125    
   X74.9484      Y47.5171      R7.0125    
   X75.3603      Y48.3127      R7.0125    
   X75.6607      Y49.1553      R7.0125    
   X75.8434      Y50.0301      R7.0125    
   X75.9012      Y50.8701      R7.0125    
G1   Y89.788    
   X75.712       Y90.980    
   X75.386       Y92.139    
   X74.904       Y93.246    
   X74.277       Y94.281    
   X73.509       Y95.234    
   X61.561       Y106.310   
   X60.190       Y107.311   
   X58.689       Y108.137   
   X57.089       Y108.768   
   X55.419       Y109.194   
   X53.707       Y109.409   
   X36.719    
(Pass: 4)
   Z-2.000     F200 
   X35.041       Y109.328    F400 
   X33.346       Y109.007   
   X31.708       Y108.477   
   X30.154       Y107.748   
   X28.711       Y106.829   
   X27.429       Y105.758   
   X17.225       Y95.612    
   X16.462       Y94.784    
   X16.068       Y94.259    
   X15.453       Y93.246    
   X14.972       Y92.139    
   X14.653       Y91.004    
   X14.541       Y90.361    
   X14.464       Y89.238    
   Y50.869    
G17 G3   X14.5290      Y50.0301      R7.0125    
   X14.7117      Y49.1553      R7.0125    
   X15.0120      Y48.3127      R7.0125    
   X15.4240      Y47.5171      R7.0125    
   X15.9395      Y46.7822      R7.0125    
   X16.5489      Y46.1205      R7.0125    
   X17.2408      Y45.5426      R7.0125    
   X18.0030      Y45.0576      R7.0125    
   X18.8224      Y44.6727      R7.0125    
   X19.6852      Y44.3938      R7.0125    
   X20.5771      Y44.2248      R7.0125    
   X21.4369      Y44.1712      R7.0125    
G1   X68.935    
G17 G3   X69.7952      Y44.2248      R7.0125    
   X70.6872      Y44.3938      R7.0125    
   X71.5500      Y44.6727      R7.0125    
   X72.3694      Y45.0576      R7.0125    
   X73.1316      Y45.5426      R7.0125    
   X73.8235      Y46.1205      R7.0125    
   X74.4328      Y46.7822      R7.0125    
   X74.9484      Y47.5171      R7.0125    
   X75.3603      Y48.3127      R7.0125    
   X75.6607      Y49.1553      R7.0125    
   X75.8434      Y50.0301      R7.0125    
   X75.9012      Y50.8701      R7.0125    
G1   Y89.788    
   X75.712       Y90.980    
   X75.386       Y92.139    
   X74.904       Y93.246    
   X74.277       Y94.281    
   X73.509       Y95.234    
   X61.561       Y106.310   
   X60.190       Y107.311   
   X58.689       Y108.137   
   X57.089       Y108.768   
   X55.419       Y109.194   
   X53.707       Y109.409   
   X36.719    
(Pass: 5)
   Z-2.400     F200 
   X35.041       Y109.328    F400 
   X33.346       Y109.007   
   X31.708       Y108.477   
   X30.154       Y107.748   
   X28.711       Y106.829   
   X27.429       Y105.758   
   X17.225       Y95.612    
   X16.462       Y94.784    
   X16.068       Y94.259    
   X15.453       Y93.246    
   X14.972       Y92.139    
   X14.653       Y91.004    
   X14.541       Y90.361    
   X14.464       Y89.238    
   Y50.869    
G17 G3   X14.5290      Y50.0301      R7.0125    
   X14.7117      Y49.1553      R7.0125    
   X15.0120      Y48.3127      R7.0125    
   X15.4240      Y47.5171      R7.0125    
   X15.9395      Y46.7822      R7.0125    
   X16.5489      Y46.1205      R7.0125    
   X17.2408      Y45.5426      R7.0125    
   X18.0030      Y45.0576      R7.0125    
   X18.8224      Y44.6727      R7.0125    
   X19.6852      Y44.3938      R7.0125    
   X20.5771      Y44.2248      R7.0125    
   X21.4369      Y44.1712      R7.0125    
G1   X68.935    
G17 G3   X69.7952      Y44.2248      R7.0125    
   X70.6872      Y44.3938      R7.0125    
   X71.5500      Y44.6727      R7.0125    
   X72.3694      Y45.0576      R7.0125    
   X73.1316      Y45.5426      R7.0125    
   X73.8235      Y46.1205      R7.0125    
   X74.4328      Y46.7822      R7.0125    
   X74.9484      Y47.5171      R7.0125    
   X75.3603      Y48.3127      R7.0125    
   X75.6607      Y49.1553      R7.0125    
   X75.8434      Y50.0301      R7.0125    
   X75.9012      Y50.8701      R7.0125    
G1   Y89.788    
   X75.712       Y90.980    
   X75.386       Y92.139    
   X74.904       Y93.246    
   X74.277       Y94.281    
   X73.509       Y95.234    
   X61.561       Y106.310   
   X60.190       Y107.311   
   X58.689       Y108.137   
   X57.089       Y108.768   
   X55.419       Y109.194   
   X53.707       Y109.409   
   X36.719    
(BREAK pass 5)
G0   Z16.000    
(Pass: 1)
   X67.342       Y183.483   
G1   Z4.000      F200 
   X67.095       Y183.586    F400 
   X66.882       Y183.749   
   X66.719       Y183.962   
   X66.616       Y184.209   
   X66.581       Y184.475   
   X66.616       Y184.741   
   X66.719       Y184.989   
   X66.882       Y185.202   
   X67.095       Y185.365   
   X67.342       Y185.467   
   X67.707       Y185.515   
   X72.510    
   X72.874       Y185.467   
   X73.122       Y185.365   
   X73.334       Y185.202   
   X73.498       Y184.989   
   X73.600       Y184.741   
   X73.635       Y184.475   
   X73.600       Y184.209   
   X73.498       Y183.962   
   X73.334       Y183.749   
   X73.122       Y183.586   
   X72.874       Y183.483   
   X72.510       Y183.435   
   X67.706    
   X67.342       Y183.483   
(Pass: 2)
   Z2.000      F200 
   X67.095       Y183.586    F400 
   X66.882       Y183.749   
   X66.719       Y183.962   
   X66.616       Y184.209   
   X66.581       Y184.475   
   X66.616       Y184.741   
   X66.719       Y184.989   
   X66.882       Y185.202   
   X67.095       Y185.365   
   X67.342       Y185.467   
   X67.707       Y185.515   
   X72.510    
   X72.874       Y185.467   
   X73.122       Y185.365   
   X73.334       Y185.202   
   X73.498       Y184.989   
   X73.600       Y184.741   
   X73.635       Y184.475   
   X73.600       Y184.209   
   X73.498       Y183.962   
   X73.334       Y183.749   
   X73.122       Y183.586   
   X72.874       Y183.483   
   X72.510       Y183.435   
   X67.706    
   X67.342       Y183.483   
(Pass: 3)
   Z0.000      F200 
   X67.095       Y183.586    F400 
   X66.882       Y183.749   
   X66.719       Y183.962   
   X66.616       Y184.209   
   X66.581       Y184.475   
   X66.616       Y184.741   
   X66.719       Y184.989   
   X66.882       Y185.202   
   X67.095       Y185.365   
   X67.342       Y185.467   
   X67.707       Y185.515   
   X72.510    
   X72.874       Y185.467   
   X73.122       Y185.365   
   X73.334       Y185.202   
   X73.498       Y184.989   
   X73.600       Y184.741   
   X73.635       Y184.475   
   X73.600       Y184.209   
   X73.498       Y183.962   
   X73.334       Y183.749   
   X73.122       Y183.586   
   X72.874       Y183.483   
   X72.510       Y183.435   
   X67.706    
   X67.342       Y183.483   
(Pass: 4)
   Z-2.000     F200 
   X67.095       Y183.586    F400 
   X66.882       Y183.749   
   X66.719       Y183.962   
   X66.616       Y184.209   
   X66.581       Y184.475   
   X66.616       Y184.741   
   X66.719       Y184.989   
   X66.882       Y185.202   
   X67.095       Y185.365   
   X67.342       Y185.467   
   X67.707       Y185.515   
   X72.510    
   X72.874       Y185.467   
   X73.122       Y185.365   
   X73.334       Y185.202   
   X73.498       Y184.989   
   X73.600       Y184.741   
   X73.635       Y184.475   
   X73.600       Y184.209   
   X73.498       Y183.962   
   X73.334       Y183.749   
   X73.122       Y183.586   
   X72.874       Y183.483   
   X72.510       Y183.435   
   X67.706    
   X67.342       Y183.483   
(Pass: 5)
   Z-2.400     F200 
   X67.095       Y183.586    F400 
   X66.882       Y183.749   
   X66.719       Y183.962   
   X66.616       Y184.209   
   X66.581       Y184.475   
   X66.616       Y184.741   
   X66.719       Y184.989   
   X66.882       Y185.202   
   X67.095       Y185.365   
   X67.342       Y185.467   
   X67.707       Y185.515   
   X72.510    
   X72.874       Y185.467   
   X73.122       Y185.365   
   X73.334       Y185.202   
   X73.498       Y184.989   
   X73.600       Y184.741   
   X73.635       Y184.475   
   X73.600       Y184.209   
   X73.498       Y183.962   
   X73.334       Y183.749   
   X73.122       Y183.586   
   X72.874       Y183.483   
   X72.510       Y183.435   
   X67.706    
   X67.342       Y183.483   
(BREAK pass 5)
G0   Z16.000    
(Pass: 1)
   X87.696       Y204.561   
G1   Z4.000      F200 
   X86.903       Y205.594    F400 
   X86.405       Y206.796   
   X86.235       Y208.087   
   X86.405       Y209.378   
   X86.903       Y210.581   
   X87.696       Y211.614   
   X88.729       Y212.406   
   X89.932       Y212.904   
   X91.321       Y213.087   
   X96.124    
   X97.513       Y212.904   
   X98.716       Y212.406   
   X99.749       Y211.614   
   X100.541      Y210.581   
   X101.039      Y209.378   
   X101.209      Y208.087   
   X101.039      Y206.796   
   X100.541      Y205.594   
   X99.749       Y204.561   
   X98.716       Y203.768   
   X97.513       Y203.270   
   X96.124       Y203.087   
   X91.321    
   X89.932       Y203.270   
   X88.729       Y203.768   
   X87.696       Y204.561   
(Pass: 2)
   Z2.000      F200 
   X86.903       Y205.594    F400 
   X86.405       Y206.796   
   X86.235       Y208.087   
   X86.405       Y209.378   
   X86.903       Y210.581   
   X87.696       Y211.614   
   X88.729       Y212.406   
   X89.932       Y212.904   
   X91.321       Y213.087   
   X96.124    
   X97.513       Y212.904   
   X98.716       Y212.406   
   X99.749       Y211.614   
   X100.541      Y210.581   
   X101.039      Y209.378   
   X101.209      Y208.087   
   X101.039      Y206.796   
   X100.541      Y205.594   
   X99.749       Y204.561   
   X98.716       Y203.768   
   X97.513       Y203.270   
   X96.124       Y203.087   
   X91.321    
   X89.932       Y203.270   
   X88.729       Y203.768   
   X87.696       Y204.561   
(Pass: 3)
   Z0.000      F200 
   X86.903       Y205.594    F400 
   X86.405       Y206.796   
   X86.235       Y208.087   
   X86.405       Y209.378   
   X86.903       Y210.581   
   X87.696       Y211.614   
   X88.729       Y212.406   
   X89.932       Y212.904   
   X91.321       Y213.087   
   X96.124    
   X97.513       Y212.904   
   X98.716       Y212.406   
   X99.749       Y211.614   
   X100.541      Y210.581   
   X101.039      Y209.378   
   X101.209      Y208.087   
   X101.039      Y206.796   
   X100.541      Y205.594   
   X99.749       Y204.561   
   X98.716       Y203.768   
   X97.513       Y203.270   
   X96.124       Y203.087   
   X91.321    
   X89.932       Y203.270   
   X88.729       Y203.768   
   X87.696       Y204.561   
(Pass: 4)
   Z-2.000     F200 
   X86.903       Y205.594    F400 
   X86.405       Y206.796   
   X86.235       Y208.087   
   X86.405       Y209.378   
   X86.903       Y210.581   
   X87.696       Y211.614   
   X88.729       Y212.406   
   X89.932       Y212.904   
   X91.321       Y213.087   
   X96.124    
   X97.513       Y212.904   
   X98.716       Y212.406   
   X99.749       Y211.614   
   X100.541      Y210.581   
   X101.039      Y209.378   
   X101.209      Y208.087   
   X101.039      Y206.796   
   X100.541      Y205.594   
   X99.749       Y204.561   
   X98.716       Y203.768   
   X97.513       Y203.270   
   X96.124       Y203.087   
   X91.321    
   X89.932       Y203.270   
   X88.729       Y203.768   
   X87.696       Y204.561   
(Pass: 5)
   Z-2.400     F200 
   X86.903       Y205.594    F400 
   X86.405       Y206.796   
   X86.235       Y208.087   
   X86.405       Y209.378   
   X86.903       Y210.581   
   X87.696       Y211.614   
   X88.729       Y212.406   
   X89.932       Y212.904   
   X91.321       Y213.087   
   X96.124    
   X97.513       Y212.904   
   X98.716       Y212.406   
   X99.749       Y211.614   
   X100.541      Y210.581   
   X101.039      Y209.378   
   X101.209      Y208.087   
   X101.039      Y206.796   
   X100.541      Y205.594   
   X99.749       Y204.561   
   X98.716       Y203.768   
   X97.513       Y203.270   
   X96.124       Y203.087   
   X91.321    
   X89.932       Y203.270   
   X88.729       Y203.768   
   X87.696       Y204.561   
(BREAK pass 5)
G0   Z16.000    
(Pass: 1)
   X113.963      Y184.989   
G1   Z4.000      F200 
   X114.126      Y185.202    F400 
   X114.339      Y185.365   
   X114.586      Y185.467   
   X114.950      Y185.515   
   X119.754   
   X120.118      Y185.467   
   X120.366      Y185.365   
   X120.578      Y185.202   
   X120.741      Y184.989   
   X120.844      Y184.741   
   X120.879      Y184.475   
   X120.844      Y184.209   
   X120.741      Y183.962   
   X120.578      Y183.749   
   X120.366      Y183.586   
   X120.118      Y183.483   
   X119.754      Y183.435   
   X114.950   
   X114.586      Y183.483   
   X114.339      Y183.586   
   X114.126      Y183.749   
   X113.963      Y183.962   
   X113.860      Y184.209   
   X113.825      Y184.475   
   X113.860      Y184.741   
   X113.963      Y184.989   
(Pass: 2)
   Z2.000      F200 
   X114.126      Y185.202    F400 
   X114.339      Y185.365   
   X114.586      Y185.467   
   X114.950      Y185.515   
   X119.754   
   X120.118      Y185.467   
   X120.366      Y185.365   
   X120.578      Y185.202   
   X120.741      Y184.989   
   X120.844      Y184.741   
   X120.879      Y184.475   
   X120.844      Y184.209   
   X120.741      Y183.962   
   X120.578      Y183.749   
   X120.366      Y183.586   
   X120.118      Y183.483   
   X119.754      Y183.435   
   X114.950   
   X114.586      Y183.483   
   X114.339      Y183.586   
   X114.126      Y183.749   
   X113.963      Y183.962   
   X113.860      Y184.209   
   X113.825      Y184.475   
   X113.860      Y184.741   
   X113.963      Y184.989   
(Pass: 3)
   Z0.000      F200 
   X114.126      Y185.202    F400 
   X114.339      Y185.365   
   X114.586      Y185.467   
   X114.950      Y185.515   
   X119.754   
   X120.118      Y185.467   
   X120.366      Y185.365   
   X120.578      Y185.202   
   X120.741      Y184.989   
   X120.844      Y184.741   
   X120.879      Y184.475   
   X120.844      Y184.209   
   X120.741      Y183.962   
   X120.578      Y183.749   
   X120.366      Y183.586   
   X120.118      Y183.483   
   X119.754      Y183.435   
   X114.950   
   X114.586      Y183.483   
   X114.339      Y183.586   
   X114.126      Y183.749   
   X113.963      Y183.962   
   X113.860      Y184.209   
   X113.825      Y184.475   
   X113.860      Y184.741   
   X113.963      Y184.989   
(Pass: 4)
   Z-2.000     F200 
   X114.126      Y185.202    F400 
   X114.339      Y185.365   
   X114.586      Y185.467   
   X114.950      Y185.515   
   X119.754   
   X120.118      Y185.467   
   X120.366      Y185.365   
   X120.578      Y185.202   
   X120.741      Y184.989   
   X120.844      Y184.741   
   X120.879      Y184.475   
   X120.844      Y184.209   
   X120.741      Y183.962   
   X120.578      Y183.749   
   X120.366      Y183.586   
   X120.118      Y183.483   
   X119.754      Y183.435   
   X114.950   
   X114.586      Y183.483   
   X114.339      Y183.586   
   X114.126      Y183.749   
   X113.963      Y183.962   
   X113.860      Y184.209   
   X113.825      Y184.475   
   X113.860      Y184.741   
   X113.963      Y184.989   
(Pass: 5)
   Z-2.400     F200 
   X114.126      Y185.202    F400 
   X114.339      Y185.365   
   X114.586      Y185.467   
   X114.950      Y185.515   
   X119.754   
   X120.118      Y185.467   
   X120.366      Y185.365   
   X120.578      Y185.202   
   X120.741      Y184.989   
   X120.844      Y184.741   
   X120.879      Y184.475   
   X120.844      Y184.209   
   X120.741      Y183.962   
   X120.578      Y183.749   
   X120.366      Y183.586   
   X120.118      Y183.483   
   X119.754      Y183.435   
   X114.950   
   X114.586      Y183.483   
   X114.339      Y183.586   
   X114.126      Y183.749   
   X113.963      Y183.962   
   X113.860      Y184.209   
   X113.825      Y184.475   
   X113.860      Y184.741   
   X113.963      Y184.989   
(BREAK pass 5)
G0   Z16.000    
(Pass: 1)
   X130.430      Y151.889   
G1   Z4.000      F200 
   X130.668      Y151.987    F400 
   X130.923      Y152.021   
   X131.179      Y151.987   
   X131.417      Y151.889   
   X131.621      Y151.732   
   X131.778      Y151.527   
   X131.877      Y151.289   
   X131.910      Y151.034   
   X131.877      Y150.778   
   X131.778      Y150.540   
   X131.621      Y150.336   
   X131.417      Y150.179   
   X131.179      Y150.081   
   X130.923      Y150.047   
   X130.668      Y150.081   
   X130.430      Y150.179   
   X130.225      Y150.336   
   X130.069      Y150.540   
   X129.970      Y150.778   
   X129.936      Y151.034   
   X129.970      Y151.289   
   X130.069      Y151.527   
   X130.225      Y151.732   
   X130.430      Y151.889   
(Pass: 2)
   Z2.000      F200 
   X130.668      Y151.987    F400 
   X130.923      Y152.021   
   X131.179      Y151.987   
   X131.417      Y151.889   
   X131.621      Y151.732   
   X131.778      Y151.527   
   X131.877      Y151.289   
   X131.910      Y151.034   
   X131.877      Y150.778   
   X131.778      Y150.540   
   X131.621      Y150.336   
   X131.417      Y150.179   
   X131.179      Y150.081   
   X130.923      Y150.047   
   X130.668      Y150.081   
   X130.430      Y150.179   
   X130.225      Y150.336   
   X130.069      Y150.540   
   X129.970      Y150.778   
   X129.936      Y151.034   
   X129.970      Y151.289   
   X130.069      Y151.527   
   X130.225      Y151.732   
   X130.430      Y151.889   
(Pass: 3)
   Z0.000      F200 
   X130.668      Y151.987    F400 
   X130.923      Y152.021   
   X131.179      Y151.987   
   X131.417      Y151.889   
   X131.621      Y151.732   
   X131.778      Y151.527   
   X131.877      Y151.289   
   X131.910      Y151.034   
   X131.877      Y150.778   
   X131.778      Y150.540   
   X131.621      Y150.336   
   X131.417      Y150.179   
   X131.179      Y150.081   
   X130.923      Y150.047   
   X130.668      Y150.081   
   X130.430      Y150.179   
   X130.225      Y150.336   
   X130.069      Y150.540   
   X129.970      Y150.778   
   X129.936      Y151.034   
   X129.970      Y151.289   
   X130.069      Y151.527   
   X130.225      Y151.732   
   X130.430      Y151.889   
(Pass: 4)
   Z-2.000     F200 
   X130.668      Y151.987    F400 
   X130.923      Y152.021   
   X131.179      Y151.987   
   X131.417      Y151.889   
   X131.621      Y151.732   
   X131.778      Y151.527   
   X131.877      Y151.289   
   X131.910      Y151.034   
   X131.877      Y150.778   
   X131.778      Y150.540   
   X131.621      Y150.336   
   X131.417      Y150.179   
   X131.179      Y150.081   
   X130.923      Y150.047   
   X130.668      Y150.081   
   X130.430      Y150.179   
   X130.225      Y150.336   
   X130.069      Y150.540   
   X129.970      Y150.778   
   X129.936      Y151.034   
   X129.970      Y151.289   
   X130.069      Y151.527   
   X130.225      Y151.732   
   X130.430      Y151.889   
(Pass: 5)
   Z-2.400     F200 
   X130.668      Y151.987    F400 
   X130.923      Y152.021   
   X131.179      Y151.987   
   X131.417      Y151.889   
   X131.621      Y151.732   
   X131.778      Y151.527   
   X131.877      Y151.289   
   X131.910      Y151.034   
   X131.877      Y150.778   
   X131.778      Y150.540   
   X131.621      Y150.336   
   X131.417      Y150.179   
   X131.179      Y150.081   
   X130.923      Y150.047   
   X130.668      Y150.081   
   X130.430      Y150.179   
   X130.225      Y150.336   
   X130.069      Y150.540   
   X129.970      Y150.778   
   X129.936      Y151.034   
   X129.970      Y151.289   
   X130.069      Y151.527   
   X130.225      Y151.732   
   X130.430      Y151.889   
(BREAK pass 5)
G0   Z16.000    
(Pass: 1)
   X204.405      Y140.461   
G1   Z4.000      F200 
G17 G3   X203.8188     Y138.2732     R-0.0000    F400 
G1   X204.097      Y137.911   
G17 G3   X203.8188     Y138.2732     R-0.0000   
G1   X204.596      Y140.436   
G17 G3   X204.2666     Y137.9106     R-0.0000   
(Pass: 2)
G1   X204.405      Y140.461   
   Z2.000      F200 
G17 G3   X203.8188     Y138.2732     R-0.0000    F400 
G1   X204.097      Y137.911   
G17 G3   X203.8188     Y138.2732     R-0.0000   
G1   X204.596      Y140.436   
G17 G3   X204.2666     Y137.9106     R-0.0000   
(Pass: 3)
G1   X204.405      Y140.461   
   Z0.000      F200 
G17 G3   X203.8188     Y138.2732     R-0.0000    F400 
G1   X204.097      Y137.911   
G17 G3   X203.8188     Y138.2732     R-0.0000   
G1   X204.596      Y140.436   
G17 G3   X204.2666     Y137.9106     R-0.0000   
(Pass: 4)
G1   X204.405      Y140.461   
   Z-2.000     F200 
G17 G3   X203.8188     Y138.2732     R-0.0000    F400 
G1   X204.097      Y137.911   
G17 G3   X203.8188     Y138.2732     R-0.0000   
G1   X204.596      Y140.436   
G17 G3   X204.2666     Y137.9106     R-0.0000   
(Pass: 5)
G1   X204.405      Y140.461   
   Z-2.400     F200 
G17 G3   X203.8188     Y138.2732     R-0.0000    F400 
G1   X204.097      Y137.911   
G17 G3   X203.8188     Y138.2732     R-0.0000   
G1   X204.596      Y140.436   
G17 G3   X204.2666     Y137.9106     R-0.0000   
(BREAK pass 5)
G0   Z16.000    
(Pass: 1)
   X205.543      Y140.611   
G1   Z4.000      F200 
G17 G3   X207.0935     Y137.9083     R-0.0000    F400 
(Pass: 2)
G1   X205.543      Y140.611   
   Z2.000      F200 
G17 G3   X207.0935     Y137.9083     R-0.0000    F400 
(Pass: 3)
G1   X205.543      Y140.611   
   Z0.000      F200 
G17 G3   X207.0935     Y137.9083     R-0.0000    F400 
(Pass: 4)
G1   X205.543      Y140.611   
   Z-2.000     F200 
G17 G3   X207.0935     Y137.9083     R-0.0000    F400 
(Pass: 5)
G1   X205.543      Y140.611   
   Z-2.400     F200 
G17 G3   X207.0935     Y137.9083     R-0.0000    F400 
(BREAK pass 5)
G0   Z16.000    
(Pass: 1)
   X213.733   
G1   Z4.000      F200 
G17 G3   X213.4356     Y138.3900     R-0.0000    F400 
G1   X214.440      Y140.457   
G17 G3   X213.8229     Y137.9027     R-0.0000   
G1   X214.252      Y140.503   
G17 G3   X213.4356     Y138.3900     R-0.0000   
(Pass: 2)
G1   X213.733      Y137.903   
   Z2.000      F200 
G17 G3   X213.4356     Y138.3900     R-0.0000    F400 
G1   X214.440      Y140.457   
G17 G3   X213.8229     Y137.9027     R-0.0000   
G1   X214.252      Y140.503   
G17 G3   X213.4356     Y138.3900     R-0.0000   
(Pass: 3)
G1   X213.733      Y137.903   
   Z0.000      F200 
G17 G3   X213.4356     Y138.3900     R-0.0000    F400 
G1   X214.440      Y140.457   
G17 G3   X213.8229     Y137.9027     R-0.0000   
G1   X214.252      Y140.503   
G17 G3   X213.4356     Y138.3900     R-0.0000   
(Pass: 4)
G1   X213.733      Y137.903   
   Z-2.000     F200 
G17 G3   X213.4356     Y138.3900     R-0.0000    F400 
G1   X214.440      Y140.457   
G17 G3   X213.8229     Y137.9027     R-0.0000   
G1   X214.252      Y140.503   
G17 G3   X213.4356     Y138.3900     R-0.0000   
(Pass: 5)
G1   X213.733      Y137.903   
   Z-2.400     F200 
G17 G3   X213.4356     Y138.3900     R-0.0000    F400 
G1   X214.440      Y140.457   
G17 G3   X213.8229     Y137.9027     R-0.0000   
G1   X214.252      Y140.503   
G17 G3   X213.4356     Y138.3900     R-0.0000   
(BREAK pass 5)
G0   Z16.000    
(Pass: 1)
   X210.325      Y149.040   
G1   Z4.000      F200 
   X209.793      Y148.970    F400 
   X209.261      Y149.040   
   X208.766      Y149.245   
   X208.340      Y149.572   
   X208.013      Y149.998   
   X207.808      Y150.493   
   X207.738      Y151.025   
   X207.808      Y151.557   
   X208.013      Y152.053   
   X208.340      Y152.479   
   X208.766      Y152.806   
   X209.261      Y153.011   
   X209.793      Y153.081   
   X210.325      Y153.011   
   X210.821      Y152.806   
   X211.247      Y152.479   
   X211.574      Y152.053   
   X211.779      Y151.557   
   X211.849      Y151.025   
   X211.779      Y150.493   
   X211.574      Y149.998   
   X211.247      Y149.572   
   X210.821      Y149.245   
   X210.325      Y149.040   
(Pass: 2)
   Z2.000      F200 
   X209.793      Y148.970    F400 
   X209.261      Y149.040   
   X208.766      Y149.245   
   X208.340      Y149.572   
   X208.013      Y149.998   
   X207.808      Y150.493   
   X207.738      Y151.025   
   X207.808      Y151.557   
   X208.013      Y152.053   
   X208.340      Y152.479   
   X208.766      Y152.806   
   X209.261      Y153.011   
   X209.793      Y153.081   
   X210.325      Y153.011   
   X210.821      Y152.806   
   X211.247      Y152.479   
   X211.574      Y152.053   
   X211.779      Y151.557   
   X211.849      Y151.025   
   X211.779      Y150.493   
   X211.574      Y149.998   
   X211.247      Y149.572   
   X210.821      Y149.245   
   X210.325      Y149.040   
(Pass: 3)
   Z0.000      F200 
   X209.793      Y148.970    F400 
   X209.261      Y149.040   
   X208.766      Y149.245   
   X208.340      Y149.572   
   X208.013      Y149.998   
   X207.808      Y150.493   
   X207.738      Y151.025   
   X207.808      Y151.557   
   X208.013      Y152.053   
   X208.340      Y152.479   
   X208.766      Y152.806   
   X209.261      Y153.011   
   X209.793      Y153.081   
   X210.325      Y153.011   
   X210.821      Y152.806   
   X211.247      Y152.479   
   X211.574      Y152.053   
   X211.779      Y151.557   
   X211.849      Y151.025   
   X211.779      Y150.493   
   X211.574      Y149.998   
   X211.247      Y149.572   
   X210.821      Y149.245   
   X210.325      Y149.040   
(Pass: 4)
   Z-2.000     F200 
   X209.793      Y148.970    F400 
   X209.261      Y149.040   
   X208.766      Y149.245   
   X208.340      Y149.572   
   X208.013      Y149.998   
   X207.808      Y150.493   
   X207.738      Y151.025   
   X207.808      Y151.557   
   X208.013      Y152.053   
   X208.340      Y152.479   
   X208.766      Y152.806   
   X209.261      Y153.011   
   X209.793      Y153.081   
   X210.325      Y153.011   
   X210.821      Y152.806   
   X211.247      Y152.479   
   X211.574      Y152.053   
   X211.779      Y151.557   
   X211.849      Y151.025   
   X211.779      Y150.493   
   X211.574      Y149.998   
   X211.247      Y149.572   
   X210.821      Y149.245   
   X210.325      Y149.040   
(Pass: 5)
   Z-2.400     F200 
   X209.793      Y148.970    F400 
   X209.261      Y149.040   
   X208.766      Y149.245   
   X208.340      Y149.572   
   X208.013      Y149.998   
   X207.808      Y150.493   
   X207.738      Y151.025   
   X207.808      Y151.557   
   X208.013      Y152.053   
   X208.340      Y152.479   
   X208.766      Y152.806   
   X209.261      Y153.011   
   X209.793      Y153.081   
   X210.325      Y153.011   
   X210.821      Y152.806   
   X211.247      Y152.479   
   X211.574      Y152.053   
   X211.779      Y151.557   
   X211.849      Y151.025   
   X211.779      Y150.493   
   X211.574      Y149.998   
   X211.247      Y149.572   
   X210.821      Y149.245   
   X210.325      Y149.040   
(BREAK pass 5)
G0   Z16.000    
(Pass: 1)
   X246.335      Y119.993   
G1   Z4.000      F200 
G17 G3   X246.4275     Y120.2144     R-0.0000    F400 
G1   X249.581      Y120.524   
G17 G3   X246.3354     Y114.9497     R-0.0000   
G1   X248.958      Y121.258   
G17 G3   X246.4275     Y120.2144     R-0.0000   
(Pass: 2)
G1   X246.335      Y119.993   
   Z2.000      F200 
G17 G3   X246.4275     Y120.2144     R-0.0000    F400 
G1   X249.581      Y120.524   
G17 G3   X246.3354     Y114.9497     R-0.0000   
G1   X248.958      Y121.258   
G17 G3   X246.4275     Y120.2144     R-0.0000   
(Pass: 3)
G1   X246.335      Y119.993   
   Z0.000      F200 
G17 G3   X246.4275     Y120.2144     R-0.0000    F400 
G1   X249.581      Y120.524   
G17 G3   X246.3354     Y114.9497     R-0.0000   
G1   X248.958      Y121.258   
G17 G3   X246.4275     Y120.2144     R-0.0000   
(Pass: 4)
G1   X246.335      Y119.993   
   Z-2.000     F200 
G17 G3   X246.4275     Y120.2144     R-0.0000    F400 
G1   X249.581      Y120.524   
G17 G3   X246.3354     Y114.9497     R-0.0000   
G1   X248.958      Y121.258   
G17 G3   X246.4275     Y120.2144     R-0.0000   
(Pass: 5)
G1   X246.335      Y119.993   
   Z-2.400     F200 
G17 G3   X246.4275     Y120.2144     R-0.0000    F400 
G1   X249.581      Y120.524   
G17 G3   X246.3354     Y114.9497     R-0.0000   
G1   X248.958      Y121.258   
G17 G3   X246.4275     Y120.2144     R-0.0000   
(BREAK pass 5)
G0   Z16.000    
(Pass: 1)
   X244.748      Y116.189   
G1   Z4.000      F200 
G17 G3   X246.3353     Y119.9935     R-0.0000    F400 
G1   X244.748      Y116.189   
   Y112.213   
   X246.335      Y114.950   
G17 G3   X244.7479     Y112.2134     R-0.0000   
(Pass: 2)
G1   Y116.189   
   Z2.000      F200 
G17 G3   X246.3353     Y119.9935     R-0.0000    F400 
G1   X244.748      Y116.189   
   Y112.213   
   X246.335      Y114.950   
G17 G3   X244.7479     Y112.2134     R-0.0000   
(Pass: 3)
G1   Y116.189   
   Z0.000      F200 
G17 G3   X246.3353     Y119.9935     R-0.0000    F400 
G1   X244.748      Y116.189   
   Y112.213   
   X246.335      Y114.950   
G17 G3   X244.7479     Y112.2134     R-0.0000   
(Pass: 4)
G1   Y116.189   
   Z-2.000     F200 
G17 G3   X246.3353     Y119.9935     R-0.0000    F400 
G1   X244.748      Y116.189   
   Y112.213   
   X246.335      Y114.950   
G17 G3   X244.7479     Y112.2134     R-0.0000   
(Pass: 5)
G1   Y116.189   
   Z-2.400     F200 
G17 G3   X246.3353     Y119.9935     R-0.0000    F400 
G1   X244.748      Y116.189   
   Y112.213   
   X246.335      Y114.950   
G17 G3   X244.7479     Y112.2134     R-0.0000   
(BREAK pass 5)
G0   Z16.000    
(Pass: 1)
   X260.083      Y116.566   
G1   Z4.000      F200 
   X260.049      Y116.821    F400 
   X260.083      Y117.076   
   X260.181      Y117.315   
   X260.338      Y117.519   
   X260.543      Y117.676   
   X260.781      Y117.774   
   X261.036      Y117.808   
   X261.292      Y117.774   
   X261.530      Y117.676   
   X261.734      Y117.519   
   X261.891      Y117.315   
   X261.990      Y117.076   
   X262.023      Y116.821   
   X261.990      Y116.566   
   X261.891      Y116.327   
   X261.734      Y116.123   
   X261.530      Y115.966   
   X261.292      Y115.868   
   X261.036      Y115.834   
   X260.781      Y115.868   
   X260.543      Y115.966   
   X260.338      Y116.123   
   X260.181      Y116.327   
   X260.083      Y116.566   
(Pass: 2)
   Z2.000      F200 
   X260.049      Y116.821    F400 
   X260.083      Y117.076   
   X260.181      Y117.315   
   X260.338      Y117.519   
   X260.543      Y117.676   
   X260.781      Y117.774   
   X261.036      Y117.808   
   X261.292      Y117.774   
   X261.530      Y117.676   
   X261.734      Y117.519   
   X261.891      Y117.315   
   X261.990      Y117.076   
   X262.023      Y116.821   
   X261.990      Y116.566   
   X261.891      Y116.327   
   X261.734      Y116.123   
   X261.530      Y115.966   
   X261.292      Y115.868   
   X261.036      Y115.834   
   X260.781      Y115.868   
   X260.543      Y115.966   
   X260.338      Y116.123   
   X260.181      Y116.327   
   X260.083      Y116.566   
(Pass: 3)
   Z0.000      F200 
   X260.049      Y116.821    F400 
   X260.083      Y117.076   
   X260.181      Y117.315   
   X260.338      Y117.519   
   X260.543      Y117.676   
   X260.781      Y117.774   
   X261.036      Y117.808   
   X261.292      Y117.774   
   X261.530      Y117.676   
   X261.734      Y117.519   
   X261.891      Y117.315   
   X261.990      Y117.076   
   X262.023      Y116.821   
   X261.990      Y116.566   
   X261.891      Y116.327   
   X261.734      Y116.123   
   X261.530      Y115.966   
   X261.292      Y115.868   
   X261.036      Y115.834   
   X260.781      Y115.868   
   X260.543      Y115.966   
   X260.338      Y116.123   
   X260.181      Y116.327   
   X260.083      Y116.566   
(Pass: 4)
   Z-2.000     F200 
   X260.049      Y116.821    F400 
   X260.083      Y117.076   
   X260.181      Y117.315   
   X260.338      Y117.519   
   X260.543      Y117.676   
   X260.781      Y117.774   
   X261.036      Y117.808   
   X261.292      Y117.774   
   X261.530      Y117.676   
   X261.734      Y117.519   
   X261.891      Y117.315   
   X261.990      Y117.076   
   X262.023      Y116.821   
   X261.990      Y116.566   
   X261.891      Y116.327   
   X261.734      Y116.123   
   X261.530      Y115.966   
   X261.292      Y115.868   
   X261.036      Y115.834   
   X260.781      Y115.868   
   X260.543      Y115.966   
   X260.338      Y116.123   
   X260.181      Y116.327   
   X260.083      Y116.566   
(Pass: 5)
   Z-2.400     F200 
   X260.049      Y116.821    F400 
   X260.083      Y117.076   
   X260.181      Y117.315   
   X260.338      Y117.519   
   X260.543      Y117.676   
   X260.781      Y117.774   
   X261.036      Y117.808   
   X261.292      Y117.774   
   X261.530      Y117.676   
   X261.734      Y117.519   
   X261.891      Y117.315   
   X261.990      Y117.076   
   X262.023      Y116.821   
   X261.990      Y116.566   
   X261.891      Y116.327   
   X261.734      Y116.123   
   X261.530      Y115.966   
   X261.292      Y115.868   
   X261.036      Y115.834   
   X260.781      Y115.868   
   X260.543      Y115.966   
   X260.338      Y116.123   
   X260.181      Y116.327   
   X260.083      Y116.566   
(BREAK pass 5)
G0   Z16.000    
(Pass: 1)
   X263.036      Y148.788   
G1   Z4.000      F200 
   X262.781      Y148.822    F400 
   X262.543      Y148.921   
   X262.338      Y149.078   
   X262.181      Y149.282   
   X262.083      Y149.520   
   X262.049      Y149.775   
   X262.083      Y150.031   
   X262.181      Y150.269   
   X262.338      Y150.473   
   X262.543      Y150.630   
   X262.781      Y150.729   
   X263.036      Y150.763   
   X263.292      Y150.729   
   X263.530      Y150.630   
   X263.734      Y150.473   
   X263.891      Y150.269   
   X263.990      Y150.031   
   X264.023      Y149.775   
   X263.990      Y149.520   
   X263.891      Y149.282   
   X263.734      Y149.078   
   X263.530      Y148.921   
   X263.292      Y148.822   
   X263.036      Y148.788   
(Pass: 2)
   Z2.000      F200 
   X262.781      Y148.822    F400 
   X262.543      Y148.921   
   X262.338      Y149.078   
   X262.181      Y149.282   
   X262.083      Y149.520   
   X262.049      Y149.775   
   X262.083      Y150.031   
   X262.181      Y150.269   
   X262.338      Y150.473   
   X262.543      Y150.630   
   X262.781      Y150.729   
   X263.036      Y150.763   
   X263.292      Y150.729   
   X263.530      Y150.630   
   X263.734      Y150.473   
   X263.891      Y150.269   
   X263.990      Y150.031   
   X264.023      Y149.775   
   X263.990      Y149.520   
   X263.891      Y149.282   
   X263.734      Y149.078   
   X263.530      Y148.921   
   X263.292      Y148.822   
   X263.036      Y148.788   
(Pass: 3)
   Z0.000      F200 
   X262.781      Y148.822    F400 
   X262.543      Y148.921   
   X262.338      Y149.078   
   X262.181      Y149.282   
   X262.083      Y149.520   
   X262.049      Y149.775   
   X262.083      Y150.031   
   X262.181      Y150.269   
   X262.338      Y150.473   
   X262.543      Y150.630   
   X262.781      Y150.729   
   X263.036      Y150.763   
   X263.292      Y150.729   
   X263.530      Y150.630   
   X263.734      Y150.473   
   X263.891      Y150.269   
   X263.990      Y150.031   
   X264.023      Y149.775   
   X263.990      Y149.520   
   X263.891      Y149.282   
   X263.734      Y149.078   
   X263.530      Y148.921   
   X263.292      Y148.822   
   X263.036      Y148.788   
(Pass: 4)
   Z-2.000     F200 
   X262.781      Y148.822    F400 
   X262.543      Y148.921   
   X262.338      Y149.078   
   X262.181      Y149.282   
   X262.083      Y149.520   
   X262.049      Y149.775   
   X262.083      Y150.031   
   X262.181      Y150.269   
   X262.338      Y150.473   
   X262.543      Y150.630   
   X262.781      Y150.729   
   X263.036      Y150.763   
   X263.292      Y150.729   
   X263.530      Y150.630   
   X263.734      Y150.473   
   X263.891      Y150.269   
   X263.990      Y150.031   
   X264.023      Y149.775   
   X263.990      Y149.520   
   X263.891      Y149.282   
   X263.734      Y149.078   
   X263.530      Y148.921   
   X263.292      Y148.822   
   X263.036      Y148.788   
(Pass: 5)
   Z-2.400     F200 
   X262.781      Y148.822    F400 
   X262.543      Y148.921   
   X262.338      Y149.078   
   X262.181      Y149.282   
   X262.083      Y149.520   
   X262.049      Y149.775   
   X262.083      Y150.031   
   X262.181      Y150.269   
   X262.338      Y150.473   
   X262.543      Y150.630   
   X262.781      Y150.729   
   X263.036      Y150.763   
   X263.292      Y150.729   
   X263.530      Y150.630   
   X263.734      Y150.473   
   X263.891      Y150.269   
   X263.990      Y150.031   
   X264.023      Y149.775   
   X263.990      Y149.520   
   X263.891      Y149.282   
   X263.734      Y149.078   
   X263.530      Y148.921   
   X263.292      Y148.822   
   X263.036      Y148.788   
(BREAK pass 5)
G0   Z16.000    
(Pass: 1)
   Y168.788   
G1   Z4.000      F200 
   X262.781      Y168.822    F400 
   X262.543      Y168.921   
   X262.338      Y169.078   
   X262.181      Y169.282   
   X262.083      Y169.520   
   X262.049      Y169.775   
   X262.083      Y170.031   
   X262.181      Y170.269   
   X262.338      Y170.473   
   X262.543      Y170.630   
   X262.781      Y170.729   
   X263.036      Y170.763   
   X263.292      Y170.729   
   X263.530      Y170.630   
   X263.734      Y170.473   
   X263.891      Y170.269   
   X263.990      Y170.031   
   X264.023      Y169.775   
   X263.990      Y169.520   
   X263.891      Y169.282   
   X263.734      Y169.078   
   X263.530      Y168.921   
   X263.292      Y168.822   
   X263.036      Y168.788   
(Pass: 2)
   Z2.000      F200 
   X262.781      Y168.822    F400 
   X262.543      Y168.921   
   X262.338      Y169.078   
   X262.181      Y169.282   
   X262.083      Y169.520   
   X262.049      Y169.775   
   X262.083      Y170.031   
   X262.181      Y170.269   
   X262.338      Y170.473   
   X262.543      Y170.630   
   X262.781      Y170.729   
   X263.036      Y170.763   
   X263.292      Y170.729   
   X263.530      Y170.630   
   X263.734      Y170.473   
   X263.891      Y170.269   
   X263.990      Y170.031   
   X264.023      Y169.775   
   X263.990      Y169.520   
   X263.891      Y169.282   
   X263.734      Y169.078   
   X263.530      Y168.921   
   X263.292      Y168.822   
   X263.036      Y168.788   
(Pass: 3)
   Z0.000      F200 
   X262.781      Y168.822    F400 
   X262.543      Y168.921   
   X262.338      Y169.078   
   X262.181      Y169.282   
   X262.083      Y169.520   
   X262.049      Y169.775   
   X262.083      Y170.031   
   X262.181      Y170.269   
   X262.338      Y170.473   
   X262.543      Y170.630   
   X262.781      Y170.729   
   X263.036      Y170.763   
   X263.292      Y170.729   
   X263.530      Y170.630   
   X263.734      Y170.473   
   X263.891      Y170.269   
   X263.990      Y170.031   
   X264.023      Y169.775   
   X263.990      Y169.520   
   X263.891      Y169.282   
   X263.734      Y169.078   
   X263.530      Y168.921   
   X263.292      Y168.822   
   X263.036      Y168.788   
(Pass: 4)
   Z-2.000     F200 
   X262.781      Y168.822    F400 
   X262.543      Y168.921   
   X262.338      Y169.078   
   X262.181      Y169.282   
   X262.083      Y169.520   
