%
(Generated by SketchUcam {1.2})
(File: Router Plates.skp)
(Bit diameter: 3.2mm)
(Feed rate: 200.0mm/min)
(Plunge Feed rate: 100.0mm/min)
(Material Thickness: 6.3mm)
(Material length: 304.0mm X width: 608.0mm)
(Overhead Gantry: true)
(Retract feed rate NOT limited to plunge feed rate)
(Multipass enabled, Depth = 0.8mm)
(Optimization is ON)
(Z ZERO IS TABLETOP)
(www.PhlatBoyz.com)
G90 G21 G49 
M3 S15000
G0   Z21.300    
(Pass: 1)
   X38.417       Y120.067   
G1   Z5.500      F100 
G17 G2   X37.9451      Y120.2624     R1.9685     F200 
   X37.5403      Y120.5730     R1.9685    
   X37.2296      Y120.9779     R1.9685    
   X37.0344      Y121.4493     R1.9685    
   X36.9678      Y121.9552     R1.9685    
   X37.0344      Y122.4611     R1.9685    
   X37.2296      Y122.9326     R1.9685    
   X37.5403      Y123.3374     R1.9685    
   X37.9451      Y123.6480     R1.9685    
   X38.4165      Y123.8433     R1.9685    
   X38.9225      Y123.9099     R1.9685    
   X39.4284      Y123.8433     R1.9685    
   X39.8998      Y123.6480     R1.9685    
   X40.3046      Y123.3374     R1.9685    
   X40.6153      Y122.9326     R1.9685    
   X40.8105      Y122.4611     R1.9685    
   X40.8771      Y121.9552     R1.9685    
   X40.8105      Y121.4493     R1.9685    
   X40.6153      Y120.9779     R1.9685    
   X40.3046      Y120.5730     R1.9685    
   X39.8998      Y120.2624     R1.9685    
   X39.4284      Y120.0671     R1.9685    
   X38.9225      Y120.0005     R1.9685    
   X38.4165      Y120.0671     R1.9685    
(Pass: 2)
G1   Z4.700      F100 
G17 G2   X37.9451      Y120.2624     R1.9685     F200 
   X37.5403      Y120.5730     R1.9685    
   X37.2296      Y120.9779     R1.9685    
   X37.0344      Y121.4493     R1.9685    
   X36.9678      Y121.9552     R1.9685    
   X37.0344      Y122.4611     R1.9685    
   X37.2296      Y122.9326     R1.9685    
   X37.5403      Y123.3374     R1.9685    
   X37.9451      Y123.6480     R1.9685    
   X38.4165      Y123.8433     R1.9685    
   X38.9225      Y123.9099     R1.9685    
   X39.4284      Y123.8433     R1.9685    
   X39.8998      Y123.6480     R1.9685    
   X40.3046      Y123.3374     R1.9685    
   X40.6153      Y122.9326     R1.9685    
   X40.8105      Y122.4611     R1.9685    
   X40.8771      Y121.9552     R1.9685    
   X40.8105      Y121.4493     R1.9685    
   X40.6153      Y120.9779     R1.9685    
   X40.3046      Y120.5730     R1.9685    
   X39.8998      Y120.2624     R1.9685    
   X39.4284      Y120.0671     R1.9685    
   X38.9225      Y120.0005     R1.9685    
   X38.4165      Y120.0671     R1.9685    
(Pass: 3)
G1   Z3.900      F100 
G17 G2   X37.9451      Y120.2624     R1.9685     F200 
   X37.5403      Y120.5730     R1.9685    
   X37.2296      Y120.9779     R1.9685    
   X37.0344      Y121.4493     R1.9685    
   X36.9678      Y121.9552     R1.9685    
   X37.0344      Y122.4611     R1.9685    
   X37.2296      Y122.9326     R1.9685    
   X37.5403      Y123.3374     R1.9685    
   X37.9451      Y123.6480     R1.9685    
   X38.4165      Y123.8433     R1.9685    
   X38.9225      Y123.9099     R1.9685    
   X39.4284      Y123.8433     R1.9685    
   X39.8998      Y123.6480     R1.9685    
   X40.3046      Y123.3374     R1.9685    
   X40.6153      Y122.9326     R1.9685    
   X40.8105      Y122.4611     R1.9685    
   X40.8771      Y121.9552     R1.9685    
   X40.8105      Y121.4493     R1.9685    
   X40.6153      Y120.9779     R1.9685    
   X40.3046      Y120.5730     R1.9685    
   X39.8998      Y120.2624     R1.9685    
   X39.4284      Y120.0671     R1.9685    
   X38.9225      Y120.0005     R1.9685    
   X38.4165      Y120.0671     R1.9685    
(Pass: 4)
G1   Z3.100      F100 
G17 G2   X37.9451      Y120.2624     R1.9685     F200 
   X37.5403      Y120.5730     R1.9685    
   X37.2296      Y120.9779     R1.9685    
   X37.0344      Y121.4493     R1.9685    
   X36.9678      Y121.9552     R1.9685    
   X37.0344      Y122.4611     R1.9685    
   X37.2296      Y122.9326     R1.9685    
   X37.5403      Y123.3374     R1.9685    
   X37.9451      Y123.6480     R1.9685    
   X38.4165      Y123.8433     R1.9685    
   X38.9225      Y123.9099     R1.9685    
   X39.4284      Y123.8433     R1.9685    
   X39.8998      Y123.6480     R1.9685    
   X40.3046      Y123.3374     R1.9685    
   X40.6153      Y122.9326     R1.9685    
   X40.8105      Y122.4611     R1.9685    
   X40.8771      Y121.9552     R1.9685    
   X40.8105      Y121.4493     R1.9685    
   X40.6153      Y120.9779     R1.9685    
   X40.3046      Y120.5730     R1.9685    
   X39.8998      Y120.2624     R1.9685    
   X39.4284      Y120.0671     R1.9685    
   X38.9225      Y120.0005     R1.9685    
   X38.4165      Y120.0671     R1.9685    
(Pass: 5)
G1   Z2.300      F100 
G17 G2   X37.9451      Y120.2624     R1.9685     F200 
   X37.5403      Y120.5730     R1.9685    
   X37.2296      Y120.9779     R1.9685    
   X37.0344      Y121.4493     R1.9685    
   X36.9678      Y121.9552     R1.9685    
   X37.0344      Y122.4611     R1.9685    
   X37.2296      Y122.9326     R1.9685    
   X37.5403      Y123.3374     R1.9685    
   X37.9451      Y123.6480     R1.9685    
   X38.4165      Y123.8433     R1.9685    
   X38.9225      Y123.9099     R1.9685    
   X39.4284      Y123.8433     R1.9685    
   X39.8998      Y123.6480     R1.9685    
   X40.3046      Y123.3374     R1.9685    
   X40.6153      Y122.9326     R1.9685    
   X40.8105      Y122.4611     R1.9685    
   X40.8771      Y121.9552     R1.9685    
   X40.8105      Y121.4493     R1.9685    
   X40.6153      Y120.9779     R1.9685    
   X40.3046      Y120.5730     R1.9685    
   X39.8998      Y120.2624     R1.9685    
   X39.4284      Y120.0671     R1.9685    
   X38.9225      Y120.0005     R1.9685    
   X38.4165      Y120.0671     R1.9685    
(Pass: 6)
G1   Z1.500      F100 
G17 G2   X37.9451      Y120.2624     R1.9685     F200 
   X37.5403      Y120.5730     R1.9685    
   X37.2296      Y120.9779     R1.9685    
   X37.0344      Y121.4493     R1.9685    
   X36.9678      Y121.9552     R1.9685    
   X37.0344      Y122.4611     R1.9685    
   X37.2296      Y122.9326     R1.9685    
   X37.5403      Y123.3374     R1.9685    
   X37.9451      Y123.6480     R1.9685    
   X38.4165      Y123.8433     R1.9685    
   X38.9225      Y123.9099     R1.9685    
   X39.4284      Y123.8433     R1.9685    
   X39.8998      Y123.6480     R1.9685    
   X40.3046      Y123.3374     R1.9685    
   X40.6153      Y122.9326     R1.9685    
   X40.8105      Y122.4611     R1.9685    
   X40.8771      Y121.9552     R1.9685    
   X40.8105      Y121.4493     R1.9685    
   X40.6153      Y120.9779     R1.9685    
   X40.3046      Y120.5730     R1.9685    
   X39.8998      Y120.2624     R1.9685    
   X39.4284      Y120.0671     R1.9685    
   X38.9225      Y120.0005     R1.9685    
   X38.4165      Y120.0671     R1.9685    
(Pass: 7)
G1   Z0.700      F100 
G17 G2   X37.9451      Y120.2624     R1.9685     F200 
   X37.5403      Y120.5730     R1.9685    
   X37.2296      Y120.9779     R1.9685    
   X37.0344      Y121.4493     R1.9685    
   X36.9678      Y121.9552     R1.9685    
   X37.0344      Y122.4611     R1.9685    
   X37.2296      Y122.9326     R1.9685    
   X37.5403      Y123.3374     R1.9685    
   X37.9451      Y123.6480     R1.9685    
   X38.4165      Y123.8433     R1.9685    
   X38.9225      Y123.9099     R1.9685    
   X39.4284      Y123.8433     R1.9685    
   X39.8998      Y123.6480     R1.9685    
   X40.3046      Y123.3374     R1.9685    
   X40.6153      Y122.9326     R1.9685    
   X40.8105      Y122.4611     R1.9685    
   X40.8771      Y121.9552     R1.9685    
   X40.8105      Y121.4493     R1.9685    
   X40.6153      Y120.9779     R1.9685    
   X40.3046      Y120.5730     R1.9685    
   X39.8998      Y120.2624     R1.9685    
   X39.4284      Y120.0671     R1.9685    
   X38.9225      Y120.0005     R1.9685    
   X38.4165      Y120.0671     R1.9685    
(Pass: 8)
G1   Z0.000      F100 
G17 G2   X37.9451      Y120.2624     R1.9685     F200 
   X37.5403      Y120.5730     R1.9685    
   X37.2296      Y120.9779     R1.9685    
   X37.0344      Y121.4493     R1.9685    
   X36.9678      Y121.9552     R1.9685    
   X37.0344      Y122.4611     R1.9685    
   X37.2296      Y122.9326     R1.9685    
   X37.5403      Y123.3374     R1.9685    
   X37.9451      Y123.6480     R1.9685    
   X38.4165      Y123.8433     R1.9685    
   X38.9225      Y123.9099     R1.9685    
   X39.4284      Y123.8433     R1.9685    
   X39.8998      Y123.6480     R1.9685    
   X40.3046      Y123.3374     R1.9685    
   X40.6153      Y122.9326     R1.9685    
   X40.8105      Y122.4611     R1.9685    
   X40.8771      Y121.9552     R1.9685    
   X40.8105      Y121.4493     R1.9685    
   X40.6153      Y120.9779     R1.9685    
   X40.3046      Y120.5730     R1.9685    
   X39.8998      Y120.2624     R1.9685    
   X39.4284      Y120.0671     R1.9685    
   X38.9225      Y120.0005     R1.9685    
   X38.4165      Y120.0671     R1.9685    
G0   Z21.300    
(Pass: 1)
   X31.209       Y155.772   
G1   Z5.500      F100 
G17 G2   X30.9797      Y155.8016     R0.9000     F200 
   X30.7659      Y155.8898     R0.9000    
   X30.5821      Y156.0304     R0.9000    
   X30.4410      Y156.2138     R0.9000    
   X30.3522      Y156.4274     R0.9000    
   X30.3217      Y156.6567     R0.9000    
   X30.3516      Y156.8861     R0.9000    
   X30.4398      Y157.0999     R0.9000    
   X30.5804      Y157.2837     R0.9000    
   X30.7637      Y157.4248     R0.9000    
   X30.9774      Y157.5136     R0.9000    
   X31.2067      Y157.5441     R0.9000    
   X31.4361      Y157.5142     R0.9000    
   X31.6499      Y157.4260     R0.9000    
   X31.8337      Y157.2854     R0.9000    
   X31.9748      Y157.1021     R0.9000    
   X32.0636      Y156.8885     R0.9000    
   X32.0941      Y156.6591     R0.9000    
   X32.0642      Y156.4297     R0.9000    
   X31.9760      Y156.2159     R0.9000    
   X31.8354      Y156.0321     R0.9000    
   X31.6521      Y155.8911     R0.9000    
   X31.4384      Y155.8022     R0.9000    
   X31.2091      Y155.7717     R0.9000    
(Pass: 2)
G1   Z4.700      F100 
G17 G2   X30.9797      Y155.8016     R0.9000     F200 
   X30.7659      Y155.8898     R0.9000    
   X30.5821      Y156.0304     R0.9000    
   X30.4410      Y156.2138     R0.9000    
   X30.3522      Y156.4274     R0.9000    
   X30.3217      Y156.6567     R0.9000    
   X30.3516      Y156.8861     R0.9000    
   X30.4398      Y157.0999     R0.9000    
   X30.5804      Y157.2837     R0.9000    
   X30.7637      Y157.4248     R0.9000    
   X30.9774      Y157.5136     R0.9000    
   X31.2067      Y157.5441     R0.9000    
   X31.4361      Y157.5142     R0.9000    
   X31.6499      Y157.4260     R0.9000    
   X31.8337      Y157.2854     R0.9000    
   X31.9748      Y157.1021     R0.9000    
   X32.0636      Y156.8885     R0.9000    
   X32.0941      Y156.6591     R0.9000    
   X32.0642      Y156.4297     R0.9000    
   X31.9760      Y156.2159     R0.9000    
   X31.8354      Y156.0321     R0.9000    
   X31.6521      Y155.8911     R0.9000    
   X31.4384      Y155.8022     R0.9000    
   X31.2091      Y155.7717     R0.9000    
(Pass: 3)
G1   Z3.900      F100 
G17 G2   X30.9797      Y155.8016     R0.9000     F200 
   X30.7659      Y155.8898     R0.9000    
   X30.5821      Y156.0304     R0.9000    
   X30.4410      Y156.2138     R0.9000    
   X30.3522      Y156.4274     R0.9000    
   X30.3217      Y156.6567     R0.9000    
   X30.3516      Y156.8861     R0.9000    
   X30.4398      Y157.0999     R0.9000    
   X30.5804      Y157.2837     R0.9000    
   X30.7637      Y157.4248     R0.9000    
   X30.9774      Y157.5136     R0.9000    
   X31.2067      Y157.5441     R0.9000    
   X31.4361      Y157.5142     R0.9000    
   X31.6499      Y157.4260     R0.9000    
   X31.8337      Y157.2854     R0.9000    
   X31.9748      Y157.1021     R0.9000    
   X32.0636      Y156.8885     R0.9000    
   X32.0941      Y156.6591     R0.9000    
   X32.0642      Y156.4297     R0.9000    
   X31.9760      Y156.2159     R0.9000    
   X31.8354      Y156.0321     R0.9000    
   X31.6521      Y155.8911     R0.9000    
   X31.4384      Y155.8022     R0.9000    
   X31.2091      Y155.7717     R0.9000    
(Pass: 4)
G1   Z3.100      F100 
G17 G2   X30.9797      Y155.8016     R0.9000     F200 
   X30.7659      Y155.8898     R0.9000    
   X30.5821      Y156.0304     R0.9000    
   X30.4410      Y156.2138     R0.9000    
   X30.3522      Y156.4274     R0.9000    
   X30.3217      Y156.6567     R0.9000    
   X30.3516      Y156.8861     R0.9000    
   X30.4398      Y157.0999     R0.9000    
   X30.5804      Y157.2837     R0.9000    
   X30.7637      Y157.4248     R0.9000    
   X30.9774      Y157.5136     R0.9000    
   X31.2067      Y157.5441     R0.9000    
   X31.4361      Y157.5142     R0.9000    
   X31.6499      Y157.4260     R0.9000    
   X31.8337      Y157.2854     R0.9000    
   X31.9748      Y157.1021     R0.9000    
   X32.0636      Y156.8885     R0.9000    
   X32.0941      Y156.6591     R0.9000    
   X32.0642      Y156.4297     R0.9000    
   X31.9760      Y156.2159     R0.9000    
   X31.8354      Y156.0321     R0.9000    
   X31.6521      Y155.8911     R0.9000    
   X31.4384      Y155.8022     R0.9000    
   X31.2091      Y155.7717     R0.9000    
(Pass: 5)
G1   Z2.300      F100 
G17 G2   X30.9797      Y155.8016     R0.9000     F200 
   X30.7659      Y155.8898     R0.9000    
   X30.5821      Y156.0304     R0.9000    
   X30.4410      Y156.2138     R0.9000    
   X30.3522      Y156.4274     R0.9000    
   X30.3217      Y156.6567     R0.9000    
   X30.3516      Y156.8861     R0.9000    
   X30.4398      Y157.0999     R0.9000    
   X30.5804      Y157.2837     R0.9000    
   X30.7637      Y157.4248     R0.9000    
   X30.9774      Y157.5136     R0.9000    
   X31.2067      Y157.5441     R0.9000    
   X31.4361      Y157.5142     R0.9000    
   X31.6499      Y157.4260     R0.9000    
   X31.8337      Y157.2854     R0.9000    
   X31.9748      Y157.1021     R0.9000    
   X32.0636      Y156.8885     R0.9000    
   X32.0941      Y156.6591     R0.9000    
   X32.0642      Y156.4297     R0.9000    
   X31.9760      Y156.2159     R0.9000    
   X31.8354      Y156.0321     R0.9000    
   X31.6521      Y155.8911     R0.9000    
   X31.4384      Y155.8022     R0.9000    
   X31.2091      Y155.7717     R0.9000    
(Pass: 6)
G1   Z1.500      F100 
G17 G2   X30.9797      Y155.8016     R0.9000     F200 
   X30.7659      Y155.8898     R0.9000    
   X30.5821      Y156.0304     R0.9000    
   X30.4410      Y156.2138     R0.9000    
   X30.3522      Y156.4274     R0.9000    
   X30.3217      Y156.6567     R0.9000    
   X30.3516      Y156.8861     R0.9000    
   X30.4398      Y157.0999     R0.9000    
   X30.5804      Y157.2837     R0.9000    
   X30.7637      Y157.4248     R0.9000    
   X30.9774      Y157.5136     R0.9000    
   X31.2067      Y157.5441     R0.9000    
   X31.4361      Y157.5142     R0.9000    
   X31.6499      Y157.4260     R0.9000    
   X31.8337      Y157.2854     R0.9000    
   X31.9748      Y157.1021     R0.9000    
   X32.0636      Y156.8885     R0.9000    
   X32.0941      Y156.6591     R0.9000    
   X32.0642      Y156.4297     R0.9000    
   X31.9760      Y156.2159     R0.9000    
   X31.8354      Y156.0321     R0.9000    
   X31.6521      Y155.8911     R0.9000    
   X31.4384      Y155.8022     R0.9000    
   X31.2091      Y155.7717     R0.9000    
(Pass: 7)
G1   Z0.700      F100 
G17 G2   X30.9797      Y155.8016     R0.9000     F200 
   X30.7659      Y155.8898     R0.9000    
   X30.5821      Y156.0304     R0.9000    
   X30.4410      Y156.2138     R0.9000    
   X30.3522      Y156.4274     R0.9000    
   X30.3217      Y156.6567     R0.9000    
   X30.3516      Y156.8861     R0.9000    
   X30.4398      Y157.0999     R0.9000    
   X30.5804      Y157.2837     R0.9000    
   X30.7637      Y157.4248     R0.9000    
   X30.9774      Y157.5136     R0.9000    
   X31.2067      Y157.5441     R0.9000    
   X31.4361      Y157.5142     R0.9000    
   X31.6499      Y157.4260     R0.9000    
   X31.8337      Y157.2854     R0.9000    
   X31.9748      Y157.1021     R0.9000    
   X32.0636      Y156.8885     R0.9000    
   X32.0941      Y156.6591     R0.9000    
   X32.0642      Y156.4297     R0.9000    
   X31.9760      Y156.2159     R0.9000    
   X31.8354      Y156.0321     R0.9000    
   X31.6521      Y155.8911     R0.9000    
   X31.4384      Y155.8022     R0.9000    
   X31.2091      Y155.7717     R0.9000    
(Pass: 8)
G1   Z0.000      F100 
G17 G2   X30.9797      Y155.8016     R0.9000     F200 
   X30.7659      Y155.8898     R0.9000    
   X30.5821      Y156.0304     R0.9000    
   X30.4410      Y156.2138     R0.9000    
   X30.3522      Y156.4274     R0.9000    
   X30.3217      Y156.6567     R0.9000    
   X30.3516      Y156.8861     R0.9000    
   X30.4398      Y157.0999     R0.9000    
   X30.5804      Y157.2837     R0.9000    
   X30.7637      Y157.4248     R0.9000    
   X30.9774      Y157.5136     R0.9000    
   X31.2067      Y157.5441     R0.9000    
   X31.4361      Y157.5142     R0.9000    
   X31.6499      Y157.4260     R0.9000    
   X31.8337      Y157.2854     R0.9000    
   X31.9748      Y157.1021     R0.9000    
   X32.0636      Y156.8885     R0.9000    
   X32.0941      Y156.6591     R0.9000    
   X32.0642      Y156.4297     R0.9000    
   X31.9760      Y156.2159     R0.9000    
   X31.8354      Y156.0321     R0.9000    
   X31.6521      Y155.8911     R0.9000    
   X31.4384      Y155.8022     R0.9000    
   X31.2091      Y155.7717     R0.9000    
G0   Z21.300    
(Pass: 1)
   Y165.772   
G1   Z5.500      F100 
G17 G2   X30.9815      Y165.8019     R0.9000     F200 
   X30.7677      Y165.8904     R0.9000    
   X30.5842      Y166.0313     R0.9000    
   X30.4434      Y166.2148     R0.9000    
   X30.3548      Y166.4285     R0.9000    
   X30.3246      Y166.6579     R0.9000    
   X30.3548      Y166.8873     R0.9000    
   X30.4434      Y167.1010     R0.9000    
   X30.5842      Y167.2845     R0.9000    
   X30.7677      Y167.4254     R0.9000    
   X30.9815      Y167.5139     R0.9000    
   X31.2108      Y167.5441     R0.9000    
   X31.4402      Y167.5139     R0.9000    
   X31.6539      Y167.4254     R0.9000    
   X31.8375      Y167.2845     R0.9000    
   X31.9783      Y167.1010     R0.9000    
   X32.0668      Y166.8873     R0.9000    
   X32.0970      Y166.6579     R0.9000    
   X32.0668      Y166.4285     R0.9000    
   X31.9783      Y166.2148     R0.9000    
   X31.8375      Y166.0313     R0.9000    
   X31.6539      Y165.8904     R0.9000    
   X31.4402      Y165.8019     R0.9000    
   X31.2108      Y165.7717     R0.9000    
(Pass: 2)
G1   Z4.700      F100 
G17 G2   X30.9815      Y165.8019     R0.9000     F200 
   X30.7677      Y165.8904     R0.9000    
   X30.5842      Y166.0313     R0.9000    
   X30.4434      Y166.2148     R0.9000    
   X30.3548      Y166.4285     R0.9000    
   X30.3246      Y166.6579     R0.9000    
   X30.3548      Y166.8873     R0.9000    
   X30.4434      Y167.1010     R0.9000    
   X30.5842      Y167.2845     R0.9000    
   X30.7677      Y167.4254     R0.9000    
   X30.9815      Y167.5139     R0.9000    
   X31.2108      Y167.5441     R0.9000    
   X31.4402      Y167.5139     R0.9000    
   X31.6539      Y167.4254     R0.9000    
   X31.8375      Y167.2845     R0.9000    
   X31.9783      Y167.1010     R0.9000    
   X32.0668      Y166.8873     R0.9000    
   X32.0970      Y166.6579     R0.9000    
   X32.0668      Y166.4285     R0.9000    
   X31.9783      Y166.2148     R0.9000    
   X31.8375      Y166.0313     R0.9000    
   X31.6539      Y165.8904     R0.9000    
   X31.4402      Y165.8019     R0.9000    
   X31.2108      Y165.7717     R0.9000    
(Pass: 3)
G1   Z3.900      F100 
G17 G2   X30.9815      Y165.8019     R0.9000     F200 
   X30.7677      Y165.8904     R0.9000    
   X30.5842      Y166.0313     R0.9000    
   X30.4434      Y166.2148     R0.9000    
   X30.3548      Y166.4285     R0.9000    
   X30.3246      Y166.6579     R0.9000    
   X30.3548      Y166.8873     R0.9000    
   X30.4434      Y167.1010     R0.9000    
   X30.5842      Y167.2845     R0.9000    
   X30.7677      Y167.4254     R0.9000    
   X30.9815      Y167.5139     R0.9000    
   X31.2108      Y167.5441     R0.9000    
   X31.4402      Y167.5139     R0.9000    
   X31.6539      Y167.4254     R0.9000    
   X31.8375      Y167.2845     R0.9000    
   X31.9783      Y167.1010     R0.9000    
   X32.0668      Y166.8873     R0.9000    
   X32.0970      Y166.6579     R0.9000    
   X32.0668      Y166.4285     R0.9000    
   X31.9783      Y166.2148     R0.9000    
   X31.8375      Y166.0313     R0.9000    
   X31.6539      Y165.8904     R0.9000    
   X31.4402      Y165.8019     R0.9000    
   X31.2108      Y165.7717     R0.9000    
(Pass: 4)
G1   Z3.100      F100 
G17 G2   X30.9815      Y165.8019     R0.9000     F200 
   X30.7677      Y165.8904     R0.9000    
   X30.5842      Y166.0313     R0.9000    
   X30.4434      Y166.2148     R0.9000    
   X30.3548      Y166.4285     R0.9000    
   X30.3246      Y166.6579     R0.9000    
   X30.3548      Y166.8873     R0.9000    
   X30.4434      Y167.1010     R0.9000    
   X30.5842      Y167.2845     R0.9000    
   X30.7677      Y167.4254     R0.9000    
   X30.9815      Y167.5139     R0.9000    
   X31.2108      Y167.5441     R0.9000    
   X31.4402      Y167.5139     R0.9000    
   X31.6539      Y167.4254     R0.9000    
   X31.8375      Y167.2845     R0.9000    
   X31.9783      Y167.1010     R0.9000    
   X32.0668      Y166.8873     R0.9000    
   X32.0970      Y166.6579     R0.9000    
   X32.0668      Y166.4285     R0.9000    
   X31.9783      Y166.2148     R0.9000    
   X31.8375      Y166.0313     R0.9000    
   X31.6539      Y165.8904     R0.9000    
   X31.4402      Y165.8019     R0.9000    
   X31.2108      Y165.7717     R0.9000    
(Pass: 5)
G1   Z2.300      F100 
G17 G2   X30.9815      Y165.8019     R0.9000     F200 
   X30.7677      Y165.8904     R0.9000    
   X30.5842      Y166.0313     R0.9000    
   X30.4434      Y166.2148     R0.9000    
   X30.3548      Y166.4285     R0.9000    
   X30.3246      Y166.6579     R0.9000    
   X30.3548      Y166.8873     R0.9000    
   X30.4434      Y167.1010     R0.9000    
   X30.5842      Y167.2845     R0.9000    
   X30.7677      Y167.4254     R0.9000    
   X30.9815      Y167.5139     R0.9000    
   X31.2108      Y167.5441     R0.9000    
   X31.4402      Y167.5139     R0.9000    
   X31.6539      Y167.4254     R0.9000    
   X31.8375      Y167.2845     R0.9000    
   X31.9783      Y167.1010     R0.9000    
   X32.0668      Y166.8873     R0.9000    
   X32.0970      Y166.6579     R0.9000    
   X32.0668      Y166.4285     R0.9000    
   X31.9783      Y166.2148     R0.9000    
   X31.8375      Y166.0313     R0.9000    
   X31.6539      Y165.8904     R0.9000    
   X31.4402      Y165.8019     R0.9000    
   X31.2108      Y165.7717     R0.9000    
(Pass: 6)
G1   Z1.500      F100 
G17 G2   X30.9815      Y165.8019     R0.9000     F200 
   X30.7677      Y165.8904     R0.9000    
   X30.5842      Y166.0313     R0.9000    
   X30.4434      Y166.2148     R0.9000    
   X30.3548      Y166.4285     R0.9000    
   X30.3246      Y166.6579     R0.9000    
   X30.3548      Y166.8873     R0.9000    
   X30.4434      Y167.1010     R0.9000    
   X30.5842      Y167.2845     R0.9000    
   X30.7677      Y167.4254     R0.9000    
   X30.9815      Y167.5139     R0.9000    
   X31.2108      Y167.5441     R0.9000    
   X31.4402      Y167.5139     R0.9000    
   X31.6539      Y167.4254     R0.9000    
   X31.8375      Y167.2845     R0.9000    
   X31.9783      Y167.1010     R0.9000    
   X32.0668      Y166.8873     R0.9000    
   X32.0970      Y166.6579     R0.9000    
   X32.0668      Y166.4285     R0.9000    
   X31.9783      Y166.2148     R0.9000    
   X31.8375      Y166.0313     R0.9000    
   X31.6539      Y165.8904     R0.9000    
   X31.4402      Y165.8019     R0.9000    
   X31.2108      Y165.7717     R0.9000    
(Pass: 7)
G1   Z0.700      F100 
G17 G2   X30.9815      Y165.8019     R0.9000     F200 
   X30.7677      Y165.8904     R0.9000    
   X30.5842      Y166.0313     R0.9000    
   X30.4434      Y166.2148     R0.9000    
   X30.3548      Y166.4285     R0.9000    
   X30.3246      Y166.6579     R0.9000    
   X30.3548      Y166.8873     R0.9000    
   X30.4434      Y167.1010     R0.9000    
   X30.5842      Y167.2845     R0.9000    
   X30.7677      Y167.4254     R0.9000    
   X30.9815      Y167.5139     R0.9000    
   X31.2108      Y167.5441     R0.9000    
   X31.4402      Y167.5139     R0.9000    
   X31.6539      Y167.4254     R0.9000    
   X31.8375      Y167.2845     R0.9000    
   X31.9783      Y167.1010     R0.9000    
   X32.0668      Y166.8873     R0.9000    
   X32.0970      Y166.6579     R0.9000    
   X32.0668      Y166.4285     R0.9000    
   X31.9783      Y166.2148     R0.9000    
   X31.8375      Y166.0313     R0.9000    
   X31.6539      Y165.8904     R0.9000    
   X31.4402      Y165.8019     R0.9000    
   X31.2108      Y165.7717     R0.9000    
(Pass: 8)
G1   Z0.000      F100 
G17 G2   X30.9815      Y165.8019     R0.9000     F200 
   X30.7677      Y165.8904     R0.9000    
   X30.5842      Y166.0313     R0.9000    
   X30.4434      Y166.2148     R0.9000    
   X30.3548      Y166.4285     R0.9000    
   X30.3246      Y166.6579     R0.9000    
   X30.3548      Y166.8873     R0.9000    
   X30.4434      Y167.1010     R0.9000    
   X30.5842      Y167.2845     R0.9000    
   X30.7677      Y167.4254     R0.9000    
   X30.9815      Y167.5139     R0.9000    
   X31.2108      Y167.5441     R0.9000    
   X31.4402      Y167.5139     R0.9000    
   X31.6539      Y167.4254     R0.9000    
   X31.8375      Y167.2845     R0.9000    
   X31.9783      Y167.1010     R0.9000    
   X32.0668      Y166.8873     R0.9000    
   X32.0970      Y166.6579     R0.9000    
   X32.0668      Y166.4285     R0.9000    
   X31.9783      Y166.2148     R0.9000    
   X31.8375      Y166.0313     R0.9000    
   X31.6539      Y165.8904     R0.9000    
   X31.4402      Y165.8019     R0.9000    
   X31.2108      Y165.7717     R0.9000    
G0   Z21.300    
(Pass: 1)
   X38.922       Y201.209   
G1   Z5.500      F100 
G17 G2   X38.6931      Y201.2392     R0.9000     F200 
   X38.4794      Y201.3277     R0.9000    
   X38.2958      Y201.4686     R0.9000    
   X38.1550      Y201.6521     R0.9000    
   X38.0665      Y201.8658     R0.9000    
   X38.0363      Y202.0952     R0.9000    
   X38.0665      Y202.3246     R0.9000    
   X38.1550      Y202.5383     R0.9000    
   X38.2958      Y202.7218     R0.9000    
   X38.4794      Y202.8627     R0.9000    
   X38.6931      Y202.9512     R0.9000    
   X38.9225      Y202.9814     R0.9000    
   X39.1518      Y202.9512     R0.9000    
   X39.3655      Y202.8627     R0.9000    
   X39.5491      Y202.7218     R0.9000    
   X39.6899      Y202.5383     R0.9000    
   X39.7784      Y202.3246     R0.9000    
   X39.8086      Y202.0952     R0.9000    
   X39.7784      Y201.8658     R0.9000    
   X39.6899      Y201.6521     R0.9000    
   X39.5491      Y201.4686     R0.9000    
   X39.3655      Y201.3277     R0.9000    
   X39.1518      Y201.2392     R0.9000    
   X38.9225      Y201.2090     R0.9000    
(Pass: 2)
G1   Z4.700      F100 
G17 G2   X38.6931      Y201.2392     R0.9000     F200 
   X38.4794      Y201.3277     R0.9000    
   X38.2958      Y201.4686     R0.9000    
   X38.1550      Y201.6521     R0.9000    
   X38.0665      Y201.8658     R0.9000    
   X38.0363      Y202.0952     R0.9000    
   X38.0665      Y202.3246     R0.9000    
   X38.1550      Y202.5383     R0.9000    
   X38.2958      Y202.7218     R0.9000    
   X38.4794      Y202.8627     R0.9000    
   X38.6931      Y202.9512     R0.9000    
   X38.9225      Y202.9814     R0.9000    
   X39.1518      Y202.9512     R0.9000    
   X39.3655      Y202.8627     R0.9000    
   X39.5491      Y202.7218     R0.9000    
   X39.6899      Y202.5383     R0.9000    
   X39.7784      Y202.3246     R0.9000    
   X39.8086      Y202.0952     R0.9000    
   X39.7784      Y201.8658     R0.9000    
   X39.6899      Y201.6521     R0.9000    
   X39.5491      Y201.4686     R0.9000    
   X39.3655      Y201.3277     R0.9000    
   X39.1518      Y201.2392     R0.9000    
   X38.9225      Y201.2090     R0.9000    
(Pass: 3)
G1   Z3.900      F100 
G17 G2   X38.6931      Y201.2392     R0.9000     F200 
   X38.4794      Y201.3277     R0.9000    
   X38.2958      Y201.4686     R0.9000    
   X38.1550      Y201.6521     R0.9000    
   X38.0665      Y201.8658     R0.9000    
   X38.0363      Y202.0952     R0.9000    
   X38.0665      Y202.3246     R0.9000    
   X38.1550      Y202.5383     R0.9000    
   X38.2958      Y202.7218     R0.9000    
   X38.4794      Y202.8627     R0.9000    
   X38.6931      Y202.9512     R0.9000    
   X38.9225      Y202.9814     R0.9000    
   X39.1518      Y202.9512     R0.9000    
   X39.3655      Y202.8627     R0.9000    
   X39.5491      Y202.7218     R0.9000    
   X39.6899      Y202.5383     R0.9000    
   X39.7784      Y202.3246     R0.9000    
   X39.8086      Y202.0952     R0.9000    
   X39.7784      Y201.8658     R0.9000    
   X39.6899      Y201.6521     R0.9000    
   X39.5491      Y201.4686     R0.9000    
   X39.3655      Y201.3277     R0.9000    
   X39.1518      Y201.2392     R0.9000    
   X38.9225      Y201.2090     R0.9000    
(Pass: 4)
G1   Z3.100      F100 
G17 G2   X38.6931      Y201.2392     R0.9000     F200 
   X38.4794      Y201.3277     R0.9000    
   X38.2958      Y201.4686     R0.9000    
   X38.1550      Y201.6521     R0.9000    
   X38.0665      Y201.8658     R0.9000    
   X38.0363      Y202.0952     R0.9000    
   X38.0665      Y202.3246     R0.9000    
   X38.1550      Y202.5383     R0.9000    
   X38.2958      Y202.7218     R0.9000    
   X38.4794      Y202.8627     R0.9000    
   X38.6931      Y202.9512     R0.9000    
   X38.9225      Y202.9814     R0.9000    
   X39.1518      Y202.9512     R0.9000    
   X39.3655      Y202.8627     R0.9000    
   X39.5491      Y202.7218     R0.9000    
   X39.6899      Y202.5383     R0.9000    
   X39.7784      Y202.3246     R0.9000    
   X39.8086      Y202.0952     R0.9000    
   X39.7784      Y201.8658     R0.9000    
   X39.6899      Y201.6521     R0.9000    
   X39.5491      Y201.4686     R0.9000    
   X39.3655      Y201.3277     R0.9000    
   X39.1518      Y201.2392     R0.9000    
   X38.9225      Y201.2090     R0.9000    
(Pass: 5)
G1   Z2.300      F100 
G17 G2   X38.6931      Y201.2392     R0.9000     F200 
   X38.4794      Y201.3277     R0.9000    
   X38.2958      Y201.4686     R0.9000    
   X38.1550      Y201.6521     R0.9000    
   X38.0665      Y201.8658     R0.9000    
   X38.0363      Y202.0952     R0.9000    
   X38.0665      Y202.3246     R0.9000    
   X38.1550      Y202.5383     R0.9000    
   X38.2958      Y202.7218     R0.9000    
   X38.4794      Y202.8627     R0.9000    
   X38.6931      Y202.9512     R0.9000    
   X38.9225      Y202.9814     R0.9000    
   X39.1518      Y202.9512     R0.9000    
   X39.3655      Y202.8627     R0.9000    
   X39.5491      Y202.7218     R0.9000    
   X39.6899      Y202.5383     R0.9000    
   X39.7784      Y202.3246     R0.9000    
   X39.8086      Y202.0952     R0.9000    
   X39.7784      Y201.8658     R0.9000    
   X39.6899      Y201.6521     R0.9000    
   X39.5491      Y201.4686     R0.9000    
   X39.3655      Y201.3277     R0.9000    
   X39.1518      Y201.2392     R0.9000    
   X38.9225      Y201.2090     R0.9000    
(Pass: 6)
G1   Z1.500      F100 
G17 G2   X38.6931      Y201.2392     R0.9000     F200 
   X38.4794      Y201.3277     R0.9000    
   X38.2958      Y201.4686     R0.9000    
   X38.1550      Y201.6521     R0.9000    
   X38.0665      Y201.8658     R0.9000    
   X38.0363      Y202.0952     R0.9000    
   X38.0665      Y202.3246     R0.9000    
   X38.1550      Y202.5383     R0.9000    
   X38.2958      Y202.7218     R0.9000    
   X38.4794      Y202.8627     R0.9000    
   X38.6931      Y202.9512     R0.9000    
   X38.9225      Y202.9814     R0.9000    
   X39.1518      Y202.9512     R0.9000    
   X39.3655      Y202.8627     R0.9000    
   X39.5491      Y202.7218     R0.9000    
   X39.6899      Y202.5383     R0.9000    
   X39.7784      Y202.3246     R0.9000    
   X39.8086      Y202.0952     R0.9000    
   X39.7784      Y201.8658     R0.9000    
   X39.6899      Y201.6521     R0.9000    
   X39.5491      Y201.4686     R0.9000    
   X39.3655      Y201.3277     R0.9000    
   X39.1518      Y201.2392     R0.9000    
   X38.9225      Y201.2090     R0.9000    
(Pass: 7)
G1   Z0.700      F100 
G17 G2   X38.6931      Y201.2392     R0.9000     F200 
   X38.4794      Y201.3277     R0.9000    
   X38.2958      Y201.4686     R0.9000    
   X38.1550      Y201.6521     R0.9000    
   X38.0665      Y201.8658     R0.9000    
   X38.0363      Y202.0952     R0.9000    
   X38.0665      Y202.3246     R0.9000    
   X38.1550      Y202.5383     R0.9000    
   X38.2958      Y202.7218     R0.9000    
   X38.4794      Y202.8627     R0.9000    
   X38.6931      Y202.9512     R0.9000    
   X38.9225      Y202.9814     R0.9000    
   X39.1518      Y202.9512     R0.9000    
   X39.3655      Y202.8627     R0.9000    
   X39.5491      Y202.7218     R0.9000    
   X39.6899      Y202.5383     R0.9000    
   X39.7784      Y202.3246     R0.9000    
   X39.8086      Y202.0952     R0.9000    
   X39.7784      Y201.8658     R0.9000    
   X39.6899      Y201.6521     R0.9000    
   X39.5491      Y201.4686     R0.9000    
   X39.3655      Y201.3277     R0.9000    
   X39.1518      Y201.2392     R0.9000    
   X38.9225      Y201.2090     R0.9000    
(Pass: 8)
G1   Z0.000      F100 
G17 G2   X38.6931      Y201.2392     R0.9000     F200 
   X38.4794      Y201.3277     R0.9000    
   X38.2958      Y201.4686     R0.9000    
   X38.1550      Y201.6521     R0.9000    
   X38.0665      Y201.8658     R0.9000    
   X38.0363      Y202.0952     R0.9000    
   X38.0665      Y202.3246     R0.9000    
   X38.1550      Y202.5383     R0.9000    
   X38.2958      Y202.7218     R0.9000    
   X38.4794      Y202.8627     R0.9000    
   X38.6931      Y202.9512     R0.9000    
   X38.9225      Y202.9814     R0.9000    
   X39.1518      Y202.9512     R0.9000    
   X39.3655      Y202.8627     R0.9000    
   X39.5491      Y202.7218     R0.9000    
   X39.6899      Y202.5383     R0.9000    
   X39.7784      Y202.3246     R0.9000    
   X39.8086      Y202.0952     R0.9000    
   X39.7784      Y201.8658     R0.9000    
   X39.6899      Y201.6521     R0.9000    
   X39.5491      Y201.4686     R0.9000    
   X39.3655      Y201.3277     R0.9000    
   X39.1518      Y201.2392     R0.9000    
   X38.9225      Y201.2090     R0.9000    
G0   Z21.300    
(Pass: 1)
   X71.716       Y209.726   
G1   Z5.500      F100 
   X71.671       Y210.071    F200 
   Y218.861   
   X71.716       Y219.206   
   X71.808       Y219.429   
   X71.956       Y219.621   
   X72.147       Y219.768   
   X72.371       Y219.861   
   X72.611       Y219.892   
   X72.850       Y219.861   
   X73.074       Y219.768   
   X73.265       Y219.621   
   X73.413       Y219.429   
   X73.505       Y219.206   
   X73.551       Y218.861   
   Y210.071   
   X73.505       Y209.726   
   X73.413       Y209.503   
   X73.265       Y209.311   
   X73.074       Y209.164   
   X72.850       Y209.071   
   X72.611       Y209.040   
   X72.371       Y209.071   
   X72.147       Y209.164   
   X71.956       Y209.311   
   X71.808       Y209.503   
   X71.716       Y209.726   
(Pass: 2)
   Z4.700      F100 
   X71.671       Y210.071    F200 
   Y218.861   
   X71.716       Y219.206   
   X71.808       Y219.429   
   X71.956       Y219.621   
   X72.147       Y219.768   
   X72.371       Y219.861   
   X72.611       Y219.892   
   X72.850       Y219.861   
   X73.074       Y219.768   
   X73.265       Y219.621   
   X73.413       Y219.429   
   X73.505       Y219.206   
   X73.551       Y218.861   
   Y210.071   
   X73.505       Y209.726   
   X73.413       Y209.503   
   X73.265       Y209.311   
   X73.074       Y209.164   
   X72.850       Y209.071   
   X72.611       Y209.040   
   X72.371       Y209.071   
   X72.147       Y209.164   
   X71.956       Y209.311   
   X71.808       Y209.503   
   X71.716       Y209.726   
(Pass: 3)
   Z3.900      F100 
   X71.671       Y210.071    F200 
   Y218.861   
   X71.716       Y219.206   
   X71.808       Y219.429   
   X71.956       Y219.621   
   X72.147       Y219.768   
   X72.371       Y219.861   
   X72.611       Y219.892   
   X72.850       Y219.861   
   X73.074       Y219.768   
   X73.265       Y219.621   
   X73.413       Y219.429   
   X73.505       Y219.206   
   X73.551       Y218.861   
   Y210.071   
   X73.505       Y209.726   
   X73.413       Y209.503   
   X73.265       Y209.311   
   X73.074       Y209.164   
   X72.850       Y209.071   
   X72.611       Y209.040   
   X72.371       Y209.071   
   X72.147       Y209.164   
   X71.956       Y209.311   
   X71.808       Y209.503   
   X71.716       Y209.726   
(Pass: 4)
   Z3.100      F100 
   X71.671       Y210.071    F200 
   Y218.861   
   X71.716       Y219.206   
   X71.808       Y219.429   
   X71.956       Y219.621   
   X72.147       Y219.768   
   X72.371       Y219.861   
   X72.611       Y219.892   
   X72.850       Y219.861   
   X73.074       Y219.768   
   X73.265       Y219.621   
   X73.413       Y219.429   
   X73.505       Y219.206   
   X73.551       Y218.861   
   Y210.071   
   X73.505       Y209.726   
   X73.413       Y209.503   
   X73.265       Y209.311   
   X73.074       Y209.164   
   X72.850       Y209.071   
   X72.611       Y209.040   
   X72.371       Y209.071   
   X72.147       Y209.164   
   X71.956       Y209.311   
   X71.808       Y209.503   
   X71.716       Y209.726   
(Pass: 5)
   Z2.300      F100 
   X71.671       Y210.071    F200 
   Y218.861   
   X71.716       Y219.206   
   X71.808       Y219.429   
   X71.956       Y219.621   
   X72.147       Y219.768   
   X72.371       Y219.861   
   X72.611       Y219.892   
   X72.850       Y219.861   
   X73.074       Y219.768   
   X73.265       Y219.621   
   X73.413       Y219.429   
   X73.505       Y219.206   
   X73.551       Y218.861   
   Y210.071   
   X73.505       Y209.726   
   X73.413       Y209.503   
   X73.265       Y209.311   
   X73.074       Y209.164   
   X72.850       Y209.071   
   X72.611       Y209.040   
   X72.371       Y209.071   
   X72.147       Y209.164   
   X71.956       Y209.311   
   X71.808       Y209.503   
   X71.716       Y209.726   
(Pass: 6)
   Z1.500      F100 
   X71.671       Y210.071    F200 
   Y218.861   
   X71.716       Y219.206   
   X71.808       Y219.429   
   X71.956       Y219.621   
   X72.147       Y219.768   
   X72.371       Y219.861   
   X72.611       Y219.892   
   X72.850       Y219.861   
   X73.074       Y219.768   
   X73.265       Y219.621   
   X73.413       Y219.429   
   X73.505       Y219.206   
   X73.551       Y218.861   
   Y210.071   
   X73.505       Y209.726   
   X73.413       Y209.503   
   X73.265       Y209.311   
   X73.074       Y209.164   
   X72.850       Y209.071   
   X72.611       Y209.040   
   X72.371       Y209.071   
   X72.147       Y209.164   
   X71.956       Y209.311   
   X71.808       Y209.503   
   X71.716       Y209.726   
(Pass: 7)
   Z0.700      F100 
   X71.671       Y210.071    F200 
   Y218.861   
   X71.716       Y219.206   
   X71.808       Y219.429   
   X71.956       Y219.621   
   X72.147       Y219.768   
   X72.371       Y219.861   
   X72.611       Y219.892   
   X72.850       Y219.861   
   X73.074       Y219.768   
   X73.265       Y219.621   
   X73.413       Y219.429   
   X73.505       Y219.206   
   X73.551       Y218.861   
   Y210.071   
   X73.505       Y209.726   
   X73.413       Y209.503   
   X73.265       Y209.311   
   X73.074       Y209.164   
   X72.850       Y209.071   
   X72.611       Y209.040   
   X72.371       Y209.071   
   X72.147       Y209.164   
   X71.956       Y209.311   
   X71.808       Y209.503   
   X71.716       Y209.726   
(Pass: 8)
   Z0.000      F100 
   X71.671       Y210.071    F200 
   Y218.861   
   X71.716       Y219.206   
   X71.808       Y219.429   
   X71.956       Y219.621   
   X72.147       Y219.768   
   X72.371       Y219.861   
   X72.611       Y219.892   
   X72.850       Y219.861   
   X73.074       Y219.768   
   X73.265       Y219.621   
   X73.413       Y219.429   
   X73.505       Y219.206   
   X73.551       Y218.861   
   Y210.071   
   X73.505       Y209.726   
   X73.413       Y209.503   
   X73.265       Y209.311   
   X73.074       Y209.164   
   X72.850       Y209.071   
   X72.611       Y209.040   
   X72.371       Y209.071   
   X72.147       Y209.164   
   X71.956       Y209.311   
   X71.808       Y209.503   
   X71.716       Y209.726   
G0   Z21.300    
(Pass: 1)
   X88.525       Y225.382   
G1   Z5.500      F100 
G17 G2   X86.7947      Y227.6370     R10.9000    F200 
   X85.7072      Y230.2625     R10.9000   
   X85.3224      Y233.1849     R10.9000   
G1   Y242.975   
G17 G2   X85.7072      Y245.8976     R10.9000   
   X86.7947      Y248.5232     R10.9000   
   X88.5247      Y250.7778     R10.9000   
   X90.7794      Y252.5078     R10.9000   
   X93.4049      Y253.5953     R10.9000   
   X96.2224      Y253.9663     R10.9000   
   X99.0400      Y253.5953     R10.9000   
   X101.6655     Y252.5078     R10.9000   
   X103.9201     Y250.7778     R10.9000   
   X105.6502     Y248.5232     R10.9000   
   X106.7377     Y245.8976     R10.9000   
   X107.1224     Y242.9752     R10.9000   
G1   Y233.185   
G17 G2   X106.7377     Y230.2625     R10.9000   
   X105.6502     Y227.6370     R10.9000   
   X103.9201     Y225.3824     R10.9000   
   X101.6655     Y223.6524     R10.9000   
   X99.0400      Y222.5648     R10.9000   
   X96.2224      Y222.1939     R10.9000   
   X93.4049      Y222.5648     R10.9000   
   X90.7794      Y223.6524     R10.9000   
   X88.5247      Y225.3824     R10.9000   
(Pass: 2)
G1   Z4.700      F100 
G17 G2   X86.7947      Y227.6370     R10.9000    F200 
   X85.7072      Y230.2625     R10.9000   
   X85.3224      Y233.1849     R10.9000   
G1   Y242.975   
G17 G2   X85.7072      Y245.8976     R10.9000   
   X86.7947      Y248.5232     R10.9000   
   X88.5247      Y250.7778     R10.9000   
   X90.7794      Y252.5078     R10.9000   
   X93.4049      Y253.5953     R10.9000   
   X96.2224      Y253.9663     R10.9000   
   X99.0400      Y253.5953     R10.9000   
   X101.6655     Y252.5078     R10.9000   
   X103.9201     Y250.7778     R10.9000   
   X105.6502     Y248.5232     R10.9000   
   X106.7377     Y245.8976     R10.9000   
   X107.1224     Y242.9752     R10.9000   
G1   Y233.185   
G17 G2   X106.7377     Y230.2625     R10.9000   
   X105.6502     Y227.6370     R10.9000   
   X103.9201     Y225.3824     R10.9000   
   X101.6655     Y223.6524     R10.9000   
   X99.0400      Y222.5648     R10.9000   
   X96.2224      Y222.1939     R10.9000   
   X93.4049      Y222.5648     R10.9000   
   X90.7794      Y223.6524     R10.9000   
   X88.5247      Y225.3824     R10.9000   
(Pass: 3)
G1   Z3.900      F100 
G17 G2   X86.7947      Y227.6370     R10.9000    F200 
   X85.7072      Y230.2625     R10.9000   
   X85.3224      Y233.1849     R10.9000   
G1   Y242.975   
G17 G2   X85.7072      Y245.8976     R10.9000   
   X86.7947      Y248.5232     R10.9000   
   X88.5247      Y250.7778     R10.9000   
   X90.7794      Y252.5078     R10.9000   
   X93.4049      Y253.5953     R10.9000   
   X96.2224      Y253.9663     R10.9000   
   X99.0400      Y253.5953     R10.9000   
   X101.6655     Y252.5078     R10.9000   
   X103.9201     Y250.7778     R10.9000   
   X105.6502     Y248.5232     R10.9000   
   X106.7377     Y245.8976     R10.9000   
   X107.1224     Y242.9752     R10.9000   
G1   Y233.185   
G17 G2   X106.7377     Y230.2625     R10.9000   
   X105.6502     Y227.6370     R10.9000   
   X103.9201     Y225.3824     R10.9000   
   X101.6655     Y223.6524     R10.9000   
   X99.0400      Y222.5648     R10.9000   
   X96.2224      Y222.1939     R10.9000   
   X93.4049      Y222.5648     R10.9000   
   X90.7794      Y223.6524     R10.9000   
   X88.5247      Y225.3824     R10.9000   
(Pass: 4)
G1   Z3.100      F100 
G17 G2   X86.7947      Y227.6370     R10.9000    F200 
   X85.7072      Y230.2625     R10.9000   
   X85.3224      Y233.1849     R10.9000   
G1   Y242.975   
G17 G2   X85.7072      Y245.8976     R10.9000   
   X86.7947      Y248.5232     R10.9000   
   X88.5247      Y250.7778     R10.9000   
   X90.7794      Y252.5078     R10.9000   
   X93.4049      Y253.5953     R10.9000   
   X96.2224      Y253.9663     R10.9000   
   X99.0400      Y253.5953     R10.9000   
   X101.6655     Y252.5078     R10.9000   
   X103.9201     Y250.7778     R10.9000   
   X105.6502     Y248.5232     R10.9000   
   X106.7377     Y245.8976     R10.9000   
   X107.1224     Y242.9752     R10.9000   
G1   Y233.185   
G17 G2   X106.7377     Y230.2625     R10.9000   
   X105.6502     Y227.6370     R10.9000   
   X103.9201     Y225.3824     R10.9000   
   X101.6655     Y223.6524     R10.9000   
   X99.0400      Y222.5648     R10.9000   
   X96.2224      Y222.1939     R10.9000   
   X93.4049      Y222.5648     R10.9000   
   X90.7794      Y223.6524     R10.9000   
   X88.5247      Y225.3824     R10.9000   
(Pass: 5)
G1   Z2.300      F100 
G17 G2   X86.7947      Y227.6370     R10.9000    F200 
   X85.7072      Y230.2625     R10.9000   
   X85.3224      Y233.1849     R10.9000   
G1   Y242.975   
G17 G2   X85.7072      Y245.8976     R10.9000   
   X86.7947      Y248.5232     R10.9000   
   X88.5247      Y250.7778     R10.9000   
   X90.7794      Y252.5078     R10.9000   
   X93.4049      Y253.5953     R10.9000   
   X96.2224      Y253.9663     R10.9000   
   X99.0400      Y253.5953     R10.9000   
   X101.6655     Y252.5078     R10.9000   
   X103.9201     Y250.7778     R10.9000   
   X105.6502     Y248.5232     R10.9000   
   X106.7377     Y245.8976     R10.9000   
   X107.1224     Y242.9752     R10.9000   
G1   Y233.185   
G17 G2   X106.7377     Y230.2625     R10.9000   
   X105.6502     Y227.6370     R10.9000   
   X103.9201     Y225.3824     R10.9000   
   X101.6655     Y223.6524     R10.9000   
   X99.0400      Y222.5648     R10.9000   
   X96.2224      Y222.1939     R10.9000   
   X93.4049      Y222.5648     R10.9000   
   X90.7794      Y223.6524     R10.9000   
   X88.5247      Y225.3824     R10.9000   
(Pass: 6)
G1   Z1.500      F100 
G17 G2   X86.7947      Y227.6370     R10.9000    F200 
   X85.7072      Y230.2625     R10.9000   
   X85.3224      Y233.1849     R10.9000   
G1   Y242.975   
G17 G2   X85.7072      Y245.8976     R10.9000   
   X86.7947      Y248.5232     R10.9000   
   X88.5247      Y250.7778     R10.9000   
   X90.7794      Y252.5078     R10.9000   
   X93.4049      Y253.5953     R10.9000   
   X96.2224      Y253.9663     R10.9000   
   X99.0400      Y253.5953     R10.9000   
   X101.6655     Y252.5078     R10.9000   
   X103.9201     Y250.7778     R10.9000   
   X105.6502     Y248.5232     R10.9000   
   X106.7377     Y245.8976     R10.9000   
   X107.1224     Y242.9752     R10.9000   
G1   Y233.185   
G17 G2   X106.7377     Y230.2625     R10.9000   
   X105.6502     Y227.6370     R10.9000   
   X103.9201     Y225.3824     R10.9000   
   X101.6655     Y223.6524     R10.9000   
   X99.0400      Y222.5648     R10.9000   
   X96.2224      Y222.1939     R10.9000   
   X93.4049      Y222.5648     R10.9000   
   X90.7794      Y223.6524     R10.9000   
   X88.5247      Y225.3824     R10.9000   
(Pass: 7)
G1   Z0.700      F100 
G17 G2   X86.7947      Y227.6370     R10.9000    F200 
   X85.7072      Y230.2625     R10.9000   
   X85.3224      Y233.1849     R10.9000   
G1   Y242.975   
G17 G2   X85.7072      Y245.8976     R10.9000   
   X86.7947      Y248.5232     R10.9000   
   X88.5247      Y250.7778     R10.9000   
   X90.7794      Y252.5078     R10.9000   
   X93.4049      Y253.5953     R10.9000   
   X96.2224      Y253.9663     R10.9000   
   X99.0400      Y253.5953     R10.9000   
   X101.6655     Y252.5078     R10.9000   
   X103.9201     Y250.7778     R10.9000   
   X105.6502     Y248.5232     R10.9000   
   X106.7377     Y245.8976     R10.9000   
   X107.1224     Y242.9752     R10.9000   
G1   Y233.185   
G17 G2   X106.7377     Y230.2625     R10.9000   
   X105.6502     Y227.6370     R10.9000   
   X103.9201     Y225.3824     R10.9000   
   X101.6655     Y223.6524     R10.9000   
   X99.0400      Y222.5648     R10.9000   
   X96.2224      Y222.1939     R10.9000   
   X93.4049      Y222.5648     R10.9000   
   X90.7794      Y223.6524     R10.9000   
   X88.5247      Y225.3824     R10.9000   
(Pass: 8)
G1   Z0.000      F100 
G17 G2   X86.7947      Y227.6370     R10.9000    F200 
   X85.7072      Y230.2625     R10.9000   
   X85.3224      Y233.1849     R10.9000   
G1   Y242.975   
G17 G2   X85.7072      Y245.8976     R10.9000   
   X86.7947      Y248.5232     R10.9000   
   X88.5247      Y250.7778     R10.9000   
   X90.7794      Y252.5078     R10.9000   
   X93.4049      Y253.5953     R10.9000   
   X96.2224      Y253.9663     R10.9000   
   X99.0400      Y253.5953     R10.9000   
   X101.6655     Y252.5078     R10.9000   
   X103.9201     Y250.7778     R10.9000   
   X105.6502     Y248.5232     R10.9000   
   X106.7377     Y245.8976     R10.9000   
   X107.1224     Y242.9752     R10.9000   
G1   Y233.185   
G17 G2   X106.7377     Y230.2625     R10.9000   
   X105.6502     Y227.6370     R10.9000   
   X103.9201     Y225.3824     R10.9000   
   X101.6655     Y223.6524     R10.9000   
   X99.0400      Y222.5648     R10.9000   
   X96.2224      Y222.1939     R10.9000   
   X93.4049      Y222.5648     R10.9000   
   X90.7794      Y223.6524     R10.9000   
   X88.5247      Y225.3824     R10.9000   
G0   Z21.300    
(Pass: 1)
   X118.960      Y219.206   
G1   Z5.500      F100 
   X119.052      Y219.429    F200 
   X119.199      Y219.621   
   X119.391      Y219.768   
   X119.615      Y219.861   
   X119.854      Y219.892   
   X120.094      Y219.861   
   X120.317      Y219.768   
   X120.509      Y219.621   
   X120.656      Y219.429   
   X120.749      Y219.206   
   X120.794      Y218.861   
   Y210.071   
   X120.749      Y209.726   
   X120.656      Y209.503   
   X120.509      Y209.311   
   X120.317      Y209.164   
   X120.094      Y209.071   
   X119.854      Y209.040   
   X119.615      Y209.071   
   X119.391      Y209.164   
   X119.199      Y209.311   
   X119.052      Y209.503   
   X118.960      Y209.726   
   X118.914      Y210.071   
   Y218.861   
   X118.960      Y219.206   
(Pass: 2)
   Z4.700      F100 
   X119.052      Y219.429    F200 
   X119.199      Y219.621   
   X119.391      Y219.768   
   X119.615      Y219.861   
   X119.854      Y219.892   
   X120.094      Y219.861   
   X120.317      Y219.768   
   X120.509      Y219.621   
   X120.656      Y219.429   
   X120.749      Y219.206   
   X120.794      Y218.861   
   Y210.071   
   X120.749      Y209.726   
   X120.656      Y209.503   
   X120.509      Y209.311   
   X120.317      Y209.164   
   X120.094      Y209.071   
   X119.854      Y209.040   
   X119.615      Y209.071   
   X119.391      Y209.164   
   X119.199      Y209.311   
   X119.052      Y209.503   
   X118.960      Y209.726   
   X118.914      Y210.071   
   Y218.861   
   X118.960      Y219.206   
(Pass: 3)
   Z3.900      F100 
   X119.052      Y219.429    F200 
   X119.199      Y219.621   
   X119.391      Y219.768   
   X119.615      Y219.861   
   X119.854      Y219.892   
   X120.094      Y219.861   
   X120.317      Y219.768   
   X120.509      Y219.621   
   X120.656      Y219.429   
   X120.749      Y219.206   
   X120.794      Y218.861   
   Y210.071   
   X120.749      Y209.726   
   X120.656      Y209.503   
   X120.509      Y209.311   
   X120.317      Y209.164   
   X120.094      Y209.071   
   X119.854      Y209.040   
   X119.615      Y209.071   
   X119.391      Y209.164   
   X119.199      Y209.311   
   X119.052      Y209.503   
   X118.960      Y209.726   
   X118.914      Y210.071   
   Y218.861   
   X118.960      Y219.206   
(Pass: 4)
   Z3.100      F100 
   X119.052      Y219.429    F200 
   X119.199      Y219.621   
   X119.391      Y219.768   
   X119.615      Y219.861   
   X119.854      Y219.892   
   X120.094      Y219.861   
   X120.317      Y219.768   
   X120.509      Y219.621   
   X120.656      Y219.429   
   X120.749      Y219.206   
   X120.794      Y218.861   
   Y210.071   
   X120.749      Y209.726   
   X120.656      Y209.503   
   X120.509      Y209.311   
   X120.317      Y209.164   
   X120.094      Y209.071   
   X119.854      Y209.040   
   X119.615      Y209.071   
   X119.391      Y209.164   
   X119.199      Y209.311   
   X119.052      Y209.503   
   X118.960      Y209.726   
   X118.914      Y210.071   
   Y218.861   
   X118.960      Y219.206   
(Pass: 5)
   Z2.300      F100 
   X119.052      Y219.429    F200 
   X119.199      Y219.621   
   X119.391      Y219.768   
   X119.615      Y219.861   
   X119.854      Y219.892   
   X120.094      Y219.861   
   X120.317      Y219.768   
   X120.509      Y219.621   
   X120.656      Y219.429   
   X120.749      Y219.206   
   X120.794      Y218.861   
   Y210.071   
   X120.749      Y209.726   
   X120.656      Y209.503   
   X120.509      Y209.311   
   X120.317      Y209.164   
   X120.094      Y209.071   
   X119.854      Y209.040   
   X119.615      Y209.071   
   X119.391      Y209.164   
   X119.199      Y209.311   
   X119.052      Y209.503   
   X118.960      Y209.726   
   X118.914      Y210.071   
   Y218.861   
   X118.960      Y219.206   
(Pass: 6)
   Z1.500      F100 
   X119.052      Y219.429    F200 
   X119.199      Y219.621   
   X119.391      Y219.768   
   X119.615      Y219.861   
   X119.854      Y219.892   
   X120.094      Y219.861   
   X120.317      Y219.768   
   X120.509      Y219.621   
   X120.656      Y219.429   
   X120.749      Y219.206   
   X120.794      Y218.861   
   Y210.071   
   X120.749      Y209.726   
   X120.656      Y209.503   
   X120.509      Y209.311   
   X120.317      Y209.164   
   X120.094      Y209.071   
   X119.854      Y209.040   
   X119.615      Y209.071   
   X119.391      Y209.164   
   X119.199      Y209.311   
   X119.052      Y209.503   
   X118.960      Y209.726   
   X118.914      Y210.071   
   Y218.861   
   X118.960      Y219.206   
(Pass: 7)
   Z0.700      F100 
   X119.052      Y219.429    F200 
   X119.199      Y219.621   
   X119.391      Y219.768   
   X119.615      Y219.861   
   X119.854      Y219.892   
   X120.094      Y219.861   
   X120.317      Y219.768   
   X120.509      Y219.621   
   X120.656      Y219.429   
   X120.749      Y219.206   
   X120.794      Y218.861   
   Y210.071   
   X120.749      Y209.726   
   X120.656      Y209.503   
   X120.509      Y209.311   
   X120.317      Y209.164   
   X120.094      Y209.071   
   X119.854      Y209.040   
   X119.615      Y209.071   
   X119.391      Y209.164   
   X119.199      Y209.311   
   X119.052      Y209.503   
   X118.960      Y209.726   
   X118.914      Y210.071   
   Y218.861   
   X118.960      Y219.206   
(Pass: 8)
   Z0.000      F100 
   X119.052      Y219.429    F200 
   X119.199      Y219.621   
   X119.391      Y219.768   
   X119.615      Y219.861   
   X119.854      Y219.892   
   X120.094      Y219.861   
   X120.317      Y219.768   
   X120.509      Y219.621   
   X120.656      Y219.429   
   X120.749      Y219.206   
   X120.794      Y218.861   
   Y210.071   
   X120.749      Y209.726   
   X120.656      Y209.503   
   X120.509      Y209.311   
   X120.317      Y209.164   
   X120.094      Y209.071   
   X119.854      Y209.040   
   X119.615      Y209.071   
   X119.391      Y209.164   
   X119.199      Y209.311   
   X119.052      Y209.503   
   X118.960      Y209.726   
   X118.914      Y210.071   
   Y218.861   
   X118.960      Y219.206   
G0   Z21.300    
(Pass: 1)
   X152.706      Y202.325   
G1   Z5.500      F100 
G17 G2   X152.7950     Y202.5383     R0.9000     F200 
   X152.9358     Y202.7218     R0.9000    
   X153.1194     Y202.8627     R0.9000    
   X153.3331     Y202.9512     R0.9000    
   X153.5625     Y202.9814     R0.9000    
   X153.7918     Y202.9512     R0.9000    
   X154.0055     Y202.8627     R0.9000    
   X154.1891     Y202.7218     R0.9000    
   X154.3299     Y202.5383     R0.9000    
   X154.4184     Y202.3246     R0.9000    
   X154.4486     Y202.0952     R0.9000    
   X154.4184     Y201.8658     R0.9000    
   X154.3299     Y201.6521     R0.9000    
   X154.1891     Y201.4686     R0.9000    
   X154.0055     Y201.3277     R0.9000    
   X153.7918     Y201.2392     R0.9000    
   X153.5625     Y201.2090     R0.9000    
   X153.3331     Y201.2392     R0.9000    
   X153.1194     Y201.3277     R0.9000    
   X152.9358     Y201.4686     R0.9000    
   X152.7950     Y201.6521     R0.9000    
   X152.7065     Y201.8658     R0.9000    
   X152.6763     Y202.0952     R0.9000    
   X152.7065     Y202.3246     R0.9000    
(Pass: 2)
G1   Z4.700      F100 
G17 G2   X152.7950     Y202.5383     R0.9000     F200 
   X152.9358     Y202.7218     R0.9000    
   X153.1194     Y202.8627     R0.9000    
   X153.3331     Y202.9512     R0.9000    
   X153.5625     Y202.9814     R0.9000    
   X153.7918     Y202.9512     R0.9000    
   X154.0055     Y202.8627     R0.9000    
   X154.1891     Y202.7218     R0.9000    
   X154.3299     Y202.5383     R0.9000    
   X154.4184     Y202.3246     R0.9000    
   X154.4486     Y202.0952     R0.9000    
   X154.4184     Y201.8658     R0.9000    
   X154.3299     Y201.6521     R0.9000    
   X154.1891     Y201.4686     R0.9000    
   X154.0055     Y201.3277     R0.9000    
   X153.7918     Y201.2392     R0.9000    
   X153.5625     Y201.2090     R0.9000    
   X153.3331     Y201.2392     R0.9000    
   X153.1194     Y201.3277     R0.9000    
   X152.9358     Y201.4686     R0.9000    
   X152.7950     Y201.6521     R0.9000    
   X152.7065     Y201.8658     R0.9000    
   X152.6763     Y202.0952     R0.9000    
   X152.7065     Y202.3246     R0.9000    
(Pass: 3)
G1   Z3.900      F100 
G17 G2   X152.7950     Y202.5383     R0.9000     F200 
   X152.9358     Y202.7218     R0.9000    
   X153.1194     Y202.8627     R0.9000    
   X153.3331     Y202.9512     R0.9000    
   X153.5625     Y202.9814     R0.9000    
   X153.7918     Y202.9512     R0.9000    
   X154.0055     Y202.8627     R0.9000    
   X154.1891     Y202.7218     R0.9000    
   X154.3299     Y202.5383     R0.9000    
   X154.4184     Y202.3246     R0.9000    
   X154.4486     Y202.0952     R0.9000    
   X154.4184     Y201.8658     R0.9000    
   X154.3299     Y201.6521     R0.9000    
   X154.1891     Y201.4686     R0.9000    
   X154.0055     Y201.3277     R0.9000    
   X153.7918     Y201.2392     R0.9000    
   X153.5625     Y201.2090     R0.9000    
   X153.3331     Y201.2392     R0.9000    
   X153.1194     Y201.3277     R0.9000    
   X152.9358     Y201.4686     R0.9000    
   X152.7950     Y201.6521     R0.9000    
   X152.7065     Y201.8658     R0.9000    
   X152.6763     Y202.0952     R0.9000    
   X152.7065     Y202.3246     R0.9000    
(Pass: 4)
G1   Z3.100      F100 
G17 G2   X152.7950     Y202.5383     R0.9000     F200 
   X152.9358     Y202.7218     R0.9000    
   X153.1194     Y202.8627     R0.9000    
   X153.3331     Y202.9512     R0.9000    
   X153.5625     Y202.9814     R0.9000    
   X153.7918     Y202.9512     R0.9000    
   X154.0055     Y202.8627     R0.9000    
   X154.1891     Y202.7218     R0.9000    
   X154.3299     Y202.5383     R0.9000    
   X154.4184     Y202.3246     R0.9000    
   X154.4486     Y202.0952     R0.9000    
   X154.4184     Y201.8658     R0.9000    
   X154.3299     Y201.6521     R0.9000    
   X154.1891     Y201.4686     R0.9000    
   X154.0055     Y201.3277     R0.9000    
   X153.7918     Y201.2392     R0.9000    
   X153.5625     Y201.2090     R0.9000    
   X153.3331     Y201.2392     R0.9000    
   X153.1194     Y201.3277     R0.9000    
   X152.9358     Y201.4686     R0.9000    
   X152.7950     Y201.6521     R0.9000    
   X152.7065     Y201.8658     R0.9000    
   X152.6763     Y202.0952     R0.9000    
   X152.7065     Y202.3246     R0.9000    
(Pass: 5)
G1   Z2.300      F100 
G17 G2   X152.7950     Y202.5383     R0.9000     F200 
   X152.9358     Y202.7218     R0.9000    
   X153.1194     Y202.8627     R0.9000    
   X153.3331     Y202.9512     R0.9000    
   X153.5625     Y202.9814     R0.9000    
   X153.7918     Y202.9512     R0.9000    
   X154.0055     Y202.8627     R0.9000    
   X154.1891     Y202.7218     R0.9000    
   X154.3299     Y202.5383     R0.9000    
   X154.4184     Y202.3246     R0.9000    
   X154.4486     Y202.0952     R0.9000    
   X154.4184     Y201.8658     R0.9000    
   X154.3299     Y201.6521     R0.9000    
   X154.1891     Y201.4686     R0.9000    
   X154.0055     Y201.3277     R0.9000    
   X153.7918     Y201.2392     R0.9000    
   X153.5625     Y201.2090     R0.9000    
   X153.3331     Y201.2392     R0.9000    
   X153.1194     Y201.3277     R0.9000    
   X152.9358     Y201.4686     R0.9000    
   X152.7950     Y201.6521     R0.9000    
   X152.7065     Y201.8658     R0.9000    
   X152.6763     Y202.0952     R0.9000    
   X152.7065     Y202.3246     R0.9000    
(Pass: 6)
G1   Z1.500      F100 
G17 G2   X152.7950     Y202.5383     R0.9000     F200 
   X152.9358     Y202.7218     R0.9000    
   X153.1194     Y202.8627     R0.9000    
   X153.3331     Y202.9512     R0.9000    
   X153.5625     Y202.9814     R0.9000    
   X153.7918     Y202.9512     R0.9000    
   X154.0055     Y202.8627     R0.9000    
   X154.1891     Y202.7218     R0.9000    
   X154.3299     Y202.5383     R0.9000    
   X154.4184     Y202.3246     R0.9000    
   X154.4486     Y202.0952     R0.9000    
   X154.4184     Y201.8658     R0.9000    
   X154.3299     Y201.6521     R0.9000    
   X154.1891     Y201.4686     R0.9000    
   X154.0055     Y201.3277     R0.9000    
   X153.7918     Y201.2392     R0.9000    
   X153.5625     Y201.2090     R0.9000    
   X153.3331     Y201.2392     R0.9000    
   X153.1194     Y201.3277     R0.9000    
   X152.9358     Y201.4686     R0.9000    
   X152.7950     Y201.6521     R0.9000    
   X152.7065     Y201.8658     R0.9000    
   X152.6763     Y202.0952     R0.9000    
   X152.7065     Y202.3246     R0.9000    
(Pass: 7)
G1   Z0.700      F100 
G17 G2   X152.7950     Y202.5383     R0.9000     F200 
   X152.9358     Y202.7218     R0.9000    
   X153.1194     Y202.8627     R0.9000    
   X153.3331     Y202.9512     R0.9000    
   X153.5625     Y202.9814     R0.9000    
   X153.7918     Y202.9512     R0.9000    
   X154.0055     Y202.8627     R0.9000    
   X154.1891     Y202.7218     R0.9000    
   X154.3299     Y202.5383     R0.9000    
   X154.4184     Y202.3246     R0.9000    
   X154.4486     Y202.0952     R0.9000    
   X154.4184     Y201.8658     R0.9000    
   X154.3299     Y201.6521     R0.9000    
   X154.1891     Y201.4686     R0.9000    
   X154.0055     Y201.3277     R0.9000    
   X153.7918     Y201.2392     R0.9000    
   X153.5625     Y201.2090     R0.9000    
   X153.3331     Y201.2392     R0.9000    
   X153.1194     Y201.3277     R0.9000    
   X152.9358     Y201.4686     R0.9000    
   X152.7950     Y201.6521     R0.9000    
   X152.7065     Y201.8658     R0.9000    
   X152.6763     Y202.0952     R0.9000    
   X152.7065     Y202.3246     R0.9000    
(Pass: 8)
G1   Z0.000      F100 
G17 G2   X152.7950     Y202.5383     R0.9000     F200 
   X152.9358     Y202.7218     R0.9000    
   X153.1194     Y202.8627     R0.9000    
   X153.3331     Y202.9512     R0.9000    
   X153.5625     Y202.9814     R0.9000    
   X153.7918     Y202.9512     R0.9000    
   X154.0055     Y202.8627     R0.9000    
   X154.1891     Y202.7218     R0.9000    
   X154.3299     Y202.5383     R0.9000    
   X154.4184     Y202.3246     R0.9000    
   X154.4486     Y202.0952     R0.9000    
   X154.4184     Y201.8658     R0.9000    
   X154.3299     Y201.6521     R0.9000    
   X154.1891     Y201.4686     R0.9000    
   X154.0055     Y201.3277     R0.9000    
   X153.7918     Y201.2392     R0.9000    
   X153.5625     Y201.2090     R0.9000    
   X153.3331     Y201.2392     R0.9000    
   X153.1194     Y201.3277     R0.9000    
   X152.9358     Y201.4686     R0.9000    
   X152.7950     Y201.6521     R0.9000    
   X152.7065     Y201.8658     R0.9000    
   X152.6763     Y202.0952     R0.9000    
   X152.7065     Y202.3246     R0.9000    
G0   Z21.300    
(Pass: 1)
   X160.911      Y167.468   
G1   Z5.500      F100 
G17 G2   X161.1326     Y167.5334     R0.9000     F200 
   X161.3639     Y167.5391     R0.9000    
   X161.5888     Y167.4847     R0.9000    
   X161.7919     Y167.3739     R0.9000    
   X161.9594     Y167.2144     R0.9000    
   X162.0799     Y167.0169     R0.9000    
   X162.1452     Y166.7950     R0.9000    
   X162.1509     Y166.5637     R0.9000    
   X162.0965     Y166.3389     R0.9000    
   X161.9857     Y166.1357     R0.9000    
   X161.8262     Y165.9682     R0.9000    
   X161.6287     Y165.8477     R0.9000    
   X161.4068     Y165.7824     R0.9000    
   X161.1755     Y165.7767     R0.9000    
   X160.9506     Y165.8311     R0.9000    
   X160.7475     Y165.9419     R0.9000    
   X160.5800     Y166.1014     R0.9000    
   X160.4595     Y166.2989     R0.9000    
   X160.3942     Y166.5208     R0.9000    
   X160.3885     Y166.7521     R0.9000    
   X160.4429     Y166.9770     R0.9000    
   X160.5537     Y167.1801     R0.9000    
   X160.7132     Y167.3476     R0.9000    
   X160.9107     Y167.4681     R0.9000    
(Pass: 2)
G1   Z4.700      F100 
G17 G2   X161.1326     Y167.5334     R0.9000     F200 
   X161.3639     Y167.5391     R0.9000    
   X161.5888     Y167.4847     R0.9000    
   X161.7919     Y167.3739     R0.9000    
   X161.9594     Y167.2144     R0.9000    
   X162.0799     Y167.0169     R0.9000    
   X162.1452     Y166.7950     R0.9000    
   X162.1509     Y166.5637     R0.9000    
   X162.0965     Y166.3389     R0.9000    
   X161.9857     Y166.1357     R0.9000    
   X161.8262     Y165.9682     R0.9000    
   X161.6287     Y165.8477     R0.9000    
   X161.4068     Y165.7824     R0.9000    
   X161.1755     Y165.7767     R0.9000    
   X160.9506     Y165.8311     R0.9000    
   X160.7475     Y165.9419     R0.9000    
   X160.5800     Y166.1014     R0.9000    
   X160.4595     Y166.2989     R0.9000    
   X160.3942     Y166.5208     R0.9000    
   X160.3885     Y166.7521     R0.9000    
   X160.4429     Y166.9770     R0.9000    
   X160.5537     Y167.1801     R0.9000    
   X160.7132     Y167.3476     R0.9000    
   X160.9107     Y167.4681     R0.9000    
(Pass: 3)
G1   Z3.900      F100 
G17 G2   X161.1326     Y167.5334     R0.9000     F200 
   X161.3639     Y167.5391     R0.9000    
   X161.5888     Y167.4847     R0.9000    
   X161.7919     Y167.3739     R0.9000    
   X161.9594     Y167.2144     R0.9000    
   X162.0799     Y167.0169     R0.9000    
   X162.1452     Y166.7950     R0.9000    
   X162.1509     Y166.5637     R0.9000    
   X162.0965     Y166.3389     R0.9000    
   X161.9857     Y166.1357     R0.9000    
   X161.8262     Y165.9682     R0.9000    
   X161.6287     Y165.8477     R0.9000    
   X161.4068     Y165.7824     R0.9000    
   X161.1755     Y165.7767     R0.9000    
   X160.9506     Y165.8311     R0.9000    
   X160.7475     Y165.9419     R0.9000    
   X160.5800     Y166.1014     R0.9000    
   X160.4595     Y166.2989     R0.9000    
   X160.3942     Y166.5208     R0.9000    
   X160.3885     Y166.7521     R0.9000    
   X160.4429     Y166.9770     R0.9000    
   X160.5537     Y167.1801     R0.9000    
   X160.7132     Y167.3476     R0.9000    
   X160.9107     Y167.4681     R0.9000    
(Pass: 4)
G1   Z3.100      F100 
G17 G2   X161.1326     Y167.5334     R0.9000     F200 
   X161.3639     Y167.5391     R0.9000    
   X161.5888     Y167.4847     R0.9000    
   X161.7919     Y167.3739     R0.9000    
   X161.9594     Y167.2144     R0.9000    
   X162.0799     Y167.0169     R0.9000    
   X162.1452     Y166.7950     R0.9000    
   X162.1509     Y166.5637     R0.9000    
   X162.0965     Y166.3389     R0.9000    
   X161.9857     Y166.1357     R0.9000    
   X161.8262     Y165.9682     R0.9000    
   X161.6287     Y165.8477     R0.9000    
   X161.4068     Y165.7824     R0.9000    
   X161.1755     Y165.7767     R0.9000    
   X160.9506     Y165.8311     R0.9000    
   X160.7475     Y165.9419     R0.9000    
   X160.5800     Y166.1014     R0.9000    
   X160.4595     Y166.2989     R0.9000    
   X160.3942     Y166.5208     R0.9000    
   X160.3885     Y166.7521     R0.9000    
   X160.4429     Y166.9770     R0.9000    
   X160.5537     Y167.1801     R0.9000    
   X160.7132     Y167.3476     R0.9000    
   X160.9107     Y167.4681     R0.9000    
(Pass: 5)
G1   Z2.300      F100 
G17 G2   X161.1326     Y167.5334     R0.9000     F200 
   X161.3639     Y167.5391     R0.9000    
   X161.5888     Y167.4847     R0.9000    
   X161.7919     Y167.3739     R0.9000    
   X161.9594     Y167.2144     R0.9000    
   X162.0799     Y167.0169     R0.9000    
   X162.1452     Y166.7950     R0.9000    
   X162.1509     Y166.5637     R0.9000    
   X162.0965     Y166.3389     R0.9000    
   X161.9857     Y166.1357     R0.9000    
   X161.8262     Y165.9682     R0.9000    
   X161.6287     Y165.8477     R0.9000    
   X161.4068     Y165.7824     R0.9000    
   X161.1755     Y165.7767     R0.9000    
   X160.9506     Y165.8311     R0.9000    
   X160.7475     Y165.9419     R0.9000    
   X160.5800     Y166.1014     R0.9000    
   X160.4595     Y166.2989     R0.9000    
   X160.3942     Y166.5208     R0.9000    
   X160.3885     Y166.7521     R0.9000    
   X160.4429     Y166.9770     R0.9000    
   X160.5537     Y167.1801     R0.9000    
   X160.7132     Y167.3476     R0.9000    
   X160.9107     Y167.4681     R0.9000    
(Pass: 6)
G1   Z1.500      F100 
G17 G2   X161.1326     Y167.5334     R0.9000     F200 
   X161.3639     Y167.5391     R0.9000    
   X161.5888     Y167.4847     R0.9000    
   X161.7919     Y167.3739     R0.9000    
   X161.9594     Y167.2144     R0.9000    
   X162.0799     Y167.0169     R0.9000    
   X162.1452     Y166.7950     R0.9000    
   X162.1509     Y166.5637     R0.9000    
   X162.0965     Y166.3389     R0.9000    
   X161.9857     Y166.1357     R0.9000    
   X161.8262     Y165.9682     R0.9000    
   X161.6287     Y165.8477     R0.9000    
   X161.4068     Y165.7824     R0.9000    
   X161.1755     Y165.7767     R0.9000    
   X160.9506     Y165.8311     R0.9000    
   X160.7475     Y165.9419     R0.9000    
   X160.5800     Y166.1014     R0.9000    
   X160.4595     Y166.2989     R0.9000    
   X160.3942     Y166.5208     R0.9000    
   X160.3885     Y166.7521     R0.9000    
   X160.4429     Y166.9770     R0.9000    
   X160.5537     Y167.1801     R0.9000    
   X160.7132     Y167.3476     R0.9000    
   X160.9107     Y167.4681     R0.9000    
(Pass: 7)
G1   Z0.700      F100 
G17 G2   X161.1326     Y167.5334     R0.9000     F200 
   X161.3639     Y167.5391     R0.9000    
   X161.5888     Y167.4847     R0.9000    
   X161.7919     Y167.3739     R0.9000    
   X161.9594     Y167.2144     R0.9000    
   X162.0799     Y167.0169     R0.9000    
   X162.1452     Y166.7950     R0.9000    
   X162.1509     Y166.5637     R0.9000    
   X162.0965     Y166.3389     R0.9000    
   X161.9857     Y166.1357     R0.9000    
   X161.8262     Y165.9682     R0.9000    
   X161.6287     Y165.8477     R0.9000    
   X161.4068     Y165.7824     R0.9000    
   X161.1755     Y165.7767     R0.9000    
   X160.9506     Y165.8311     R0.9000    
   X160.7475     Y165.9419     R0.9000    
   X160.5800     Y166.1014     R0.9000    
   X160.4595     Y166.2989     R0.9000    
   X160.3942     Y166.5208     R0.9000    
   X160.3885     Y166.7521     R0.9000    
   X160.4429     Y166.9770     R0.9000    
   X160.5537     Y167.1801     R0.9000    
   X160.7132     Y167.3476     R0.9000    
   X160.9107     Y167.4681     R0.9000    
(Pass: 8)
G1   Z0.000      F100 
G17 G2   X161.1326     Y167.5334     R0.9000     F200 
   X161.3639     Y167.5391     R0.9000    
   X161.5888     Y167.4847     R0.9000    
   X161.7919     Y167.3739     R0.9000    
   X161.9594     Y167.2144     R0.9000    
   X162.0799     Y167.0169     R0.9000    
   X162.1452     Y166.7950     R0.9000    
   X162.1509     Y166.5637     R0.9000    
   X162.0965     Y166.3389     R0.9000    
   X161.9857     Y166.1357     R0.9000    
   X161.8262     Y165.9682     R0.9000    
   X161.6287     Y165.8477     R0.9000    
   X161.4068     Y165.7824     R0.9000    
   X161.1755     Y165.7767     R0.9000    
   X160.9506     Y165.8311     R0.9000    
   X160.7475     Y165.9419     R0.9000    
   X160.5800     Y166.1014     R0.9000    
   X160.4595     Y166.2989     R0.9000    
   X160.3942     Y166.5208     R0.9000    
   X160.3885     Y166.7521     R0.9000    
   X160.4429     Y166.9770     R0.9000    
   X160.5537     Y167.1801     R0.9000    
   X160.7132     Y167.3476     R0.9000    
   X160.9107     Y167.4681     R0.9000    
G0   Z21.300    
(Pass: 1)
   X161.037      Y157.514   
G1   Z5.500      F100 
G17 G2   X161.2664     Y157.5441     R0.9000     F200 
   X161.4958     Y157.5139     R0.9000    
   X161.5575     Y157.4884     R0.9000    
   X161.7095     Y157.4254     R0.9000    
   X161.8931     Y157.2845     R0.9000    
   X162.0339     Y157.1010     R0.9000    
   X162.1224     Y156.8873     R0.9000    
   X162.1526     Y156.6579     R0.9000    
   X162.1224     Y156.4285     R0.9000    
   X162.0339     Y156.2148     R0.9000    
   X161.8931     Y156.0313     R0.9000    
   X161.7095     Y155.8904     R0.9000    
   X161.5575     Y155.8275     R0.9000    
   X161.4958     Y155.8019     R0.9000    
   X161.2664     Y155.7717     R0.9000    
   X161.0371     Y155.8019     R0.9000    
   X160.8234     Y155.8904     R0.9000    
   X160.6398     Y156.0313     R0.9000    
   X160.4990     Y156.2148     R0.9000    
   X160.4105     Y156.4285     R0.9000    
   X160.3803     Y156.6579     R0.9000    
   X160.4105     Y156.8873     R0.9000    
   X160.4990     Y157.1010     R0.9000    
   X160.6398     Y157.2845     R0.9000    
   X160.8234     Y157.4254     R0.9000    
   X161.0371     Y157.5139     R0.9000    
(Pass: 2)
G1   Z4.700      F100 
G17 G2   X161.2664     Y157.5441     R0.9000     F200 
   X161.4958     Y157.5139     R0.9000    
   X161.5575     Y157.4884     R0.9000    
   X161.7095     Y157.4254     R0.9000    
   X161.8931     Y157.2845     R0.9000    
   X162.0339     Y157.1010     R0.9000    
   X162.1224     Y156.8873     R0.9000    
   X162.1526     Y156.6579     R0.9000    
   X162.1224     Y156.4285     R0.9000    
   X162.0339     Y156.2148     R0.9000    
   X161.8931     Y156.0313     R0.9000    
   X161.7095     Y155.8904     R0.9000    
   X161.5575     Y155.8275     R0.9000    
   X161.4958     Y155.8019     R0.9000    
   X161.2664     Y155.7717     R0.9000    
   X161.0371     Y155.8019     R0.9000    
   X160.8234     Y155.8904     R0.9000    
   X160.6398     Y156.0313     R0.9000    
   X160.4990     Y156.2148     R0.9000    
   X160.4105     Y156.4285     R0.9000    
   X160.3803     Y156.6579     R0.9000    
   X160.4105     Y156.8873     R0.9000    
   X160.4990     Y157.1010     R0.9000    
   X160.6398     Y157.2845     R0.9000    
   X160.8234     Y157.4254     R0.9000    
   X161.0371     Y157.5139     R0.9000    
(Pass: 3)
G1   Z3.900      F100 
G17 G2   X161.2664     Y157.5441     R0.9000     F200 
   X161.4958     Y157.5139     R0.9000    
   X161.5575     Y157.4884     R0.9000    
   X161.7095     Y157.4254     R0.9000    
   X161.8931     Y157.2845     R0.9000    
   X162.0339     Y157.1010     R0.9000    
   X162.1224     Y156.8873     R0.9000    
   X162.1526     Y156.6579     R0.9000    
   X162.1224     Y156.4285     R0.9000    
   X162.0339     Y156.2148     R0.9000    
   X161.8931     Y156.0313     R0.9000    
   X161.7095     Y155.8904     R0.9000    
   X161.5575     Y155.8275     R0.9000    
   X161.4958     Y155.8019     R0.9000    
   X161.2664     Y155.7717     R0.9000    
   X161.0371     Y155.8019     R0.9000    
   X160.8234     Y155.8904     R0.9000    
   X160.6398     Y156.0313     R0.9000    
   X160.4990     Y156.2148     R0.9000    
   X160.4105     Y156.4285     R0.9000    
   X160.3803     Y156.6579     R0.9000    
   X160.4105     Y156.8873     R0.9000    
   X160.4990     Y157.1010     R0.9000    
   X160.6398     Y157.2845     R0.9000    
   X160.8234     Y157.4254     R0.9000    
   X161.0371     Y157.5139     R0.9000    
(Pass: 4)
G1   Z3.100      F100 
G17 G2   X161.2664     Y157.5441     R0.9000     F200 
   X161.4958     Y157.5139     R0.9000    
   X161.5575     Y157.4884     R0.9000    
   X161.7095     Y157.4254     R0.9000    
   X161.8931     Y157.2845     R0.9000    
   X162.0339     Y157.1010     R0.9000    
   X162.1224     Y156.8873     R0.9000    
   X162.1526     Y156.6579     R0.9000    
   X162.1224     Y156.4285     R0.9000    
   X162.0339     Y156.2148     R0.9000    
   X161.8931     Y156.0313     R0.9000    
   X161.7095     Y155.8904     R0.9000    
   X161.5575     Y155.8275     R0.9000    
   X161.4958     Y155.8019     R0.9000    
   X161.2664     Y155.7717     R0.9000    
   X161.0371     Y155.8019     R0.9000    
   X160.8234     Y155.8904     R0.9000    
   X160.6398     Y156.0313     R0.9000    
   X160.4990     Y156.2148     R0.9000    
   X160.4105     Y156.4285     R0.9000    
   X160.3803     Y156.6579     R0.9000    
   X160.4105     Y156.8873     R0.9000    
   X160.4990     Y157.1010     R0.9000    
   X160.6398     Y157.2845     R0.9000    
   X160.8234     Y157.4254     R0.9000    
   X161.0371     Y157.5139     R0.9000    
(Pass: 5)
G1   Z2.300      F100 
G17 G2   X161.2664     Y157.5441     R0.9000     F200 
   X161.4958     Y157.5139     R0.9000    
   X161.5575     Y157.4884     R0.9000    
   X161.7095     Y157.4254     R0.9000    
   X161.8931     Y157.2845     R0.9000    
   X162.0339     Y157.1010     R0.9000    
   X162.1224     Y156.8873     R0.9000    
   X162.1526     Y156.6579     R0.9000    
   X162.1224     Y156.4285     R0.9000    
   X162.0339     Y156.2148     R0.9000    
   X161.8931     Y156.0313     R0.9000    
   X161.7095     Y155.8904     R0.9000    
   X161.5575     Y155.8275     R0.9000    
   X161.4958     Y155.8019     R0.9000    
   X161.2664     Y155.7717     R0.9000    
   X161.0371     Y155.8019     R0.9000    
   X160.8234     Y155.8904     R0.9000    
   X160.6398     Y156.0313     R0.9000    
   X160.4990     Y156.2148     R0.9000    
   X160.4105     Y156.4285     R0.9000    
   X160.3803     Y156.6579     R0.9000    
   X160.4105     Y156.8873     R0.9000    
   X160.4990     Y157.1010     R0.9000    
   X160.6398     Y157.2845     R0.9000    
   X160.8234     Y157.4254     R0.9000    
   X161.0371     Y157.5139     R0.9000    
(Pass: 6)
G1   Z1.500      F100 
G17 G2   X161.2664     Y157.5441     R0.9000     F200 
   X161.4958     Y157.5139     R0.9000    
   X161.5575     Y157.4884     R0.9000    
   X161.7095     Y157.4254     R0.9000    
   X161.8931     Y157.2845     R0.9000    
   X162.0339     Y157.1010     R0.9000    
   X162.1224     Y156.8873     R0.9000    
   X162.1526     Y156.6579     R0.9000    
   X162.1224     Y156.4285     R0.9000    
   X162.0339     Y156.2148     R0.9000    
   X161.8931     Y156.0313     R0.9000    
   X161.7095     Y155.8904     R0.9000    
   X161.5575     Y155.8275     R0.9000    
   X161.4958     Y155.8019     R0.9000    
   X161.2664     Y155.7717     R0.9000    
   X161.0371     Y155.8019     R0.9000    
   X160.8234     Y155.8904     R0.9000    
   X160.6398     Y156.0313     R0.9000    
   X160.4990     Y156.2148     R0.9000    
   X160.4105     Y156.4285     R0.9000    
   X160.3803     Y156.6579     R0.9000    
   X160.4105     Y156.8873     R0.9000    
   X160.4990     Y157.1010     R0.9000    
   X160.6398     Y157.2845     R0.9000    
   X160.8234     Y157.4254     R0.9000    
   X161.0371     Y157.5139     R0.9000    
(Pass: 7)
G1   Z0.700      F100 
G17 G2   X161.2664     Y157.5441     R0.9000     F200 
   X161.4958     Y157.5139     R0.9000    
   X161.5575     Y157.4884     R0.9000    
   X161.7095     Y157.4254     R0.9000    
   X161.8931     Y157.2845     R0.9000    
   X162.0339     Y157.1010     R0.9000    
   X162.1224     Y156.8873     R0.9000    
   X162.1526     Y156.6579     R0.9000    
   X162.1224     Y156.4285     R0.9000    
   X162.0339     Y156.2148     R0.9000    
   X161.8931     Y156.0313     R0.9000    
   X161.7095     Y155.8904     R0.9000    
   X161.5575     Y155.8275     R0.9000    
   X161.4958     Y155.8019     R0.9000    
   X161.2664     Y155.7717     R0.9000    
   X161.0371     Y155.8019     R0.9000    
   X160.8234     Y155.8904     R0.9000    
   X160.6398     Y156.0313     R0.9000    
   X160.4990     Y156.2148     R0.9000    
   X160.4105     Y156.4285     R0.9000    
   X160.3803     Y156.6579     R0.9000    
   X160.4105     Y156.8873     R0.9000    
   X160.4990     Y157.1010     R0.9000    
   X160.6398     Y157.2845     R0.9000    
   X160.8234     Y157.4254     R0.9000    
   X161.0371     Y157.5139     R0.9000    
(Pass: 8)
G1   Z0.000      F100 
G17 G2   X161.2664     Y157.5441     R0.9000     F200 
   X161.4958     Y157.5139     R0.9000    
   X161.5575     Y157.4884     R0.9000    
   X161.7095     Y157.4254     R0.9000    
   X161.8931     Y157.2845     R0.9000    
   X162.0339     Y157.1010     R0.9000    
   X162.1224     Y156.8873     R0.9000    
   X162.1526     Y156.6579     R0.9000    
   X162.1224     Y156.4285     R0.9000    
   X162.0339     Y156.2148     R0.9000    
   X161.8931     Y156.0313     R0.9000    
   X161.7095     Y155.8904     R0.9000    
   X161.5575     Y155.8275     R0.9000    
   X161.4958     Y155.8019     R0.9000    
   X161.2664     Y155.7717     R0.9000    
   X161.0371     Y155.8019     R0.9000    
   X160.8234     Y155.8904     R0.9000    
   X160.6398     Y156.0313     R0.9000    
   X160.4990     Y156.2148     R0.9000    
   X160.4105     Y156.4285     R0.9000    
   X160.3803     Y156.6579     R0.9000    
   X160.4105     Y156.8873     R0.9000    
   X160.4990     Y157.1010     R0.9000    
   X160.6398     Y157.2845     R0.9000    
   X160.8234     Y157.4254     R0.9000    
   X161.0371     Y157.5139     R0.9000    
G0   Z21.300    
(Pass: 1)
   X154.068      Y123.843   
G1   Z5.500      F100 
G17 G2   X154.5398     Y123.6480     R1.9685     F200 
   X154.9446     Y123.3374     R1.9685    
   X155.2553     Y122.9326     R1.9685    
   X155.4505     Y122.4611     R1.9685    
   X155.5171     Y121.9552     R1.9685    
   X155.4505     Y121.4493     R1.9685    
   X155.2553     Y120.9779     R1.9685    
   X154.9446     Y120.5730     R1.9685    
   X154.5398     Y120.2624     R1.9685    
   X154.0684     Y120.0671     R1.9685    
   X153.5625     Y120.0005     R1.9685    
   X153.0565     Y120.0671     R1.9685    
   X152.5851     Y120.2624     R1.9685    
   X152.1803     Y120.5730     R1.9685    
   X151.8696     Y120.9779     R1.9685    
   X151.6744     Y121.4493     R1.9685    
   X151.6078     Y121.9552     R1.9685    
   X151.6744     Y122.4611     R1.9685    
   X151.8696     Y122.9326     R1.9685    
   X152.1803     Y123.3374     R1.9685    
   X152.5851     Y123.6480     R1.9685    
   X153.0565     Y123.8433     R1.9685    
   X153.5625     Y123.9099     R1.9685    
   X154.0684     Y123.8433     R1.9685    
(Pass: 2)
G1   Z4.700      F100 
G17 G2   X154.5398     Y123.6480     R1.9685     F200 
   X154.9446     Y123.3374     R1.9685    
   X155.2553     Y122.9326     R1.9685    
   X155.4505     Y122.4611     R1.9685    
   X155.5171     Y121.9552     R1.9685    
   X155.4505     Y121.4493     R1.9685    
   X155.2553     Y120.9779     R1.9685    
   X154.9446     Y120.5730     R1.9685    
   X154.5398     Y120.2624     R1.9685    
   X154.0684     Y120.0671     R1.9685    
   X153.5625     Y120.0005     R1.9685    
   X153.0565     Y120.0671     R1.9685    
   X152.5851     Y120.2624     R1.9685    
   X152.1803     Y120.5730     R1.9685    
   X151.8696     Y120.9779     R1.9685    
   X151.6744     Y121.4493     R1.9685    
   X151.6078     Y121.9552     R1.9685    
   X151.6744     Y122.4611     R1.9685    
   X151.8696     Y122.9326     R1.9685    
   X152.1803     Y123.3374     R1.9685    
   X152.5851     Y123.6480     R1.9685    
   X153.0565     Y123.8433     R1.9685    
   X153.5625     Y123.9099     R1.9685    
   X154.0684     Y123.8433     R1.9685    
(Pass: 3)
G1   Z3.900      F100 
G17 G2   X154.5398     Y123.6480     R1.9685     F200 
   X154.9446     Y123.3374     R1.9685    
   X155.2553     Y122.9326     R1.9685    
   X155.4505     Y122.4611     R1.9685    
   X155.5171     Y121.9552     R1.9685    
   X155.4505     Y121.4493     R1.9685    
   X155.2553     Y120.9779     R1.9685    
   X154.9446     Y120.5730     R1.9685    
   X154.5398     Y120.2624     R1.9685    
   X154.0684     Y120.0671     R1.9685    
   X153.5625     Y120.0005     R1.9685    
   X153.0565     Y120.0671     R1.9685    
   X152.5851     Y120.2624     R1.9685    
   X152.1803     Y120.5730     R1.9685    
   X151.8696     Y120.9779     R1.9685    
   X151.6744     Y121.4493     R1.9685    
   X151.6078     Y121.9552     R1.9685    
   X151.6744     Y122.4611     R1.9685    
   X151.8696     Y122.9326     R1.9685    
   X152.1803     Y123.3374     R1.9685    
   X152.5851     Y123.6480     R1.9685    
   X153.0565     Y123.8433     R1.9685    
   X153.5625     Y123.9099     R1.9685    
   X154.0684     Y123.8433     R1.9685    
(Pass: 4)
G1   Z3.100      F100 
G17 G2   X154.5398     Y123.6480     R1.9685     F200 
   X154.9446     Y123.3374     R1.9685    
   X155.2553     Y122.9326     R1.9685    
   X155.4505     Y122.4611     R1.9685    
   X155.5171     Y121.9552     R1.9685    
   X155.4505     Y121.4493     R1.9685    
   X155.2553     Y120.9779     R1.9685    
   X154.9446     Y120.5730     R1.9685    
   X154.5398     Y120.2624     R1.9685    
   X154.0684     Y120.0671     R1.9685    
   X153.5625     Y120.0005     R1.9685    
   X153.0565     Y120.0671     R1.9685    
   X152.5851     Y120.2624     R1.9685    
   X152.1803     Y120.5730     R1.9685    
   X151.8696     Y120.9779     R1.9685    
   X151.6744     Y121.4493     R1.9685    
   X151.6078     Y121.9552     R1.9685    
   X151.6744     Y122.4611     R1.9685    
   X151.8696     Y122.9326     R1.9685    
   X152.1803     Y123.3374     R1.9685    
   X152.5851     Y123.6480     R1.9685    
   X153.0565     Y123.8433     R1.9685    
   X153.5625     Y123.9099     R1.9685    
   X154.0684     Y123.8433     R1.9685    
(Pass: 5)
G1   Z2.300      F100 
G17 G2   X154.5398     Y123.6480     R1.9685     F200 
   X154.9446     Y123.3374     R1.9685    
   X155.2553     Y122.9326     R1.9685    
   X155.4505     Y122.4611     R1.9685    
   X155.5171     Y121.9552     R1.9685    
   X155.4505     Y121.4493     R1.9685    
   X155.2553     Y120.9779     R1.9685    
   X154.9446     Y120.5730     R1.9685    
   X154.5398     Y120.2624     R1.9685    
   X154.0684     Y120.0671     R1.9685    
   X153.5625     Y120.0005     R1.9685    
   X153.0565     Y120.0671     R1.9685    
   X152.5851     Y120.2624     R1.9685    
   X152.1803     Y120.5730     R1.9685    
   X151.8696     Y120.9779     R1.9685    
   X151.6744     Y121.4493     R1.9685    
   X151.6078     Y121.9552     R1.9685    
   X151.6744     Y122.4611     R1.9685    
   X151.8696     Y122.9326     R1.9685    
   X152.1803     Y123.3374     R1.9685    
   X152.5851     Y123.6480     R1.9685    
   X153.0565     Y123.8433     R1.9685    
   X153.5625     Y123.9099     R1.9685    
   X154.0684     Y123.8433     R1.9685    
(Pass: 6)
G1   Z1.500      F100 
G17 G2   X154.5398     Y123.6480     R1.9685     F200 
   X154.9446     Y123.3374     R1.9685    
   X155.2553     Y122.9326     R1.9685    
   X155.4505     Y122.4611     R1.9685    
   X155.5171     Y121.9552     R1.9685    
   X155.4505     Y121.4493     R1.9685    
   X155.2553     Y120.9779     R1.9685    
   X154.9446     Y120.5730     R1.9685    
   X154.5398     Y120.2624     R1.9685    
   X154.0684     Y120.0671     R1.9685    
   X153.5625     Y120.0005     R1.9685    
   X153.0565     Y120.0671     R1.9685    
   X152.5851     Y120.2624     R1.9685    
   X152.1803     Y120.5730     R1.9685    
   X151.8696     Y120.9779     R1.9685    
   X151.6744     Y121.4493     R1.9685    
   X151.6078     Y121.9552     R1.9685    
   X151.6744     Y122.4611     R1.9685    
   X151.8696     Y122.9326     R1.9685    
   X152.1803     Y123.3374     R1.9685    
   X152.5851     Y123.6480     R1.9685    
   X153.0565     Y123.8433     R1.9685    
   X153.5625     Y123.9099     R1.9685    
   X154.0684     Y123.8433     R1.9685    
(Pass: 7)
G1   Z0.700      F100 
G17 G2   X154.5398     Y123.6480     R1.9685     F200 
   X154.9446     Y123.3374     R1.9685    
   X155.2553     Y122.9326     R1.9685    
   X155.4505     Y122.4611     R1.9685    
   X155.5171     Y121.9552     R1.9685    
   X155.4505     Y121.4493     R1.9685    
   X155.2553     Y120.9779     R1.9685    
   X154.9446     Y120.5730     R1.9685    
   X154.5398     Y120.2624     R1.9685    
   X154.0684     Y120.0671     R1.9685    
   X153.5625     Y120.0005     R1.9685    
   X153.0565     Y120.0671     R1.9685    
   X152.5851     Y120.2624     R1.9685    
   X152.1803     Y120.5730     R1.9685    
   X151.8696     Y120.9779     R1.9685    
   X151.6744     Y121.4493     R1.9685    
   X151.6078     Y121.9552     R1.9685    
   X151.6744     Y122.4611     R1.9685    
   X151.8696     Y122.9326     R1.9685    
   X152.1803     Y123.3374     R1.9685    
   X152.5851     Y123.6480     R1.9685    
   X153.0565     Y123.8433     R1.9685    
   X153.5625     Y123.9099     R1.9685    
   X154.0684     Y123.8433     R1.9685    
(Pass: 8)
G1   Z0.000      F100 
G17 G2   X154.5398     Y123.6480     R1.9685     F200 
   X154.9446     Y123.3374     R1.9685    
   X155.2553     Y122.9326     R1.9685    
   X155.4505     Y122.4611     R1.9685    
   X155.5171     Y121.9552     R1.9685    
   X155.4505     Y121.4493     R1.9685    
   X155.2553     Y120.9779     R1.9685    
   X154.9446     Y120.5730     R1.9685    
   X154.5398     Y120.2624     R1.9685    
   X154.0684     Y120.0671     R1.9685    
   X153.5625     Y120.0005     R1.9685    
   X153.0565     Y120.0671     R1.9685    
   X152.5851     Y120.2624     R1.9685    
   X152.1803     Y120.5730     R1.9685    
   X151.8696     Y120.9779     R1.9685    
   X151.6744     Y121.4493     R1.9685    
   X151.6078     Y121.9552     R1.9685    
   X151.6744     Y122.4611     R1.9685    
   X151.8696     Y122.9326     R1.9685    
   X152.1803     Y123.3374     R1.9685    
   X152.5851     Y123.6480     R1.9685    
   X153.0565     Y123.8433     R1.9685    
   X153.5625     Y123.9099     R1.9685    
   X154.0684     Y123.8433     R1.9685    
G0   Z21.300    
(Pass: 1)
   X130.315      Y245.335   
G1   Z5.500      F100 
G17 G2   X130.0297     Y245.2976     R1.1154     F200 
   X129.7445     Y245.3352     R1.1154    
   X129.4788     Y245.4452     R1.1154    
   X129.2507     Y245.6203     R1.1154    
   X129.0756     Y245.8484     R1.1154    
   X128.9656     Y246.1141     R1.1154    
   X128.9280     Y246.3993     R1.1154    
   X128.9656     Y246.6844     R1.1154    
   X129.0756     Y246.9501     R1.1154    
   X129.2507     Y247.1782     R1.1154    
   X129.4788     Y247.3533     R1.1154    
   X129.7445     Y247.4633     R1.1154    
   X130.0297     Y247.5009     R1.1154    
   X130.3148     Y247.4633     R1.1154    
   X130.5805     Y247.3533     R1.1154    
   X130.8086     Y247.1782     R1.1154    
   X130.9837     Y246.9501     R1.1154    
   X131.0938     Y246.6844     R1.1154    
   X131.1313     Y246.3993     R1.1154    
   X131.0938     Y246.1141     R1.1154    
   X130.9837     Y245.8484     R1.1154    
   X130.8086     Y245.6203     R1.1154    
   X130.5805     Y245.4452     R1.1154    
   X130.3148     Y245.3352     R1.1154    
(Pass: 2)
G1   Z4.700      F100 
G17 G2   X130.0297     Y245.2976     R1.1154     F200 
   X129.7445     Y245.3352     R1.1154    
   X129.4788     Y245.4452     R1.1154    
   X129.2507     Y245.6203     R1.1154    
   X129.0756     Y245.8484     R1.1154    
   X128.9656     Y246.1141     R1.1154    
   X128.9280     Y246.3993     R1.1154    
   X128.9656     Y246.6844     R1.1154    
   X129.0756     Y246.9501     R1.1154    
   X129.2507     Y247.1782     R1.1154    
   X129.4788     Y247.3533     R1.1154    
   X129.7445     Y247.4633     R1.1154    
   X130.0297     Y247.5009     R1.1154    
   X130.3148     Y247.4633     R1.1154    
   X130.5805     Y247.3533     R1.1154    
   X130.8086     Y247.1782     R1.1154    
   X130.9837     Y246.9501     R1.1154    
   X131.0938     Y246.6844     R1.1154    
   X131.1313     Y246.3993     R1.1154    
   X131.0938     Y246.1141     R1.1154    
   X130.9837     Y245.8484     R1.1154    
   X130.8086     Y245.6203     R1.1154    
   X130.5805     Y245.4452     R1.1154    
   X130.3148     Y245.3352     R1.1154    
(Pass: 3)
G1   Z3.900      F100 
G17 G2   X130.0297     Y245.2976     R1.1154     F200 
   X129.7445     Y245.3352     R1.1154    
   X129.4788     Y245.4452     R1.1154    
   X129.2507     Y245.6203     R1.1154    
   X129.0756     Y245.8484     R1.1154    
   X128.9656     Y246.1141     R1.1154    
   X128.9280     Y246.3993     R1.1154    
   X128.9656     Y246.6844     R1.1154    
   X129.0756     Y246.9501     R1.1154    
   X129.2507     Y247.1782     R1.1154    
   X129.4788     Y247.3533     R1.1154    
   X129.7445     Y247.4633     R1.1154    
   X130.0297     Y247.5009     R1.1154    
   X130.3148     Y247.4633     R1.1154    
   X130.5805     Y247.3533     R1.1154    
   X130.8086     Y247.1782     R1.1154    
   X130.9837     Y246.9501     R1.1154    
   X131.0938     Y246.6844     R1.1154    
   X131.1313     Y246.3993     R1.1154    
   X131.0938     Y246.1141     R1.1154    
   X130.9837     Y245.8484     R1.1154    
   X130.8086     Y245.6203     R1.1154    
   X130.5805     Y245.4452     R1.1154    
   X130.3148     Y245.3352     R1.1154    
(Pass: 4)
G1   Z3.100      F100 
G17 G2   X130.0297     Y245.2976     R1.1154     F200 
   X129.7445     Y245.3352     R1.1154    
   X129.4788     Y245.4452     R1.1154    
   X129.2507     Y245.6203     R1.1154    
   X129.0756     Y245.8484     R1.1154    
   X128.9656     Y246.1141     R1.1154    
   X128.9280     Y246.3993     R1.1154    
   X128.9656     Y246.6844     R1.1154    
   X129.0756     Y246.9501     R1.1154    
   X129.2507     Y247.1782     R1.1154    
   X129.4788     Y247.3533     R1.1154    
   X129.7445     Y247.4633     R1.1154    
   X130.0297     Y247.5009     R1.1154    
   X130.3148     Y247.4633     R1.1154    
   X130.5805     Y247.3533     R1.1154    
   X130.8086     Y247.1782     R1.1154    
   X130.9837     Y246.9501     R1.1154    
   X131.0938     Y246.6844     R1.1154    
   X131.1313     Y246.3993     R1.1154    
   X131.0938     Y246.1141     R1.1154    
   X130.9837     Y245.8484     R1.1154    
   X130.8086     Y245.6203     R1.1154    
   X130.5805     Y245.4452     R1.1154    
   X130.3148     Y245.3352     R1.1154    
(Pass: 5)
G1   Z2.300      F100 
G17 G2   X130.0297     Y245.2976     R1.1154     F200 
   X129.7445     Y245.3352     R1.1154    
   X129.4788     Y245.4452     R1.1154    
   X129.2507     Y245.6203     R1.1154    
   X129.0756     Y245.8484     R1.1154    
   X128.9656     Y246.1141     R1.1154    
   X128.9280     Y246.3993     R1.1154    
   X128.9656     Y246.6844     R1.1154    
   X129.0756     Y246.9501     R1.1154    
   X129.2507     Y247.1782     R1.1154    
   X129.4788     Y247.3533     R1.1154    
   X129.7445     Y247.4633     R1.1154    
   X130.0297     Y247.5009     R1.1154    
   X130.3148     Y247.4633     R1.1154    
   X130.5805     Y247.3533     R1.1154    
   X130.8086     Y247.1782     R1.1154    
   X130.9837     Y246.9501     R1.1154    
   X131.0938     Y246.6844     R1.1154    
   X131.1313     Y246.3993     R1.1154    
   X131.0938     Y246.1141     R1.1154    
   X130.9837     Y245.8484     R1.1154    
   X130.8086     Y245.6203     R1.1154    
   X130.5805     Y245.4452     R1.1154    
   X130.3148     Y245.3352     R1.1154    
(Pass: 6)
G1   Z1.500      F100 
G17 G2   X130.0297     Y245.2976     R1.1154     F200 
   X129.7445     Y245.3352     R1.1154    
   X129.4788     Y245.4452     R1.1154    
   X129.2507     Y245.6203     R1.1154    
   X129.0756     Y245.8484     R1.1154    
   X128.9656     Y246.1141     R1.1154    
   X128.9280     Y246.3993     R1.1154    
   X128.9656     Y246.6844     R1.1154    
   X129.0756     Y246.9501     R1.1154    
   X129.2507     Y247.1782     R1.1154    
   X129.4788     Y247.3533     R1.1154    
   X129.7445     Y247.4633     R1.1154    
   X130.0297     Y247.5009     R1.1154    
   X130.3148     Y247.4633     R1.1154    
   X130.5805     Y247.3533     R1.1154    
   X130.8086     Y247.1782     R1.1154    
   X130.9837     Y246.9501     R1.1154    
   X131.0938     Y246.6844     R1.1154    
   X131.1313     Y246.3993     R1.1154    
   X131.0938     Y246.1141     R1.1154    
   X130.9837     Y245.8484     R1.1154    
   X130.8086     Y245.6203     R1.1154    
   X130.5805     Y245.4452     R1.1154    
   X130.3148     Y245.3352     R1.1154    
(Pass: 7)
G1   Z0.700      F100 
G17 G2   X130.0297     Y245.2976     R1.1154     F200 
   X129.7445     Y245.3352     R1.1154    
   X129.4788     Y245.4452     R1.1154    
   X129.2507     Y245.6203     R1.1154    
   X129.0756     Y245.8484     R1.1154    
   X128.9656     Y246.1141     R1.1154    
   X128.9280     Y246.3993     R1.1154    
   X128.9656     Y246.6844     R1.1154    
   X129.0756     Y246.9501     R1.1154    
   X129.2507     Y247.1782     R1.1154    
   X129.4788     Y247.3533     R1.1154    
   X129.7445     Y247.4633     R1.1154    
   X130.0297     Y247.5009     R1.1154    
   X130.3148     Y247.4633     R1.1154    
   X130.5805     Y247.3533     R1.1154    
   X130.8086     Y247.1782     R1.1154    
   X130.9837     Y246.9501     R1.1154    
   X131.0938     Y246.6844     R1.1154    
   X131.1313     Y246.3993     R1.1154    
   X131.0938     Y246.1141     R1.1154    
   X130.9837     Y245.8484     R1.1154    
   X130.8086     Y245.6203     R1.1154    
   X130.5805     Y245.4452     R1.1154    
   X130.3148     Y245.3352     R1.1154    
(Pass: 8)
G1   Z0.000      F100 
G17 G2   X130.0297     Y245.2976     R1.1154     F200 
   X129.7445     Y245.3352     R1.1154    
   X129.4788     Y245.4452     R1.1154    
   X129.2507     Y245.6203     R1.1154    
   X129.0756     Y245.8484     R1.1154    
   X128.9656     Y246.1141     R1.1154    
   X128.9280     Y246.3993     R1.1154    
   X128.9656     Y246.6844     R1.1154    
   X129.0756     Y246.9501     R1.1154    
   X129.2507     Y247.1782     R1.1154    
   X129.4788     Y247.3533     R1.1154    
   X129.7445     Y247.4633     R1.1154    
   X130.0297     Y247.5009     R1.1154    
   X130.3148     Y247.4633     R1.1154    
   X130.5805     Y247.3533     R1.1154    
