%
(Generated by SketchUcam {1.2})
(File: Router Plates.skp)
(Bit diameter: 3.2mm)
(Feed rate: 300.0mm/min)
(Plunge Feed rate: 100.0mm/min)
(Material Thickness: 6.3mm)
(Material length: 304.0mm X width: 608.0mm)
(Overhead Gantry: true)
(Retract feed rate NOT limited to plunge feed rate)
(Multipass enabled, Depth = 1.0mm)
(Optimization is ON)
(Z ZERO IS TABLETOP)
(www.PhlatBoyz.com)
G90 G21 G49 
M3 S15000
G0   Z21.300    
(Pass: 1)
   X29.828       Y21.443    
G1   Z5.300      F100 
G17 G3   X29.6331      Y21.9143      R1.9685     F300 
G1   X30.139       Y21.038    
G17 G3   X29.8284      Y21.4429      R1.9685    
G1   X30.544       Y20.727    
G17 G3   X30.1390      Y21.0380      R1.9685    
G1   X31.015       Y20.532    
G17 G3   X30.5438      Y20.7274      R1.9685    
G1   X31.521       Y20.466    
G17 G3   X31.0153      Y20.5321      R1.9685    
G1   X32.027    
G17 G3   X31.5212      Y20.4655      R1.9685    
G1   X32.499       Y20.727    
G17 G3   X32.0271      Y20.5321      R1.9685    
G1   X32.903       Y21.038    
G17 G3   X32.4985      Y20.7274      R1.9685    
G1   X33.214       Y21.443    
G17 G3   X32.9034      Y21.0380      R1.9685    
G1   X33.409       Y21.914    
G17 G3   X33.2140      Y21.4429      R1.9685    
G1   X33.476       Y22.420    
G17 G3   X33.4093      Y21.9143      R1.9685    
G1   Y22.926    
G17 G3   X33.4759      Y22.4202      R1.9685    
G1   X33.214       Y23.398    
G17 G3   X33.4093      Y22.9261      R1.9685    
G1   X32.903       Y23.802    
G17 G3   X33.2140      Y23.3976      R1.9685    
G1   X32.499       Y24.113    
G17 G3   X32.9034      Y23.8024      R1.9685    
G1   X32.027       Y24.308    
G17 G3   X32.4985      Y24.1130      R1.9685    
G1   X31.521       Y24.375    
G17 G3   X32.0271      Y24.3083      R1.9685    
G1   X31.015    
G17 G3   X31.5212      Y24.3749      R1.9685    
G1   X30.544       Y24.113    
G17 G3   X31.0153      Y24.3083      R1.9685    
G1   X30.139       Y23.802    
G17 G3   X30.5438      Y24.1130      R1.9685    
G1   X29.828       Y23.398    
G17 G3   X30.1390      Y23.8024      R1.9685    
G1   X29.633       Y22.926    
G17 G3   X29.8284      Y23.3976      R1.9685    
G1   X29.566       Y22.420    
G17 G3   X29.6331      Y22.9261      R1.9685    
G1   Y21.914    
G17 G3   X29.5665      Y22.4202      R1.9685    
(Pass: 2)
G1   X29.828       Y21.443    
   Z4.300      F100 
G17 G3   X29.6331      Y21.9143      R1.9685     F300 
G1   X30.139       Y21.038    
G17 G3   X29.8284      Y21.4429      R1.9685    
G1   X30.544       Y20.727    
G17 G3   X30.1390      Y21.0380      R1.9685    
G1   X31.015       Y20.532    
G17 G3   X30.5438      Y20.7274      R1.9685    
G1   X31.521       Y20.466    
G17 G3   X31.0153      Y20.5321      R1.9685    
G1   X32.027    
G17 G3   X31.5212      Y20.4655      R1.9685    
G1   X32.499       Y20.727    
G17 G3   X32.0271      Y20.5321      R1.9685    
G1   X32.903       Y21.038    
G17 G3   X32.4985      Y20.7274      R1.9685    
G1   X33.214       Y21.443    
G17 G3   X32.9034      Y21.0380      R1.9685    
G1   X33.409       Y21.914    
G17 G3   X33.2140      Y21.4429      R1.9685    
G1   X33.476       Y22.420    
G17 G3   X33.4093      Y21.9143      R1.9685    
G1   Y22.926    
G17 G3   X33.4759      Y22.4202      R1.9685    
G1   X33.214       Y23.398    
G17 G3   X33.4093      Y22.9261      R1.9685    
G1   X32.903       Y23.802    
G17 G3   X33.2140      Y23.3976      R1.9685    
G1   X32.499       Y24.113    
G17 G3   X32.9034      Y23.8024      R1.9685    
G1   X32.027       Y24.308    
G17 G3   X32.4985      Y24.1130      R1.9685    
G1   X31.521       Y24.375    
G17 G3   X32.0271      Y24.3083      R1.9685    
G1   X31.015    
G17 G3   X31.5212      Y24.3749      R1.9685    
G1   X30.544       Y24.113    
G17 G3   X31.0153      Y24.3083      R1.9685    
G1   X30.139       Y23.802    
G17 G3   X30.5438      Y24.1130      R1.9685    
G1   X29.828       Y23.398    
G17 G3   X30.1390      Y23.8024      R1.9685    
G1   X29.633       Y22.926    
G17 G3   X29.8284      Y23.3976      R1.9685    
G1   X29.566       Y22.420    
G17 G3   X29.6331      Y22.9261      R1.9685    
G1   Y21.914    
G17 G3   X29.5665      Y22.4202      R1.9685    
(Pass: 3)
G1   X29.828       Y21.443    
   Z3.300      F100 
G17 G3   X29.6331      Y21.9143      R1.9685     F300 
G1   X30.139       Y21.038    
G17 G3   X29.8284      Y21.4429      R1.9685    
G1   X30.544       Y20.727    
G17 G3   X30.1390      Y21.0380      R1.9685    
G1   X31.015       Y20.532    
G17 G3   X30.5438      Y20.7274      R1.9685    
G1   X31.521       Y20.466    
G17 G3   X31.0153      Y20.5321      R1.9685    
G1   X32.027    
G17 G3   X31.5212      Y20.4655      R1.9685    
G1   X32.499       Y20.727    
G17 G3   X32.0271      Y20.5321      R1.9685    
G1   X32.903       Y21.038    
G17 G3   X32.4985      Y20.7274      R1.9685    
G1   X33.214       Y21.443    
G17 G3   X32.9034      Y21.0380      R1.9685    
G1   X33.409       Y21.914    
G17 G3   X33.2140      Y21.4429      R1.9685    
G1   X33.476       Y22.420    
G17 G3   X33.4093      Y21.9143      R1.9685    
G1   Y22.926    
G17 G3   X33.4759      Y22.4202      R1.9685    
G1   X33.214       Y23.398    
G17 G3   X33.4093      Y22.9261      R1.9685    
G1   X32.903       Y23.802    
G17 G3   X33.2140      Y23.3976      R1.9685    
G1   X32.499       Y24.113    
G17 G3   X32.9034      Y23.8024      R1.9685    
G1   X32.027       Y24.308    
G17 G3   X32.4985      Y24.1130      R1.9685    
G1   X31.521       Y24.375    
G17 G3   X32.0271      Y24.3083      R1.9685    
G1   X31.015    
G17 G3   X31.5212      Y24.3749      R1.9685    
G1   X30.544       Y24.113    
G17 G3   X31.0153      Y24.3083      R1.9685    
G1   X30.139       Y23.802    
G17 G3   X30.5438      Y24.1130      R1.9685    
G1   X29.828       Y23.398    
G17 G3   X30.1390      Y23.8024      R1.9685    
G1   X29.633       Y22.926    
G17 G3   X29.8284      Y23.3976      R1.9685    
G1   X29.566       Y22.420    
G17 G3   X29.6331      Y22.9261      R1.9685    
G1   Y21.914    
G17 G3   X29.5665      Y22.4202      R1.9685    
(Pass: 4)
G1   X29.828       Y21.443    
   Z2.300      F100 
G17 G3   X29.6331      Y21.9143      R1.9685     F300 
G1   X30.139       Y21.038    
G17 G3   X29.8284      Y21.4429      R1.9685    
G1   X30.544       Y20.727    
G17 G3   X30.1390      Y21.0380      R1.9685    
G1   X31.015       Y20.532    
G17 G3   X30.5438      Y20.7274      R1.9685    
G1   X31.521       Y20.466    
G17 G3   X31.0153      Y20.5321      R1.9685    
G1   X32.027    
G17 G3   X31.5212      Y20.4655      R1.9685    
G1   X32.499       Y20.727    
G17 G3   X32.0271      Y20.5321      R1.9685    
G1   X32.903       Y21.038    
G17 G3   X32.4985      Y20.7274      R1.9685    
G1   X33.214       Y21.443    
G17 G3   X32.9034      Y21.0380      R1.9685    
G1   X33.409       Y21.914    
G17 G3   X33.2140      Y21.4429      R1.9685    
G1   X33.476       Y22.420    
G17 G3   X33.4093      Y21.9143      R1.9685    
G1   Y22.926    
G17 G3   X33.4759      Y22.4202      R1.9685    
G1   X33.214       Y23.398    
G17 G3   X33.4093      Y22.9261      R1.9685    
G1   X32.903       Y23.802    
G17 G3   X33.2140      Y23.3976      R1.9685    
G1   X32.499       Y24.113    
G17 G3   X32.9034      Y23.8024      R1.9685    
G1   X32.027       Y24.308    
G17 G3   X32.4985      Y24.1130      R1.9685    
G1   X31.521       Y24.375    
G17 G3   X32.0271      Y24.3083      R1.9685    
G1   X31.015    
G17 G3   X31.5212      Y24.3749      R1.9685    
G1   X30.544       Y24.113    
G17 G3   X31.0153      Y24.3083      R1.9685    
G1   X30.139       Y23.802    
G17 G3   X30.5438      Y24.1130      R1.9685    
G1   X29.828       Y23.398    
G17 G3   X30.1390      Y23.8024      R1.9685    
G1   X29.633       Y22.926    
G17 G3   X29.8284      Y23.3976      R1.9685    
G1   X29.566       Y22.420    
G17 G3   X29.6331      Y22.9261      R1.9685    
G1   Y21.914    
G17 G3   X29.5665      Y22.4202      R1.9685    
(Pass: 5)
G1   X29.828       Y21.443    
   Z1.300      F100 
G17 G3   X29.6331      Y21.9143      R1.9685     F300 
G1   X30.139       Y21.038    
G17 G3   X29.8284      Y21.4429      R1.9685    
G1   X30.544       Y20.727    
G17 G3   X30.1390      Y21.0380      R1.9685    
G1   X31.015       Y20.532    
G17 G3   X30.5438      Y20.7274      R1.9685    
G1   X31.521       Y20.466    
G17 G3   X31.0153      Y20.5321      R1.9685    
G1   X32.027    
G17 G3   X31.5212      Y20.4655      R1.9685    
G1   X32.499       Y20.727    
G17 G3   X32.0271      Y20.5321      R1.9685    
G1   X32.903       Y21.038    
G17 G3   X32.4985      Y20.7274      R1.9685    
G1   X33.214       Y21.443    
G17 G3   X32.9034      Y21.0380      R1.9685    
G1   X33.409       Y21.914    
G17 G3   X33.2140      Y21.4429      R1.9685    
G1   X33.476       Y22.420    
G17 G3   X33.4093      Y21.9143      R1.9685    
G1   Y22.926    
G17 G3   X33.4759      Y22.4202      R1.9685    
G1   X33.214       Y23.398    
G17 G3   X33.4093      Y22.9261      R1.9685    
G1   X32.903       Y23.802    
G17 G3   X33.2140      Y23.3976      R1.9685    
G1   X32.499       Y24.113    
G17 G3   X32.9034      Y23.8024      R1.9685    
G1   X32.027       Y24.308    
G17 G3   X32.4985      Y24.1130      R1.9685    
G1   X31.521       Y24.375    
G17 G3   X32.0271      Y24.3083      R1.9685    
G1   X31.015    
G17 G3   X31.5212      Y24.3749      R1.9685    
G1   X30.544       Y24.113    
G17 G3   X31.0153      Y24.3083      R1.9685    
G1   X30.139       Y23.802    
G17 G3   X30.5438      Y24.1130      R1.9685    
G1   X29.828       Y23.398    
G17 G3   X30.1390      Y23.8024      R1.9685    
G1   X29.633       Y22.926    
G17 G3   X29.8284      Y23.3976      R1.9685    
G1   X29.566       Y22.420    
G17 G3   X29.6331      Y22.9261      R1.9685    
G1   Y21.914    
G17 G3   X29.5665      Y22.4202      R1.9685    
(Pass: 6)
G1   X29.828       Y21.443    
   Z0.300      F100 
G17 G3   X29.6331      Y21.9143      R1.9685     F300 
G1   X30.139       Y21.038    
G17 G3   X29.8284      Y21.4429      R1.9685    
G1   X30.544       Y20.727    
G17 G3   X30.1390      Y21.0380      R1.9685    
G1   X31.015       Y20.532    
G17 G3   X30.5438      Y20.7274      R1.9685    
G1   X31.521       Y20.466    
G17 G3   X31.0153      Y20.5321      R1.9685    
G1   X32.027    
G17 G3   X31.5212      Y20.4655      R1.9685    
G1   X32.499       Y20.727    
G17 G3   X32.0271      Y20.5321      R1.9685    
G1   X32.903       Y21.038    
G17 G3   X32.4985      Y20.7274      R1.9685    
G1   X33.214       Y21.443    
G17 G3   X32.9034      Y21.0380      R1.9685    
G1   X33.409       Y21.914    
G17 G3   X33.2140      Y21.4429      R1.9685    
G1   X33.476       Y22.420    
G17 G3   X33.4093      Y21.9143      R1.9685    
G1   Y22.926    
G17 G3   X33.4759      Y22.4202      R1.9685    
G1   X33.214       Y23.398    
G17 G3   X33.4093      Y22.9261      R1.9685    
G1   X32.903       Y23.802    
G17 G3   X33.2140      Y23.3976      R1.9685    
G1   X32.499       Y24.113    
G17 G3   X32.9034      Y23.8024      R1.9685    
G1   X32.027       Y24.308    
G17 G3   X32.4985      Y24.1130      R1.9685    
G1   X31.521       Y24.375    
G17 G3   X32.0271      Y24.3083      R1.9685    
G1   X31.015    
G17 G3   X31.5212      Y24.3749      R1.9685    
G1   X30.544       Y24.113    
G17 G3   X31.0153      Y24.3083      R1.9685    
G1   X30.139       Y23.802    
G17 G3   X30.5438      Y24.1130      R1.9685    
G1   X29.828       Y23.398    
G17 G3   X30.1390      Y23.8024      R1.9685    
G1   X29.633       Y22.926    
G17 G3   X29.8284      Y23.3976      R1.9685    
G1   X29.566       Y22.420    
G17 G3   X29.6331      Y22.9261      R1.9685    
G1   Y21.914    
G17 G3   X29.5665      Y22.4202      R1.9685    
(Pass: 7)
G1   X29.828       Y21.443    
   Z0.000      F100 
G17 G3   X29.6331      Y21.9143      R1.9685     F300 
G1   X30.139       Y21.038    
G17 G3   X29.8284      Y21.4429      R1.9685    
G1   X30.544       Y20.727    
G17 G3   X30.1390      Y21.0380      R1.9685    
G1   X31.015       Y20.532    
G17 G3   X30.5438      Y20.7274      R1.9685    
G1   X31.521       Y20.466    
G17 G3   X31.0153      Y20.5321      R1.9685    
G1   X32.027    
G17 G3   X31.5212      Y20.4655      R1.9685    
G1   X32.499       Y20.727    
G17 G3   X32.0271      Y20.5321      R1.9685    
G1   X32.903       Y21.038    
G17 G3   X32.4985      Y20.7274      R1.9685    
G1   X33.214       Y21.443    
G17 G3   X32.9034      Y21.0380      R1.9685    
G1   X33.409       Y21.914    
G17 G3   X33.2140      Y21.4429      R1.9685    
G1   X33.476       Y22.420    
G17 G3   X33.4093      Y21.9143      R1.9685    
G1   Y22.926    
G17 G3   X33.4759      Y22.4202      R1.9685    
G1   X33.214       Y23.398    
G17 G3   X33.4093      Y22.9261      R1.9685    
G1   X32.903       Y23.802    
G17 G3   X33.2140      Y23.3976      R1.9685    
G1   X32.499       Y24.113    
G17 G3   X32.9034      Y23.8024      R1.9685    
G1   X32.027       Y24.308    
G17 G3   X32.4985      Y24.1130      R1.9685    
G1   X31.521       Y24.375    
G17 G3   X32.0271      Y24.3083      R1.9685    
G1   X31.015    
G17 G3   X31.5212      Y24.3749      R1.9685    
G1   X30.544       Y24.113    
G17 G3   X31.0153      Y24.3083      R1.9685    
G1   X30.139       Y23.802    
G17 G3   X30.5438      Y24.1130      R1.9685    
G1   X29.828       Y23.398    
G17 G3   X30.1390      Y23.8024      R1.9685    
G1   X29.633       Y22.926    
G17 G3   X29.8284      Y23.3976      R1.9685    
G1   X29.566       Y22.420    
G17 G3   X29.6331      Y22.9261      R1.9685    
G1   Y21.914    
G17 G3   X29.5665      Y22.4202      R1.9685    
G0   Z21.300    
(Pass: 1)
   X22.264       Y31.957    
G1   Z5.300      F100 
G17 G3   X22.0504      Y31.8689      R0.9000     F300 
G1   X22.448       Y32.098    
G17 G3   X22.2641      Y31.9574      R0.9000    
G1   X22.589       Y32.282    
G17 G3   X22.4477      Y32.0983      R0.9000    
G1   X22.677       Y32.496    
G17 G3   X22.5885      Y32.2818      R0.9000    
G1   X22.707       Y32.725    
G17 G3   X22.6770      Y32.4955      R0.9000    
G1   Y32.954    
G17 G3   X22.7072      Y32.7249      R0.9000    
G1   X22.589       Y33.168    
G17 G3   X22.6770      Y32.9543      R0.9000    
G1   X22.448       Y33.352    
G17 G3   X22.5885      Y33.1680      R0.9000    
G1   X22.264       Y33.492    
G17 G3   X22.4477      Y33.3515      R0.9000    
G1   X22.050       Y33.581    
G17 G3   X22.2641      Y33.4924      R0.9000    
G1   X21.821       Y33.611    
G17 G3   X22.0504      Y33.5809      R0.9000    
G1   X21.592    
G17 G3   X21.8210      Y33.6111      R0.9000    
G1   X21.378       Y33.492    
G17 G3   X21.5917      Y33.5809      R0.9000    
G1   X21.194       Y33.352    
G17 G3   X21.3779      Y33.4924      R0.9000    
G1   X21.054       Y33.168    
G17 G3   X21.1944      Y33.3515      R0.9000    
G1   X20.965       Y32.954    
G17 G3   X21.0536      Y33.1680      R0.9000    
G1   X20.935       Y32.725    
G17 G3   X20.9650      Y32.9543      R0.9000    
G1   Y32.496    
G17 G3   X20.9348      Y32.7249      R0.9000    
G1   X21.054       Y32.282    
G17 G3   X20.9650      Y32.4955      R0.9000    
G1   X21.194       Y32.098    
G17 G3   X21.0536      Y32.2818      R0.9000    
G1   X21.378       Y31.957    
G17 G3   X21.1944      Y32.0983      R0.9000    
G1   X21.592       Y31.869    
G17 G3   X21.3779      Y31.9574      R0.9000    
G1   X21.821       Y31.839    
G17 G3   X21.5917      Y31.8689      R0.9000    
G1   X22.050    
G17 G3   X21.8210      Y31.8387      R0.9000    
(Pass: 2)
G1   X22.264       Y31.957    
   Z4.300      F100 
G17 G3   X22.0504      Y31.8689      R0.9000     F300 
G1   X22.448       Y32.098    
G17 G3   X22.2641      Y31.9574      R0.9000    
G1   X22.589       Y32.282    
G17 G3   X22.4477      Y32.0983      R0.9000    
G1   X22.677       Y32.496    
G17 G3   X22.5885      Y32.2818      R0.9000    
G1   X22.707       Y32.725    
G17 G3   X22.6770      Y32.4955      R0.9000    
G1   Y32.954    
G17 G3   X22.7072      Y32.7249      R0.9000    
G1   X22.589       Y33.168    
G17 G3   X22.6770      Y32.9543      R0.9000    
G1   X22.448       Y33.352    
G17 G3   X22.5885      Y33.1680      R0.9000    
G1   X22.264       Y33.492    
G17 G3   X22.4477      Y33.3515      R0.9000    
G1   X22.050       Y33.581    
G17 G3   X22.2641      Y33.4924      R0.9000    
G1   X21.821       Y33.611    
G17 G3   X22.0504      Y33.5809      R0.9000    
G1   X21.592    
G17 G3   X21.8210      Y33.6111      R0.9000    
G1   X21.378       Y33.492    
G17 G3   X21.5917      Y33.5809      R0.9000    
G1   X21.194       Y33.352    
G17 G3   X21.3779      Y33.4924      R0.9000    
G1   X21.054       Y33.168    
G17 G3   X21.1944      Y33.3515      R0.9000    
G1   X20.965       Y32.954    
G17 G3   X21.0536      Y33.1680      R0.9000    
G1   X20.935       Y32.725    
G17 G3   X20.9650      Y32.9543      R0.9000    
G1   Y32.496    
G17 G3   X20.9348      Y32.7249      R0.9000    
G1   X21.054       Y32.282    
G17 G3   X20.9650      Y32.4955      R0.9000    
G1   X21.194       Y32.098    
G17 G3   X21.0536      Y32.2818      R0.9000    
G1   X21.378       Y31.957    
G17 G3   X21.1944      Y32.0983      R0.9000    
G1   X21.592       Y31.869    
G17 G3   X21.3779      Y31.9574      R0.9000    
G1   X21.821       Y31.839    
G17 G3   X21.5917      Y31.8689      R0.9000    
G1   X22.050    
G17 G3   X21.8210      Y31.8387      R0.9000    
(Pass: 3)
G1   X22.264       Y31.957    
   Z3.300      F100 
G17 G3   X22.0504      Y31.8689      R0.9000     F300 
G1   X22.448       Y32.098    
G17 G3   X22.2641      Y31.9574      R0.9000    
G1   X22.589       Y32.282    
G17 G3   X22.4477      Y32.0983      R0.9000    
G1   X22.677       Y32.496    
G17 G3   X22.5885      Y32.2818      R0.9000    
G1   X22.707       Y32.725    
G17 G3   X22.6770      Y32.4955      R0.9000    
G1   Y32.954    
G17 G3   X22.7072      Y32.7249      R0.9000    
G1   X22.589       Y33.168    
G17 G3   X22.6770      Y32.9543      R0.9000    
G1   X22.448       Y33.352    
G17 G3   X22.5885      Y33.1680      R0.9000    
G1   X22.264       Y33.492    
G17 G3   X22.4477      Y33.3515      R0.9000    
G1   X22.050       Y33.581    
G17 G3   X22.2641      Y33.4924      R0.9000    
G1   X21.821       Y33.611    
G17 G3   X22.0504      Y33.5809      R0.9000    
G1   X21.592    
G17 G3   X21.8210      Y33.6111      R0.9000    
G1   X21.378       Y33.492    
G17 G3   X21.5917      Y33.5809      R0.9000    
G1   X21.194       Y33.352    
G17 G3   X21.3779      Y33.4924      R0.9000    
G1   X21.054       Y33.168    
G17 G3   X21.1944      Y33.3515      R0.9000    
G1   X20.965       Y32.954    
G17 G3   X21.0536      Y33.1680      R0.9000    
G1   X20.935       Y32.725    
G17 G3   X20.9650      Y32.9543      R0.9000    
G1   Y32.496    
G17 G3   X20.9348      Y32.7249      R0.9000    
G1   X21.054       Y32.282    
G17 G3   X20.9650      Y32.4955      R0.9000    
G1   X21.194       Y32.098    
G17 G3   X21.0536      Y32.2818      R0.9000    
G1   X21.378       Y31.957    
G17 G3   X21.1944      Y32.0983      R0.9000    
G1   X21.592       Y31.869    
G17 G3   X21.3779      Y31.9574      R0.9000    
G1   X21.821       Y31.839    
G17 G3   X21.5917      Y31.8689      R0.9000    
G1   X22.050    
G17 G3   X21.8210      Y31.8387      R0.9000    
(Pass: 4)
G1   X22.264       Y31.957    
   Z2.300      F100 
G17 G3   X22.0504      Y31.8689      R0.9000     F300 
G1   X22.448       Y32.098    
G17 G3   X22.2641      Y31.9574      R0.9000    
G1   X22.589       Y32.282    
G17 G3   X22.4477      Y32.0983      R0.9000    
G1   X22.677       Y32.496    
G17 G3   X22.5885      Y32.2818      R0.9000    
G1   X22.707       Y32.725    
G17 G3   X22.6770      Y32.4955      R0.9000    
G1   Y32.954    
G17 G3   X22.7072      Y32.7249      R0.9000    
G1   X22.589       Y33.168    
G17 G3   X22.6770      Y32.9543      R0.9000    
G1   X22.448       Y33.352    
G17 G3   X22.5885      Y33.1680      R0.9000    
G1   X22.264       Y33.492    
G17 G3   X22.4477      Y33.3515      R0.9000    
G1   X22.050       Y33.581    
G17 G3   X22.2641      Y33.4924      R0.9000    
G1   X21.821       Y33.611    
G17 G3   X22.0504      Y33.5809      R0.9000    
G1   X21.592    
G17 G3   X21.8210      Y33.6111      R0.9000    
G1   X21.378       Y33.492    
G17 G3   X21.5917      Y33.5809      R0.9000    
G1   X21.194       Y33.352    
G17 G3   X21.3779      Y33.4924      R0.9000    
G1   X21.054       Y33.168    
G17 G3   X21.1944      Y33.3515      R0.9000    
G1   X20.965       Y32.954    
G17 G3   X21.0536      Y33.1680      R0.9000    
G1   X20.935       Y32.725    
G17 G3   X20.9650      Y32.9543      R0.9000    
G1   Y32.496    
G17 G3   X20.9348      Y32.7249      R0.9000    
G1   X21.054       Y32.282    
G17 G3   X20.9650      Y32.4955      R0.9000    
G1   X21.194       Y32.098    
G17 G3   X21.0536      Y32.2818      R0.9000    
G1   X21.378       Y31.957    
G17 G3   X21.1944      Y32.0983      R0.9000    
G1   X21.592       Y31.869    
G17 G3   X21.3779      Y31.9574      R0.9000    
G1   X21.821       Y31.839    
G17 G3   X21.5917      Y31.8689      R0.9000    
G1   X22.050    
G17 G3   X21.8210      Y31.8387      R0.9000    
(Pass: 5)
G1   X22.264       Y31.957    
   Z1.300      F100 
G17 G3   X22.0504      Y31.8689      R0.9000     F300 
G1   X22.448       Y32.098    
G17 G3   X22.2641      Y31.9574      R0.9000    
G1   X22.589       Y32.282    
G17 G3   X22.4477      Y32.0983      R0.9000    
G1   X22.677       Y32.496    
G17 G3   X22.5885      Y32.2818      R0.9000    
G1   X22.707       Y32.725    
G17 G3   X22.6770      Y32.4955      R0.9000    
G1   Y32.954    
G17 G3   X22.7072      Y32.7249      R0.9000    
G1   X22.589       Y33.168    
G17 G3   X22.6770      Y32.9543      R0.9000    
G1   X22.448       Y33.352    
G17 G3   X22.5885      Y33.1680      R0.9000    
G1   X22.264       Y33.492    
G17 G3   X22.4477      Y33.3515      R0.9000    
G1   X22.050       Y33.581    
G17 G3   X22.2641      Y33.4924      R0.9000    
G1   X21.821       Y33.611    
G17 G3   X22.0504      Y33.5809      R0.9000    
G1   X21.592    
G17 G3   X21.8210      Y33.6111      R0.9000    
G1   X21.378       Y33.492    
G17 G3   X21.5917      Y33.5809      R0.9000    
G1   X21.194       Y33.352    
G17 G3   X21.3779      Y33.4924      R0.9000    
G1   X21.054       Y33.168    
G17 G3   X21.1944      Y33.3515      R0.9000    
G1   X20.965       Y32.954    
G17 G3   X21.0536      Y33.1680      R0.9000    
G1   X20.935       Y32.725    
G17 G3   X20.9650      Y32.9543      R0.9000    
G1   Y32.496    
G17 G3   X20.9348      Y32.7249      R0.9000    
G1   X21.054       Y32.282    
G17 G3   X20.9650      Y32.4955      R0.9000    
G1   X21.194       Y32.098    
G17 G3   X21.0536      Y32.2818      R0.9000    
G1   X21.378       Y31.957    
G17 G3   X21.1944      Y32.0983      R0.9000    
G1   X21.592       Y31.869    
G17 G3   X21.3779      Y31.9574      R0.9000    
G1   X21.821       Y31.839    
G17 G3   X21.5917      Y31.8689      R0.9000    
G1   X22.050    
G17 G3   X21.8210      Y31.8387      R0.9000    
(Pass: 6)
G1   X22.264       Y31.957    
   Z0.300      F100 
G17 G3   X22.0504      Y31.8689      R0.9000     F300 
G1   X22.448       Y32.098    
G17 G3   X22.2641      Y31.9574      R0.9000    
G1   X22.589       Y32.282    
G17 G3   X22.4477      Y32.0983      R0.9000    
G1   X22.677       Y32.496    
G17 G3   X22.5885      Y32.2818      R0.9000    
G1   X22.707       Y32.725    
G17 G3   X22.6770      Y32.4955      R0.9000    
G1   Y32.954    
G17 G3   X22.7072      Y32.7249      R0.9000    
G1   X22.589       Y33.168    
G17 G3   X22.6770      Y32.9543      R0.9000    
G1   X22.448       Y33.352    
G17 G3   X22.5885      Y33.1680      R0.9000    
G1   X22.264       Y33.492    
G17 G3   X22.4477      Y33.3515      R0.9000    
G1   X22.050       Y33.581    
G17 G3   X22.2641      Y33.4924      R0.9000    
G1   X21.821       Y33.611    
G17 G3   X22.0504      Y33.5809      R0.9000    
G1   X21.592    
G17 G3   X21.8210      Y33.6111      R0.9000    
G1   X21.378       Y33.492    
G17 G3   X21.5917      Y33.5809      R0.9000    
G1   X21.194       Y33.352    
G17 G3   X21.3779      Y33.4924      R0.9000    
G1   X21.054       Y33.168    
G17 G3   X21.1944      Y33.3515      R0.9000    
G1   X20.965       Y32.954    
G17 G3   X21.0536      Y33.1680      R0.9000    
G1   X20.935       Y32.725    
G17 G3   X20.9650      Y32.9543      R0.9000    
G1   Y32.496    
G17 G3   X20.9348      Y32.7249      R0.9000    
G1   X21.054       Y32.282    
G17 G3   X20.9650      Y32.4955      R0.9000    
G1   X21.194       Y32.098    
G17 G3   X21.0536      Y32.2818      R0.9000    
G1   X21.378       Y31.957    
G17 G3   X21.1944      Y32.0983      R0.9000    
G1   X21.592       Y31.869    
G17 G3   X21.3779      Y31.9574      R0.9000    
G1   X21.821       Y31.839    
G17 G3   X21.5917      Y31.8689      R0.9000    
G1   X22.050    
G17 G3   X21.8210      Y31.8387      R0.9000    
(Pass: 7)
G1   X22.264       Y31.957    
   Z0.000      F100 
G17 G3   X22.0504      Y31.8689      R0.9000     F300 
G1   X22.448       Y32.098    
G17 G3   X22.2641      Y31.9574      R0.9000    
G1   X22.589       Y32.282    
G17 G3   X22.4477      Y32.0983      R0.9000    
G1   X22.677       Y32.496    
G17 G3   X22.5885      Y32.2818      R0.9000    
G1   X22.707       Y32.725    
G17 G3   X22.6770      Y32.4955      R0.9000    
G1   Y32.954    
G17 G3   X22.7072      Y32.7249      R0.9000    
G1   X22.589       Y33.168    
G17 G3   X22.6770      Y32.9543      R0.9000    
G1   X22.448       Y33.352    
G17 G3   X22.5885      Y33.1680      R0.9000    
G1   X22.264       Y33.492    
G17 G3   X22.4477      Y33.3515      R0.9000    
G1   X22.050       Y33.581    
G17 G3   X22.2641      Y33.4924      R0.9000    
G1   X21.821       Y33.611    
G17 G3   X22.0504      Y33.5809      R0.9000    
G1   X21.592    
G17 G3   X21.8210      Y33.6111      R0.9000    
G1   X21.378       Y33.492    
G17 G3   X21.5917      Y33.5809      R0.9000    
G1   X21.194       Y33.352    
G17 G3   X21.3779      Y33.4924      R0.9000    
G1   X21.054       Y33.168    
G17 G3   X21.1944      Y33.3515      R0.9000    
G1   X20.965       Y32.954    
G17 G3   X21.0536      Y33.1680      R0.9000    
G1   X20.935       Y32.725    
G17 G3   X20.9650      Y32.9543      R0.9000    
G1   Y32.496    
G17 G3   X20.9348      Y32.7249      R0.9000    
G1   X21.054       Y32.282    
G17 G3   X20.9650      Y32.4955      R0.9000    
G1   X21.194       Y32.098    
G17 G3   X21.0536      Y32.2818      R0.9000    
G1   X21.378       Y31.957    
G17 G3   X21.1944      Y32.0983      R0.9000    
G1   X21.592       Y31.869    
G17 G3   X21.3779      Y31.9574      R0.9000    
G1   X21.821       Y31.839    
G17 G3   X21.5917      Y31.8689      R0.9000    
G1   X22.050    
G17 G3   X21.8210      Y31.8387      R0.9000    
G0   Z21.300    
(Pass: 1)
   Y41.839    
G1   Z5.300      F100 
G17 G3   X21.5916      Y41.8689      R0.9000     F300 
G1   X22.050    
G17 G3   X21.8210      Y41.8387      R0.9000    
G1   X22.264       Y41.957    
G17 G3   X22.0503      Y41.8689      R0.9000    
G1   X22.448       Y42.098    
G17 G3   X22.2641      Y41.9574      R0.9000    
G1   X22.588       Y42.282    
G17 G3   X22.4476      Y42.0983      R0.9000    
G1   X22.677       Y42.496    
G17 G3   X22.5884      Y42.2818      R0.9000    
G1   X22.707       Y42.725    
G17 G3   X22.6770      Y42.4955      R0.9000    
G1   Y42.954    
G17 G3   X22.7072      Y42.7249      R0.9000    
G1   X22.588       Y43.168    
G17 G3   X22.6770      Y42.9543      R0.9000    
G1   X22.448       Y43.352    
G17 G3   X22.5884      Y43.1680      R0.9000    
G1   X22.264       Y43.492    
G17 G3   X22.4476      Y43.3515      R0.9000    
G1   X22.050       Y43.581    
G17 G3   X22.2641      Y43.4924      R0.9000    
G1   X21.821       Y43.611    
G17 G3   X22.0503      Y43.5809      R0.9000    
G1   X21.592    
G17 G3   X21.8210      Y43.6111      R0.9000    
G1   X21.378       Y43.492    
G17 G3   X21.5916      Y43.5809      R0.9000    
G1   X21.194       Y43.352    
G17 G3   X21.3779      Y43.4924      R0.9000    
G1   X21.053       Y43.168    
G17 G3   X21.1943      Y43.3515      R0.9000    
G1   X20.965       Y42.954    
G17 G3   X21.0535      Y43.1680      R0.9000    
G1   X20.935       Y42.725    
G17 G3   X20.9650      Y42.9543      R0.9000    
G1   Y42.496    
G17 G3   X20.9348      Y42.7249      R0.9000    
G1   X21.053       Y42.282    
G17 G3   X20.9650      Y42.4955      R0.9000    
G1   X21.194       Y42.098    
G17 G3   X21.0535      Y42.2818      R0.9000    
G1   X21.378       Y41.957    
G17 G3   X21.1943      Y42.0983      R0.9000    
G1   X21.592       Y41.869    
G17 G3   X21.3779      Y41.9574      R0.9000    
(Pass: 2)
G1   X21.821       Y41.839    
   Z4.300      F100 
G17 G3   X21.5916      Y41.8689      R0.9000     F300 
G1   X22.050    
G17 G3   X21.8210      Y41.8387      R0.9000    
G1   X22.264       Y41.957    
G17 G3   X22.0503      Y41.8689      R0.9000    
G1   X22.448       Y42.098    
G17 G3   X22.2641      Y41.9574      R0.9000    
G1   X22.588       Y42.282    
G17 G3   X22.4476      Y42.0983      R0.9000    
G1   X22.677       Y42.496    
G17 G3   X22.5884      Y42.2818      R0.9000    
G1   X22.707       Y42.725    
G17 G3   X22.6770      Y42.4955      R0.9000    
G1   Y42.954    
G17 G3   X22.7072      Y42.7249      R0.9000    
G1   X22.588       Y43.168    
G17 G3   X22.6770      Y42.9543      R0.9000    
G1   X22.448       Y43.352    
G17 G3   X22.5884      Y43.1680      R0.9000    
G1   X22.264       Y43.492    
G17 G3   X22.4476      Y43.3515      R0.9000    
G1   X22.050       Y43.581    
G17 G3   X22.2641      Y43.4924      R0.9000    
G1   X21.821       Y43.611    
G17 G3   X22.0503      Y43.5809      R0.9000    
G1   X21.592    
G17 G3   X21.8210      Y43.6111      R0.9000    
G1   X21.378       Y43.492    
G17 G3   X21.5916      Y43.5809      R0.9000    
G1   X21.194       Y43.352    
G17 G3   X21.3779      Y43.4924      R0.9000    
G1   X21.053       Y43.168    
G17 G3   X21.1943      Y43.3515      R0.9000    
G1   X20.965       Y42.954    
G17 G3   X21.0535      Y43.1680      R0.9000    
G1   X20.935       Y42.725    
G17 G3   X20.9650      Y42.9543      R0.9000    
G1   Y42.496    
G17 G3   X20.9348      Y42.7249      R0.9000    
G1   X21.053       Y42.282    
G17 G3   X20.9650      Y42.4955      R0.9000    
G1   X21.194       Y42.098    
G17 G3   X21.0535      Y42.2818      R0.9000    
G1   X21.378       Y41.957    
G17 G3   X21.1943      Y42.0983      R0.9000    
G1   X21.592       Y41.869    
G17 G3   X21.3779      Y41.9574      R0.9000    
(Pass: 3)
G1   X21.821       Y41.839    
   Z3.300      F100 
G17 G3   X21.5916      Y41.8689      R0.9000     F300 
G1   X22.050    
G17 G3   X21.8210      Y41.8387      R0.9000    
G1   X22.264       Y41.957    
G17 G3   X22.0503      Y41.8689      R0.9000    
G1   X22.448       Y42.098    
G17 G3   X22.2641      Y41.9574      R0.9000    
G1   X22.588       Y42.282    
G17 G3   X22.4476      Y42.0983      R0.9000    
G1   X22.677       Y42.496    
G17 G3   X22.5884      Y42.2818      R0.9000    
G1   X22.707       Y42.725    
G17 G3   X22.6770      Y42.4955      R0.9000    
G1   Y42.954    
G17 G3   X22.7072      Y42.7249      R0.9000    
G1   X22.588       Y43.168    
G17 G3   X22.6770      Y42.9543      R0.9000    
G1   X22.448       Y43.352    
G17 G3   X22.5884      Y43.1680      R0.9000    
G1   X22.264       Y43.492    
G17 G3   X22.4476      Y43.3515      R0.9000    
G1   X22.050       Y43.581    
G17 G3   X22.2641      Y43.4924      R0.9000    
G1   X21.821       Y43.611    
G17 G3   X22.0503      Y43.5809      R0.9000    
G1   X21.592    
G17 G3   X21.8210      Y43.6111      R0.9000    
G1   X21.378       Y43.492    
G17 G3   X21.5916      Y43.5809      R0.9000    
G1   X21.194       Y43.352    
G17 G3   X21.3779      Y43.4924      R0.9000    
G1   X21.053       Y43.168    
G17 G3   X21.1943      Y43.3515      R0.9000    
G1   X20.965       Y42.954    
G17 G3   X21.0535      Y43.1680      R0.9000    
G1   X20.935       Y42.725    
G17 G3   X20.9650      Y42.9543      R0.9000    
G1   Y42.496    
G17 G3   X20.9348      Y42.7249      R0.9000    
G1   X21.053       Y42.282    
G17 G3   X20.9650      Y42.4955      R0.9000    
G1   X21.194       Y42.098    
G17 G3   X21.0535      Y42.2818      R0.9000    
G1   X21.378       Y41.957    
G17 G3   X21.1943      Y42.0983      R0.9000    
G1   X21.592       Y41.869    
G17 G3   X21.3779      Y41.9574      R0.9000    
(Pass: 4)
G1   X21.821       Y41.839    
   Z2.300      F100 
G17 G3   X21.5916      Y41.8689      R0.9000     F300 
G1   X22.050    
G17 G3   X21.8210      Y41.8387      R0.9000    
G1   X22.264       Y41.957    
G17 G3   X22.0503      Y41.8689      R0.9000    
G1   X22.448       Y42.098    
G17 G3   X22.2641      Y41.9574      R0.9000    
G1   X22.588       Y42.282    
G17 G3   X22.4476      Y42.0983      R0.9000    
G1   X22.677       Y42.496    
G17 G3   X22.5884      Y42.2818      R0.9000    
G1   X22.707       Y42.725    
G17 G3   X22.6770      Y42.4955      R0.9000    
G1   Y42.954    
G17 G3   X22.7072      Y42.7249      R0.9000    
G1   X22.588       Y43.168    
G17 G3   X22.6770      Y42.9543      R0.9000    
G1   X22.448       Y43.352    
G17 G3   X22.5884      Y43.1680      R0.9000    
G1   X22.264       Y43.492    
G17 G3   X22.4476      Y43.3515      R0.9000    
G1   X22.050       Y43.581    
G17 G3   X22.2641      Y43.4924      R0.9000    
G1   X21.821       Y43.611    
G17 G3   X22.0503      Y43.5809      R0.9000    
G1   X21.592    
G17 G3   X21.8210      Y43.6111      R0.9000    
G1   X21.378       Y43.492    
G17 G3   X21.5916      Y43.5809      R0.9000    
G1   X21.194       Y43.352    
G17 G3   X21.3779      Y43.4924      R0.9000    
G1   X21.053       Y43.168    
G17 G3   X21.1943      Y43.3515      R0.9000    
G1   X20.965       Y42.954    
G17 G3   X21.0535      Y43.1680      R0.9000    
G1   X20.935       Y42.725    
G17 G3   X20.9650      Y42.9543      R0.9000    
G1   Y42.496    
G17 G3   X20.9348      Y42.7249      R0.9000    
G1   X21.053       Y42.282    
G17 G3   X20.9650      Y42.4955      R0.9000    
G1   X21.194       Y42.098    
G17 G3   X21.0535      Y42.2818      R0.9000    
G1   X21.378       Y41.957    
G17 G3   X21.1943      Y42.0983      R0.9000    
G1   X21.592       Y41.869    
G17 G3   X21.3779      Y41.9574      R0.9000    
(Pass: 5)
G1   X21.821       Y41.839    
   Z1.300      F100 
G17 G3   X21.5916      Y41.8689      R0.9000     F300 
G1   X22.050    
G17 G3   X21.8210      Y41.8387      R0.9000    
G1   X22.264       Y41.957    
G17 G3   X22.0503      Y41.8689      R0.9000    
G1   X22.448       Y42.098    
G17 G3   X22.2641      Y41.9574      R0.9000    
G1   X22.588       Y42.282    
G17 G3   X22.4476      Y42.0983      R0.9000    
G1   X22.677       Y42.496    
G17 G3   X22.5884      Y42.2818      R0.9000    
G1   X22.707       Y42.725    
G17 G3   X22.6770      Y42.4955      R0.9000    
G1   Y42.954    
G17 G3   X22.7072      Y42.7249      R0.9000    
G1   X22.588       Y43.168    
G17 G3   X22.6770      Y42.9543      R0.9000    
G1   X22.448       Y43.352    
G17 G3   X22.5884      Y43.1680      R0.9000    
G1   X22.264       Y43.492    
G17 G3   X22.4476      Y43.3515      R0.9000    
G1   X22.050       Y43.581    
G17 G3   X22.2641      Y43.4924      R0.9000    
G1   X21.821       Y43.611    
G17 G3   X22.0503      Y43.5809      R0.9000    
G1   X21.592    
G17 G3   X21.8210      Y43.6111      R0.9000    
G1   X21.378       Y43.492    
G17 G3   X21.5916      Y43.5809      R0.9000    
G1   X21.194       Y43.352    
G17 G3   X21.3779      Y43.4924      R0.9000    
G1   X21.053       Y43.168    
G17 G3   X21.1943      Y43.3515      R0.9000    
G1   X20.965       Y42.954    
G17 G3   X21.0535      Y43.1680      R0.9000    
G1   X20.935       Y42.725    
G17 G3   X20.9650      Y42.9543      R0.9000    
G1   Y42.496    
G17 G3   X20.9348      Y42.7249      R0.9000    
G1   X21.053       Y42.282    
G17 G3   X20.9650      Y42.4955      R0.9000    
G1   X21.194       Y42.098    
G17 G3   X21.0535      Y42.2818      R0.9000    
G1   X21.378       Y41.957    
G17 G3   X21.1943      Y42.0983      R0.9000    
G1   X21.592       Y41.869    
G17 G3   X21.3779      Y41.9574      R0.9000    
(Pass: 6)
G1   X21.821       Y41.839    
   Z0.300      F100 
G17 G3   X21.5916      Y41.8689      R0.9000     F300 
G1   X22.050    
G17 G3   X21.8210      Y41.8387      R0.9000    
G1   X22.264       Y41.957    
G17 G3   X22.0503      Y41.8689      R0.9000    
G1   X22.448       Y42.098    
G17 G3   X22.2641      Y41.9574      R0.9000    
G1   X22.588       Y42.282    
G17 G3   X22.4476      Y42.0983      R0.9000    
G1   X22.677       Y42.496    
G17 G3   X22.5884      Y42.2818      R0.9000    
G1   X22.707       Y42.725    
G17 G3   X22.6770      Y42.4955      R0.9000    
G1   Y42.954    
G17 G3   X22.7072      Y42.7249      R0.9000    
G1   X22.588       Y43.168    
G17 G3   X22.6770      Y42.9543      R0.9000    
G1   X22.448       Y43.352    
G17 G3   X22.5884      Y43.1680      R0.9000    
G1   X22.264       Y43.492    
G17 G3   X22.4476      Y43.3515      R0.9000    
G1   X22.050       Y43.581    
G17 G3   X22.2641      Y43.4924      R0.9000    
G1   X21.821       Y43.611    
G17 G3   X22.0503      Y43.5809      R0.9000    
G1   X21.592    
G17 G3   X21.8210      Y43.6111      R0.9000    
G1   X21.378       Y43.492    
G17 G3   X21.5916      Y43.5809      R0.9000    
G1   X21.194       Y43.352    
G17 G3   X21.3779      Y43.4924      R0.9000    
G1   X21.053       Y43.168    
G17 G3   X21.1943      Y43.3515      R0.9000    
G1   X20.965       Y42.954    
G17 G3   X21.0535      Y43.1680      R0.9000    
G1   X20.935       Y42.725    
G17 G3   X20.9650      Y42.9543      R0.9000    
G1   Y42.496    
G17 G3   X20.9348      Y42.7249      R0.9000    
G1   X21.053       Y42.282    
G17 G3   X20.9650      Y42.4955      R0.9000    
G1   X21.194       Y42.098    
G17 G3   X21.0535      Y42.2818      R0.9000    
G1   X21.378       Y41.957    
G17 G3   X21.1943      Y42.0983      R0.9000    
G1   X21.592       Y41.869    
G17 G3   X21.3779      Y41.9574      R0.9000    
(Pass: 7)
G1   X21.821       Y41.839    
   Z0.000      F100 
G17 G3   X21.5916      Y41.8689      R0.9000     F300 
G1   X22.050    
G17 G3   X21.8210      Y41.8387      R0.9000    
G1   X22.264       Y41.957    
G17 G3   X22.0503      Y41.8689      R0.9000    
G1   X22.448       Y42.098    
G17 G3   X22.2641      Y41.9574      R0.9000    
G1   X22.588       Y42.282    
G17 G3   X22.4476      Y42.0983      R0.9000    
G1   X22.677       Y42.496    
G17 G3   X22.5884      Y42.2818      R0.9000    
G1   X22.707       Y42.725    
G17 G3   X22.6770      Y42.4955      R0.9000    
G1   Y42.954    
G17 G3   X22.7072      Y42.7249      R0.9000    
G1   X22.588       Y43.168    
G17 G3   X22.6770      Y42.9543      R0.9000    
G1   X22.448       Y43.352    
G17 G3   X22.5884      Y43.1680      R0.9000    
G1   X22.264       Y43.492    
G17 G3   X22.4476      Y43.3515      R0.9000    
G1   X22.050       Y43.581    
G17 G3   X22.2641      Y43.4924      R0.9000    
G1   X21.821       Y43.611    
G17 G3   X22.0503      Y43.5809      R0.9000    
G1   X21.592    
G17 G3   X21.8210      Y43.6111      R0.9000    
G1   X21.378       Y43.492    
G17 G3   X21.5916      Y43.5809      R0.9000    
G1   X21.194       Y43.352    
G17 G3   X21.3779      Y43.4924      R0.9000    
G1   X21.053       Y43.168    
G17 G3   X21.1943      Y43.3515      R0.9000    
G1   X20.965       Y42.954    
G17 G3   X21.0535      Y43.1680      R0.9000    
G1   X20.935       Y42.725    
G17 G3   X20.9650      Y42.9543      R0.9000    
G1   Y42.496    
G17 G3   X20.9348      Y42.7249      R0.9000    
G1   X21.053       Y42.282    
G17 G3   X20.9650      Y42.4955      R0.9000    
G1   X21.194       Y42.098    
G17 G3   X21.0535      Y42.2818      R0.9000    
G1   X21.378       Y41.957    
G17 G3   X21.1943      Y42.0983      R0.9000    
G1   X21.592       Y41.869    
G17 G3   X21.3779      Y41.9574      R0.9000    
G0   Z21.300    
(Pass: 1)
   X49.635       Y42.757    
G1   Z5.300      F100 
G17 G3   X49.6652      Y42.9866      R0.9000     F300 
G1   Y42.528    
G17 G3   X49.6350      Y42.7573      R0.9000    
G1   X49.754       Y42.314    
G17 G3   X49.6652      Y42.5279      R0.9000    
G1   X49.895       Y42.131    
G17 G3   X49.7537      Y42.3142      R0.9000    
G1   X50.078       Y41.990    
G17 G3   X49.8945      Y42.1306      R0.9000    
G1   X50.292       Y41.901    
G17 G3   X50.0781      Y41.9898      R0.9000    
G1   X50.521       Y41.871    
G17 G3   X50.2918      Y41.9013      R0.9000    
G1   X50.751    
G17 G3   X50.5212      Y41.8711      R0.9000    
G1   X50.964       Y41.990    
G17 G3   X50.7505      Y41.9013      R0.9000    
G1   X51.148       Y42.131    
G17 G3   X50.9643      Y41.9898      R0.9000    
G1   X51.289       Y42.314    
G17 G3   X51.1478      Y42.1306      R0.9000    
G1   X51.377       Y42.528    
G17 G3   X51.2886      Y42.3142      R0.9000    
G1   X51.407       Y42.757    
G17 G3   X51.3772      Y42.5279      R0.9000    
G1   Y42.987    
G17 G3   X51.4074      Y42.7573      R0.9000    
G1   X51.289       Y43.200    
G17 G3   X51.3772      Y42.9866      R0.9000    
G1   X51.148       Y43.384    
G17 G3   X51.2886      Y43.2004      R0.9000    
G1   X50.964       Y43.525    
G17 G3   X51.1478      Y43.3839      R0.9000    
G1   X50.751       Y43.613    
G17 G3   X50.9643      Y43.5247      R0.9000    
G1   X50.521       Y43.643    
G17 G3   X50.7505      Y43.6133      R0.9000    
G1   X50.292    
G17 G3   X50.5212      Y43.6434      R0.9000    
G1   X50.078       Y43.525    
G17 G3   X50.2918      Y43.6133      R0.9000    
G1   X49.895       Y43.384    
G17 G3   X50.0781      Y43.5247      R0.9000    
G1   X49.754       Y43.200    
G17 G3   X49.8945      Y43.3839      R0.9000    
G1   X49.665       Y42.987    
G17 G3   X49.7537      Y43.2004      R0.9000    
(Pass: 2)
G1   X49.635       Y42.757    
   Z4.300      F100 
G17 G3   X49.6652      Y42.9866      R0.9000     F300 
G1   Y42.528    
G17 G3   X49.6350      Y42.7573      R0.9000    
G1   X49.754       Y42.314    
G17 G3   X49.6652      Y42.5279      R0.9000    
G1   X49.895       Y42.131    
G17 G3   X49.7537      Y42.3142      R0.9000    
G1   X50.078       Y41.990    
G17 G3   X49.8945      Y42.1306      R0.9000    
G1   X50.292       Y41.901    
G17 G3   X50.0781      Y41.9898      R0.9000    
G1   X50.521       Y41.871    
G17 G3   X50.2918      Y41.9013      R0.9000    
G1   X50.751    
G17 G3   X50.5212      Y41.8711      R0.9000    
G1   X50.964       Y41.990    
G17 G3   X50.7505      Y41.9013      R0.9000    
G1   X51.148       Y42.131    
G17 G3   X50.9643      Y41.9898      R0.9000    
G1   X51.289       Y42.314    
G17 G3   X51.1478      Y42.1306      R0.9000    
G1   X51.377       Y42.528    
G17 G3   X51.2886      Y42.3142      R0.9000    
G1   X51.407       Y42.757    
G17 G3   X51.3772      Y42.5279      R0.9000    
G1   Y42.987    
G17 G3   X51.4074      Y42.7573      R0.9000    
G1   X51.289       Y43.200    
G17 G3   X51.3772      Y42.9866      R0.9000    
G1   X51.148       Y43.384    
G17 G3   X51.2886      Y43.2004      R0.9000    
G1   X50.964       Y43.525    
G17 G3   X51.1478      Y43.3839      R0.9000    
G1   X50.751       Y43.613    
G17 G3   X50.9643      Y43.5247      R0.9000    
G1   X50.521       Y43.643    
G17 G3   X50.7505      Y43.6133      R0.9000    
G1   X50.292    
G17 G3   X50.5212      Y43.6434      R0.9000    
G1   X50.078       Y43.525    
G17 G3   X50.2918      Y43.6133      R0.9000    
G1   X49.895       Y43.384    
G17 G3   X50.0781      Y43.5247      R0.9000    
G1   X49.754       Y43.200    
G17 G3   X49.8945      Y43.3839      R0.9000    
G1   X49.665       Y42.987    
G17 G3   X49.7537      Y43.2004      R0.9000    
(Pass: 3)
G1   X49.635       Y42.757    
   Z3.300      F100 
G17 G3   X49.6652      Y42.9866      R0.9000     F300 
G1   Y42.528    
G17 G3   X49.6350      Y42.7573      R0.9000    
G1   X49.754       Y42.314    
G17 G3   X49.6652      Y42.5279      R0.9000    
G1   X49.895       Y42.131    
G17 G3   X49.7537      Y42.3142      R0.9000    
G1   X50.078       Y41.990    
G17 G3   X49.8945      Y42.1306      R0.9000    
G1   X50.292       Y41.901    
G17 G3   X50.0781      Y41.9898      R0.9000    
G1   X50.521       Y41.871    
G17 G3   X50.2918      Y41.9013      R0.9000    
G1   X50.751    
G17 G3   X50.5212      Y41.8711      R0.9000    
G1   X50.964       Y41.990    
G17 G3   X50.7505      Y41.9013      R0.9000    
G1   X51.148       Y42.131    
G17 G3   X50.9643      Y41.9898      R0.9000    
G1   X51.289       Y42.314    
G17 G3   X51.1478      Y42.1306      R0.9000    
G1   X51.377       Y42.528    
G17 G3   X51.2886      Y42.3142      R0.9000    
G1   X51.407       Y42.757    
G17 G3   X51.3772      Y42.5279      R0.9000    
G1   Y42.987    
G17 G3   X51.4074      Y42.7573      R0.9000    
G1   X51.289       Y43.200    
G17 G3   X51.3772      Y42.9866      R0.9000    
G1   X51.148       Y43.384    
G17 G3   X51.2886      Y43.2004      R0.9000    
G1   X50.964       Y43.525    
G17 G3   X51.1478      Y43.3839      R0.9000    
G1   X50.751       Y43.613    
G17 G3   X50.9643      Y43.5247      R0.9000    
G1   X50.521       Y43.643    
G17 G3   X50.7505      Y43.6133      R0.9000    
G1   X50.292    
G17 G3   X50.5212      Y43.6434      R0.9000    
G1   X50.078       Y43.525    
G17 G3   X50.2918      Y43.6133      R0.9000    
G1   X49.895       Y43.384    
G17 G3   X50.0781      Y43.5247      R0.9000    
G1   X49.754       Y43.200    
G17 G3   X49.8945      Y43.3839      R0.9000    
G1   X49.665       Y42.987    
G17 G3   X49.7537      Y43.2004      R0.9000    
(Pass: 4)
G1   X49.635       Y42.757    
   Z2.300      F100 
G17 G3   X49.6652      Y42.9866      R0.9000     F300 
G1   Y42.528    
G17 G3   X49.6350      Y42.7573      R0.9000    
G1   X49.754       Y42.314    
G17 G3   X49.6652      Y42.5279      R0.9000    
G1   X49.895       Y42.131    
G17 G3   X49.7537      Y42.3142      R0.9000    
G1   X50.078       Y41.990    
G17 G3   X49.8945      Y42.1306      R0.9000    
G1   X50.292       Y41.901    
G17 G3   X50.0781      Y41.9898      R0.9000    
G1   X50.521       Y41.871    
G17 G3   X50.2918      Y41.9013      R0.9000    
G1   X50.751    
G17 G3   X50.5212      Y41.8711      R0.9000    
G1   X50.964       Y41.990    
G17 G3   X50.7505      Y41.9013      R0.9000    
G1   X51.148       Y42.131    
G17 G3   X50.9643      Y41.9898      R0.9000    
G1   X51.289       Y42.314    
G17 G3   X51.1478      Y42.1306      R0.9000    
G1   X51.377       Y42.528    
G17 G3   X51.2886      Y42.3142      R0.9000    
G1   X51.407       Y42.757    
G17 G3   X51.3772      Y42.5279      R0.9000    
G1   Y42.987    
G17 G3   X51.4074      Y42.7573      R0.9000    
G1   X51.289       Y43.200    
G17 G3   X51.3772      Y42.9866      R0.9000    
G1   X51.148       Y43.384    
G17 G3   X51.2886      Y43.2004      R0.9000    
G1   X50.964       Y43.525    
G17 G3   X51.1478      Y43.3839      R0.9000    
G1   X50.751       Y43.613    
G17 G3   X50.9643      Y43.5247      R0.9000    
G1   X50.521       Y43.643    
G17 G3   X50.7505      Y43.6133      R0.9000    
G1   X50.292    
G17 G3   X50.5212      Y43.6434      R0.9000    
G1   X50.078       Y43.525    
G17 G3   X50.2918      Y43.6133      R0.9000    
G1   X49.895       Y43.384    
G17 G3   X50.0781      Y43.5247      R0.9000    
G1   X49.754       Y43.200    
G17 G3   X49.8945      Y43.3839      R0.9000    
G1   X49.665       Y42.987    
G17 G3   X49.7537      Y43.2004      R0.9000    
(Pass: 5)
G1   X49.635       Y42.757    
   Z1.300      F100 
G17 G3   X49.6652      Y42.9866      R0.9000     F300 
G1   Y42.528    
G17 G3   X49.6350      Y42.7573      R0.9000    
G1   X49.754       Y42.314    
G17 G3   X49.6652      Y42.5279      R0.9000    
G1   X49.895       Y42.131    
G17 G3   X49.7537      Y42.3142      R0.9000    
G1   X50.078       Y41.990    
G17 G3   X49.8945      Y42.1306      R0.9000    
G1   X50.292       Y41.901    
G17 G3   X50.0781      Y41.9898      R0.9000    
G1   X50.521       Y41.871    
G17 G3   X50.2918      Y41.9013      R0.9000    
G1   X50.751    
G17 G3   X50.5212      Y41.8711      R0.9000    
G1   X50.964       Y41.990    
G17 G3   X50.7505      Y41.9013      R0.9000    
G1   X51.148       Y42.131    
G17 G3   X50.9643      Y41.9898      R0.9000    
G1   X51.289       Y42.314    
G17 G3   X51.1478      Y42.1306      R0.9000    
G1   X51.377       Y42.528    
G17 G3   X51.2886      Y42.3142      R0.9000    
G1   X51.407       Y42.757    
G17 G3   X51.3772      Y42.5279      R0.9000    
G1   Y42.987    
G17 G3   X51.4074      Y42.7573      R0.9000    
G1   X51.289       Y43.200    
G17 G3   X51.3772      Y42.9866      R0.9000    
G1   X51.148       Y43.384    
G17 G3   X51.2886      Y43.2004      R0.9000    
G1   X50.964       Y43.525    
G17 G3   X51.1478      Y43.3839      R0.9000    
G1   X50.751       Y43.613    
G17 G3   X50.9643      Y43.5247      R0.9000    
G1   X50.521       Y43.643    
G17 G3   X50.7505      Y43.6133      R0.9000    
G1   X50.292    
G17 G3   X50.5212      Y43.6434      R0.9000    
G1   X50.078       Y43.525    
G17 G3   X50.2918      Y43.6133      R0.9000    
G1   X49.895       Y43.384    
G17 G3   X50.0781      Y43.5247      R0.9000    
G1   X49.754       Y43.200    
G17 G3   X49.8945      Y43.3839      R0.9000    
G1   X49.665       Y42.987    
G17 G3   X49.7537      Y43.2004      R0.9000    
(Pass: 6)
G1   X49.635       Y42.757    
   Z0.300      F100 
G17 G3   X49.6652      Y42.9866      R0.9000     F300 
G1   Y42.528    
G17 G3   X49.6350      Y42.7573      R0.9000    
G1   X49.754       Y42.314    
G17 G3   X49.6652      Y42.5279      R0.9000    
G1   X49.895       Y42.131    
G17 G3   X49.7537      Y42.3142      R0.9000    
G1   X50.078       Y41.990    
G17 G3   X49.8945      Y42.1306      R0.9000    
G1   X50.292       Y41.901    
G17 G3   X50.0781      Y41.9898      R0.9000    
G1   X50.521       Y41.871    
G17 G3   X50.2918      Y41.9013      R0.9000    
G1   X50.751    
G17 G3   X50.5212      Y41.8711      R0.9000    
G1   X50.964       Y41.990    
G17 G3   X50.7505      Y41.9013      R0.9000    
G1   X51.148       Y42.131    
G17 G3   X50.9643      Y41.9898      R0.9000    
G1   X51.289       Y42.314    
G17 G3   X51.1478      Y42.1306      R0.9000    
G1   X51.377       Y42.528    
G17 G3   X51.2886      Y42.3142      R0.9000    
G1   X51.407       Y42.757    
G17 G3   X51.3772      Y42.5279      R0.9000    
G1   Y42.987    
G17 G3   X51.4074      Y42.7573      R0.9000    
G1   X51.289       Y43.200    
G17 G3   X51.3772      Y42.9866      R0.9000    
G1   X51.148       Y43.384    
G17 G3   X51.2886      Y43.2004      R0.9000    
G1   X50.964       Y43.525    
G17 G3   X51.1478      Y43.3839      R0.9000    
G1   X50.751       Y43.613    
G17 G3   X50.9643      Y43.5247      R0.9000    
G1   X50.521       Y43.643    
G17 G3   X50.7505      Y43.6133      R0.9000    
G1   X50.292    
G17 G3   X50.5212      Y43.6434      R0.9000    
G1   X50.078       Y43.525    
G17 G3   X50.2918      Y43.6133      R0.9000    
G1   X49.895       Y43.384    
G17 G3   X50.0781      Y43.5247      R0.9000    
G1   X49.754       Y43.200    
G17 G3   X49.8945      Y43.3839      R0.9000    
G1   X49.665       Y42.987    
G17 G3   X49.7537      Y43.2004      R0.9000    
(Pass: 7)
G1   X49.635       Y42.757    
   Z0.000      F100 
G17 G3   X49.6652      Y42.9866      R0.9000     F300 
G1   Y42.528    
G17 G3   X49.6350      Y42.7573      R0.9000    
G1   X49.754       Y42.314    
G17 G3   X49.6652      Y42.5279      R0.9000    
G1   X49.895       Y42.131    
G17 G3   X49.7537      Y42.3142      R0.9000    
G1   X50.078       Y41.990    
G17 G3   X49.8945      Y42.1306      R0.9000    
G1   X50.292       Y41.901    
G17 G3   X50.0781      Y41.9898      R0.9000    
G1   X50.521       Y41.871    
G17 G3   X50.2918      Y41.9013      R0.9000    
G1   X50.751    
G17 G3   X50.5212      Y41.8711      R0.9000    
G1   X50.964       Y41.990    
G17 G3   X50.7505      Y41.9013      R0.9000    
G1   X51.148       Y42.131    
G17 G3   X50.9643      Y41.9898      R0.9000    
G1   X51.289       Y42.314    
G17 G3   X51.1478      Y42.1306      R0.9000    
G1   X51.377       Y42.528    
G17 G3   X51.2886      Y42.3142      R0.9000    
G1   X51.407       Y42.757    
G17 G3   X51.3772      Y42.5279      R0.9000    
G1   Y42.987    
G17 G3   X51.4074      Y42.7573      R0.9000    
G1   X51.289       Y43.200    
G17 G3   X51.3772      Y42.9866      R0.9000    
G1   X51.148       Y43.384    
G17 G3   X51.2886      Y43.2004      R0.9000    
G1   X50.964       Y43.525    
G17 G3   X51.1478      Y43.3839      R0.9000    
G1   X50.751       Y43.613    
G17 G3   X50.9643      Y43.5247      R0.9000    
G1   X50.521       Y43.643    
G17 G3   X50.7505      Y43.6133      R0.9000    
G1   X50.292    
G17 G3   X50.5212      Y43.6434      R0.9000    
G1   X50.078       Y43.525    
G17 G3   X50.2918      Y43.6133      R0.9000    
G1   X49.895       Y43.384    
G17 G3   X50.0781      Y43.5247      R0.9000    
G1   X49.754       Y43.200    
G17 G3   X49.8945      Y43.3839      R0.9000    
G1   X49.665       Y42.987    
G17 G3   X49.7537      Y43.2004      R0.9000    
G0   Z21.300    
(Pass: 1)
   X105.148      Y23.398    
G1   Z5.300      F100 
G17 G3   X105.4590     Y23.8024      R1.9685     F300 
G1   X104.953      Y22.926    
G17 G3   X105.1484     Y23.3976      R1.9685    
G1   X104.886      Y22.420    
G17 G3   X104.9531     Y22.9261      R1.9685    
G1   Y21.914    
G17 G3   X104.8865     Y22.4202      R1.9685    
G1   X105.148      Y21.443    
G17 G3   X104.9531     Y21.9143      R1.9685    
G1   X105.459      Y21.038    
G17 G3   X105.1484     Y21.4429      R1.9685    
G1   X105.864      Y20.727    
G17 G3   X105.4590     Y21.0380      R1.9685    
G1   X106.335      Y20.532    
G17 G3   X105.8638     Y20.7274      R1.9685    
G1   X106.841      Y20.466    
G17 G3   X106.3353     Y20.5321      R1.9685    
G1   X107.347   
G17 G3   X106.8412     Y20.4655      R1.9685    
G1   X107.819      Y20.727    
G17 G3   X107.3471     Y20.5321      R1.9685    
G1   X108.223      Y21.038    
G17 G3   X107.8185     Y20.7274      R1.9685    
G1   X108.534      Y21.443    
G17 G3   X108.2234     Y21.0380      R1.9685    
G1   X108.729      Y21.914    
G17 G3   X108.5340     Y21.4429      R1.9685    
G1   X108.796      Y22.420    
G17 G3   X108.7293     Y21.9143      R1.9685    
G1   Y22.926    
G17 G3   X108.7959     Y22.4202      R1.9685    
G1   X108.534      Y23.398    
G17 G3   X108.7293     Y22.9261      R1.9685    
G1   X108.223      Y23.802    
G17 G3   X108.5340     Y23.3976      R1.9685    
G1   X107.819      Y24.113    
G17 G3   X108.2234     Y23.8024      R1.9685    
G1   X107.347      Y24.308    
G17 G3   X107.8185     Y24.1130      R1.9685    
G1   X106.841      Y24.375    
G17 G3   X107.3471     Y24.3083      R1.9685    
G1   X106.335   
G17 G3   X106.8412     Y24.3749      R1.9685    
G1   X105.864      Y24.113    
G17 G3   X106.3353     Y24.3083      R1.9685    
G1   X105.459      Y23.802    
G17 G3   X105.8638     Y24.1130      R1.9685    
(Pass: 2)
G1   X105.148      Y23.398    
   Z4.300      F100 
G17 G3   X105.4590     Y23.8024      R1.9685     F300 
G1   X104.953      Y22.926    
G17 G3   X105.1484     Y23.3976      R1.9685    
G1   X104.886      Y22.420    
G17 G3   X104.9531     Y22.9261      R1.9685    
G1   Y21.914    
G17 G3   X104.8865     Y22.4202      R1.9685    
G1   X105.148      Y21.443    
G17 G3   X104.9531     Y21.9143      R1.9685    
G1   X105.459      Y21.038    
G17 G3   X105.1484     Y21.4429      R1.9685    
G1   X105.864      Y20.727    
G17 G3   X105.4590     Y21.0380      R1.9685    
G1   X106.335      Y20.532    
G17 G3   X105.8638     Y20.7274      R1.9685    
G1   X106.841      Y20.466    
G17 G3   X106.3353     Y20.5321      R1.9685    
G1   X107.347   
G17 G3   X106.8412     Y20.4655      R1.9685    
G1   X107.819      Y20.727    
G17 G3   X107.3471     Y20.5321      R1.9685    
G1   X108.223      Y21.038    
G17 G3   X107.8185     Y20.7274      R1.9685    
G1   X108.534      Y21.443    
G17 G3   X108.2234     Y21.0380      R1.9685    
G1   X108.729      Y21.914    
G17 G3   X108.5340     Y21.4429      R1.9685    
G1   X108.796      Y22.420    
G17 G3   X108.7293     Y21.9143      R1.9685    
G1   Y22.926    
G17 G3   X108.7959     Y22.4202      R1.9685    
G1   X108.534      Y23.398    
G17 G3   X108.7293     Y22.9261      R1.9685    
G1   X108.223      Y23.802    
G17 G3   X108.5340     Y23.3976      R1.9685    
G1   X107.819      Y24.113    
G17 G3   X108.2234     Y23.8024      R1.9685    
G1   X107.347      Y24.308    
G17 G3   X107.8185     Y24.1130      R1.9685    
G1   X106.841      Y24.375    
G17 G3   X107.3471     Y24.3083      R1.9685    
G1   X106.335   
G17 G3   X106.8412     Y24.3749      R1.9685    
G1   X105.864      Y24.113    
G17 G3   X106.3353     Y24.3083      R1.9685    
G1   X105.459      Y23.802    
G17 G3   X105.8638     Y24.1130      R1.9685    
(Pass: 3)
G1   X105.148      Y23.398    
   Z3.300      F100 
G17 G3   X105.4590     Y23.8024      R1.9685     F300 
G1   X104.953      Y22.926    
G17 G3   X105.1484     Y23.3976      R1.9685    
G1   X104.886      Y22.420    
G17 G3   X104.9531     Y22.9261      R1.9685    
G1   Y21.914    
G17 G3   X104.8865     Y22.4202      R1.9685    
G1   X105.148      Y21.443    
G17 G3   X104.9531     Y21.9143      R1.9685    
G1   X105.459      Y21.038    
G17 G3   X105.1484     Y21.4429      R1.9685    
G1   X105.864      Y20.727    
G17 G3   X105.4590     Y21.0380      R1.9685    
G1   X106.335      Y20.532    
G17 G3   X105.8638     Y20.7274      R1.9685    
G1   X106.841      Y20.466    
G17 G3   X106.3353     Y20.5321      R1.9685    
G1   X107.347   
G17 G3   X106.8412     Y20.4655      R1.9685    
G1   X107.819      Y20.727    
G17 G3   X107.3471     Y20.5321      R1.9685    
G1   X108.223      Y21.038    
G17 G3   X107.8185     Y20.7274      R1.9685    
G1   X108.534      Y21.443    
G17 G3   X108.2234     Y21.0380      R1.9685    
G1   X108.729      Y21.914    
G17 G3   X108.5340     Y21.4429      R1.9685    
G1   X108.796      Y22.420    
G17 G3   X108.7293     Y21.9143      R1.9685    
G1   Y22.926    
G17 G3   X108.7959     Y22.4202      R1.9685    
G1   X108.534      Y23.398    
G17 G3   X108.7293     Y22.9261      R1.9685    
G1   X108.223      Y23.802    
G17 G3   X108.5340     Y23.3976      R1.9685    
G1   X107.819      Y24.113    
G17 G3   X108.2234     Y23.8024      R1.9685    
G1   X107.347      Y24.308    
G17 G3   X107.8185     Y24.1130      R1.9685    
G1   X106.841      Y24.375    
G17 G3   X107.3471     Y24.3083      R1.9685    
G1   X106.335   
G17 G3   X106.8412     Y24.3749      R1.9685    
G1   X105.864      Y24.113    
G17 G3   X106.3353     Y24.3083      R1.9685    
G1   X105.459      Y23.802    
G17 G3   X105.8638     Y24.1130      R1.9685    
(Pass: 4)
G1   X105.148      Y23.398    
   Z2.300      F100 
G17 G3   X105.4590     Y23.8024      R1.9685     F300 
G1   X104.953      Y22.926    
G17 G3   X105.1484     Y23.3976      R1.9685    
G1   X104.886      Y22.420    
G17 G3   X104.9531     Y22.9261      R1.9685    
G1   Y21.914    
G17 G3   X104.8865     Y22.4202      R1.9685    
G1   X105.148      Y21.443    
G17 G3   X104.9531     Y21.9143      R1.9685    
G1   X105.459      Y21.038    
G17 G3   X105.1484     Y21.4429      R1.9685    
G1   X105.864      Y20.727    
G17 G3   X105.4590     Y21.0380      R1.9685    
G1   X106.335      Y20.532    
G17 G3   X105.8638     Y20.7274      R1.9685    
G1   X106.841      Y20.466    
G17 G3   X106.3353     Y20.5321      R1.9685    
G1   X107.347   
G17 G3   X106.8412     Y20.4655      R1.9685    
G1   X107.819      Y20.727    
G17 G3   X107.3471     Y20.5321      R1.9685    
G1   X108.223      Y21.038    
G17 G3   X107.8185     Y20.7274      R1.9685    
G1   X108.534      Y21.443    
G17 G3   X108.2234     Y21.0380      R1.9685    
G1   X108.729      Y21.914    
G17 G3   X108.5340     Y21.4429      R1.9685    
G1   X108.796      Y22.420    
G17 G3   X108.7293     Y21.9143      R1.9685    
G1   Y22.926    
G17 G3   X108.7959     Y22.4202      R1.9685    
G1   X108.534      Y23.398    
G17 G3   X108.7293     Y22.9261      R1.9685    
G1   X108.223      Y23.802    
G17 G3   X108.5340     Y23.3976      R1.9685    
G1   X107.819      Y24.113    
G17 G3   X108.2234     Y23.8024      R1.9685    
G1   X107.347      Y24.308    
G17 G3   X107.8185     Y24.1130      R1.9685    
G1   X106.841      Y24.375    
G17 G3   X107.3471     Y24.3083      R1.9685    
G1   X106.335   
G17 G3   X106.8412     Y24.3749      R1.9685    
G1   X105.864      Y24.113    
G17 G3   X106.3353     Y24.3083      R1.9685    
G1   X105.459      Y23.802    
G17 G3   X105.8638     Y24.1130      R1.9685    
(Pass: 5)
G1   X105.148      Y23.398    
   Z1.300      F100 
G17 G3   X105.4590     Y23.8024      R1.9685     F300 
G1   X104.953      Y22.926    
G17 G3   X105.1484     Y23.3976      R1.9685    
G1   X104.886      Y22.420    
G17 G3   X104.9531     Y22.9261      R1.9685    
G1   Y21.914    
G17 G3   X104.8865     Y22.4202      R1.9685    
G1   X105.148      Y21.443    
G17 G3   X104.9531     Y21.9143      R1.9685    
G1   X105.459      Y21.038    
G17 G3   X105.1484     Y21.4429      R1.9685    
G1   X105.864      Y20.727    
G17 G3   X105.4590     Y21.0380      R1.9685    
G1   X106.335      Y20.532    
G17 G3   X105.8638     Y20.7274      R1.9685    
G1   X106.841      Y20.466    
G17 G3   X106.3353     Y20.5321      R1.9685    
G1   X107.347   
G17 G3   X106.8412     Y20.4655      R1.9685    
G1   X107.819      Y20.727    
G17 G3   X107.3471     Y20.5321      R1.9685    
G1   X108.223      Y21.038    
G17 G3   X107.8185     Y20.7274      R1.9685    
G1   X108.534      Y21.443    
G17 G3   X108.2234     Y21.0380      R1.9685    
G1   X108.729      Y21.914    
G17 G3   X108.5340     Y21.4429      R1.9685    
G1   X108.796      Y22.420    
G17 G3   X108.7293     Y21.9143      R1.9685    
G1   Y22.926    
G17 G3   X108.7959     Y22.4202      R1.9685    
G1   X108.534      Y23.398    
G17 G3   X108.7293     Y22.9261      R1.9685    
G1   X108.223      Y23.802    
G17 G3   X108.5340     Y23.3976      R1.9685    
G1   X107.819      Y24.113    
G17 G3   X108.2234     Y23.8024      R1.9685    
G1   X107.347      Y24.308    
G17 G3   X107.8185     Y24.1130      R1.9685    
G1   X106.841      Y24.375    
G17 G3   X107.3471     Y24.3083      R1.9685    
G1   X106.335   
G17 G3   X106.8412     Y24.3749      R1.9685    
G1   X105.864      Y24.113    
G17 G3   X106.3353     Y24.3083      R1.9685    
G1   X105.459      Y23.802    
G17 G3   X105.8638     Y24.1130      R1.9685    
(Pass: 6)
G1   X105.148      Y23.398    
   Z0.300      F100 
G17 G3   X105.4590     Y23.8024      R1.9685     F300 
G1   X104.953      Y22.926    
G17 G3   X105.1484     Y23.3976      R1.9685    
G1   X104.886      Y22.420    
G17 G3   X104.9531     Y22.9261      R1.9685    
G1   Y21.914    
G17 G3   X104.8865     Y22.4202      R1.9685    
G1   X105.148      Y21.443    
G17 G3   X104.9531     Y21.9143      R1.9685    
G1   X105.459      Y21.038    
G17 G3   X105.1484     Y21.4429      R1.9685    
G1   X105.864      Y20.727    
G17 G3   X105.4590     Y21.0380      R1.9685    
G1   X106.335      Y20.532    
G17 G3   X105.8638     Y20.7274      R1.9685    
G1   X106.841      Y20.466    
G17 G3   X106.3353     Y20.5321      R1.9685    
G1   X107.347   
G17 G3   X106.8412     Y20.4655      R1.9685    
G1   X107.819      Y20.727    
G17 G3   X107.3471     Y20.5321      R1.9685    
G1   X108.223      Y21.038    
G17 G3   X107.8185     Y20.7274      R1.9685    
G1   X108.534      Y21.443    
G17 G3   X108.2234     Y21.0380      R1.9685    
G1   X108.729      Y21.914    
G17 G3   X108.5340     Y21.4429      R1.9685    
G1   X108.796      Y22.420    
G17 G3   X108.7293     Y21.9143      R1.9685    
G1   Y22.926    
G17 G3   X108.7959     Y22.4202      R1.9685    
G1   X108.534      Y23.398    
G17 G3   X108.7293     Y22.9261      R1.9685    
G1   X108.223      Y23.802    
G17 G3   X108.5340     Y23.3976      R1.9685    
G1   X107.819      Y24.113    
G17 G3   X108.2234     Y23.8024      R1.9685    
G1   X107.347      Y24.308    
G17 G3   X107.8185     Y24.1130      R1.9685    
G1   X106.841      Y24.375    
G17 G3   X107.3471     Y24.3083      R1.9685    
G1   X106.335   
G17 G3   X106.8412     Y24.3749      R1.9685    
G1   X105.864      Y24.113    
G17 G3   X106.3353     Y24.3083      R1.9685    
G1   X105.459      Y23.802    
G17 G3   X105.8638     Y24.1130      R1.9685    
(Pass: 7)
G1   X105.148      Y23.398    
   Z0.000      F100 
G17 G3   X105.4590     Y23.8024      R1.9685     F300 
G1   X104.953      Y22.926    
G17 G3   X105.1484     Y23.3976      R1.9685    
G1   X104.886      Y22.420    
G17 G3   X104.9531     Y22.9261      R1.9685    
G1   Y21.914    
G17 G3   X104.8865     Y22.4202      R1.9685    
G1   X105.148      Y21.443    
G17 G3   X104.9531     Y21.9143      R1.9685    
G1   X105.459      Y21.038    
G17 G3   X105.1484     Y21.4429      R1.9685    
G1   X105.864      Y20.727    
G17 G3   X105.4590     Y21.0380      R1.9685    
G1   X106.335      Y20.532    
G17 G3   X105.8638     Y20.7274      R1.9685    
G1   X106.841      Y20.466    
G17 G3   X106.3353     Y20.5321      R1.9685    
G1   X107.347   
G17 G3   X106.8412     Y20.4655      R1.9685    
G1   X107.819      Y20.727    
G17 G3   X107.3471     Y20.5321      R1.9685    
G1   X108.223      Y21.038    
G17 G3   X107.8185     Y20.7274      R1.9685    
G1   X108.534      Y21.443    
G17 G3   X108.2234     Y21.0380      R1.9685    
G1   X108.729      Y21.914    
G17 G3   X108.5340     Y21.4429      R1.9685    
G1   X108.796      Y22.420    
G17 G3   X108.7293     Y21.9143      R1.9685    
G1   Y22.926    
G17 G3   X108.7959     Y22.4202      R1.9685    
G1   X108.534      Y23.398    
G17 G3   X108.7293     Y22.9261      R1.9685    
G1   X108.223      Y23.802    
G17 G3   X108.5340     Y23.3976      R1.9685    
G1   X107.819      Y24.113    
G17 G3   X108.2234     Y23.8024      R1.9685    
G1   X107.347      Y24.308    
G17 G3   X107.8185     Y24.1130      R1.9685    
G1   X106.841      Y24.375    
G17 G3   X107.3471     Y24.3083      R1.9685    
G1   X106.335   
G17 G3   X106.8412     Y24.3749      R1.9685    
G1   X105.864      Y24.113    
G17 G3   X106.3353     Y24.3083      R1.9685    
G1   X105.459      Y23.802    
G17 G3   X105.8638     Y24.1130      R1.9685    
G0   Z21.300    
(Pass: 1)
   X180.206      Y22.420    
G1   Z5.300      F100 
G17 G3   X180.2731     Y22.9261      R1.9685     F300 
G1   Y21.914    
G17 G3   X180.2065     Y22.4202      R1.9685    
G1   X180.468      Y21.443    
G17 G3   X180.2731     Y21.9143      R1.9685    
G1   X180.779      Y21.038    
G17 G3   X180.4684     Y21.4429      R1.9685    
G1   X181.184      Y20.727    
G17 G3   X180.7790     Y21.0380      R1.9685    
G1   X181.655      Y20.532    
G17 G3   X181.1838     Y20.7274      R1.9685    
G1   X182.161      Y20.466    
G17 G3   X181.6553     Y20.5321      R1.9685    
G1   X182.667   
G17 G3   X182.1612     Y20.4655      R1.9685    
G1   X183.139      Y20.727    
G17 G3   X182.6671     Y20.5321      R1.9685    
G1   X183.543      Y21.038    
G17 G3   X183.1385     Y20.7274      R1.9685    
G1   X183.854      Y21.443    
G17 G3   X183.5434     Y21.0380      R1.9685    
G1   X184.049      Y21.914    
G17 G3   X183.8540     Y21.4429      R1.9685    
G1   X184.116      Y22.420    
G17 G3   X184.0493     Y21.9143      R1.9685    
G1   Y22.926    
G17 G3   X184.1159     Y22.4202      R1.9685    
G1   X183.854      Y23.398    
G17 G3   X184.0493     Y22.9261      R1.9685    
G1   X183.543      Y23.802    
G17 G3   X183.8540     Y23.3976      R1.9685    
G1   X183.139      Y24.113    
G17 G3   X183.5434     Y23.8024      R1.9685    
G1   X182.667      Y24.308    
G17 G3   X183.1385     Y24.1130      R1.9685    
G1   X182.161      Y24.375    
G17 G3   X182.6671     Y24.3083      R1.9685    
G1   X181.655   
G17 G3   X182.1612     Y24.3749      R1.9685    
G1   X181.184      Y24.113    
G17 G3   X181.6553     Y24.3083      R1.9685    
G1   X180.779      Y23.802    
G17 G3   X181.1838     Y24.1130      R1.9685    
G1   X180.468      Y23.398    
G17 G3   X180.7790     Y23.8024      R1.9685    
G1   X180.273      Y22.926    
G17 G3   X180.4684     Y23.3976      R1.9685    
(Pass: 2)
G1   X180.206      Y22.420    
   Z4.300      F100 
G17 G3   X180.2731     Y22.9261      R1.9685     F300 
G1   Y21.914    
G17 G3   X180.2065     Y22.4202      R1.9685    
G1   X180.468      Y21.443    
G17 G3   X180.2731     Y21.9143      R1.9685    
G1   X180.779      Y21.038    
G17 G3   X180.4684     Y21.4429      R1.9685    
G1   X181.184      Y20.727    
G17 G3   X180.7790     Y21.0380      R1.9685    
G1   X181.655      Y20.532    
G17 G3   X181.1838     Y20.7274      R1.9685    
G1   X182.161      Y20.466    
G17 G3   X181.6553     Y20.5321      R1.9685    
G1   X182.667   
G17 G3   X182.1612     Y20.4655      R1.9685    
G1   X183.139      Y20.727    
G17 G3   X182.6671     Y20.5321      R1.9685    
G1   X183.543      Y21.038    
G17 G3   X183.1385     Y20.7274      R1.9685    
G1   X183.854      Y21.443    
G17 G3   X183.5434     Y21.0380      R1.9685    
G1   X184.049      Y21.914    
G17 G3   X183.8540     Y21.4429      R1.9685    
G1   X184.116      Y22.420    
G17 G3   X184.0493     Y21.9143      R1.9685    
G1   Y22.926    
G17 G3   X184.1159     Y22.4202      R1.9685    
G1   X183.854      Y23.398    
G17 G3   X184.0493     Y22.9261      R1.9685    
G1   X183.543      Y23.802    
G17 G3   X183.8540     Y23.3976      R1.9685    
G1   X183.139      Y24.113    
G17 G3   X183.5434     Y23.8024      R1.9685    
G1   X182.667      Y24.308    
G17 G3   X183.1385     Y24.1130      R1.9685    
G1   X182.161      Y24.375    
G17 G3   X182.6671     Y24.3083      R1.9685    
G1   X181.655   
G17 G3   X182.1612     Y24.3749      R1.9685    
G1   X181.184      Y24.113    
G17 G3   X181.6553     Y24.3083      R1.9685    
G1   X180.779      Y23.802    
G17 G3   X181.1838     Y24.1130      R1.9685    
G1   X180.468      Y23.398    
G17 G3   X180.7790     Y23.8024      R1.9685    
G1   X180.273      Y22.926    
G17 G3   X180.4684     Y23.3976      R1.9685    
(Pass: 3)
G1   X180.206      Y22.420    
   Z3.300      F100 
G17 G3   X180.2731     Y22.9261      R1.9685     F300 
G1   Y21.914    
G17 G3   X180.2065     Y22.4202      R1.9685    
G1   X180.468      Y21.443    
G17 G3   X180.2731     Y21.9143      R1.9685    
G1   X180.779      Y21.038    
G17 G3   X180.4684     Y21.4429      R1.9685    
G1   X181.184      Y20.727    
G17 G3   X180.7790     Y21.0380      R1.9685    
G1   X181.655      Y20.532    
G17 G3   X181.1838     Y20.7274      R1.9685    
G1   X182.161      Y20.466    
G17 G3   X181.6553     Y20.5321      R1.9685    
G1   X182.667   
G17 G3   X182.1612     Y20.4655      R1.9685    
G1   X183.139      Y20.727    
G17 G3   X182.6671     Y20.5321      R1.9685    
G1   X183.543      Y21.038    
G17 G3   X183.1385     Y20.7274      R1.9685    
G1   X183.854      Y21.443    
G17 G3   X183.5434     Y21.0380      R1.9685    
G1   X184.049      Y21.914    
G17 G3   X183.8540     Y21.4429      R1.9685    
G1   X184.116      Y22.420    
G17 G3   X184.0493     Y21.9143      R1.9685    
G1   Y22.926    
G17 G3   X184.1159     Y22.4202      R1.9685    
G1   X183.854      Y23.398    
G17 G3   X184.0493     Y22.9261      R1.9685    
G1   X183.543      Y23.802    
G17 G3   X183.8540     Y23.3976      R1.9685    
G1   X183.139      Y24.113    
G17 G3   X183.5434     Y23.8024      R1.9685    
G1   X182.667      Y24.308    
G17 G3   X183.1385     Y24.1130      R1.9685    
G1   X182.161      Y24.375    
G17 G3   X182.6671     Y24.3083      R1.9685    
G1   X181.655   
G17 G3   X182.1612     Y24.3749      R1.9685    
G1   X181.184      Y24.113    
G17 G3   X181.6553     Y24.3083      R1.9685    
G1   X180.779      Y23.802    
G17 G3   X181.1838     Y24.1130      R1.9685    
G1   X180.468      Y23.398    
G17 G3   X180.7790     Y23.8024      R1.9685    
G1   X180.273      Y22.926    
G17 G3   X180.4684     Y23.3976      R1.9685    
(Pass: 4)
G1   X180.206      Y22.420    
   Z2.300      F100 
G17 G3   X180.2731     Y22.9261      R1.9685     F300 
G1   Y21.914    
G17 G3   X180.2065     Y22.4202      R1.9685    
G1   X180.468      Y21.443    
G17 G3   X180.2731     Y21.9143      R1.9685    
G1   X180.779      Y21.038    
G17 G3   X180.4684     Y21.4429      R1.9685    
G1   X181.184      Y20.727    
G17 G3   X180.7790     Y21.0380      R1.9685    
G1   X181.655      Y20.532    
G17 G3   X181.1838     Y20.7274      R1.9685    
G1   X182.161      Y20.466    
G17 G3   X181.6553     Y20.5321      R1.9685    
G1   X182.667   
G17 G3   X182.1612     Y20.4655      R1.9685    
G1   X183.139      Y20.727    
G17 G3   X182.6671     Y20.5321      R1.9685    
G1   X183.543      Y21.038    
G17 G3   X183.1385     Y20.7274      R1.9685    
G1   X183.854      Y21.443    
G17 G3   X183.5434     Y21.0380      R1.9685    
G1   X184.049      Y21.914    
G17 G3   X183.8540     Y21.4429      R1.9685    
G1   X184.116      Y22.420    
G17 G3   X184.0493     Y21.9143      R1.9685    
G1   Y22.926    
G17 G3   X184.1159     Y22.4202      R1.9685    
G1   X183.854      Y23.398    
G17 G3   X184.0493     Y22.9261      R1.9685    
G1   X183.543      Y23.802    
G17 G3   X183.8540     Y23.3976      R1.9685    
G1   X183.139      Y24.113    
G17 G3   X183.5434     Y23.8024      R1.9685    
G1   X182.667      Y24.308    
G17 G3   X183.1385     Y24.1130      R1.9685    
G1   X182.161      Y24.375    
G17 G3   X182.6671     Y24.3083      R1.9685    
G1   X181.655   
G17 G3   X182.1612     Y24.3749      R1.9685    
G1   X181.184      Y24.113    
G17 G3   X181.6553     Y24.3083      R1.9685    
G1   X180.779      Y23.802    
G17 G3   X181.1838     Y24.1130      R1.9685    
G1   X180.468      Y23.398    
G17 G3   X180.7790     Y23.8024      R1.9685    
G1   X180.273      Y22.926    
G17 G3   X180.4684     Y23.3976      R1.9685    
(Pass: 5)
G1   X180.206      Y22.420    
   Z1.300      F100 
G17 G3   X180.2731     Y22.9261      R1.9685     F300 
G1   Y21.914    
G17 G3   X180.2065     Y22.4202      R1.9685    
G1   X180.468      Y21.443    
G17 G3   X180.2731     Y21.9143      R1.9685    
G1   X180.779      Y21.038    
G17 G3   X180.4684     Y21.4429      R1.9685    
G1   X181.184      Y20.727    
G17 G3   X180.7790     Y21.0380      R1.9685    
G1   X181.655      Y20.532    
G17 G3   X181.1838     Y20.7274      R1.9685    
G1   X182.161      Y20.466    
G17 G3   X181.6553     Y20.5321      R1.9685    
G1   X182.667   
G17 G3   X182.1612     Y20.4655      R1.9685    
G1   X183.139      Y20.727    
G17 G3   X182.6671     Y20.5321      R1.9685    
G1   X183.543      Y21.038    
G17 G3   X183.1385     Y20.7274      R1.9685    
G1   X183.854      Y21.443    
G17 G3   X183.5434     Y21.0380      R1.9685    
G1   X184.049      Y21.914    
G17 G3   X183.8540     Y21.4429      R1.9685    
G1   X184.116      Y22.420    
G17 G3   X184.0493     Y21.9143      R1.9685    
G1   Y22.926    
G17 G3   X184.1159     Y22.4202      R1.9685    
G1   X183.854      Y23.398    
G17 G3   X184.0493     Y22.9261      R1.9685    
G1   X183.543      Y23.802    
G17 G3   X183.8540     Y23.3976      R1.9685    
G1   X183.139      Y24.113    
G17 G3   X183.5434     Y23.8024      R1.9685    
G1   X182.667      Y24.308    
G17 G3   X183.1385     Y24.1130      R1.9685    
G1   X182.161      Y24.375    
G17 G3   X182.6671     Y24.3083      R1.9685    
G1   X181.655   
G17 G3   X182.1612     Y24.3749      R1.9685    
G1   X181.184      Y24.113    
G17 G3   X181.6553     Y24.3083      R1.9685    
G1   X180.779      Y23.802    
G17 G3   X181.1838     Y24.1130      R1.9685    
G1   X180.468      Y23.398    
G17 G3   X180.7790     Y23.8024      R1.9685    
G1   X180.273      Y22.926    
G17 G3   X180.4684     Y23.3976      R1.9685    
(Pass: 6)
G1   X180.206      Y22.420    
   Z0.300      F100 
G17 G3   X180.2731     Y22.9261      R1.9685     F300 
G1   Y21.914    
G17 G3   X180.2065     Y22.4202      R1.9685    
G1   X180.468      Y21.443    
G17 G3   X180.2731     Y21.9143      R1.9685    
G1   X180.779      Y21.038    
G17 G3   X180.4684     Y21.4429      R1.9685    
G1   X181.184      Y20.727    
G17 G3   X180.7790     Y21.0380      R1.9685    
G1   X181.655      Y20.532    
G17 G3   X181.1838     Y20.7274      R1.9685    
G1   X182.161      Y20.466    
G17 G3   X181.6553     Y20.5321      R1.9685    
G1   X182.667   
G17 G3   X182.1612     Y20.4655      R1.9685    
G1   X183.139      Y20.727    
G17 G3   X182.6671     Y20.5321      R1.9685    
G1   X183.543      Y21.038    
G17 G3   X183.1385     Y20.7274      R1.9685    
G1   X183.854      Y21.443    
G17 G3   X183.5434     Y21.0380      R1.9685    
G1   X184.049      Y21.914    
G17 G3   X183.8540     Y21.4429      R1.9685    
G1   X184.116      Y22.420    
G17 G3   X184.0493     Y21.9143      R1.9685    
G1   Y22.926    
G17 G3   X184.1159     Y22.4202      R1.9685    
G1   X183.854      Y23.398    
G17 G3   X184.0493     Y22.9261      R1.9685    
G1   X183.543      Y23.802    
G17 G3   X183.8540     Y23.3976      R1.9685    
G1   X183.139      Y24.113    
G17 G3   X183.5434     Y23.8024      R1.9685    
G1   X182.667      Y24.308    
G17 G3   X183.1385     Y24.1130      R1.9685    
G1   X182.161      Y24.375    
G17 G3   X182.6671     Y24.3083      R1.9685    
G1   X181.655   
G17 G3   X182.1612     Y24.3749      R1.9685    
G1   X181.184      Y24.113    
G17 G3   X181.6553     Y24.3083      R1.9685    
G1   X180.779      Y23.802    
G17 G3   X181.1838     Y24.1130      R1.9685    
G1   X180.468      Y23.398    
G17 G3   X180.7790     Y23.8024      R1.9685    
G1   X180.273      Y22.926    
G17 G3   X180.4684     Y23.3976      R1.9685    
(Pass: 7)
G1   X180.206      Y22.420    
   Z0.000      F100 
G17 G3   X180.2731     Y22.9261      R1.9685     F300 
G1   Y21.914    
G17 G3   X180.2065     Y22.4202      R1.9685    
G1   X180.468      Y21.443    
G17 G3   X180.2731     Y21.9143      R1.9685    
G1   X180.779      Y21.038    
G17 G3   X180.4684     Y21.4429      R1.9685    
G1   X181.184      Y20.727    
G17 G3   X180.7790     Y21.0380      R1.9685    
G1   X181.655      Y20.532    
G17 G3   X181.1838     Y20.7274      R1.9685    
G1   X182.161      Y20.466    
G17 G3   X181.6553     Y20.5321      R1.9685    
G1   X182.667   
G17 G3   X182.1612     Y20.4655      R1.9685    
G1   X183.139      Y20.727    
G17 G3   X182.6671     Y20.5321      R1.9685    
G1   X183.543      Y21.038    
G17 G3   X183.1385     Y20.7274      R1.9685    
G1   X183.854      Y21.443    
G17 G3   X183.5434     Y21.0380      R1.9685    
G1   X184.049      Y21.914    
G17 G3   X183.8540     Y21.4429      R1.9685    
G1   X184.116      Y22.420    
G17 G3   X184.0493     Y21.9143      R1.9685    
G1   Y22.926    
G17 G3   X184.1159     Y22.4202      R1.9685    
G1   X183.854      Y23.398    
G17 G3   X184.0493     Y22.9261      R1.9685    
G1   X183.543      Y23.802    
G17 G3   X183.8540     Y23.3976      R1.9685    
G1   X183.139      Y24.113    
G17 G3   X183.5434     Y23.8024      R1.9685    
G1   X182.667      Y24.308    
G17 G3   X183.1385     Y24.1130      R1.9685    
G1   X182.161      Y24.375    
G17 G3   X182.6671     Y24.3083      R1.9685    
G1   X181.655   
G17 G3   X182.1612     Y24.3749      R1.9685    
G1   X181.184      Y24.113    
G17 G3   X181.6553     Y24.3083      R1.9685    
G1   X180.779      Y23.802    
G17 G3   X181.1838     Y24.1130      R1.9685    
G1   X180.468      Y23.398    
G17 G3   X180.7790     Y23.8024      R1.9685    
G1   X180.273      Y22.926    
G17 G3   X180.4684     Y23.3976      R1.9685    
G0   Z21.300    
(Pass: 1)
   X191.071      Y32.324    
G1   Z5.300      F100 
G17 G3   X190.9939     Y32.5426      R0.9000     F300 
G1   X191.201      Y32.133    
G17 G3   X191.0707     Y32.3243      R0.9000    
G1   X191.377      Y31.983    
G17 G3   X191.2013     Y32.1334      R0.9000    
G1   X191.585      Y31.883    
G17 G3   X191.3769     Y31.9827      R0.9000    
G1   X191.813      Y31.840    
G17 G3   X191.5855     Y31.8827      R0.9000    
G1   X192.044   
G17 G3   X191.8128     Y31.8400      R0.9000    
G1   X192.262      Y31.934    
G17 G3   X192.0435     Y31.8577      R0.9000    
G1   X192.453      Y32.065    
G17 G3   X192.2618     Y31.9344      R0.9000    
G1   X192.603      Y32.241    
G17 G3   X192.4527     Y32.0650      R0.9000    
G1   X192.703      Y32.449    
G17 G3   X192.6033     Y32.2406      R0.9000    
G1   X192.746      Y32.677    
G17 G3   X192.7034     Y32.4492      R0.9000    
G1   Y32.907    
G17 G3   X192.7461     Y32.6766      R0.9000    
G1   X192.652      Y33.125    
G17 G3   X192.7284     Y32.9072      R0.9000    
G1   X192.521      Y33.316    
G17 G3   X192.6517     Y33.1255      R0.9000    
G1   X192.345      Y33.467    
G17 G3   X192.5211     Y33.3164      R0.9000    
G1   X192.137      Y33.567    
G17 G3   X192.3455     Y33.4671      R0.9000    
G1   X191.910      Y33.610    
G17 G3   X192.1369     Y33.5671      R0.9000    
G1   X191.847      Y33.605    
G17 G3   X191.9095     Y33.6098      R0.9000    
G1   X191.679   
G17 G3   X191.8468     Y33.6050      R0.9000    
G1   X191.461      Y33.515    
G17 G3   X191.6789     Y33.5921      R0.9000    
G1   X191.270      Y33.385    
G17 G3   X191.4606     Y33.5154      R0.9000    
G1   X191.119      Y33.209    
G17 G3   X191.2697     Y33.3848      R0.9000    
G1   X191.019      Y33.001    
G17 G3   X191.1190     Y33.2092      R0.9000    
G1   X190.976      Y32.773    
G17 G3   X191.0190     Y33.0006      R0.9000    
G1   Y32.543    
G17 G3   X190.9763     Y32.7732      R0.9000    
(Pass: 2)
G1   X191.071      Y32.324    
   Z4.300      F100 
G17 G3   X190.9939     Y32.5426      R0.9000     F300 
G1   X191.201      Y32.133    
G17 G3   X191.0707     Y32.3243      R0.9000    
G1   X191.377      Y31.983    
G17 G3   X191.2013     Y32.1334      R0.9000    
G1   X191.585      Y31.883    
G17 G3   X191.3769     Y31.9827      R0.9000    
G1   X191.813      Y31.840    
G17 G3   X191.5855     Y31.8827      R0.9000    
G1   X192.044   
G17 G3   X191.8128     Y31.8400      R0.9000    
G1   X192.262      Y31.934    
G17 G3   X192.0435     Y31.8577      R0.9000    
G1   X192.453      Y32.065    
G17 G3   X192.2618     Y31.9344      R0.9000    
G1   X192.603      Y32.241    
G17 G3   X192.4527     Y32.0650      R0.9000    
G1   X192.703      Y32.449    
G17 G3   X192.6033     Y32.2406      R0.9000    
G1   X192.746      Y32.677    
G17 G3   X192.7034     Y32.4492      R0.9000    
G1   Y32.907    
G17 G3   X192.7461     Y32.6766      R0.9000    
G1   X192.652      Y33.125    
G17 G3   X192.7284     Y32.9072      R0.9000    
G1   X192.521      Y33.316    
G17 G3   X192.6517     Y33.1255      R0.9000    
G1   X192.345      Y33.467    
G17 G3   X192.5211     Y33.3164      R0.9000    
G1   X192.137      Y33.567    
G17 G3   X192.3455     Y33.4671      R0.9000    
G1   X191.910      Y33.610    
G17 G3   X192.1369     Y33.5671      R0.9000    
G1   X191.847      Y33.605    
G17 G3   X191.9095     Y33.6098      R0.9000    
G1   X191.679   
G17 G3   X191.8468     Y33.6050      R0.9000    
G1   X191.461      Y33.515    
G17 G3   X191.6789     Y33.5921      R0.9000    
G1   X191.270      Y33.385    
G17 G3   X191.4606     Y33.5154      R0.9000    
G1   X191.119      Y33.209    
G17 G3   X191.2697     Y33.3848      R0.9000    
G1   X191.019      Y33.001    
G17 G3   X191.1190     Y33.2092      R0.9000    
G1   X190.976      Y32.773    
G17 G3   X191.0190     Y33.0006      R0.9000    
G1   Y32.543    
G17 G3   X190.9763     Y32.7732      R0.9000    
(Pass: 3)
G1   X191.071      Y32.324    
   Z3.300      F100 
G17 G3   X190.9939     Y32.5426      R0.9000     F300 
G1   X191.201      Y32.133    
G17 G3   X191.0707     Y32.3243      R0.9000    
G1   X191.377      Y31.983    
G17 G3   X191.2013     Y32.1334      R0.9000    
G1   X191.585      Y31.883    
G17 G3   X191.3769     Y31.9827      R0.9000    
G1   X191.813      Y31.840    
G17 G3   X191.5855     Y31.8827      R0.9000    
G1   X192.044   
G17 G3   X191.8128     Y31.8400      R0.9000    
G1   X192.262      Y31.934    
G17 G3   X192.0435     Y31.8577      R0.9000    
G1   X192.453      Y32.065    
G17 G3   X192.2618     Y31.9344      R0.9000    
G1   X192.603      Y32.241    
G17 G3   X192.4527     Y32.0650      R0.9000    
G1   X192.703      Y32.449    
G17 G3   X192.6033     Y32.2406      R0.9000    
G1   X192.746      Y32.677    
G17 G3   X192.7034     Y32.4492      R0.9000    
G1   Y32.907    
G17 G3   X192.7461     Y32.6766      R0.9000    
G1   X192.652      Y33.125    
G17 G3   X192.7284     Y32.9072      R0.9000    
G1   X192.521      Y33.316    
G17 G3   X192.6517     Y33.1255      R0.9000    
G1   X192.345      Y33.467    
G17 G3   X192.5211     Y33.3164      R0.9000    
G1   X192.137      Y33.567    
G17 G3   X192.3455     Y33.4671      R0.9000    
G1   X191.910      Y33.610    
G17 G3   X192.1369     Y33.5671      R0.9000    
G1   X191.847      Y33.605    
G17 G3   X191.9095     Y33.6098      R0.9000    
G1   X191.679   
G17 G3   X191.8468     Y33.6050      R0.9000    
G1   X191.461      Y33.515    
G17 G3   X191.6789     Y33.5921      R0.9000    
G1   X191.270      Y33.385    
G17 G3   X191.4606     Y33.5154      R0.9000    
G1   X191.119      Y33.209    
G17 G3   X191.2697     Y33.3848      R0.9000    
G1   X191.019      Y33.001    
G17 G3   X191.1190     Y33.2092      R0.9000    
G1   X190.976      Y32.773    
G17 G3   X191.0190     Y33.0006      R0.9000    
G1   Y32.543    
G17 G3   X190.9763     Y32.7732      R0.9000    
(Pass: 4)
G1   X191.071      Y32.324    
   Z2.300      F100 
G17 G3   X190.9939     Y32.5426      R0.9000     F300 
G1   X191.201      Y32.133    
G17 G3   X191.0707     Y32.3243      R0.9000    
G1   X191.377      Y31.983    
G17 G3   X191.2013     Y32.1334      R0.9000    
G1   X191.585      Y31.883    
G17 G3   X191.3769     Y31.9827      R0.9000    
G1   X191.813      Y31.840    
G17 G3   X191.5855     Y31.8827      R0.9000    
G1   X192.044   
G17 G3   X191.8128     Y31.8400      R0.9000    
G1   X192.262      Y31.934    
G17 G3   X192.0435     Y31.8577      R0.9000    
G1   X192.453      Y32.065    
G17 G3   X192.2618     Y31.9344      R0.9000    
G1   X192.603      Y32.241    
G17 G3   X192.4527     Y32.0650      R0.9000    
G1   X192.703      Y32.449    
G17 G3   X192.6033     Y32.2406      R0.9000    
G1   X192.746      Y32.677    
G17 G3   X192.7034     Y32.4492      R0.9000    
G1   Y32.907    
G17 G3   X192.7461     Y32.6766      R0.9000    
G1   X192.652      Y33.125    
G17 G3   X192.7284     Y32.9072      R0.9000    
G1   X192.521      Y33.316    
G17 G3   X192.6517     Y33.1255      R0.9000    
G1   X192.345      Y33.467    
G17 G3   X192.5211     Y33.3164      R0.9000    
G1   X192.137      Y33.567    
G17 G3   X192.3455     Y33.4671      R0.9000    
G1   X191.910      Y33.610    
G17 G3   X192.1369     Y33.5671      R0.9000    
G1   X191.847      Y33.605    
G17 G3   X191.9095     Y33.6098      R0.9000    
G1   X191.679   
G17 G3   X191.8468     Y33.6050      R0.9000    
G1   X191.461      Y33.515    
G17 G3   X191.6789     Y33.5921      R0.9000    
G1   X191.270      Y33.385    
G17 G3   X191.4606     Y33.5154      R0.9000    
G1   X191.119      Y33.209    
G17 G3   X191.2697     Y33.3848      R0.9000    
G1   X191.019      Y33.001    
G17 G3   X191.1190     Y33.2092      R0.9000    
G1   X190.976      Y32.773    
G17 G3   X191.0190     Y33.0006      R0.9000    
G1   Y32.543    
G17 G3   X190.9763     Y32.7732      R0.9000    
(Pass: 5)
G1   X191.071      Y32.324    
   Z1.300      F100 
G17 G3   X190.9939     Y32.5426      R0.9000     F300 
G1   X191.201      Y32.133    
G17 G3   X191.0707     Y32.3243      R0.9000    
G1   X191.377      Y31.983    
G17 G3   X191.2013     Y32.1334      R0.9000    
G1   X191.585      Y31.883    
G17 G3   X191.3769     Y31.9827      R0.9000    
G1   X191.813      Y31.840    
G17 G3   X191.5855     Y31.8827      R0.9000    
G1   X192.044   
G17 G3   X191.8128     Y31.8400      R0.9000    
G1   X192.262      Y31.934    
G17 G3   X192.0435     Y31.8577      R0.9000    
G1   X192.453      Y32.065    
G17 G3   X192.2618     Y31.9344      R0.9000    
G1   X192.603      Y32.241    
G17 G3   X192.4527     Y32.0650      R0.9000    
G1   X192.703      Y32.449    
G17 G3   X192.6033     Y32.2406      R0.9000    
G1   X192.746      Y32.677    
G17 G3   X192.7034     Y32.4492      R0.9000    
G1   Y32.907    
G17 G3   X192.7461     Y32.6766      R0.9000    
G1   X192.652      Y33.125    
G17 G3   X192.7284     Y32.9072      R0.9000    
G1   X192.521      Y33.316    
G17 G3   X192.6517     Y33.1255      R0.9000    
G1   X192.345      Y33.467    
G17 G3   X192.5211     Y33.3164      R0.9000    
G1   X192.137      Y33.567    
G17 G3   X192.3455     Y33.4671      R0.9000    
G1   X191.910      Y33.610    
G17 G3   X192.1369     Y33.5671      R0.9000    
G1   X191.847      Y33.605    
G17 G3   X191.9095     Y33.6098      R0.9000    
G1   X191.679   
G17 G3   X191.8468     Y33.6050      R0.9000    
G1   X191.461      Y33.515    
G17 G3   X191.6789     Y33.5921      R0.9000    
G1   X191.270      Y33.385    
G17 G3   X191.4606     Y33.5154      R0.9000    
G1   X191.119      Y33.209    
G17 G3   X191.2697     Y33.3848      R0.9000    
G1   X191.019      Y33.001    
G17 G3   X191.1190     Y33.2092      R0.9000    
G1   X190.976      Y32.773    
G17 G3   X191.0190     Y33.0006      R0.9000    
G1   Y32.543    
G17 G3   X190.9763     Y32.7732      R0.9000    
(Pass: 6)
G1   X191.071      Y32.324    
   Z0.300      F100 
G17 G3   X190.9939     Y32.5426      R0.9000     F300 
G1   X191.201      Y32.133    
G17 G3   X191.0707     Y32.3243      R0.9000    
G1   X191.377      Y31.983    
G17 G3   X191.2013     Y32.1334      R0.9000    
G1   X191.585      Y31.883    
G17 G3   X191.3769     Y31.9827      R0.9000    
G1   X191.813      Y31.840    
G17 G3   X191.5855     Y31.8827      R0.9000    
G1   X192.044   
G17 G3   X191.8128     Y31.8400      R0.9000    
G1   X192.262      Y31.934    
G17 G3   X192.0435     Y31.8577      R0.9000    
G1   X192.453      Y32.065    
G17 G3   X192.2618     Y31.9344      R0.9000    
G1   X192.603      Y32.241    
G17 G3   X192.4527     Y32.0650      R0.9000    
G1   X192.703      Y32.449    
G17 G3   X192.6033     Y32.2406      R0.9000    
G1   X192.746      Y32.677    
G17 G3   X192.7034     Y32.4492      R0.9000    
G1   Y32.907    
G17 G3   X192.7461     Y32.6766      R0.9000    
G1   X192.652      Y33.125    
G17 G3   X192.7284     Y32.9072      R0.9000    
G1   X192.521      Y33.316    
G17 G3   X192.6517     Y33.1255      R0.9000    
G1   X192.345      Y33.467    
G17 G3   X192.5211     Y33.3164      R0.9000    
G1   X192.137      Y33.567    
G17 G3   X192.3455     Y33.4671      R0.9000    
G1   X191.910      Y33.610    
G17 G3   X192.1369     Y33.5671      R0.9000    
G1   X191.847      Y33.605    
G17 G3   X191.9095     Y33.6098      R0.9000    
G1   X191.679   
G17 G3   X191.8468     Y33.6050      R0.9000    
G1   X191.461      Y33.515    
G17 G3   X191.6789     Y33.5921      R0.9000    
G1   X191.270      Y33.385    
G17 G3   X191.4606     Y33.5154      R0.9000    
G1   X191.119      Y33.209    
G17 G3   X191.2697     Y33.3848      R0.9000    
G1   X191.019      Y33.001    
G17 G3   X191.1190     Y33.2092      R0.9000    
G1   X190.976      Y32.773    
G17 G3   X191.0190     Y33.0006      R0.9000    
G1   Y32.543    
G17 G3   X190.9763     Y32.7732      R0.9000    
(Pass: 7)
G1   X191.071      Y32.324    
   Z0.000      F100 
G17 G3   X190.9939     Y32.5426      R0.9000     F300 
G1   X191.201      Y32.133    
G17 G3   X191.0707     Y32.3243      R0.9000    
G1   X191.377      Y31.983    
G17 G3   X191.2013     Y32.1334      R0.9000    
G1   X191.585      Y31.883    
G17 G3   X191.3769     Y31.9827      R0.9000    
G1   X191.813      Y31.840    
G17 G3   X191.5855     Y31.8827      R0.9000    
G1   X192.044   
G17 G3   X191.8128     Y31.8400      R0.9000    
G1   X192.262      Y31.934    
G17 G3   X192.0435     Y31.8577      R0.9000    
G1   X192.453      Y32.065    
G17 G3   X192.2618     Y31.9344      R0.9000    
G1   X192.603      Y32.241    
G17 G3   X192.4527     Y32.0650      R0.9000    
G1   X192.703      Y32.449    
G17 G3   X192.6033     Y32.2406      R0.9000    
G1   X192.746      Y32.677    
G17 G3   X192.7034     Y32.4492      R0.9000    
G1   Y32.907    
G17 G3   X192.7461     Y32.6766      R0.9000    
G1   X192.652      Y33.125    
G17 G3   X192.7284     Y32.9072      R0.9000    
G1   X192.521      Y33.316    
G17 G3   X192.6517     Y33.1255      R0.9000    
G1   X192.345      Y33.467    
G17 G3   X192.5211     Y33.3164      R0.9000    
G1   X192.137      Y33.567    
G17 G3   X192.3455     Y33.4671      R0.9000    
G1   X191.910      Y33.610    
G17 G3   X192.1369     Y33.5671      R0.9000    
G1   X191.847      Y33.605    
G17 G3   X191.9095     Y33.6098      R0.9000    
G1   X191.679   
G17 G3   X191.8468     Y33.6050      R0.9000    
G1   X191.461      Y33.515    
G17 G3   X191.6789     Y33.5921      R0.9000    
G1   X191.270      Y33.385    
G17 G3   X191.4606     Y33.5154      R0.9000    
G1   X191.119      Y33.209    
G17 G3   X191.2697     Y33.3848      R0.9000    
G1   X191.019      Y33.001    
G17 G3   X191.1190     Y33.2092      R0.9000    
G1   X190.976      Y32.773    
G17 G3   X191.0190     Y33.0006      R0.9000    
G1   Y32.543    
G17 G3   X190.9763     Y32.7732      R0.9000    
G0   Z21.300    
(Pass: 1)
   X191.786      Y41.874    
G1   Z5.300      F100 
G17 G3   X191.5596     Y41.9240      R0.9000     F300 
G1   X192.017      Y41.885    
G17 G3   X191.7855     Y41.8743      R0.9000    
G1   X192.237      Y41.955    
G17 G3   X192.0166     Y41.8848      R0.9000    
G1   X192.432      Y42.079    
G17 G3   X192.2371     Y41.9548      R0.9000    
G1   X192.588      Y42.250    
G17 G3   X192.4320     Y42.0794      R0.9000    
G1   X192.694      Y42.456    
G17 G3   X192.5880     Y42.2502      R0.9000    
G1   X192.744      Y42.682    
G17 G3   X192.6945     Y42.4556      R0.9000    
G1   X192.734      Y42.913    
G17 G3   X192.7441     Y42.6816      R0.9000    
G1   X192.664      Y43.133    
G17 G3   X192.7336     Y42.9127      R0.9000    
G1   X192.539      Y43.328    
G17 G3   X192.6637     Y43.1332      R0.9000    
G1   X192.368      Y43.484    
G17 G3   X192.5390     Y43.3281      R0.9000    
G1   X192.163      Y43.591    
G17 G3   X192.3682     Y43.4841      R0.9000    
G1   X191.901      Y43.648    
G17 G3   X192.1628     Y43.5905      R0.9000    
G1   X191.803      Y43.648    
G17 G3   X191.9009     Y43.6481      R0.9000    
G1   X191.746   
G17 G3   X191.8031     Y43.6481      R0.9000    
G1   X191.485      Y43.560    
G17 G3   X191.7462     Y43.6426      R0.9000    
G1   X191.290      Y43.435    
G17 G3   X191.4852     Y43.5598      R0.9000    
G1   X191.134      Y43.264    
G17 G3   X191.2903     Y43.4351      R0.9000    
G1   X191.028      Y43.059    
G17 G3   X191.1344     Y43.2643      R0.9000    
G1   X190.978      Y42.833    
G17 G3   X191.0279     Y43.0589      R0.9000    
G1   X190.989      Y42.602    
G17 G3   X190.9782     Y42.8329      R0.9000    
G1   X191.059      Y42.381    
G17 G3   X190.9887     Y42.6018      R0.9000    
G1   X191.183      Y42.186    
G17 G3   X191.0587     Y42.3813      R0.9000    
G1   X191.354      Y42.030    
G17 G3   X191.1833     Y42.1864      R0.9000    
G1   X191.560      Y41.924    
G17 G3   X191.3542     Y42.0304      R0.9000    
(Pass: 2)
G1   X191.786      Y41.874    
   Z4.300      F100 
G17 G3   X191.5596     Y41.9240      R0.9000     F300 
G1   X192.017      Y41.885    
G17 G3   X191.7855     Y41.8743      R0.9000    
G1   X192.237      Y41.955    
G17 G3   X192.0166     Y41.8848      R0.9000    
G1   X192.432      Y42.079    
G17 G3   X192.2371     Y41.9548      R0.9000    
G1   X192.588      Y42.250    
G17 G3   X192.4320     Y42.0794      R0.9000    
G1   X192.694      Y42.456    
G17 G3   X192.5880     Y42.2502      R0.9000    
G1   X192.744      Y42.682    
G17 G3   X192.6945     Y42.4556      R0.9000    
G1   X192.734      Y42.913    
G17 G3   X192.7441     Y42.6816      R0.9000    
G1   X192.664      Y43.133    
G17 G3   X192.7336     Y42.9127      R0.9000    
G1   X192.539      Y43.328    
G17 G3   X192.6637     Y43.1332      R0.9000    
G1   X192.368      Y43.484    
G17 G3   X192.5390     Y43.3281      R0.9000    
G1   X192.163      Y43.591    
G17 G3   X192.3682     Y43.4841      R0.9000    
G1   X191.901      Y43.648    
G17 G3   X192.1628     Y43.5905      R0.9000    
G1   X191.803      Y43.648    
G17 G3   X191.9009     Y43.6481      R0.9000    
G1   X191.746   
G17 G3   X191.8031     Y43.6481      R0.9000    
G1   X191.485      Y43.560    
G17 G3   X191.7462     Y43.6426      R0.9000    
G1   X191.290      Y43.435    
G17 G3   X191.4852     Y43.5598      R0.9000    
G1   X191.134      Y43.264    
G17 G3   X191.2903     Y43.4351      R0.9000    
G1   X191.028      Y43.059    
G17 G3   X191.1344     Y43.2643      R0.9000    
G1   X190.978      Y42.833    
G17 G3   X191.0279     Y43.0589      R0.9000    
G1   X190.989      Y42.602    
G17 G3   X190.9782     Y42.8329      R0.9000    
G1   X191.059      Y42.381    
G17 G3   X190.9887     Y42.6018      R0.9000    
G1   X191.183      Y42.186    
G17 G3   X191.0587     Y42.3813      R0.9000    
G1   X191.354      Y42.030    
G17 G3   X191.1833     Y42.1864      R0.9000    
G1   X191.560      Y41.924    
G17 G3   X191.3542     Y42.0304      R0.9000    
(Pass: 3)
G1   X191.786      Y41.874    
   Z3.300      F100 
G17 G3   X191.5596     Y41.9240      R0.9000     F300 
G1   X192.017      Y41.885    
G17 G3   X191.7855     Y41.8743      R0.9000    
G1   X192.237      Y41.955    
G17 G3   X192.0166     Y41.8848      R0.9000    
G1   X192.432      Y42.079    
G17 G3   X192.2371     Y41.9548      R0.9000    
G1   X192.588      Y42.250    
G17 G3   X192.4320     Y42.0794      R0.9000    
G1   X192.694      Y42.456    
G17 G3   X192.5880     Y42.2502      R0.9000    
G1   X192.744      Y42.682    
G17 G3   X192.6945     Y42.4556      R0.9000    
G1   X192.734      Y42.913    
G17 G3   X192.7441     Y42.6816      R0.9000    
G1   X192.664      Y43.133    
G17 G3   X192.7336     Y42.9127      R0.9000    
G1   X192.539      Y43.328    
G17 G3   X192.6637     Y43.1332      R0.9000    
G1   X192.368      Y43.484    
G17 G3   X192.5390     Y43.3281      R0.9000    
G1   X192.163      Y43.591    
G17 G3   X192.3682     Y43.4841      R0.9000    
G1   X191.901      Y43.648    
G17 G3   X192.1628     Y43.5905      R0.9000    
G1   X191.803      Y43.648    
G17 G3   X191.9009     Y43.6481      R0.9000    
G1   X191.746   
G17 G3   X191.8031     Y43.6481      R0.9000    
G1   X191.485      Y43.560    
G17 G3   X191.7462     Y43.6426      R0.9000    
G1   X191.290      Y43.435    
G17 G3   X191.4852     Y43.5598      R0.9000    
G1   X191.134      Y43.264    
G17 G3   X191.2903     Y43.4351      R0.9000    
G1   X191.028      Y43.059    
G17 G3   X191.1344     Y43.2643      R0.9000    
G1   X190.978      Y42.833    
G17 G3   X191.0279     Y43.0589      R0.9000    
G1   X190.989      Y42.602    
G17 G3   X190.9782     Y42.8329      R0.9000    
