%
(Generated by SketchUcam {1.2b1})
(File: TestCircle.skp)
(Bit diameter: 5.0mm)
(Feed rate: 75.0mm/min)
(Plunge Feed rate: 50.0mm/min)
(Material Thickness: ~ 3.2mm)
(Material length: 600.0mm X width: 300.0mm)
(Overhead Gantry: true)
(Retract feed rate NOT limited to plunge feed rate)
(Multipass enabled, Depth = 1.0mm)
(Optimization is ON)
(www.PhlatBoyz.com)
G90 G21 G49 
M3 S11000
G0   Z6.000     
(Pass: 1)
   X23.392       Y29.766    
G1   Z-1.000     F50  
G17 G2   X16.8145      Y40.2715      R47.5000    F75  
   X13.1799      Y52.1209      R47.5000   
   X12.7360      Y64.5073      R47.5000   
   X15.5131      Y76.5866      R47.5000   
   X21.3219      Y87.5355      R47.5000   
   X29.7665      Y96.6079      R47.5000   
   X40.2715      Y103.1855     R47.5000   
   X52.1209      Y106.8201     R47.5000   
   X64.5073      Y107.2640     R47.5000   
   X76.5866      Y104.4869     R47.5000   
   X87.5355      Y98.6781      R47.5000   
   X96.6079      Y90.2335      R47.5000   
   X103.1855     Y79.7285      R47.5000   
   X106.8201     Y67.8791      R47.5000   
   X107.2640     Y55.4927      R47.5000   
   X104.4869     Y43.4134      R47.5000   
   X98.6781      Y32.4645      R47.5000   
   X90.2335      Y23.3921      R47.5000   
   X79.7285      Y16.8145      R47.5000   
   X67.8791      Y13.1799      R47.5000   
   X55.4927      Y12.7360      R47.5000   
   X43.4134      Y15.5131      R47.5000   
   X32.4645      Y21.3219      R47.5000   
   X23.3921      Y29.7665      R47.5000   
(Pass: 2)
G1   Z-2.000     F50  
G17 G2   X16.8145      Y40.2715      R47.5000    F75  
   X13.1799      Y52.1209      R47.5000   
   X12.7360      Y64.5073      R47.5000   
   X15.5131      Y76.5866      R47.5000   
   X21.3219      Y87.5355      R47.5000   
   X29.7665      Y96.6079      R47.5000   
   X40.2715      Y103.1855     R47.5000   
   X52.1209      Y106.8201     R47.5000   
   X64.5073      Y107.2640     R47.5000   
   X76.5866      Y104.4869     R47.5000   
   X87.5355      Y98.6781      R47.5000   
   X96.6079      Y90.2335      R47.5000   
   X103.1855     Y79.7285      R47.5000   
   X106.8201     Y67.8791      R47.5000   
   X107.2640     Y55.4927      R47.5000   
   X104.4869     Y43.4134      R47.5000   
   X98.6781      Y32.4645      R47.5000   
   X90.2335      Y23.3921      R47.5000   
   X79.7285      Y16.8145      R47.5000   
   X67.8791      Y13.1799      R47.5000   
   X55.4927      Y12.7360      R47.5000   
   X43.4134      Y15.5131      R47.5000   
   X32.4645      Y21.3219      R47.5000   
   X23.3921      Y29.7665      R47.5000   
(Pass: 3)
G1   Z-3.000     F50  
G17 G2   X16.8145      Y40.2715      R47.5000    F75  
   X13.1799      Y52.1209      R47.5000   
   X12.7360      Y64.5073      R47.5000   
   X15.5131      Y76.5866      R47.5000   
   X21.3219      Y87.5355      R47.5000   
   X29.7665      Y96.6079      R47.5000   
   X40.2715      Y103.1855     R47.5000   
   X52.1209      Y106.8201     R47.5000   
   X64.5073      Y107.2640     R47.5000   
   X76.5866      Y104.4869     R47.5000   
   X87.5355      Y98.6781      R47.5000   
   X96.6079      Y90.2335      R47.5000   
   X103.1855     Y79.7285      R47.5000   
   X106.8201     Y67.8791      R47.5000   
   X107.2640     Y55.4927      R47.5000   
   X104.4869     Y43.4134      R47.5000   
   X98.6781      Y32.4645      R47.5000   
   X90.2335      Y23.3921      R47.5000   
   X79.7285      Y16.8145      R47.5000   
   X67.8791      Y13.1799      R47.5000   
   X55.4927      Y12.7360      R47.5000   
   X43.4134      Y15.5131      R47.5000   
   X32.4645      Y21.3219      R47.5000   
   X23.3921      Y29.7665      R47.5000   
(Pass: 4)
G1   Z-4.000     F50  
G17 G2   X16.8145      Y40.2715      R47.5000    F75  
   X13.1799      Y52.1209      R47.5000   
   X12.7360      Y64.5073      R47.5000   
   X15.5131      Y76.5866      R47.5000   
   X21.3219      Y87.5355      R47.5000   
   X29.7665      Y96.6079      R47.5000   
   X40.2715      Y103.1855     R47.5000   
   X52.1209      Y106.8201     R47.5000   
   X64.5073      Y107.2640     R47.5000   
   X76.5866      Y104.4869     R47.5000   
   X87.5355      Y98.6781      R47.5000   
   X96.6079      Y90.2335      R47.5000   
   X103.1855     Y79.7285      R47.5000   
   X106.8201     Y67.8791      R47.5000   
   X107.2640     Y55.4927      R47.5000   
   X104.4869     Y43.4134      R47.5000   
   X98.6781      Y32.4645      R47.5000   
   X90.2335      Y23.3921      R47.5000   
   X79.7285      Y16.8145      R47.5000   
   X67.8791      Y13.1799      R47.5000   
   X55.4927      Y12.7360      R47.5000   
   X43.4134      Y15.5131      R47.5000   
   X32.4645      Y21.3219      R47.5000   
   X23.3921      Y29.7665      R47.5000   
(Pass: 5)
G1   Z-4.550     F50  
G17 G2   X16.8145      Y40.2715      R47.5000    F75  
   X13.1799      Y52.1209      R47.5000   
   X12.7360      Y64.5073      R47.5000   
   X15.5131      Y76.5866      R47.5000   
   X21.3219      Y87.5355      R47.5000   
   X29.7665      Y96.6079      R47.5000   
   X40.2715      Y103.1855     R47.5000   
   X52.1209      Y106.8201     R47.5000   
   X64.5073      Y107.2640     R47.5000   
   X76.5866      Y104.4869     R47.5000   
   X87.5355      Y98.6781      R47.5000   
   X96.6079      Y90.2335      R47.5000   
   X103.1855     Y79.7285      R47.5000   
   X106.8201     Y67.8791      R47.5000   
   X107.2640     Y55.4927      R47.5000   
   X104.4869     Y43.4134      R47.5000   
   X98.6781      Y32.4645      R47.5000   
   X90.2335      Y23.3921      R47.5000   
   X79.7285      Y16.8145      R47.5000   
   X67.8791      Y13.1799      R47.5000   
   X55.4927      Y12.7360      R47.5000   
   X43.4134      Y15.5131      R47.5000   
   X32.4645      Y21.3219      R47.5000   
   X23.3921      Y29.7665      R47.5000   
(BREAK pass 5)
G0   Z6.000     
G0 X0 Y0 (home)
M05
M30
%
