%
(Generated by SketchUcam {1.2})
(File: VacuumTableAir.skp)
(Bit diameter: 12.0mm)
(Feed rate: 1500.0mm/min)
(Material Thickness: 20.0mm)
(Material length: 2500.0mm X width: 1240.0mm)
(Overhead Gantry: true)
(Retract feed rate NOT limited to plunge feed rate)
(Multipass enabled, Depth = 2.0mm)
(Optimization is ON)
(www.PhlatBoyz.com)
G90 G21 G49 
M3 S10000
G0   Z5.000     
(Pass: 1)
   X507.200      Y607.200   
G1   Z-2.000     F1500
   Y692.800   
   X515.600   
   Y607.200   
   X524.000   
   Y692.800   
   X532.400   
   Y607.200   
   X540.800   
   Y692.800   
   X549.200   
   Y607.200   
   X557.600   
   Y692.800   
   X566.000   
   Y607.200   
   X574.400   
   Y692.800   
   X582.800   
   Y607.200   
   X591.200   
   Y692.800   
(Pass: 2)
G0   Z5.000     
   X507.200      Y607.200   
G1   Z-4.000     F1500
   Y692.800   
   X515.600   
   Y607.200   
   X524.000   
   Y692.800   
   X532.400   
   Y607.200   
   X540.800   
   Y692.800   
   X549.200   
   Y607.200   
   X557.600   
   Y692.800   
   X566.000   
   Y607.200   
   X574.400   
   Y692.800   
   X582.800   
   Y607.200   
   X591.200   
   Y692.800   
(Pass: 3)
G0   Z5.000     
   X507.200      Y607.200   
G1   Z-6.000     F1500
   Y692.800   
   X515.600   
   Y607.200   
   X524.000   
   Y692.800   
   X532.400   
   Y607.200   
   X540.800   
   Y692.800   
   X549.200   
   Y607.200   
   X557.600   
   Y692.800   
   X566.000   
   Y607.200   
   X574.400   
   Y692.800   
   X582.800   
   Y607.200   
   X591.200   
   Y692.800   
(Pass: 4)
G0   Z5.000     
   X507.200      Y607.200   
G1   Z-8.000     F1500
   Y692.800   
   X515.600   
   Y607.200   
   X524.000   
   Y692.800   
   X532.400   
   Y607.200   
   X540.800   
   Y692.800   
   X549.200   
   Y607.200   
   X557.600   
   Y692.800   
   X566.000   
   Y607.200   
   X574.400   
   Y692.800   
   X582.800   
   Y607.200   
   X591.200   
   Y692.800   
(Pass: 5)
G0   Z5.000     
   X507.200      Y607.200   
G1   Z-10.000    F1500
   Y692.800   
   X515.600   
   Y607.200   
   X524.000   
   Y692.800   
   X532.400   
   Y607.200   
   X540.800   
   Y692.800   
   X549.200   
   Y607.200   
   X557.600   
   Y692.800   
   X566.000   
   Y607.200   
   X574.400   
   Y692.800   
   X582.800   
   Y607.200   
   X591.200   
   Y692.800   
G0   Z5.000     
(Pass: 1)
   X594.000      Y694.000   
G1   Z-2.000     F1500
   X506.000   
   Y606.000   
   X594.000   
   Y694.000   
(Pass: 2)
G0   Z5.000     
G1   Z-4.000     F1500
   X506.000   
   Y606.000   
   X594.000   
   Y694.000   
(Pass: 3)
G0   Z5.000     
G1   Z-6.000     F1500
   X506.000   
   Y606.000   
   X594.000   
   Y694.000   
(Pass: 4)
G0   Z5.000     
G1   Z-8.000     F1500
   X506.000   
   Y606.000   
   X594.000   
   Y694.000   
(Pass: 5)
G0   Z5.000     
G1   Z-10.000    F1500
   X506.000   
   Y606.000   
   X594.000   
   Y694.000   
G0   Z5.000     
G0 X0 Y0 (home)
M05
M30
%
