%
(Generated by SketchUcam {1.2})
(File: VacuumTableAir.skp)
(Bit diameter: 6.3mm)
(Feed rate: 2000.0mm/min)
(Plunge Feed rate: 500.0mm/min)
(Material Thickness: 10.0mm)
(Material length: 110.0mm X width: 110.0mm)
(Overhead Gantry: true)
(Retract feed rate NOT limited to plunge feed rate)
(Multipass enabled, Depth = 0.5mm)
(Optimization is ON)
(www.PhlatBoyz.com)
G90 G21 G49 
M3 S11000
G0   Z3.200     
(Pass: 1)
   X18.267       Y14.791    
G1   Z-0.500     F500 
G17 G2   X10.2358      Y24.2035      R47.4125    F2000
   X4.9141       Y35.3743      R47.4125   
   X2.6650       Y47.5417      R47.4125   
   X3.6416       Y59.8767      R47.4125   
   X7.7775       Y71.5386      R47.4125   
   X14.7908      Y81.7326      R47.4125   
   X24.2035      Y89.7642      R47.4125   
   X35.3743      Y95.0859      R47.4125   
   X47.5417      Y97.3350      R47.4125   
   X59.8767      Y96.3584      R47.4125   
   X71.5386      Y92.2225      R47.4125   
   X81.7326      Y85.2092      R47.4125   
   X89.7642      Y75.7965      R47.4125   
   X95.0859      Y64.6257      R47.4125   
   X97.3350      Y52.4583      R47.4125   
   X96.3584      Y40.1233      R47.4125   
   X92.2225      Y28.4614      R47.4125   
   X85.2092      Y18.2674      R47.4125   
   X75.7965      Y10.2358      R47.4125   
   X64.6257      Y4.9141       R47.4125   
   X52.4583      Y2.6650       R47.4125   
   X40.1233      Y3.6416       R47.4125   
   X28.4614      Y7.7775       R47.4125   
   X18.2674      Y14.7908      R47.4125   
(Pass: 2)
G1   Z-1.000     F500 
G17 G2   X10.2358      Y24.2035      R47.4125    F2000
   X4.9141       Y35.3743      R47.4125   
   X2.6650       Y47.5417      R47.4125   
   X3.6416       Y59.8767      R47.4125   
   X7.7775       Y71.5386      R47.4125   
   X14.7908      Y81.7326      R47.4125   
   X24.2035      Y89.7642      R47.4125   
   X35.3743      Y95.0859      R47.4125   
   X47.5417      Y97.3350      R47.4125   
   X59.8767      Y96.3584      R47.4125   
   X71.5386      Y92.2225      R47.4125   
   X81.7326      Y85.2092      R47.4125   
   X89.7642      Y75.7965      R47.4125   
   X95.0859      Y64.6257      R47.4125   
   X97.3350      Y52.4583      R47.4125   
   X96.3584      Y40.1233      R47.4125   
   X92.2225      Y28.4614      R47.4125   
   X85.2092      Y18.2674      R47.4125   
   X75.7965      Y10.2358      R47.4125   
   X64.6257      Y4.9141       R47.4125   
   X52.4583      Y2.6650       R47.4125   
   X40.1233      Y3.6416       R47.4125   
   X28.4614      Y7.7775       R47.4125   
   X18.2674      Y14.7908      R47.4125   
(Pass: 3)
G1   Z-1.500     F500 
G17 G2   X10.2358      Y24.2035      R47.4125    F2000
   X4.9141       Y35.3743      R47.4125   
   X2.6650       Y47.5417      R47.4125   
   X3.6416       Y59.8767      R47.4125   
   X7.7775       Y71.5386      R47.4125   
   X14.7908      Y81.7326      R47.4125   
   X24.2035      Y89.7642      R47.4125   
   X35.3743      Y95.0859      R47.4125   
   X47.5417      Y97.3350      R47.4125   
   X59.8767      Y96.3584      R47.4125   
   X71.5386      Y92.2225      R47.4125   
   X81.7326      Y85.2092      R47.4125   
   X89.7642      Y75.7965      R47.4125   
   X95.0859      Y64.6257      R47.4125   
   X97.3350      Y52.4583      R47.4125   
   X96.3584      Y40.1233      R47.4125   
   X92.2225      Y28.4614      R47.4125   
   X85.2092      Y18.2674      R47.4125   
   X75.7965      Y10.2358      R47.4125   
   X64.6257      Y4.9141       R47.4125   
   X52.4583      Y2.6650       R47.4125   
   X40.1233      Y3.6416       R47.4125   
   X28.4614      Y7.7775       R47.4125   
   X18.2674      Y14.7908      R47.4125   
(Pass: 4)
G1   Z-2.000     F500 
G17 G2   X10.2358      Y24.2035      R47.4125    F2000
   X4.9141       Y35.3743      R47.4125   
   X2.6650       Y47.5417      R47.4125   
   X3.6416       Y59.8767      R47.4125   
   X7.7775       Y71.5386      R47.4125   
   X14.7908      Y81.7326      R47.4125   
   X24.2035      Y89.7642      R47.4125   
   X35.3743      Y95.0859      R47.4125   
   X47.5417      Y97.3350      R47.4125   
   X59.8767      Y96.3584      R47.4125   
   X71.5386      Y92.2225      R47.4125   
   X81.7326      Y85.2092      R47.4125   
   X89.7642      Y75.7965      R47.4125   
   X95.0859      Y64.6257      R47.4125   
   X97.3350      Y52.4583      R47.4125   
   X96.3584      Y40.1233      R47.4125   
   X92.2225      Y28.4614      R47.4125   
   X85.2092      Y18.2674      R47.4125   
   X75.7965      Y10.2358      R47.4125   
   X64.6257      Y4.9141       R47.4125   
   X52.4583      Y2.6650       R47.4125   
   X40.1233      Y3.6416       R47.4125   
   X28.4614      Y7.7775       R47.4125   
   X18.2674      Y14.7908      R47.4125   
(Pass: 5)
G1   Z-2.500     F500 
G17 G2   X10.2358      Y24.2035      R47.4125    F2000
   X4.9141       Y35.3743      R47.4125   
   X2.6650       Y47.5417      R47.4125   
   X3.6416       Y59.8767      R47.4125   
   X7.7775       Y71.5386      R47.4125   
   X14.7908      Y81.7326      R47.4125   
   X24.2035      Y89.7642      R47.4125   
   X35.3743      Y95.0859      R47.4125   
   X47.5417      Y97.3350      R47.4125   
   X59.8767      Y96.3584      R47.4125   
   X71.5386      Y92.2225      R47.4125   
   X81.7326      Y85.2092      R47.4125   
   X89.7642      Y75.7965      R47.4125   
   X95.0859      Y64.6257      R47.4125   
   X97.3350      Y52.4583      R47.4125   
   X96.3584      Y40.1233      R47.4125   
   X92.2225      Y28.4614      R47.4125   
   X85.2092      Y18.2674      R47.4125   
   X75.7965      Y10.2358      R47.4125   
   X64.6257      Y4.9141       R47.4125   
   X52.4583      Y2.6650       R47.4125   
   X40.1233      Y3.6416       R47.4125   
   X28.4614      Y7.7775       R47.4125   
   X18.2674      Y14.7908      R47.4125   
(Pass: 6)
G1   Z-3.000     F500 
G17 G2   X10.2358      Y24.2035      R47.4125    F2000
   X4.9141       Y35.3743      R47.4125   
   X2.6650       Y47.5417      R47.4125   
   X3.6416       Y59.8767      R47.4125   
   X7.7775       Y71.5386      R47.4125   
   X14.7908      Y81.7326      R47.4125   
   X24.2035      Y89.7642      R47.4125   
   X35.3743      Y95.0859      R47.4125   
   X47.5417      Y97.3350      R47.4125   
   X59.8767      Y96.3584      R47.4125   
   X71.5386      Y92.2225      R47.4125   
   X81.7326      Y85.2092      R47.4125   
   X89.7642      Y75.7965      R47.4125   
   X95.0859      Y64.6257      R47.4125   
   X97.3350      Y52.4583      R47.4125   
   X96.3584      Y40.1233      R47.4125   
   X92.2225      Y28.4614      R47.4125   
   X85.2092      Y18.2674      R47.4125   
   X75.7965      Y10.2358      R47.4125   
   X64.6257      Y4.9141       R47.4125   
   X52.4583      Y2.6650       R47.4125   
   X40.1233      Y3.6416       R47.4125   
   X28.4614      Y7.7775       R47.4125   
   X18.2674      Y14.7908      R47.4125   
(Pass: 7)
G1   Z-3.500     F500 
G17 G2   X10.2358      Y24.2035      R47.4125    F2000
   X4.9141       Y35.3743      R47.4125   
   X2.6650       Y47.5417      R47.4125   
   X3.6416       Y59.8767      R47.4125   
   X7.7775       Y71.5386      R47.4125   
   X14.7908      Y81.7326      R47.4125   
   X24.2035      Y89.7642      R47.4125   
   X35.3743      Y95.0859      R47.4125   
   X47.5417      Y97.3350      R47.4125   
   X59.8767      Y96.3584      R47.4125   
   X71.5386      Y92.2225      R47.4125   
   X81.7326      Y85.2092      R47.4125   
   X89.7642      Y75.7965      R47.4125   
   X95.0859      Y64.6257      R47.4125   
   X97.3350      Y52.4583      R47.4125   
   X96.3584      Y40.1233      R47.4125   
   X92.2225      Y28.4614      R47.4125   
   X85.2092      Y18.2674      R47.4125   
   X75.7965      Y10.2358      R47.4125   
   X64.6257      Y4.9141       R47.4125   
   X52.4583      Y2.6650       R47.4125   
   X40.1233      Y3.6416       R47.4125   
   X28.4614      Y7.7775       R47.4125   
   X18.2674      Y14.7908      R47.4125   
(Pass: 8)
G1   Z-4.000     F500 
G17 G2   X10.2358      Y24.2035      R47.4125    F2000
   X4.9141       Y35.3743      R47.4125   
   X2.6650       Y47.5417      R47.4125   
   X3.6416       Y59.8767      R47.4125   
   X7.7775       Y71.5386      R47.4125   
   X14.7908      Y81.7326      R47.4125   
   X24.2035      Y89.7642      R47.4125   
   X35.3743      Y95.0859      R47.4125   
   X47.5417      Y97.3350      R47.4125   
   X59.8767      Y96.3584      R47.4125   
   X71.5386      Y92.2225      R47.4125   
   X81.7326      Y85.2092      R47.4125   
   X89.7642      Y75.7965      R47.4125   
   X95.0859      Y64.6257      R47.4125   
   X97.3350      Y52.4583      R47.4125   
   X96.3584      Y40.1233      R47.4125   
   X92.2225      Y28.4614      R47.4125   
   X85.2092      Y18.2674      R47.4125   
   X75.7965      Y10.2358      R47.4125   
   X64.6257      Y4.9141       R47.4125   
   X52.4583      Y2.6650       R47.4125   
   X40.1233      Y3.6416       R47.4125   
   X28.4614      Y7.7775       R47.4125   
   X18.2674      Y14.7908      R47.4125   
(Pass: 9)
G1   Z-4.500     F500 
G17 G2   X10.2358      Y24.2035      R47.4125    F2000
   X4.9141       Y35.3743      R47.4125   
   X2.6650       Y47.5417      R47.4125   
   X3.6416       Y59.8767      R47.4125   
   X7.7775       Y71.5386      R47.4125   
   X14.7908      Y81.7326      R47.4125   
   X24.2035      Y89.7642      R47.4125   
   X35.3743      Y95.0859      R47.4125   
   X47.5417      Y97.3350      R47.4125   
   X59.8767      Y96.3584      R47.4125   
   X71.5386      Y92.2225      R47.4125   
   X81.7326      Y85.2092      R47.4125   
   X89.7642      Y75.7965      R47.4125   
   X95.0859      Y64.6257      R47.4125   
   X97.3350      Y52.4583      R47.4125   
   X96.3584      Y40.1233      R47.4125   
   X92.2225      Y28.4614      R47.4125   
   X85.2092      Y18.2674      R47.4125   
   X75.7965      Y10.2358      R47.4125   
   X64.6257      Y4.9141       R47.4125   
   X52.4583      Y2.6650       R47.4125   
   X40.1233      Y3.6416       R47.4125   
   X28.4614      Y7.7775       R47.4125   
   X18.2674      Y14.7908      R47.4125   
(Pass: 10)
G1   Z-5.000     F500 
G17 G2   X10.2358      Y24.2035      R47.4125    F2000
   X4.9141       Y35.3743      R47.4125   
   X2.6650       Y47.5417      R47.4125   
   X3.6416       Y59.8767      R47.4125   
   X7.7775       Y71.5386      R47.4125   
   X14.7908      Y81.7326      R47.4125   
   X24.2035      Y89.7642      R47.4125   
   X35.3743      Y95.0859      R47.4125   
   X47.5417      Y97.3350      R47.4125   
   X59.8767      Y96.3584      R47.4125   
   X71.5386      Y92.2225      R47.4125   
   X81.7326      Y85.2092      R47.4125   
   X89.7642      Y75.7965      R47.4125   
   X95.0859      Y64.6257      R47.4125   
   X97.3350      Y52.4583      R47.4125   
   X96.3584      Y40.1233      R47.4125   
   X92.2225      Y28.4614      R47.4125   
   X85.2092      Y18.2674      R47.4125   
   X75.7965      Y10.2358      R47.4125   
   X64.6257      Y4.9141       R47.4125   
   X52.4583      Y2.6650       R47.4125   
   X40.1233      Y3.6416       R47.4125   
   X28.4614      Y7.7775       R47.4125   
   X18.2674      Y14.7908      R47.4125   
(Pass: 11)
G1   Z-5.500     F500 
G17 G2   X10.2358      Y24.2035      R47.4125    F2000
   X4.9141       Y35.3743      R47.4125   
   X2.6650       Y47.5417      R47.4125   
   X3.6416       Y59.8767      R47.4125   
   X7.7775       Y71.5386      R47.4125   
   X14.7908      Y81.7326      R47.4125   
   X24.2035      Y89.7642      R47.4125   
   X35.3743      Y95.0859      R47.4125   
   X47.5417      Y97.3350      R47.4125   
   X59.8767      Y96.3584      R47.4125   
   X71.5386      Y92.2225      R47.4125   
   X81.7326      Y85.2092      R47.4125   
   X89.7642      Y75.7965      R47.4125   
   X95.0859      Y64.6257      R47.4125   
   X97.3350      Y52.4583      R47.4125   
   X96.3584      Y40.1233      R47.4125   
   X92.2225      Y28.4614      R47.4125   
   X85.2092      Y18.2674      R47.4125   
   X75.7965      Y10.2358      R47.4125   
   X64.6257      Y4.9141       R47.4125   
   X52.4583      Y2.6650       R47.4125   
   X40.1233      Y3.6416       R47.4125   
   X28.4614      Y7.7775       R47.4125   
   X18.2674      Y14.7908      R47.4125   
(Pass: 12)
G1   Z-6.000     F500 
G17 G2   X10.2358      Y24.2035      R47.4125    F2000
   X4.9141       Y35.3743      R47.4125   
   X2.6650       Y47.5417      R47.4125   
   X3.6416       Y59.8767      R47.4125   
   X7.7775       Y71.5386      R47.4125   
   X14.7908      Y81.7326      R47.4125   
   X24.2035      Y89.7642      R47.4125   
   X35.3743      Y95.0859      R47.4125   
   X47.5417      Y97.3350      R47.4125   
   X59.8767      Y96.3584      R47.4125   
   X71.5386      Y92.2225      R47.4125   
   X81.7326      Y85.2092      R47.4125   
   X89.7642      Y75.7965      R47.4125   
   X95.0859      Y64.6257      R47.4125   
   X97.3350      Y52.4583      R47.4125   
   X96.3584      Y40.1233      R47.4125   
   X92.2225      Y28.4614      R47.4125   
   X85.2092      Y18.2674      R47.4125   
   X75.7965      Y10.2358      R47.4125   
   X64.6257      Y4.9141       R47.4125   
   X52.4583      Y2.6650       R47.4125   
   X40.1233      Y3.6416       R47.4125   
   X28.4614      Y7.7775       R47.4125   
   X18.2674      Y14.7908      R47.4125   
(Pass: 13)
G1   Z-6.500     F500 
G17 G2   X10.2358      Y24.2035      R47.4125    F2000
   X4.9141       Y35.3743      R47.4125   
   X2.6650       Y47.5417      R47.4125   
   X3.6416       Y59.8767      R47.4125   
   X7.7775       Y71.5386      R47.4125   
   X14.7908      Y81.7326      R47.4125   
   X24.2035      Y89.7642      R47.4125   
   X35.3743      Y95.0859      R47.4125   
   X47.5417      Y97.3350      R47.4125   
   X59.8767      Y96.3584      R47.4125   
   X71.5386      Y92.2225      R47.4125   
   X81.7326      Y85.2092      R47.4125   
   X89.7642      Y75.7965      R47.4125   
   X95.0859      Y64.6257      R47.4125   
   X97.3350      Y52.4583      R47.4125   
   X96.3584      Y40.1233      R47.4125   
   X92.2225      Y28.4614      R47.4125   
   X85.2092      Y18.2674      R47.4125   
   X75.7965      Y10.2358      R47.4125   
   X64.6257      Y4.9141       R47.4125   
   X52.4583      Y2.6650       R47.4125   
   X40.1233      Y3.6416       R47.4125   
   X28.4614      Y7.7775       R47.4125   
   X18.2674      Y14.7908      R47.4125   
(Pass: 14)
G1   Z-7.000     F500 
G17 G2   X10.2358      Y24.2035      R47.4125    F2000
   X4.9141       Y35.3743      R47.4125   
   X2.6650       Y47.5417      R47.4125   
   X3.6416       Y59.8767      R47.4125   
   X7.7775       Y71.5386      R47.4125   
   X14.7908      Y81.7326      R47.4125   
   X24.2035      Y89.7642      R47.4125   
   X35.3743      Y95.0859      R47.4125   
   X47.5417      Y97.3350      R47.4125   
   X59.8767      Y96.3584      R47.4125   
   X71.5386      Y92.2225      R47.4125   
   X81.7326      Y85.2092      R47.4125   
   X89.7642      Y75.7965      R47.4125   
   X95.0859      Y64.6257      R47.4125   
   X97.3350      Y52.4583      R47.4125   
   X96.3584      Y40.1233      R47.4125   
   X92.2225      Y28.4614      R47.4125   
   X85.2092      Y18.2674      R47.4125   
   X75.7965      Y10.2358      R47.4125   
   X64.6257      Y4.9141       R47.4125   
   X52.4583      Y2.6650       R47.4125   
   X40.1233      Y3.6416       R47.4125   
   X28.4614      Y7.7775       R47.4125   
   X18.2674      Y14.7908      R47.4125   
(Pass: 15)
G1   Z-7.500     F500 
G17 G2   X10.2358      Y24.2035      R47.4125    F2000
   X4.9141       Y35.3743      R47.4125   
   X2.6650       Y47.5417      R47.4125   
   X3.6416       Y59.8767      R47.4125   
   X7.7775       Y71.5386      R47.4125   
   X14.7908      Y81.7326      R47.4125   
   X24.2035      Y89.7642      R47.4125   
   X35.3743      Y95.0859      R47.4125   
   X47.5417      Y97.3350      R47.4125   
   X59.8767      Y96.3584      R47.4125   
   X71.5386      Y92.2225      R47.4125   
   X81.7326      Y85.2092      R47.4125   
   X89.7642      Y75.7965      R47.4125   
   X95.0859      Y64.6257      R47.4125   
   X97.3350      Y52.4583      R47.4125   
   X96.3584      Y40.1233      R47.4125   
   X92.2225      Y28.4614      R47.4125   
   X85.2092      Y18.2674      R47.4125   
   X75.7965      Y10.2358      R47.4125   
   X64.6257      Y4.9141       R47.4125   
   X52.4583      Y2.6650       R47.4125   
   X40.1233      Y3.6416       R47.4125   
   X28.4614      Y7.7775       R47.4125   
   X18.2674      Y14.7908      R47.4125   
(Pass: 16)
G1   Z-8.000     F500 
G17 G2   X10.2358      Y24.2035      R47.4125    F2000
   X4.9141       Y35.3743      R47.4125   
   X2.6650       Y47.5417      R47.4125   
   X3.6416       Y59.8767      R47.4125   
   X7.7775       Y71.5386      R47.4125   
   X14.7908      Y81.7326      R47.4125   
   X24.2035      Y89.7642      R47.4125   
   X35.3743      Y95.0859      R47.4125   
   X47.5417      Y97.3350      R47.4125   
   X59.8767      Y96.3584      R47.4125   
   X71.5386      Y92.2225      R47.4125   
   X81.7326      Y85.2092      R47.4125   
   X89.7642      Y75.7965      R47.4125   
   X95.0859      Y64.6257      R47.4125   
   X97.3350      Y52.4583      R47.4125   
   X96.3584      Y40.1233      R47.4125   
   X92.2225      Y28.4614      R47.4125   
   X85.2092      Y18.2674      R47.4125   
   X75.7965      Y10.2358      R47.4125   
   X64.6257      Y4.9141       R47.4125   
   X52.4583      Y2.6650       R47.4125   
   X40.1233      Y3.6416       R47.4125   
   X28.4614      Y7.7775       R47.4125   
   X18.2674      Y14.7908      R47.4125   
(Pass: 17)
G1   Z-8.500     F500 
G17 G2   X10.2358      Y24.2035      R47.4125    F2000
   X4.9141       Y35.3743      R47.4125   
   X2.6650       Y47.5417      R47.4125   
   X3.6416       Y59.8767      R47.4125   
   X7.7775       Y71.5386      R47.4125   
   X14.7908      Y81.7326      R47.4125   
   X24.2035      Y89.7642      R47.4125   
   X35.3743      Y95.0859      R47.4125   
   X47.5417      Y97.3350      R47.4125   
   X59.8767      Y96.3584      R47.4125   
   X71.5386      Y92.2225      R47.4125   
   X81.7326      Y85.2092      R47.4125   
   X89.7642      Y75.7965      R47.4125   
   X95.0859      Y64.6257      R47.4125   
   X97.3350      Y52.4583      R47.4125   
   X96.3584      Y40.1233      R47.4125   
   X92.2225      Y28.4614      R47.4125   
   X85.2092      Y18.2674      R47.4125   
   X75.7965      Y10.2358      R47.4125   
   X64.6257      Y4.9141       R47.4125   
   X52.4583      Y2.6650       R47.4125   
   X40.1233      Y3.6416       R47.4125   
   X28.4614      Y7.7775       R47.4125   
   X18.2674      Y14.7908      R47.4125   
(Pass: 18)
G1   Z-9.000     F500 
G17 G2   X10.2358      Y24.2035      R47.4125    F2000
   X4.9141       Y35.3743      R47.4125   
   X2.6650       Y47.5417      R47.4125   
   X3.6416       Y59.8767      R47.4125   
   X7.7775       Y71.5386      R47.4125   
   X14.7908      Y81.7326      R47.4125   
   X24.2035      Y89.7642      R47.4125   
   X35.3743      Y95.0859      R47.4125   
   X47.5417      Y97.3350      R47.4125   
   X59.8767      Y96.3584      R47.4125   
   X71.5386      Y92.2225      R47.4125   
   X81.7326      Y85.2092      R47.4125   
   X89.7642      Y75.7965      R47.4125   
   X95.0859      Y64.6257      R47.4125   
   X97.3350      Y52.4583      R47.4125   
   X96.3584      Y40.1233      R47.4125   
   X92.2225      Y28.4614      R47.4125   
   X85.2092      Y18.2674      R47.4125   
   X75.7965      Y10.2358      R47.4125   
   X64.6257      Y4.9141       R47.4125   
   X52.4583      Y2.6650       R47.4125   
   X40.1233      Y3.6416       R47.4125   
   X28.4614      Y7.7775       R47.4125   
   X18.2674      Y14.7908      R47.4125   
(Pass: 19)
G1   Z-9.500     F500 
G17 G2   X10.2358      Y24.2035      R47.4125    F2000
   X4.9141       Y35.3743      R47.4125   
   X2.6650       Y47.5417      R47.4125   
   X3.6416       Y59.8767      R47.4125   
   X7.7775       Y71.5386      R47.4125   
   X14.7908      Y81.7326      R47.4125   
   X24.2035      Y89.7642      R47.4125   
   X35.3743      Y95.0859      R47.4125   
   X47.5417      Y97.3350      R47.4125   
   X59.8767      Y96.3584      R47.4125   
   X71.5386      Y92.2225      R47.4125   
   X81.7326      Y85.2092      R47.4125   
   X89.7642      Y75.7965      R47.4125   
   X95.0859      Y64.6257      R47.4125   
   X97.3350      Y52.4583      R47.4125   
   X96.3584      Y40.1233      R47.4125   
   X92.2225      Y28.4614      R47.4125   
   X85.2092      Y18.2674      R47.4125   
   X75.7965      Y10.2358      R47.4125   
   X64.6257      Y4.9141       R47.4125   
   X52.4583      Y2.6650       R47.4125   
   X40.1233      Y3.6416       R47.4125   
   X28.4614      Y7.7775       R47.4125   
   X18.2674      Y14.7908      R47.4125   
(Pass: 20)
G1   Z-10.000    F500 
G17 G2   X10.2358      Y24.2035      R47.4125    F2000
   X4.9141       Y35.3743      R47.4125   
   X2.6650       Y47.5417      R47.4125   
   X3.6416       Y59.8767      R47.4125   
   X7.7775       Y71.5386      R47.4125   
   X14.7908      Y81.7326      R47.4125   
   X24.2035      Y89.7642      R47.4125   
   X35.3743      Y95.0859      R47.4125   
   X47.5417      Y97.3350      R47.4125   
   X59.8767      Y96.3584      R47.4125   
   X71.5386      Y92.2225      R47.4125   
   X81.7326      Y85.2092      R47.4125   
   X89.7642      Y75.7965      R47.4125   
   X95.0859      Y64.6257      R47.4125   
   X97.3350      Y52.4583      R47.4125   
   X96.3584      Y40.1233      R47.4125   
   X92.2225      Y28.4614      R47.4125   
   X85.2092      Y18.2674      R47.4125   
   X75.7965      Y10.2358      R47.4125   
   X64.6257      Y4.9141       R47.4125   
   X52.4583      Y2.6650       R47.4125   
   X40.1233      Y3.6416       R47.4125   
   X28.4614      Y7.7775       R47.4125   
   X18.2674      Y14.7908      R47.4125   
G0   Z3.200     
G0 X0 Y0 (home)
M05
M30
%
