%
(Generated by SketchUcam {1.2a})
(File: Control Box.skp)
(Bit diameter: 2.0mm)
(Feed rate: 100.0mm/min)
(Material Thickness: 3.0mm)
(Material length: 558.8mm X width: 1066.8mm)
(Overhead Gantry: true)
(Retract feed rate NOT limited to plunge feed rate)
(Optimization is ON)
(www.PhlatBoyz.com)
G90 G21 G49 
M3 S11000
G0   Z3.200     
   X202.500      Y303.000   
G1   Z-4.200     F100 
G0   Z3.200     
   X227.500   
G1   Z-4.200     F100 
G0   Z3.200     
   X328.807      Y54.033    
G1   Z-4.200     F100 
G0   Z3.200     
   X367.807   
G1   Z-4.200     F100 
G0   Z3.200     
   X33.981       Y54.410    
G1   Z-4.200     F100 
G17 G2   X33.8409      Y52.5903      R7.0000    
   X33.2344      Y50.8689      R7.0000    
   X32.2030      Y49.3632      R7.0000    
   X30.8171      Y48.1756      R7.0000    
   X29.1710      Y47.3873      R7.0000    
   X27.3770      Y47.0519      R7.0000    
   X25.5573      Y47.1922      R7.0000    
   X23.8359      Y47.7987      R7.0000    
   X22.3301      Y48.8300      R7.0000    
   X21.1426      Y50.2160      R7.0000    
   X20.3542      Y51.8621      R7.0000    
   X20.0188      Y53.6561      R7.0000    
   X20.1591      Y55.4758      R7.0000    
   X20.7656      Y57.1972      R7.0000    
   X21.7970      Y58.7029      R7.0000    
   X23.1829      Y59.8905      R7.0000    
   X24.8290      Y60.6788      R7.0000    
   X26.6230      Y61.0143      R7.0000    
   X28.4427      Y60.8739      R7.0000    
   X30.1641      Y60.2674      R7.0000    
   X31.6699      Y59.2361      R7.0000    
   X32.8574      Y57.8501      R7.0000    
   X33.6458      Y56.2040      R7.0000    
   X33.9812      Y54.4100      R7.0000    
G0   Z3.200     
   X23.338       Y68.573    
G1   Z-1.500     F100 
   Y69.326    
   X24.738       Y71.748    
   Y71.008    
   X26.138       Y73.444    
   Y74.171    
   X27.538       Y74.561    
   Y73.778    
   X28.938       Y71.351    
   Y72.127    
   X30.338       Y69.693    
   Y68.924    
G0   Z3.200     
   X30.511       Y68.225    
G1   Z-1.500     F100 
   X31.413    
   X27.401       Y75.200    
   X31.284       Y81.932    
   X30.385    
   X26.933       Y75.925    
   X23.493       Y81.932    
   X22.599    
   X26.501       Y75.200    
   X22.471       Y68.225    
   X23.368    
   X26.933       Y74.426    
   X30.511       Y68.225    
G0   Z3.200     
   X47.829       Y57.320    
G1   Z-4.200     F100 
G17 G2   X48.8901      Y58.8047      R7.0000    
   X50.2992      Y59.9646      R7.0000    
   X51.9605      Y60.7203      R7.0000    
   X53.7608      Y61.0203      R7.0000    
   X55.5774      Y60.8441      R7.0000    
   X57.2865      Y60.2038      R7.0000    
   X58.7716      Y59.1429      R7.0000    
   X59.9316      Y57.7338      R7.0000    
   X60.6873      Y56.0725      R7.0000    
   X60.9873      Y54.2722      R7.0000    
   X60.8111      Y52.4556      R7.0000    
   X60.1708      Y50.7466      R7.0000    
   X59.1099      Y49.2614      R7.0000    
   X57.7008      Y48.1015      R7.0000    
   X56.0395      Y47.3458      R7.0000    
   X54.2392      Y47.0458      R7.0000    
   X52.4226      Y47.2220      R7.0000    
   X50.7135      Y47.8623      R7.0000    
   X49.2284      Y48.9232      R7.0000    
   X48.0684      Y50.3323      R7.0000    
   X47.3127      Y51.9936      R7.0000    
   X47.0127      Y53.7939      R7.0000    
   X47.1889      Y55.6105      R7.0000    
   X47.8292      Y57.3196      R7.0000    
G0   Z3.200     
   X74.011       Y54.217    
G1   Z-4.200     F100 
G17 G2   X74.2968      Y56.0197      R7.0000    
   X75.0394      Y57.6869      R7.0000    
   X76.1882      Y59.1051      R7.0000    
   X77.6649      Y60.1777      R7.0000    
   X79.3689      Y60.8315      R7.0000    
   X81.1841      Y61.0220      R7.0000    
   X82.9867      Y60.7362      R7.0000    
   X84.6539      Y59.9936      R7.0000    
   X86.0721      Y58.8448      R7.0000    
   X87.1446      Y57.3681      R7.0000    
   X87.7984      Y55.6641      R7.0000    
   X87.9889      Y53.8490      R7.0000    
   X87.7032      Y52.0464      R7.0000    
   X86.9606      Y50.3792      R7.0000    
   X85.8118      Y48.9610      R7.0000    
   X84.3351      Y47.8884      R7.0000    
   X82.6311      Y47.2346      R7.0000    
   X80.8159      Y47.0441      R7.0000    
   X79.0133      Y47.3299      R7.0000    
   X77.3461      Y48.0725      R7.0000    
   X75.9279      Y49.2213      R7.0000    
   X74.8554      Y50.6980      R7.0000    
   X74.2016      Y52.4020      R7.0000    
   X74.0111      Y54.2171      R7.0000    
G0   Z3.200     
   X77.098       Y68.425    
G1   Z-1.500     F100 
   Y69.423    
   X78.498       Y68.760    
   Y68.425    
   X79.898    
   Y68.760    
   X81.298    
   Y68.425    
   X82.698    
   Y68.760    
   X84.098    
   Y68.425    
   X85.498    
   Y68.760    
G0   Z3.200     
   X85.902       Y68.960    
G1   Z-1.500     F100 
   X77.555    
   X85.755       Y80.680    
   Y81.932    
   X77.129    
   Y81.197    
   X84.844    
   X76.898       Y69.484    
   Y68.225    
   X85.902    
   Y68.960    
G0   Z3.200     
   X102.214      Y57.957    
G1   Z-4.200     F100 
G17 G2   X103.4268     Y59.3212      R7.0000    
   X104.9513     Y60.3247      R7.0000    
   X106.6835     Y60.8994      R7.0000    
   X108.5055     Y61.0061      R7.0000    
   X110.2931     Y60.6377      R7.0000    
   X111.9243     Y59.8191      R7.0000    
   X113.2882     Y58.6063      R7.0000    
   X114.2916     Y57.0818      R7.0000    
   X114.8663     Y55.3495      R7.0000    
   X114.9731     Y53.5275      R7.0000    
   X114.6046     Y51.7400      R7.0000    
   X113.7861     Y50.1087      R7.0000    
   X112.5732     Y48.7449      R7.0000    
   X111.0487     Y47.7414      R7.0000    
   X109.3165     Y47.1667      R7.0000    
   X107.4945     Y47.0600      R7.0000    
   X105.7069     Y47.4284      R7.0000    
   X104.0757     Y48.2470      R7.0000    
   X102.7118     Y49.4598      R7.0000    
   X101.7084     Y50.9843      R7.0000    
   X101.1337     Y52.7166      R7.0000    
   X101.0269     Y54.5386      R7.0000    
   X101.3954     Y56.3261      R7.0000    
   X102.2139     Y57.9574      R7.0000    
G0   Z3.200     
   X104.152      Y77.518    
G1   Z-1.500     F100 
   Y78.834    
   X105.552   
   Y74.718    
   X106.952      Y71.918    
   Y78.834    
   X108.352   
   Y70.642    
   X109.752      Y73.438    
   Y78.834    
   X111.152   
   Y76.233    
G0   Z3.200     
   X112.779      Y79.034    
G1   Z-1.500     F100 
   X103.170   
   X107.970      Y69.434    
   X112.779      Y79.034    
G0   Z3.200     
   X132.988      Y56.246    
G1   Z-4.200     F100 
G17 G2   X133.6289     Y56.6917      R3.0000    
   X134.3638     Y56.9560      R3.0000    
   X135.1419     Y57.0211      R3.0000    
   X135.9105     Y56.8825      R3.0000    
   X136.6169     Y56.5498      R3.0000    
   X137.2132     Y56.0455      R3.0000    
   X137.6587     Y55.4041      R3.0000    
   X137.9229     Y54.6693      R3.0000    
   X137.9880     Y53.8911      R3.0000    
   X137.8494     Y53.1226      R3.0000    
   X137.5167     Y52.4161      R3.0000    
   X137.0125     Y51.8198      R3.0000    
   X136.3711     Y51.3744      R3.0000    
   X135.6362     Y51.1101      R3.0000    
   X134.8581     Y51.0450      R3.0000    
   X134.0895     Y51.1836      R3.0000    
   X133.3831     Y51.5163      R3.0000    
   X132.7868     Y52.0206      R3.0000    
   X132.3413     Y52.6620      R3.0000    
   X132.0771     Y53.3968      R3.0000    
   X132.0120     Y54.1750      R3.0000    
   X132.1506     Y54.9435      R3.0000    
   X132.4833     Y55.6500      R3.0000    
   X132.9875     Y56.2463      R3.0000    
G0   Z3.200     
   X130.548      Y39.925    
G1   Z-1.500     F100 
   Y40.355    
   X131.948   
   Y39.925    
   X133.348   
   Y40.355    
   X134.748   
   Y39.925    
   X136.148   
   Y40.355    
   X137.548   
   Y39.925    
   X138.948   
   Y40.355    
G0   Z3.200     
   X139.500      Y40.555    
G1   Z-1.500     F100 
   X130.348   
   Y39.725    
   X139.500   
   Y40.555    
G0   Z3.200     
   X150.588      Y51.733    
G1   Z-4.200     F100 
G17 G2   X150.0575     Y52.3060      R3.0000    
   X149.6938     Y52.9970      R3.0000    
   X149.5212     Y53.7587      R3.0000    
   X149.5517     Y54.5390      R3.0000    
   X149.7831     Y55.2848      R3.0000    
   X150.1997     Y55.9453      R3.0000    
   X150.7730     Y56.4755      R3.0000    
   X151.4640     Y56.8393      R3.0000    
   X152.2256     Y57.0118      R3.0000    
   X153.0059     Y56.9813      R3.0000    
   X153.7517     Y56.7499      R3.0000    
   X154.4123     Y56.3334      R3.0000    
   X154.9425     Y55.7601      R3.0000    
   X155.3062     Y55.0691      R3.0000    
   X155.4788     Y54.3074      R3.0000    
   X155.4483     Y53.5271      R3.0000    
   X155.2169     Y52.7813      R3.0000    
   X154.8003     Y52.1208      R3.0000    
   X154.2270     Y51.5906      R3.0000    
   X153.5360     Y51.2268      R3.0000    
   X152.7744     Y51.0543      R3.0000    
   X151.9941     Y51.0848      R3.0000    
   X151.2483     Y51.3162      R3.0000    
   X150.5877     Y51.7327      R3.0000    
G0   Z3.200     
   X147.929      Y40.252    
G1   Z-1.500     F100 
   Y40.355    
   X149.329   
   Y40.252    
   X150.729   
   Y40.355    
   X152.129   
   Y40.252    
   X153.529   
   Y40.355    
   X154.929   
   Y40.252    
   X156.329   
   Y40.355    
G0   Z3.200     
   X157.291      Y40.555    
G1   Z-1.500     F100 
   X152.767   
   Y45.079    
   X152.274   
   Y40.555    
   X147.729   
   Y40.052    
   X152.274   
   Y35.507    
   X152.767   
   Y40.052    
   X157.291   
   Y40.555    
G0   Z3.200     
   X168.102      Y51.721    
G1   Z-4.200     F100 
G17 G2   X167.5684     Y52.2908      R3.0000    
   X167.2003     Y52.9795      R3.0000    
   X167.0230     Y53.7400      R3.0000    
   X167.0486     Y54.5205      R3.0000    
   X167.2753     Y55.2677      R3.0000    
   X167.6877     Y55.9309      R3.0000    
   X168.2577     Y56.4647      R3.0000    
   X168.9464     Y56.8327      R3.0000    
   X169.7069     Y57.0100      R3.0000    
   X170.4874     Y56.9844      R3.0000    
   X171.2347     Y56.7577      R3.0000    
   X171.8978     Y56.3453      R3.0000    
   X172.4316     Y55.7753      R3.0000    
   X172.7997     Y55.0866      R3.0000    
   X172.9770     Y54.3261      R3.0000    
   X172.9514     Y53.5456      R3.0000    
   X172.7247     Y52.7984      R3.0000    
   X172.3123     Y52.1352      R3.0000    
   X171.7423     Y51.6014      R3.0000    
   X171.0536     Y51.2334      R3.0000    
   X170.2931     Y51.0561      R3.0000    
   X169.5126     Y51.0817      R3.0000    
   X168.7653     Y51.3084      R3.0000    
   X168.1022     Y51.7208      R3.0000    
G0   Z3.200     
   X165.526      Y39.889    
G1   Z-1.500     F100 
   Y40.319    
   X166.926   
   Y39.889    
   X168.326   
   Y40.319    
   X169.726   
   Y39.889    
   X171.126   
   Y40.319    
   X172.526   
   Y39.889    
   X173.926   
   Y40.319    
G0   Z3.200     
   X174.478      Y40.519    
G1   Z-1.500     F100 
   X165.326   
   Y39.689    
   X174.478   
   Y40.519    
G0   Z3.200     
   X185.344      Y51.959    
G1   Z-4.200     F100 
G17 G2   X184.8809     Y52.5879      R3.0000    
   X184.5961     Y53.3150      R3.0000    
   X184.5092     Y54.0911      R3.0000    
   X184.6261     Y54.8632      R3.0000    
   X184.9389     Y55.5787      R3.0000    
   X185.4262     Y56.1889      R3.0000    
   X186.0549     Y56.6522      R3.0000    
   X186.7820     Y56.9370      R3.0000    
   X187.5580     Y57.0239      R3.0000    
   X188.3301     Y56.9069      R3.0000    
   X189.0457     Y56.5942      R3.0000    
   X189.6559     Y56.1068      R3.0000    
   X190.1191     Y55.4782      R3.0000    
   X190.4039     Y54.7511      R3.0000    
   X190.4908     Y53.9750      R3.0000    
   X190.3739     Y53.2029      R3.0000    
   X190.0611     Y52.4874      R3.0000    
   X189.5738     Y51.8772      R3.0000    
   X188.9451     Y51.4139      R3.0000    
   X188.2180     Y51.1291      R3.0000    
   X187.4420     Y51.0422      R3.0000    
   X186.6699     Y51.1592      R3.0000    
   X185.9543     Y51.4719      R3.0000    
   X185.3441     Y51.9593      R3.0000    
G0   Z3.200     
   X182.907      Y40.215    
G1   Z-1.500     F100 
   Y40.319    
   X184.307   
   Y40.215    
   X185.707   
   Y40.319    
   X187.107   
   Y40.215    
   X188.507   
   Y40.319    
   X189.907   
   Y40.215    
   X191.307   
   Y40.319    
G0   Z3.200     
   X192.269      Y40.519    
G1   Z-1.500     F100 
   X187.745   
   Y45.043    
   X187.252   
   Y40.519    
   X182.707   
   Y40.015    
   X187.252   
   Y35.470    
   X187.745   
   Y40.015    
   X192.269   
   Y40.519    
G0   Z3.200     
   X202.852      Y51.951    
G1   Z-4.200     F100 
G17 G2   X202.3865     Y52.5777      R3.0000    
   X202.0989     Y53.3037      R3.0000    
   X202.0090     Y54.0794      R3.0000    
   X202.1229     Y54.8520      R3.0000    
   X202.4329     Y55.5687      R3.0000    
   X202.9178     Y56.1808      R3.0000    
   X203.5446     Y56.6465      R3.0000    
   X204.2706     Y56.9341      R3.0000    
   X205.0464     Y57.0241      R3.0000    
   X205.8189     Y56.9101      R3.0000    
   X206.5357     Y56.6002      R3.0000    
   X207.1477     Y56.1152      R3.0000    
   X207.6135     Y55.4884      R3.0000    
   X207.9011     Y54.7624      R3.0000    
   X207.9910     Y53.9867      R3.0000    
   X207.8771     Y53.2141      R3.0000    
   X207.5671     Y52.4974      R3.0000    
   X207.0822     Y51.8853      R3.0000    
   X206.4554     Y51.4196      R3.0000    
   X205.7294     Y51.1320      R3.0000    
   X204.9536     Y51.0420      R3.0000    
   X204.1811     Y51.1560      R3.0000    
   X203.4643     Y51.4659      R3.0000    
   X202.8523     Y51.9509      R3.0000    
G0   Z3.200     
   X200.975      Y68.425    
G1   Z-1.500     F100 
   Y69.423    
   X202.375      Y68.760    
   Y68.425    
   X203.775   
   Y68.760    
   X205.175   
   Y68.425    
   X206.575   
   Y68.760    
   X207.975   
   Y68.425    
   X209.375   
   Y68.760    
G0   Z3.200     
   X209.779      Y68.960    
G1   Z-1.500     F100 
   X201.431   
   X209.632      Y80.680    
   Y81.932    
   X201.006   
   Y81.197    
   X208.721   
   X200.775      Y69.484    
   Y68.225    
   X209.779   
   Y68.960    
G0   Z3.200     
   X222.255      Y68.234    
G1   Z-1.500     F100 
   X222.643   
   Y74.209    
   X222.255   
   Y68.234    
G0   Z3.200     
   Y79.007    
G1   Z-1.500     F100 
   X222.643   
   Y84.982    
   X222.255   
   Y79.007    
G0   Z3.200     
   X222.545      Y57.024    
G1   Z-4.200     F100 
G17 G2   X223.3180     Y56.9104      R3.0000    
   X224.0349     Y56.6006      R3.0000    
   X224.6471     Y56.1159      R3.0000    
   X225.1130     Y55.4892      R3.0000    
   X225.4009     Y54.7633      R3.0000    
   X225.4910     Y53.9876      R3.0000    
   X225.3773     Y53.2150      R3.0000    
   X225.0676     Y52.4982      R3.0000    
   X224.5828     Y51.8859      R3.0000    
   X223.9561     Y51.4200      R3.0000    
   X223.2302     Y51.1322      R3.0000    
   X222.4545     Y51.0420      R3.0000    
   X221.6820     Y51.1557      R3.0000    
   X220.9651     Y51.4655      R3.0000    
   X220.3529     Y51.9502      R3.0000    
   X219.8870     Y52.5769      R3.0000    
   X219.5991     Y53.3028      R3.0000    
   X219.5090     Y54.0785      R3.0000    
   X219.6227     Y54.8511      R3.0000    
   X219.9324     Y55.5679      R3.0000    
   X220.4172     Y56.1802      R3.0000    
   X221.0439     Y56.6461      R3.0000    
   X221.7698     Y56.9339      R3.0000    
   X222.5455     Y57.0241      R3.0000    
G0   Z3.200     
   X176.052      Y80.472    
G1   Z-1.500     F100 
   Y81.717    
   X177.452      Y78.821    
   Y77.723    
   X178.852      Y74.975    
   Y75.924    
   X180.252      Y74.701    
   Y73.790    
   X181.652      Y76.538    
   Y77.588    
   X183.052      Y80.475    
   Y79.286    
G0   Z3.200     
   X183.537      Y81.932    
G1   Z-1.500     F100 
   X179.847      Y74.325    
   X176.170      Y81.932    
   X175.084   
   X179.302      Y73.651    
   Y68.225    
   X180.406   
   Y73.651    
   X184.624      Y81.932    
   X183.537   
G0   Z3.200     
   X153.469      Y101.997   
G1   Z-4.200     F100 
G17 G2   X153.3056     Y101.7637     R1.1000    
   X153.0876     Y101.5803     R1.1000    
   X152.8295     Y101.4596     R1.1000    
   X152.5490     Y101.4097     R1.1000    
   X152.2651     Y101.4342     R1.1000    
   X151.9973     Y101.5313     R1.1000    
   X151.7637     Y101.6944     R1.1000    
   X151.5803     Y101.9124     R1.1000    
   X151.4596     Y102.1705     R1.1000    
   X151.4097     Y102.4510     R1.1000    
   X151.4342     Y102.7349     R1.1000    
   X151.5313     Y103.0027     R1.1000    
   X151.6944     Y103.2363     R1.1000    
   X151.9124     Y103.4197     R1.1000    
   X152.1705     Y103.5404     R1.1000    
   X152.4510     Y103.5903     R1.1000    
   X152.7349     Y103.5658     R1.1000    
   X153.0027     Y103.4687     R1.1000    
   X153.2363     Y103.3056     R1.1000    
   X153.4197     Y103.0876     R1.1000    
   X153.5404     Y102.8295     R1.1000    
   X153.5903     Y102.5490     R1.1000    
   X153.5658     Y102.2651     R1.1000    
   X153.4687     Y101.9973     R1.1000    
G0   Z3.200     
   X168.778      Y113.781   
G1   Z-4.200     F100 
G17 G2   X157.0968     Y127.4896     R69.0000   
   X149.3614     Y143.7542     R69.0000   
   X146.0992     Y161.4666     R69.0000   
   X147.5324     Y179.4199     R69.0000   
   X153.5634     Y196.3904     R69.0000   
   X163.7813     Y211.2218     R69.0000   
   X177.4896     Y222.9032     R69.0000   
   X193.7542     Y230.6386     R69.0000   
   X211.4666     Y233.9008     R69.0000   
   X229.4199     Y232.4676     R69.0000   
   X246.3904     Y226.4366     R69.0000   
   X261.2218     Y216.2187     R69.0000   
   X272.9032     Y202.5104     R69.0000   
   X280.6386     Y186.2458     R69.0000   
   X283.9008     Y168.5334     R69.0000   
   X282.4676     Y150.5801     R69.0000   
   X276.4366     Y133.6096     R69.0000   
   X266.2187     Y118.7782     R69.0000   
   X252.5104     Y107.0968     R69.0000   
   X236.2458     Y99.3614      R69.0000   
   X218.5334     Y96.0992      R69.0000   
   X200.5801     Y97.5324      R69.0000   
   X183.6096     Y103.5634     R69.0000   
   X168.7782     Y113.7813     R69.0000   
G0   Z3.200     
   X139.053      Y68.573    
G1   Z-1.500     F100 
   Y69.326    
   X140.453      Y71.748    
   Y71.008    
   X141.853      Y73.444    
   Y74.171    
   X143.253      Y74.561    
   Y73.778    
   X144.653      Y71.351    
   Y72.127    
   X146.053      Y69.693    
   Y68.924    
G0   Z3.200     
   X146.225      Y68.225    
G1   Z-1.500     F100 
   X147.128   
   X143.115      Y75.200    
   X146.999      Y81.932    
   X146.100   
   X142.648      Y75.925    
   X139.208      Y81.932    
   X138.314   
   X142.216      Y75.200    
   X138.185      Y68.225    
   X139.083   
   X142.648      Y74.426    
   X146.225      Y68.225    
G0   Z3.200     
   X50.203       Y80.472    
G1   Z-1.500     F100 
   Y81.717    
   X51.603       Y78.821    
   Y77.723    
   X53.003       Y74.975    
   Y75.924    
   X54.403       Y74.701    
   Y73.790    
   X55.803       Y76.538    
   Y77.588    
   X57.203       Y80.475    
   Y79.286    
G0   Z3.200     
   X57.688       Y81.932    
G1   Z-1.500     F100 
   X53.998       Y74.325    
   X50.322       Y81.932    
   X49.235    
   X53.453       Y73.651    
   Y68.225    
   X54.557    
   Y73.651    
   X58.775       Y81.932    
   X57.688    
G0   Z3.200     
   X151.954      Y226.555   
G1   Z-4.200     F100 
G17 G2   X151.7283     Y226.7283     R1.1000    
   X151.5548     Y226.9543     R1.1000    
   X151.4458     Y227.2175     R1.1000    
   X151.4086     Y227.5000     R1.1000    
   X151.4458     Y227.7825     R1.1000    
   X151.5548     Y228.0457     R1.1000    
   X151.7283     Y228.2717     R1.1000    
   X151.9543     Y228.4452     R1.1000    
   X152.2175     Y228.5542     R1.1000    
   X152.5000     Y228.5914     R1.1000    
   X152.7825     Y228.5542     R1.1000    
   X153.0457     Y228.4452     R1.1000    
   X153.2717     Y228.2717     R1.1000    
   X153.4452     Y228.0457     R1.1000    
   X153.5542     Y227.7825     R1.1000    
   X153.5914     Y227.5000     R1.1000    
   X153.5542     Y227.2175     R1.1000    
   X153.4452     Y226.9543     R1.1000    
   X153.2717     Y226.7283     R1.1000    
   X153.0457     Y226.5548     R1.1000    
   X152.7825     Y226.4458     R1.1000    
   X152.5000     Y226.4086     R1.1000    
   X152.2175     Y226.4458     R1.1000    
   X151.9543     Y226.5548     R1.1000    
G0   Z3.200     
   X210.000      Y298.000   
G1   Z-4.200     F100 
   Y308.000   
   X220.000   
   Y298.000   
   X210.000   
G0   Z3.200     
   X276.728      Y228.272   
G1   Z-4.200     F100 
G17 G2   X276.9543     Y228.4452     R1.1000    
   X277.2175     Y228.5542     R1.1000    
   X277.5000     Y228.5914     R1.1000    
   X277.7825     Y228.5542     R1.1000    
   X278.0457     Y228.4452     R1.1000    
   X278.2717     Y228.2717     R1.1000    
   X278.4452     Y228.0457     R1.1000    
   X278.5542     Y227.7825     R1.1000    
   X278.5914     Y227.5000     R1.1000    
   X278.5542     Y227.2175     R1.1000    
   X278.4452     Y226.9543     R1.1000    
   X278.2717     Y226.7283     R1.1000    
   X278.0457     Y226.5548     R1.1000    
   X277.7825     Y226.4458     R1.1000    
   X277.5000     Y226.4086     R1.1000    
   X277.2175     Y226.4458     R1.1000    
   X276.9543     Y226.5548     R1.1000    
   X276.7283     Y226.7283     R1.1000    
   X276.5548     Y226.9543     R1.1000    
   X276.4458     Y227.2175     R1.1000    
   X276.4086     Y227.5000     R1.1000    
   X276.4458     Y227.7825     R1.1000    
   X276.5548     Y228.0457     R1.1000    
   X276.7283     Y228.2717     R1.1000    
G0   Z3.200     
   X277.396      Y103.586   
G1   Z-4.200     F100 
G17 G2   X277.6803     Y103.5764     R1.1000    
   X277.9528     Y103.4930     R1.1000    
   X278.1944     Y103.3420     R1.1000    
   X278.3886     Y103.1336     R1.1000    
   X278.5223     Y102.8820     R1.1000    
   X278.5864     Y102.6044     R1.1000    
   X278.5764     Y102.3197     R1.1000    
   X278.4930     Y102.0472     R1.1000    
   X278.3420     Y101.8056     R1.1000    
   X278.1336     Y101.6114     R1.1000    
   X277.8820     Y101.4777     R1.1000    
   X277.6044     Y101.4136     R1.1000    
   X277.3197     Y101.4236     R1.1000    
   X277.0472     Y101.5070     R1.1000    
   X276.8056     Y101.6580     R1.1000    
   X276.6114     Y101.8664     R1.1000    
   X276.4777     Y102.1180     R1.1000    
   X276.4136     Y102.3956     R1.1000    
   X276.4236     Y102.6803     R1.1000    
   X276.5070     Y102.9528     R1.1000    
   X276.6580     Y103.1944     R1.1000    
   X276.8664     Y103.3886     R1.1000    
   X277.1180     Y103.5223     R1.1000    
   X277.3956     Y103.5864     R1.1000    
G0   Z3.200     
   X297.808      Y63.973    
G1   Z-4.200     F100 
G17 G2   X300.5408     Y64.8484      R11.0000   
   X303.4067     Y64.9870      R11.0000   
   X306.2109     Y64.3790      R11.0000   
   X308.7622     Y63.0660      R11.0000   
   X310.8867     Y61.1375      R11.0000   
   X312.4397     Y58.7247      R11.0000   
   X313.3153     Y55.9923      R11.0000   
   X313.4539     Y53.1263      R11.0000   
   X312.8460     Y50.3221      R11.0000   
   X311.5330     Y47.7708      R11.0000   
   X309.6044     Y45.6463      R11.0000   
   X307.1917     Y44.0933      R11.0000   
   X304.4592     Y43.2177      R11.0000   
   X301.5933     Y43.0791      R11.0000   
   X298.7891     Y43.6871      R11.0000   
   X296.2378     Y45.0001      R11.0000   
   X294.1133     Y46.9286      R11.0000   
   X292.5603     Y49.3414      R11.0000   
   X291.6847     Y52.0738      R11.0000   
   X291.5461     Y54.9398      R11.0000   
   X292.1540     Y57.7440      R11.0000   
   X293.4670     Y60.2953      R11.0000   
   X295.3956     Y62.4198      R11.0000   
   X297.8083     Y63.9728      R11.0000   
G0   Z3.200     
   X335.807      Y76.533    
G1   Z-4.200     F100 
   X360.807   
   Y31.533    
   X335.807   
   Y76.533    
G0   Z3.200     
G0 X0 Y0 (home)
M05
M30
%
