%
(Generated by SketchUcam {1.2})
(File: Control Box.skp)
(Bit diameter: 2.0mm)
(Feed rate: 100.0mm/min)
(Material Thickness: 3.0mm)
(Material length: 558.8mm X width: 1066.8mm)
(Overhead Gantry: true)
(Retract feed rate NOT limited to plunge feed rate)
(Optimization is ON)
(www.PhlatBoyz.com)
G90 G21 G49
M3 S11000
G0   Z3.200
   X67.200       Y202.500
G1   Z-4.200     F100
G0   Z3.200
   Y227.500
G1   Z-4.200     F100
G0   Z3.200
   X276.167      Y328.807
G1   Z-4.200     F100
G0   Z3.200
   Y367.807
G1   Z-4.200     F100
G0   Z3.200
   X260.777      Y200.975
G1   Z-1.500     F100
   X261.775
G0   Z3.200
   X261.440      Y202.375
G1   Z-1.500     F100
   X261.775
   Y203.775
   X261.440
   Y205.175
   X261.775
   Y206.575
   X261.440
   Y207.975
   X261.775
   Y209.375
   X261.440
G0   Z3.200
   X261.240      Y209.779
G1   Z-1.500     F100
   Y201.952
   Y201.431
   X261.055      Y201.561
   X249.520      Y209.632
   X248.268
   Y201.006
   X249.003
   Y208.721
   X260.716      Y200.775
   X261.975
   Y209.779
   X261.240
G0   Z3.200
   X255.991      Y222.255
G1   Z-1.500     F100
   X261.966
   Y222.643
   X255.991
   Y222.255
G0   Z3.200
   X245.218
G1   Z-1.500     F100
   X251.193
   Y222.643
   X245.218
   Y222.255
G0   Z3.200
   X273.176      Y222.545
G1   Z-4.200     F100
G17 G2   X273.2896     Y223.3180     R3.0000
   X273.5994     Y224.0349     R3.0000
   X274.0841     Y224.6471     R3.0000
   X274.7108     Y225.1130     R3.0000
   X275.4367     Y225.4009     R3.0000
   X276.2124     Y225.4910     R3.0000
   X276.9850     Y225.3773     R3.0000
   X277.7018     Y225.0676     R3.0000
   X278.3141     Y224.5828     R3.0000
   X278.7800     Y223.9561     R3.0000
   X279.0678     Y223.2302     R3.0000
   X279.1580     Y222.4545     R3.0000
   X279.0443     Y221.6820     R3.0000
   X278.7345     Y220.9651     R3.0000
   X278.2498     Y220.3529     R3.0000
   X277.6231     Y219.8870     R3.0000
   X276.8972     Y219.5991     R3.0000
   X276.1215     Y219.5090     R3.0000
   X275.3489     Y219.6227     R3.0000
   X274.6321     Y219.9324     R3.0000
   X274.0198     Y220.4172     R3.0000
   X273.5539     Y221.0439     R3.0000
   X273.2661     Y221.7698     R3.0000
   X273.1759     Y222.5455     R3.0000
G0   Z3.200
   X275.438      Y207.901
G1   Z-4.200     F100
G17 G2   X276.2133     Y207.9910     R3.0000
   X276.9859     Y207.8771     R3.0000
   X277.7026     Y207.5671     R3.0000
   X278.3147     Y207.0822     R3.0000
   X278.7804     Y206.4554     R3.0000
   X279.0680     Y205.7294     R3.0000
   X279.1580     Y204.9536     R3.0000
   X279.0440     Y204.1811     R3.0000
   X278.7341     Y203.4643     R3.0000
   X278.2491     Y202.8523     R3.0000
   X277.6223     Y202.3865     R3.0000
   X276.8963     Y202.0989     R3.0000
   X276.1206     Y202.0090     R3.0000
   X275.3480     Y202.1229     R3.0000
   X274.6313     Y202.4329     R3.0000
   X274.0192     Y202.9178     R3.0000
   X273.5535     Y203.5446     R3.0000
   X273.2659     Y204.2706     R3.0000
   X273.1759     Y205.0464     R3.0000
   X273.2899     Y205.8189     R3.0000
   X273.5998     Y206.5357     R3.0000
   X274.0848     Y207.1477     R3.0000
   X274.7116     Y207.6135     R3.0000
   X275.4376     Y207.9011     R3.0000
G0   Z3.200
   X276.225      Y190.491
G1   Z-4.200     F100
G17 G2   X276.9971     Y190.3739     R3.0000
   X277.7126     Y190.0611     R3.0000
   X278.3228     Y189.5738     R3.0000
   X278.7861     Y188.9451     R3.0000
   X279.0709     Y188.2180     R3.0000
   X279.1578     Y187.4420     R3.0000
   X279.0408     Y186.6699     R3.0000
   X278.7281     Y185.9543     R3.0000
   X278.2407     Y185.3441     R3.0000
   X277.6121     Y184.8809     R3.0000
   X276.8850     Y184.5961     R3.0000
   X276.1089     Y184.5092     R3.0000
   X275.3368     Y184.6261     R3.0000
   X274.6213     Y184.9389     R3.0000
   X274.0111     Y185.4262     R3.0000
   X273.5478     Y186.0549     R3.0000
   X273.2630     Y186.7820     R3.0000
   X273.1761     Y187.5580     R3.0000
   X273.2931     Y188.3301     R3.0000
   X273.6058     Y189.0457     R3.0000
   X274.0932     Y189.6559     R3.0000
   X274.7218     Y190.1191     R3.0000
   X275.4489     Y190.4039     R3.0000
   X276.2250     Y190.4908     R3.0000
G0   Z3.200
   X289.985      Y182.907
G1   Z-1.500     F100
   X289.881
   Y184.307
   X289.985
   Y185.707
   X289.881
   Y187.107
   X289.985
   Y188.507
   X289.881
   Y189.907
   X289.985
   Y191.307
   X289.881
G0   Z3.200
   X289.681      Y192.269
G1   Z-1.500     F100
   Y187.745
   X285.157
   Y187.252
   X289.681
   Y182.707
   X290.185
   Y187.252
   X294.730
   Y187.745
   X290.185
   Y192.269
   X289.681
G0   Z3.200
   X290.311      Y165.526
G1   Z-1.500     F100
   X289.881
   Y166.926
   X290.311
   Y168.326
   X289.881
   Y169.726
   X290.311
   Y171.126
   X289.881
   Y172.526
   X290.311
   Y173.926
   X289.881
G0   Z3.200
   X289.681      Y174.478
G1   Z-1.500     F100
   Y165.326
   X290.511
   Y174.478
   X289.681
G0   Z3.200
   X278.967      Y171.054
G1   Z-4.200     F100
G17 G2   X279.1439     Y170.2931     R3.0000
   X279.1183     Y169.5126     R3.0000
   X278.8916     Y168.7653     R3.0000
   X278.4792     Y168.1022     R3.0000
   X277.9092     Y167.5684     R3.0000
   X277.2205     Y167.2003     R3.0000
   X276.4600     Y167.0230     R3.0000
   X275.6795     Y167.0486     R3.0000
   X274.9323     Y167.2753     R3.0000
   X274.2691     Y167.6877     R3.0000
   X273.7353     Y168.2577     R3.0000
   X273.3673     Y168.9464     R3.0000
   X273.1900     Y169.7069     R3.0000
   X273.2156     Y170.4874     R3.0000
   X273.4423     Y171.2347     R3.0000
   X273.8547     Y171.8978     R3.0000
   X274.4247     Y172.4316     R3.0000
   X275.1134     Y172.7997     R3.0000
   X275.8739     Y172.9770     R3.0000
   X276.6544     Y172.9514     R3.0000
   X277.4016     Y172.7247     R3.0000
   X278.0648     Y172.3123     R3.0000
   X278.5986     Y171.7423     R3.0000
   X278.9666     Y171.0536     R3.0000
G0   Z3.200
   X276.673      Y155.448
G1   Z-4.200     F100
G17 G2   X277.4187     Y155.2169     R3.0000
   X278.0792     Y154.8003     R3.0000
   X278.6094     Y154.2270     R3.0000
   X278.9732     Y153.5360     R3.0000
   X279.1457     Y152.7744     R3.0000
   X279.1152     Y151.9941     R3.0000
   X278.8838     Y151.2483     R3.0000
   X278.4673     Y150.5877     R3.0000
   X277.8940     Y150.0575     R3.0000
   X277.2030     Y149.6938     R3.0000
   X276.4413     Y149.5212     R3.0000
   X275.6610     Y149.5517     R3.0000
   X274.9152     Y149.7831     R3.0000
   X274.2547     Y150.1997     R3.0000
   X273.7245     Y150.7730     R3.0000
   X273.3607     Y151.4640     R3.0000
   X273.1882     Y152.2256     R3.0000
   X273.2187     Y153.0059     R3.0000
   X273.4501     Y153.7517     R3.0000
   X273.8666     Y154.4123     R3.0000
   X274.4399     Y154.9425     R3.0000
   X275.1309     Y155.3062     R3.0000
   X275.8926     Y155.4788     R3.0000
   X276.6729     Y155.4483     R3.0000
G0   Z3.200
   X276.309      Y137.988
G1   Z-4.200     F100
G17 G2   X277.0774     Y137.8494     R3.0000
   X277.7839     Y137.5167     R3.0000
   X278.3802     Y137.0125     R3.0000
   X278.8256     Y136.3711     R3.0000
   X279.0899     Y135.6362     R3.0000
   X279.1550     Y134.8581     R3.0000
   X279.0164     Y134.0895     R3.0000
   X278.6837     Y133.3831     R3.0000
   X278.1794     Y132.7868     R3.0000
   X277.5380     Y132.3413     R3.0000
   X276.8032     Y132.0771     R3.0000
   X276.0250     Y132.0120     R3.0000
   X275.2565     Y132.1506     R3.0000
   X274.5500     Y132.4833     R3.0000
   X273.9537     Y132.9875     R3.0000
   X273.5083     Y133.6289     R3.0000
   X273.2440     Y134.3638     R3.0000
   X273.1789     Y135.1419     R3.0000
   X273.3175     Y135.9105     R3.0000
   X273.6502     Y136.6169     R3.0000
   X274.1545     Y137.2132     R3.0000
   X274.7959     Y137.6587     R3.0000
   X275.5307     Y137.9229     R3.0000
   X276.3089     Y137.9880     R3.0000
G0   Z3.200
   X290.275      Y130.548
G1   Z-1.500     F100
   X289.845
   Y131.948
   X290.275
   Y133.348
   X289.845
   Y134.748
   X290.275
   Y136.148
   X289.845
   Y137.548
   X290.275
   Y138.948
   X289.845
G0   Z3.200
   X289.645      Y139.500
G1   Z-1.500     F100
   Y130.348
   X290.475
   Y139.500
   X289.645
G0   Z3.200
   X289.948      Y147.929
G1   Z-1.500     F100
   X289.845
   Y149.329
   X289.948
   Y150.729
   X289.845
   Y152.129
   X289.948
   Y153.529
   X289.845
   Y154.929
   X289.948
   Y156.329
   X289.845
G0   Z3.200
   X289.645      Y157.291
G1   Z-1.500     F100
   Y152.767
   X285.121
   Y152.274
   X289.645
   Y147.729
   X290.148
   Y152.274
   X294.693
   Y152.767
   X290.148
   Y157.291
   X289.645
G0   Z3.200
   X256.029      Y141.853
G1   Z-1.500     F100
   X256.756
   X259.192      Y140.453
   X258.452
   X260.874      Y139.053
   X261.627
G0   Z3.200
   X261.276      Y146.053
G1   Z-1.500     F100
   X260.507
   X258.073      Y144.653
   X258.849
   X256.422      Y143.253
   X255.639
G0   Z3.200
   X255.803      Y142.664
G1   Z-1.500     F100
   X261.975      Y146.225
   Y147.128
   X255.000      Y143.115
   X248.268      Y146.999
   Y146.100
   X254.275      Y142.648
   X248.268      Y139.208
   Y138.314
   X255.000      Y142.216
   X261.975      Y138.185
   Y139.083
   X255.814      Y142.625
   X255.774
   X255.803
G0   Z3.200
   X252.682      Y104.152
G1   Z-1.500     F100
   X251.366
   Y105.552
   X255.482
   X258.282      Y106.952
   X251.366
   Y108.352
   X259.558
   X256.762      Y109.752
   X251.366
   Y111.152
   X253.967
G0   Z3.200
   X251.166      Y112.779
G1   Z-1.500     F100
   Y103.170
   X260.766      Y107.970
   X251.166      Y112.779
G0   Z3.200
   X269.194      Y108.506
G1   Z-4.200     F100
G17 G2   X269.5623     Y110.2931     R7.0000
   X270.3809     Y111.9243     R7.0000
   X271.5937     Y113.2882     R7.0000
   X273.1182     Y114.2916     R7.0000
   X274.8505     Y114.8663     R7.0000
   X276.6725     Y114.9731     R7.0000
   X278.4600     Y114.6046     R7.0000
   X280.0913     Y113.7861     R7.0000
   X281.4551     Y112.5732     R7.0000
   X282.4586     Y111.0487     R7.0000
   X283.0333     Y109.3165     R7.0000
   X283.1400     Y107.4945     R7.0000
   X282.7716     Y105.7069     R7.0000
   X281.9530     Y104.0757     R7.0000
   X280.7402     Y102.7118     R7.0000
   X279.2157     Y101.7084     R7.0000
   X277.4834     Y101.1337     R7.0000
   X275.6614     Y101.0269     R7.0000
   X273.8739     Y101.3954     R7.0000
   X272.2426     Y102.2139     R7.0000
   X270.8788     Y103.4268     R7.0000
   X269.8753     Y104.9513     R7.0000
   X269.3006     Y106.6835     R7.0000
   X269.1939     Y108.5055     R7.0000
G0   Z3.200
   X260.777      Y77.098
G1   Z-1.500     F100
   X261.775
G0   Z3.200
   X261.440      Y78.498
G1   Z-1.500     F100
   X261.775
   Y79.898
   X261.440
   Y81.298
   X261.775
   Y82.698
   X261.440
   Y84.098
   X261.775
   Y85.498
   X261.440
G0   Z3.200
   X261.240      Y85.902
G1   Z-1.500     F100
   Y78.075
   Y77.555
   X261.055      Y77.684
   X249.520      Y85.755
   X248.268
   Y77.129
   X249.003
   Y84.844
   X260.716      Y76.898
   X261.975
   Y85.902
   X261.240
G0   Z3.200
   X269.464      Y82.987
G1   Z-4.200     F100
G17 G2   X270.2064     Y84.6539      R7.0000
   X271.3552     Y86.0721      R7.0000
   X272.8319     Y87.1446      R7.0000
   X274.5359     Y87.7984      R7.0000
   X276.3510     Y87.9889      R7.0000
   X278.1536     Y87.7032      R7.0000
   X279.8208     Y86.9606      R7.0000
   X281.2390     Y85.8118      R7.0000
   X282.3116     Y84.3351      R7.0000
   X282.9654     Y82.6311      R7.0000
   X283.1559     Y80.8159      R7.0000
   X282.8701     Y79.0133      R7.0000
   X282.1275     Y77.3461      R7.0000
   X280.9787     Y75.9279      R7.0000
   X279.5020     Y74.8554      R7.0000
   X277.7980     Y74.2016      R7.0000
   X275.9829     Y74.0111      R7.0000
   X274.1803     Y74.2968      R7.0000
   X272.5131     Y75.0394      R7.0000
   X271.0949     Y76.1882      R7.0000
   X270.0223     Y77.6649      R7.0000
   X269.3685     Y79.3689      R7.0000
   X269.1780     Y81.1841      R7.0000
   X269.4638     Y82.9867      R7.0000
G0   Z3.200
   X274.127      Y60.687
G1   Z-4.200     F100
G17 G2   X275.9278     Y60.9873      R7.0000
   X277.7444     Y60.8111      R7.0000
   X279.4534     Y60.1708      R7.0000
   X280.9386     Y59.1099      R7.0000
   X282.0985     Y57.7008      R7.0000
   X282.8542     Y56.0395      R7.0000
   X283.1542     Y54.2392      R7.0000
   X282.9780     Y52.4226      R7.0000
   X282.3377     Y50.7135      R7.0000
   X281.2768     Y49.2284      R7.0000
   X279.8677     Y48.0684      R7.0000
   X278.2064     Y47.3127      R7.0000
   X276.4061     Y47.0127      R7.0000
   X274.5895     Y47.1889      R7.0000
   X272.8804     Y47.8292      R7.0000
   X271.3953     Y48.8901      R7.0000
   X270.2354     Y50.2992      R7.0000
   X269.4797     Y51.9605      R7.0000
   X269.1797     Y53.7608      R7.0000
   X269.3559     Y55.5774      R7.0000
   X269.9962     Y57.2865      R7.0000
   X271.0571     Y58.7716      R7.0000
   X272.4662     Y59.9316      R7.0000
   X274.1275     Y60.6873      R7.0000
G0   Z3.200
   X249.728      Y50.203
G1   Z-1.500     F100
   X248.483
   X251.379      Y51.603
   X252.477
   X255.225      Y53.003
   X254.276
G0   Z3.200
   X255.499      Y54.403
G1   Z-1.500     F100
   X256.410
   X253.662      Y55.803
   X252.612
   X249.725      Y57.203
   X250.914
G0   Z3.200
   X248.268      Y57.688
G1   Z-1.500     F100
   X255.362      Y54.247
   X255.875      Y53.998
   X254.612      Y53.388
   X248.268      Y50.322
   Y49.235
   X256.549      Y53.453
   X261.975
   Y54.557
   X256.549
   X248.268      Y58.775
   Y57.688
G0   Z3.200
   X255.639      Y27.538
G1   Z-1.500     F100
   X256.422
   X258.849      Y28.938
   X258.073
   X260.507      Y30.338
   X261.276
G0   Z3.200
   X256.029      Y26.138
G1   Z-1.500     F100
   X256.756
   X259.192      Y24.738
   X258.452
   X260.874      Y23.338
   X261.627
G0   Z3.200
   X261.975      Y23.368
G1   Z-1.500     F100
   X255.814      Y26.910
   X255.774
   X255.803
   X261.975      Y30.511
   Y31.413
   X255.000      Y27.401
   X248.268      Y31.284
   Y30.385
   X254.275      Y26.933
   X248.268      Y23.493
   Y22.599
   X255.000      Y26.501
   X261.975      Y22.471
   Y23.368
G0   Z3.200
   X269.521      Y24.829
G1   Z-4.200     F100
G17 G2   X269.1857     Y26.6230      R7.0000
   X269.3261     Y28.4427      R7.0000
   X269.9326     Y30.1641      R7.0000
   X270.9639     Y31.6699      R7.0000
   X272.3499     Y32.8574      R7.0000
   X273.9960     Y33.6458      R7.0000
   X275.7900     Y33.9812      R7.0000
   X277.6097     Y33.8409      R7.0000
   X279.3311     Y33.2344      R7.0000
   X280.8368     Y32.2030      R7.0000
   X282.0244     Y30.8171      R7.0000
   X282.8127     Y29.1710      R7.0000
   X283.1481     Y27.3770      R7.0000
   X283.0078     Y25.5573      R7.0000
   X282.4013     Y23.8359      R7.0000
   X281.3700     Y22.3301      R7.0000
   X279.9840     Y21.1426      R7.0000
   X278.3379     Y20.3542      R7.0000
   X276.5439     Y20.0188      R7.0000
   X274.7242     Y20.1591      R7.0000
   X273.0028     Y20.7656      R7.0000
   X271.4971     Y21.7970      R7.0000
   X270.3095     Y23.1829      R7.0000
   X269.5212     Y24.8290      R7.0000
G0   Z3.200
   X228.030      Y151.460
G1   Z-4.200     F100
G17 G2   X227.7490     Y151.4097     R1.1000
   X227.4651     Y151.4342     R1.1000
   X227.1973     Y151.5313     R1.1000
   X226.9637     Y151.6944     R1.1000
   X226.7803     Y151.9124     R1.1000
   X226.6596     Y152.1705     R1.1000
   X226.6097     Y152.4510     R1.1000
   X226.6342     Y152.7349     R1.1000
   X226.7313     Y153.0027     R1.1000
   X226.8944     Y153.2363     R1.1000
   X227.1124     Y153.4197     R1.1000
   X227.3705     Y153.5404     R1.1000
   X227.6510     Y153.5903     R1.1000
   X227.9349     Y153.5658     R1.1000
   X228.2027     Y153.4687     R1.1000
   X228.4363     Y153.3056     R1.1000
   X228.6197     Y153.0876     R1.1000
   X228.7404     Y152.8295     R1.1000
   X228.7903     Y152.5490     R1.1000
   X228.7658     Y152.2651     R1.1000
   X228.6687     Y151.9973     R1.1000
   X228.5056     Y151.7637     R1.1000
   X228.2876     Y151.5803     R1.1000
   X228.0295     Y151.4596     R1.1000
G0   Z3.200
   X249.728      Y176.052
G1   Z-1.500     F100
   X248.483
   X251.379      Y177.452
   X252.477
   X255.225      Y178.852
   X254.276
G0   Z3.200
   X255.499      Y180.252
G1   Z-1.500     F100
   X256.410
   X253.662      Y181.652
   X252.612
   X249.725      Y183.052
   X250.914
G0   Z3.200
   X248.268      Y183.537
G1   Z-1.500     F100
   X255.362      Y180.096
   X255.875      Y179.847
   X254.612      Y179.236
   X248.268      Y176.170
   Y175.084
   X256.549      Y179.302
   X261.975
   Y180.406
   X256.549
   X248.268      Y184.624
   Y183.537
G0   Z3.200
   X228.082      Y276.478
G1   Z-4.200     F100
G17 G2   X227.8044     Y276.4136     R1.1000
   X227.5197     Y276.4236     R1.1000
   X227.2472     Y276.5070     R1.1000
   X227.0056     Y276.6580     R1.1000
   X226.8114     Y276.8664     R1.1000
   X226.6777     Y277.1180     R1.1000
   X226.6136     Y277.3956     R1.1000
   X226.6236     Y277.6803     R1.1000
   X226.7070     Y277.9528     R1.1000
   X226.8580     Y278.1944     R1.1000
   X227.0664     Y278.3886     R1.1000
   X227.3180     Y278.5223     R1.1000
   X227.5956     Y278.5864     R1.1000
   X227.8803     Y278.5764     R1.1000
   X228.1528     Y278.4930     R1.1000
   X228.3944     Y278.3420     R1.1000
   X228.5886     Y278.1336     R1.1000
   X228.7223     Y277.8820     R1.1000
   X228.7864     Y277.6044     R1.1000
   X228.7764     Y277.3197     R1.1000
   X228.6930     Y277.0472     R1.1000
   X228.5420     Y276.8056     R1.1000
   X228.3336     Y276.6114     R1.1000
   X228.0820     Y276.4777     R1.1000
G0   Z3.200
   X266.227      Y297.808
G1   Z-4.200     F100
G17 G2   X265.3516     Y300.5408     R11.0000
   X265.2130     Y303.4067     R11.0000
   X265.8210     Y306.2109     R11.0000
   X267.1340     Y308.7622     R11.0000
   X269.0625     Y310.8867     R11.0000
   X271.4753     Y312.4397     R11.0000
   X274.2077     Y313.3153     R11.0000
   X277.0737     Y313.4539     R11.0000
   X279.8779     Y312.8460     R11.0000
   X282.4292     Y311.5330     R11.0000
   X284.5537     Y309.6044     R11.0000
   X286.1067     Y307.1917     R11.0000
   X286.9823     Y304.4592     R11.0000
   X287.1209     Y301.5933     R11.0000
   X286.5129     Y298.7891     R11.0000
   X285.1999     Y296.2378     R11.0000
   X283.2714     Y294.1133     R11.0000
   X280.8586     Y292.5603     R11.0000
   X278.1262     Y291.6847     R11.0000
   X275.2602     Y291.5461     R11.0000
   X272.4560     Y292.1540     R11.0000
   X269.9047     Y293.4670     R11.0000
   X267.7802     Y295.3956     R11.0000
   X266.2272     Y297.8083     R11.0000
G0   Z3.200
   X253.667      Y335.807
G1   Z-4.200     F100
   Y360.807
   X298.667
   Y335.807
   X253.667
G0   Z3.200
   X103.645      Y278.046
G1   Z-4.200     F100
G17 G2   X103.7542     Y277.7825     R1.1000
   X103.7914     Y277.5000     R1.1000
   X103.7542     Y277.2175     R1.1000
   X103.6452     Y276.9543     R1.1000
   X103.4717     Y276.7283     R1.1000
   X103.2457     Y276.5548     R1.1000
   X102.9825     Y276.4458     R1.1000
   X102.7000     Y276.4086     R1.1000
   X102.4175     Y276.4458     R1.1000
   X102.1543     Y276.5548     R1.1000
   X101.9283     Y276.7283     R1.1000
   X101.7548     Y276.9543     R1.1000
   X101.6458     Y277.2175     R1.1000
   X101.6086     Y277.5000     R1.1000
   X101.6458     Y277.7825     R1.1000
   X101.7548     Y278.0457     R1.1000
   X101.9283     Y278.2717     R1.1000
   X102.1543     Y278.4452     R1.1000
   X102.4175     Y278.5542     R1.1000
   X102.7000     Y278.5914     R1.1000
   X102.9825     Y278.5542     R1.1000
   X103.2457     Y278.4452     R1.1000
   X103.4717     Y278.2717     R1.1000
   X103.6452     Y278.0457     R1.1000
G0   Z3.200
   X72.200       Y220.000
G1   Z-4.200     F100
   Y210.000
   X62.200
   Y220.000
   X72.200
G0   Z3.200
   X102.154      Y153.445
G1   Z-4.200     F100
G17 G2   X102.4175     Y153.5542     R1.1000
   X102.7000     Y153.5914     R1.1000
   X102.9825     Y153.5542     R1.1000
   X103.2457     Y153.4452     R1.1000
   X103.4717     Y153.2717     R1.1000
   X103.6452     Y153.0457     R1.1000
   X103.7542     Y152.7825     R1.1000
   X103.7914     Y152.5000     R1.1000
   X103.7542     Y152.2175     R1.1000
   X103.6452     Y151.9543     R1.1000
   X103.4717     Y151.7283     R1.1000
   X103.2457     Y151.5548     R1.1000
   X102.9825     Y151.4458     R1.1000
   X102.7000     Y151.4086     R1.1000
   X102.4175     Y151.4458     R1.1000
   X102.1543     Y151.5548     R1.1000
   X101.9283     Y151.7283     R1.1000
   X101.7548     Y151.9543     R1.1000
   X101.6458     Y152.2175     R1.1000
   X101.6086     Y152.5000     R1.1000
   X101.6458     Y152.7825     R1.1000
   X101.7548     Y153.0457     R1.1000
   X101.9283     Y153.2717     R1.1000
   X102.1543     Y153.4452     R1.1000
G0   Z3.200
   X118.978      Y163.781
G1   Z-4.200     F100
G17 G2   X107.2968     Y177.4896     R69.0000
   X99.5614      Y193.7542     R69.0000
   X96.2992      Y211.4666     R69.0000
   X97.7324      Y229.4199     R69.0000
   X103.7634     Y246.3904     R69.0000
   X113.9813     Y261.2218     R69.0000
   X127.6896     Y272.9032     R69.0000
   X143.9542     Y280.6386     R69.0000
   X161.6666     Y283.9008     R69.0000
   X179.6199     Y282.4676     R69.0000
   X196.5904     Y276.4366     R69.0000
   X211.4218     Y266.2187     R69.0000
   X223.1032     Y252.5104     R69.0000
   X230.8386     Y236.2458     R69.0000
   X234.1008     Y218.5334     R69.0000
   X232.6676     Y200.5801     R69.0000
   X226.6366     Y183.6096     R69.0000
   X216.4187     Y168.7782     R69.0000
   X202.7104     Y157.0968     R69.0000
   X186.4458     Y149.3614     R69.0000
   X168.7334     Y146.0992     R69.0000
   X150.7801     Y147.5324     R69.0000
   X133.8096     Y153.5634     R69.0000
   X118.9782     Y163.7813     R69.0000
G0   Z3.200
   X255.639      Y27.538
G1   Z-1.500     F100
   X255.803      Y26.950
   Y26.910
   X256.029      Y26.138
G0   Z3.200
   X254.276      Y53.003
G1   Z-1.500     F100
   X254.612      Y53.388
   X255.362      Y54.247
   X255.499      Y54.403
G0   Z3.200
   X260.777      Y77.098
G1   Z-1.500     F100
   X261.055      Y77.684
   X261.240      Y78.075
   X261.440      Y78.498
G0   Z3.200
   X256.029      Y141.853
G1   Z-1.500     F100
   X255.814      Y142.625
   Y142.664
   X255.639      Y143.253
G0   Z3.200
   X254.276      Y178.852
G1   Z-1.500     F100
   X254.612      Y179.236
   X255.362      Y180.096
   X255.499      Y180.252
G0   Z3.200
   X260.777      Y200.975
G1   Z-1.500     F100
   X261.055      Y201.561
   X261.240      Y201.952
   X261.440      Y202.375
G0   Z3.200
M05
M30
%
