%
(Generated by SketchUcam {1.2})
(File: HoldDownSlot.skp)
(Bit diameter: 6.3mm)
(Feed rate: 2500.0mm/min)
(Plunge Feed rate: 300.0mm/min)
(Material Thickness: 10.0mm)
(Material length: 1250.0mm X width: 1250.0mm)
(Overhead Gantry: true)
(Retract feed rate NOT limited to plunge feed rate)
(Multipass enabled, Depth = 0.5mm)
(Optimization is ON)
(www.PhlatBoyz.com)
G90 G21 G49 
M3 S10000
G0   Z10.000    
(Pass: 1)
   X8.190        Y3.780     
G1   Z-0.500     F300 
   Y911.220    F2500
   X12.600    
   Y3.780     
(Pass: 2)
G0   Z10.000    
   X8.190     
G1   Z-1.000     F300 
   Y911.220    F2500
   X12.600    
   Y3.780     
(Pass: 3)
G0   Z10.000    
   X8.190     
G1   Z-1.500     F300 
   Y911.220    F2500
   X12.600    
   Y3.780     
(Pass: 4)
G0   Z10.000    
   X8.190     
G1   Z-2.000     F300 
   Y911.220    F2500
   X12.600    
   Y3.780     
(Pass: 5)
G0   Z10.000    
   X8.190     
G1   Z-2.500     F300 
   Y911.220    F2500
   X12.600    
   Y3.780     
(Pass: 6)
G0   Z10.000    
   X8.190     
G1   Z-3.000     F300 
   Y911.220    F2500
   X12.600    
   Y3.780     
(Pass: 7)
G0   Z10.000    
   X8.190     
G1   Z-3.500     F300 
   Y911.220    F2500
   X12.600    
   Y3.780     
(Pass: 8)
G0   Z10.000    
   X8.190     
G1   Z-4.000     F300 
   Y911.220    F2500
   X12.600    
   Y3.780     
(Pass: 9)
G0   Z10.000    
   X8.190     
G1   Z-4.500     F300 
   Y911.220    F2500
   X12.600    
   Y3.780     
(Pass: 10)
G0   Z10.000    
   X8.190     
G1   Z-5.000     F300 
   Y911.220    F2500
   X12.600    
   Y3.780     
G0   Z10.000    
(Pass: 1)
   X15.850       Y3.150     
G1   Z-0.500     F300 
   Y911.850    F2500
   X3.150     
   Y3.150     
   X15.850    
(Pass: 2)
G0   Z10.000    
G1   Z-1.000     F300 
   Y911.850    F2500
   X3.150     
   Y3.150     
   X15.850    
(Pass: 3)
G0   Z10.000    
G1   Z-1.500     F300 
   Y911.850    F2500
   X3.150     
   Y3.150     
   X15.850    
(Pass: 4)
G0   Z10.000    
G1   Z-2.000     F300 
   Y911.850    F2500
   X3.150     
   Y3.150     
   X15.850    
(Pass: 5)
G0   Z10.000    
G1   Z-2.500     F300 
   Y911.850    F2500
   X3.150     
   Y3.150     
   X15.850    
(Pass: 6)
G0   Z10.000    
G1   Z-3.000     F300 
   Y911.850    F2500
   X3.150     
   Y3.150     
   X15.850    
(Pass: 7)
G0   Z10.000    
G1   Z-3.500     F300 
   Y911.850    F2500
   X3.150     
   Y3.150     
   X15.850    
(Pass: 8)
G0   Z10.000    
G1   Z-4.000     F300 
   Y911.850    F2500
   X3.150     
   Y3.150     
   X15.850    
(Pass: 9)
G0   Z10.000    
G1   Z-4.500     F300 
   Y911.850    F2500
   X3.150     
   Y3.150     
   X15.850    
(Pass: 10)
G0   Z10.000    
G1   Z-5.000     F300 
   Y911.850    F2500
   X3.150     
   Y3.150     
   X15.850    
G0   Z10.000    
G0 X0 Y0 (home)
M05
M30
%
