%
(Generated by SketchUcam {1.2b1})
(File: laser.skp)
(Bit diameter: 4.9mm)
(Feed rate: 1200.0mm/min)
(Plunge Feed rate: 300.0mm/min)
(Material Thickness: 3.5mm)
(Material length: 600.0mm X width: 1200.0mm)
(Overhead Gantry: true)
(Retract feed rate NOT limited to plunge feed rate)
(Multipass enabled, Depth = 0.2mm)
(Optimization is ON)
(www.PhlatBoyz.com)
G90 G21 G49 
M3 S11000
(Group: Outside Panels)
(Group: Mechanical Panels)
(Group complete: Mechanical Panels)
(Group: SIde Panels)
(Group complete: SIde Panels)
(Group: Front Panels)
(Group complete: Front Panels)
(Group: Rear Panels)
(Group complete: Rear Panels)
(Group complete: Outside Panels)
(Group: Power Supplies)
(Group complete: Power Supplies)
(Group: Computers)
(Group complete: Computers)
(Group: Fans)
(Group complete: Fans)
(Group: Lid)
(Group: Lid Front Panels)
(Group complete: Lid Front Panels)
(Group: Lid Top Panels)
(Group complete: Lid Top Panels)
(Group complete: Lid)
(Group: Laser Assembly)
(Group complete: Laser Assembly)
(Group: X Axis Mirror)
(Group complete: X Axis Mirror)
G0   Z5.000     
(Pass: 1)
   X17.900       Y18.172    
G1   Z-0.200     F300 
G17 G2   X17.9874      Y18.0650      R5.4500     F1200
   X18.0995      Y17.9845      R5.4500    
   X18.2287      Y17.9357      R5.4500    
   X18.3661      Y17.9220      R5.4500    
   X18.5023      Y17.9443      R5.4500    
   X18.6281      Y18.0011      R5.4500    
   X18.7350      Y18.0886      R5.4500    
   X18.8155      Y18.2007      R5.4500    
   X18.8643      Y18.3298      R5.4500    
   X18.8780      Y18.4672      R5.4500    
   X18.8557      Y18.6035      R5.4500    
   X18.7989      Y18.7293      R5.4500    
   X18.7114      Y18.8361      R5.4500    
   X18.5993      Y18.9167      R5.4500    
   X18.4701      Y18.9655      R5.4500    
   X18.3328      Y18.9792      R5.4500    
   X18.1965      Y18.9569      R5.4500    
   X18.0707      Y18.9000      R5.4500    
   X17.9639      Y18.8126      R5.4500    
   X17.8833      Y18.7005      R5.4500    
   X17.8345      Y18.5713      R5.4500    
   X17.8208      Y18.4339      R5.4500    
   X17.8431      Y18.2977      R5.4500    
   X17.9000      Y18.1719      R5.4500    
(Pass: 2)
G1   Z-0.400     F300 
G17 G2   X17.9874      Y18.0650      R5.4500     F1200
   X18.0995      Y17.9845      R5.4500    
   X18.2287      Y17.9357      R5.4500    
   X18.3661      Y17.9220      R5.4500    
   X18.5023      Y17.9443      R5.4500    
   X18.6281      Y18.0011      R5.4500    
   X18.7350      Y18.0886      R5.4500    
   X18.8155      Y18.2007      R5.4500    
   X18.8643      Y18.3298      R5.4500    
   X18.8780      Y18.4672      R5.4500    
   X18.8557      Y18.6035      R5.4500    
   X18.7989      Y18.7293      R5.4500    
   X18.7114      Y18.8361      R5.4500    
   X18.5993      Y18.9167      R5.4500    
   X18.4701      Y18.9655      R5.4500    
   X18.3328      Y18.9792      R5.4500    
   X18.1965      Y18.9569      R5.4500    
   X18.0707      Y18.9000      R5.4500    
   X17.9639      Y18.8126      R5.4500    
   X17.8833      Y18.7005      R5.4500    
   X17.8345      Y18.5713      R5.4500    
   X17.8208      Y18.4339      R5.4500    
   X17.8431      Y18.2977      R5.4500    
   X17.9000      Y18.1719      R5.4500    
(Pass: 3)
G1   Z-0.600     F300 
G17 G2   X17.9874      Y18.0650      R5.4500     F1200
   X18.0995      Y17.9845      R5.4500    
   X18.2287      Y17.9357      R5.4500    
   X18.3661      Y17.9220      R5.4500    
   X18.5023      Y17.9443      R5.4500    
   X18.6281      Y18.0011      R5.4500    
   X18.7350      Y18.0886      R5.4500    
   X18.8155      Y18.2007      R5.4500    
   X18.8643      Y18.3298      R5.4500    
   X18.8780      Y18.4672      R5.4500    
   X18.8557      Y18.6035      R5.4500    
   X18.7989      Y18.7293      R5.4500    
   X18.7114      Y18.8361      R5.4500    
   X18.5993      Y18.9167      R5.4500    
   X18.4701      Y18.9655      R5.4500    
   X18.3328      Y18.9792      R5.4500    
   X18.1965      Y18.9569      R5.4500    
   X18.0707      Y18.9000      R5.4500    
   X17.9639      Y18.8126      R5.4500    
   X17.8833      Y18.7005      R5.4500    
   X17.8345      Y18.5713      R5.4500    
   X17.8208      Y18.4339      R5.4500    
   X17.8431      Y18.2977      R5.4500    
   X17.9000      Y18.1719      R5.4500    
(Pass: 4)
G1   Z-0.800     F300 
G17 G2   X17.9874      Y18.0650      R5.4500     F1200
   X18.0995      Y17.9845      R5.4500    
   X18.2287      Y17.9357      R5.4500    
   X18.3661      Y17.9220      R5.4500    
   X18.5023      Y17.9443      R5.4500    
   X18.6281      Y18.0011      R5.4500    
   X18.7350      Y18.0886      R5.4500    
   X18.8155      Y18.2007      R5.4500    
   X18.8643      Y18.3298      R5.4500    
   X18.8780      Y18.4672      R5.4500    
   X18.8557      Y18.6035      R5.4500    
   X18.7989      Y18.7293      R5.4500    
   X18.7114      Y18.8361      R5.4500    
   X18.5993      Y18.9167      R5.4500    
   X18.4701      Y18.9655      R5.4500    
   X18.3328      Y18.9792      R5.4500    
   X18.1965      Y18.9569      R5.4500    
   X18.0707      Y18.9000      R5.4500    
   X17.9639      Y18.8126      R5.4500    
   X17.8833      Y18.7005      R5.4500    
   X17.8345      Y18.5713      R5.4500    
   X17.8208      Y18.4339      R5.4500    
   X17.8431      Y18.2977      R5.4500    
   X17.9000      Y18.1719      R5.4500    
(Pass: 5)
G1   Z-1.000     F300 
G17 G2   X17.9874      Y18.0650      R5.4500     F1200
   X18.0995      Y17.9845      R5.4500    
   X18.2287      Y17.9357      R5.4500    
   X18.3661      Y17.9220      R5.4500    
   X18.5023      Y17.9443      R5.4500    
   X18.6281      Y18.0011      R5.4500    
   X18.7350      Y18.0886      R5.4500    
   X18.8155      Y18.2007      R5.4500    
   X18.8643      Y18.3298      R5.4500    
   X18.8780      Y18.4672      R5.4500    
   X18.8557      Y18.6035      R5.4500    
   X18.7989      Y18.7293      R5.4500    
   X18.7114      Y18.8361      R5.4500    
   X18.5993      Y18.9167      R5.4500    
   X18.4701      Y18.9655      R5.4500    
   X18.3328      Y18.9792      R5.4500    
   X18.1965      Y18.9569      R5.4500    
   X18.0707      Y18.9000      R5.4500    
   X17.9639      Y18.8126      R5.4500    
   X17.8833      Y18.7005      R5.4500    
   X17.8345      Y18.5713      R5.4500    
   X17.8208      Y18.4339      R5.4500    
   X17.8431      Y18.2977      R5.4500    
   X17.9000      Y18.1719      R5.4500    
(Pass: 6)
G1   Z-1.200     F300 
G17 G2   X17.9874      Y18.0650      R5.4500     F1200
   X18.0995      Y17.9845      R5.4500    
   X18.2287      Y17.9357      R5.4500    
   X18.3661      Y17.9220      R5.4500    
   X18.5023      Y17.9443      R5.4500    
   X18.6281      Y18.0011      R5.4500    
   X18.7350      Y18.0886      R5.4500    
   X18.8155      Y18.2007      R5.4500    
   X18.8643      Y18.3298      R5.4500    
   X18.8780      Y18.4672      R5.4500    
   X18.8557      Y18.6035      R5.4500    
   X18.7989      Y18.7293      R5.4500    
   X18.7114      Y18.8361      R5.4500    
   X18.5993      Y18.9167      R5.4500    
   X18.4701      Y18.9655      R5.4500    
   X18.3328      Y18.9792      R5.4500    
   X18.1965      Y18.9569      R5.4500    
   X18.0707      Y18.9000      R5.4500    
   X17.9639      Y18.8126      R5.4500    
   X17.8833      Y18.7005      R5.4500    
   X17.8345      Y18.5713      R5.4500    
   X17.8208      Y18.4339      R5.4500    
   X17.8431      Y18.2977      R5.4500    
   X17.9000      Y18.1719      R5.4500    
(Pass: 7)
G1   Z-1.400     F300 
G17 G2   X17.9874      Y18.0650      R5.4500     F1200
   X18.0995      Y17.9845      R5.4500    
   X18.2287      Y17.9357      R5.4500    
   X18.3661      Y17.9220      R5.4500    
   X18.5023      Y17.9443      R5.4500    
   X18.6281      Y18.0011      R5.4500    
   X18.7350      Y18.0886      R5.4500    
   X18.8155      Y18.2007      R5.4500    
   X18.8643      Y18.3298      R5.4500    
   X18.8780      Y18.4672      R5.4500    
   X18.8557      Y18.6035      R5.4500    
   X18.7989      Y18.7293      R5.4500    
   X18.7114      Y18.8361      R5.4500    
   X18.5993      Y18.9167      R5.4500    
   X18.4701      Y18.9655      R5.4500    
   X18.3328      Y18.9792      R5.4500    
   X18.1965      Y18.9569      R5.4500    
   X18.0707      Y18.9000      R5.4500    
   X17.9639      Y18.8126      R5.4500    
   X17.8833      Y18.7005      R5.4500    
   X17.8345      Y18.5713      R5.4500    
   X17.8208      Y18.4339      R5.4500    
   X17.8431      Y18.2977      R5.4500    
   X17.9000      Y18.1719      R5.4500    
(Pass: 8)
G1   Z-1.600     F300 
G17 G2   X17.9874      Y18.0650      R5.4500     F1200
   X18.0995      Y17.9845      R5.4500    
   X18.2287      Y17.9357      R5.4500    
   X18.3661      Y17.9220      R5.4500    
   X18.5023      Y17.9443      R5.4500    
   X18.6281      Y18.0011      R5.4500    
   X18.7350      Y18.0886      R5.4500    
   X18.8155      Y18.2007      R5.4500    
   X18.8643      Y18.3298      R5.4500    
   X18.8780      Y18.4672      R5.4500    
   X18.8557      Y18.6035      R5.4500    
   X18.7989      Y18.7293      R5.4500    
   X18.7114      Y18.8361      R5.4500    
   X18.5993      Y18.9167      R5.4500    
   X18.4701      Y18.9655      R5.4500    
   X18.3328      Y18.9792      R5.4500    
   X18.1965      Y18.9569      R5.4500    
   X18.0707      Y18.9000      R5.4500    
   X17.9639      Y18.8126      R5.4500    
   X17.8833      Y18.7005      R5.4500    
   X17.8345      Y18.5713      R5.4500    
   X17.8208      Y18.4339      R5.4500    
   X17.8431      Y18.2977      R5.4500    
   X17.9000      Y18.1719      R5.4500    
(Pass: 9)
G1   Z-1.800     F300 
G17 G2   X17.9874      Y18.0650      R5.4500     F1200
   X18.0995      Y17.9845      R5.4500    
   X18.2287      Y17.9357      R5.4500    
   X18.3661      Y17.9220      R5.4500    
   X18.5023      Y17.9443      R5.4500    
   X18.6281      Y18.0011      R5.4500    
   X18.7350      Y18.0886      R5.4500    
   X18.8155      Y18.2007      R5.4500    
   X18.8643      Y18.3298      R5.4500    
   X18.8780      Y18.4672      R5.4500    
   X18.8557      Y18.6035      R5.4500    
   X18.7989      Y18.7293      R5.4500    
   X18.7114      Y18.8361      R5.4500    
   X18.5993      Y18.9167      R5.4500    
   X18.4701      Y18.9655      R5.4500    
   X18.3328      Y18.9792      R5.4500    
   X18.1965      Y18.9569      R5.4500    
   X18.0707      Y18.9000      R5.4500    
   X17.9639      Y18.8126      R5.4500    
   X17.8833      Y18.7005      R5.4500    
   X17.8345      Y18.5713      R5.4500    
   X17.8208      Y18.4339      R5.4500    
   X17.8431      Y18.2977      R5.4500    
   X17.9000      Y18.1719      R5.4500    
(Pass: 10)
G1   Z-2.000     F300 
G17 G2   X17.9874      Y18.0650      R5.4500     F1200
   X18.0995      Y17.9845      R5.4500    
   X18.2287      Y17.9357      R5.4500    
   X18.3661      Y17.9220      R5.4500    
   X18.5023      Y17.9443      R5.4500    
   X18.6281      Y18.0011      R5.4500    
   X18.7350      Y18.0886      R5.4500    
   X18.8155      Y18.2007      R5.4500    
   X18.8643      Y18.3298      R5.4500    
   X18.8780      Y18.4672      R5.4500    
   X18.8557      Y18.6035      R5.4500    
   X18.7989      Y18.7293      R5.4500    
   X18.7114      Y18.8361      R5.4500    
   X18.5993      Y18.9167      R5.4500    
   X18.4701      Y18.9655      R5.4500    
   X18.3328      Y18.9792      R5.4500    
   X18.1965      Y18.9569      R5.4500    
   X18.0707      Y18.9000      R5.4500    
   X17.9639      Y18.8126      R5.4500    
   X17.8833      Y18.7005      R5.4500    
   X17.8345      Y18.5713      R5.4500    
   X17.8208      Y18.4339      R5.4500    
   X17.8431      Y18.2977      R5.4500    
   X17.9000      Y18.1719      R5.4500    
(Pass: 11)
G1   Z-2.200     F300 
G17 G2   X17.9874      Y18.0650      R5.4500     F1200
   X18.0995      Y17.9845      R5.4500    
   X18.2287      Y17.9357      R5.4500    
   X18.3661      Y17.9220      R5.4500    
   X18.5023      Y17.9443      R5.4500    
   X18.6281      Y18.0011      R5.4500    
   X18.7350      Y18.0886      R5.4500    
   X18.8155      Y18.2007      R5.4500    
   X18.8643      Y18.3298      R5.4500    
   X18.8780      Y18.4672      R5.4500    
   X18.8557      Y18.6035      R5.4500    
   X18.7989      Y18.7293      R5.4500    
   X18.7114      Y18.8361      R5.4500    
   X18.5993      Y18.9167      R5.4500    
   X18.4701      Y18.9655      R5.4500    
   X18.3328      Y18.9792      R5.4500    
   X18.1965      Y18.9569      R5.4500    
   X18.0707      Y18.9000      R5.4500    
   X17.9639      Y18.8126      R5.4500    
   X17.8833      Y18.7005      R5.4500    
   X17.8345      Y18.5713      R5.4500    
   X17.8208      Y18.4339      R5.4500    
   X17.8431      Y18.2977      R5.4500    
   X17.9000      Y18.1719      R5.4500    
(Pass: 12)
G1   Z-2.400     F300 
G17 G2   X17.9874      Y18.0650      R5.4500     F1200
   X18.0995      Y17.9845      R5.4500    
   X18.2287      Y17.9357      R5.4500    
   X18.3661      Y17.9220      R5.4500    
   X18.5023      Y17.9443      R5.4500    
   X18.6281      Y18.0011      R5.4500    
   X18.7350      Y18.0886      R5.4500    
   X18.8155      Y18.2007      R5.4500    
   X18.8643      Y18.3298      R5.4500    
   X18.8780      Y18.4672      R5.4500    
   X18.8557      Y18.6035      R5.4500    
   X18.7989      Y18.7293      R5.4500    
   X18.7114      Y18.8361      R5.4500    
   X18.5993      Y18.9167      R5.4500    
   X18.4701      Y18.9655      R5.4500    
   X18.3328      Y18.9792      R5.4500    
   X18.1965      Y18.9569      R5.4500    
   X18.0707      Y18.9000      R5.4500    
   X17.9639      Y18.8126      R5.4500    
   X17.8833      Y18.7005      R5.4500    
   X17.8345      Y18.5713      R5.4500    
   X17.8208      Y18.4339      R5.4500    
   X17.8431      Y18.2977      R5.4500    
   X17.9000      Y18.1719      R5.4500    
(Pass: 13)
G1   Z-2.600     F300 
G17 G2   X17.9874      Y18.0650      R5.4500     F1200
   X18.0995      Y17.9845      R5.4500    
   X18.2287      Y17.9357      R5.4500    
   X18.3661      Y17.9220      R5.4500    
   X18.5023      Y17.9443      R5.4500    
   X18.6281      Y18.0011      R5.4500    
   X18.7350      Y18.0886      R5.4500    
   X18.8155      Y18.2007      R5.4500    
   X18.8643      Y18.3298      R5.4500    
   X18.8780      Y18.4672      R5.4500    
   X18.8557      Y18.6035      R5.4500    
   X18.7989      Y18.7293      R5.4500    
   X18.7114      Y18.8361      R5.4500    
   X18.5993      Y18.9167      R5.4500    
   X18.4701      Y18.9655      R5.4500    
   X18.3328      Y18.9792      R5.4500    
   X18.1965      Y18.9569      R5.4500    
   X18.0707      Y18.9000      R5.4500    
   X17.9639      Y18.8126      R5.4500    
   X17.8833      Y18.7005      R5.4500    
   X17.8345      Y18.5713      R5.4500    
   X17.8208      Y18.4339      R5.4500    
   X17.8431      Y18.2977      R5.4500    
   X17.9000      Y18.1719      R5.4500    
(Pass: 14)
G1   Z-2.800     F300 
G17 G2   X17.9874      Y18.0650      R5.4500     F1200
   X18.0995      Y17.9845      R5.4500    
   X18.2287      Y17.9357      R5.4500    
   X18.3661      Y17.9220      R5.4500    
   X18.5023      Y17.9443      R5.4500    
   X18.6281      Y18.0011      R5.4500    
   X18.7350      Y18.0886      R5.4500    
   X18.8155      Y18.2007      R5.4500    
   X18.8643      Y18.3298      R5.4500    
   X18.8780      Y18.4672      R5.4500    
   X18.8557      Y18.6035      R5.4500    
   X18.7989      Y18.7293      R5.4500    
   X18.7114      Y18.8361      R5.4500    
   X18.5993      Y18.9167      R5.4500    
   X18.4701      Y18.9655      R5.4500    
   X18.3328      Y18.9792      R5.4500    
   X18.1965      Y18.9569      R5.4500    
   X18.0707      Y18.9000      R5.4500    
   X17.9639      Y18.8126      R5.4500    
   X17.8833      Y18.7005      R5.4500    
   X17.8345      Y18.5713      R5.4500    
   X17.8208      Y18.4339      R5.4500    
   X17.8431      Y18.2977      R5.4500    
   X17.9000      Y18.1719      R5.4500    
(Pass: 15)
G1   Z-3.000     F300 
G17 G2   X17.9874      Y18.0650      R5.4500     F1200
   X18.0995      Y17.9845      R5.4500    
   X18.2287      Y17.9357      R5.4500    
   X18.3661      Y17.9220      R5.4500    
   X18.5023      Y17.9443      R5.4500    
   X18.6281      Y18.0011      R5.4500    
   X18.7350      Y18.0886      R5.4500    
   X18.8155      Y18.2007      R5.4500    
   X18.8643      Y18.3298      R5.4500    
   X18.8780      Y18.4672      R5.4500    
   X18.8557      Y18.6035      R5.4500    
   X18.7989      Y18.7293      R5.4500    
   X18.7114      Y18.8361      R5.4500    
   X18.5993      Y18.9167      R5.4500    
   X18.4701      Y18.9655      R5.4500    
   X18.3328      Y18.9792      R5.4500    
   X18.1965      Y18.9569      R5.4500    
   X18.0707      Y18.9000      R5.4500    
   X17.9639      Y18.8126      R5.4500    
   X17.8833      Y18.7005      R5.4500    
   X17.8345      Y18.5713      R5.4500    
   X17.8208      Y18.4339      R5.4500    
   X17.8431      Y18.2977      R5.4500    
   X17.9000      Y18.1719      R5.4500    
(Pass: 16)
G1   Z-3.200     F300 
G17 G2   X17.9874      Y18.0650      R5.4500     F1200
   X18.0995      Y17.9845      R5.4500    
   X18.2287      Y17.9357      R5.4500    
   X18.3661      Y17.9220      R5.4500    
   X18.5023      Y17.9443      R5.4500    
   X18.6281      Y18.0011      R5.4500    
   X18.7350      Y18.0886      R5.4500    
   X18.8155      Y18.2007      R5.4500    
   X18.8643      Y18.3298      R5.4500    
   X18.8780      Y18.4672      R5.4500    
   X18.8557      Y18.6035      R5.4500    
   X18.7989      Y18.7293      R5.4500    
   X18.7114      Y18.8361      R5.4500    
   X18.5993      Y18.9167      R5.4500    
   X18.4701      Y18.9655      R5.4500    
   X18.3328      Y18.9792      R5.4500    
   X18.1965      Y18.9569      R5.4500    
   X18.0707      Y18.9000      R5.4500    
   X17.9639      Y18.8126      R5.4500    
   X17.8833      Y18.7005      R5.4500    
   X17.8345      Y18.5713      R5.4500    
   X17.8208      Y18.4339      R5.4500    
   X17.8431      Y18.2977      R5.4500    
   X17.9000      Y18.1719      R5.4500    
(Pass: 17)
G1   Z-3.400     F300 
G17 G2   X17.9874      Y18.0650      R5.4500     F1200
   X18.0995      Y17.9845      R5.4500    
   X18.2287      Y17.9357      R5.4500    
   X18.3661      Y17.9220      R5.4500    
   X18.5023      Y17.9443      R5.4500    
   X18.6281      Y18.0011      R5.4500    
   X18.7350      Y18.0886      R5.4500    
   X18.8155      Y18.2007      R5.4500    
   X18.8643      Y18.3298      R5.4500    
   X18.8780      Y18.4672      R5.4500    
   X18.8557      Y18.6035      R5.4500    
   X18.7989      Y18.7293      R5.4500    
   X18.7114      Y18.8361      R5.4500    
   X18.5993      Y18.9167      R5.4500    
   X18.4701      Y18.9655      R5.4500    
   X18.3328      Y18.9792      R5.4500    
   X18.1965      Y18.9569      R5.4500    
   X18.0707      Y18.9000      R5.4500    
   X17.9639      Y18.8126      R5.4500    
   X17.8833      Y18.7005      R5.4500    
   X17.8345      Y18.5713      R5.4500    
   X17.8208      Y18.4339      R5.4500    
   X17.8431      Y18.2977      R5.4500    
   X17.9000      Y18.1719      R5.4500    
(Pass: 18)
G1   Z-3.600     F300 
G17 G2   X17.9874      Y18.0650      R5.4500     F1200
   X18.0995      Y17.9845      R5.4500    
   X18.2287      Y17.9357      R5.4500    
   X18.3661      Y17.9220      R5.4500    
   X18.5023      Y17.9443      R5.4500    
   X18.6281      Y18.0011      R5.4500    
   X18.7350      Y18.0886      R5.4500    
   X18.8155      Y18.2007      R5.4500    
   X18.8643      Y18.3298      R5.4500    
   X18.8780      Y18.4672      R5.4500    
   X18.8557      Y18.6035      R5.4500    
   X18.7989      Y18.7293      R5.4500    
   X18.7114      Y18.8361      R5.4500    
   X18.5993      Y18.9167      R5.4500    
   X18.4701      Y18.9655      R5.4500    
   X18.3328      Y18.9792      R5.4500    
   X18.1965      Y18.9569      R5.4500    
   X18.0707      Y18.9000      R5.4500    
   X17.9639      Y18.8126      R5.4500    
   X17.8833      Y18.7005      R5.4500    
   X17.8345      Y18.5713      R5.4500    
   X17.8208      Y18.4339      R5.4500    
   X17.8431      Y18.2977      R5.4500    
   X17.9000      Y18.1719      R5.4500    
(Pass: 19)
G1   Z-3.800     F300 
G17 G2   X17.9874      Y18.0650      R5.4500     F1200
   X18.0995      Y17.9845      R5.4500    
   X18.2287      Y17.9357      R5.4500    
   X18.3661      Y17.9220      R5.4500    
   X18.5023      Y17.9443      R5.4500    
   X18.6281      Y18.0011      R5.4500    
   X18.7350      Y18.0886      R5.4500    
   X18.8155      Y18.2007      R5.4500    
   X18.8643      Y18.3298      R5.4500    
   X18.8780      Y18.4672      R5.4500    
   X18.8557      Y18.6035      R5.4500    
   X18.7989      Y18.7293      R5.4500    
   X18.7114      Y18.8361      R5.4500    
   X18.5993      Y18.9167      R5.4500    
   X18.4701      Y18.9655      R5.4500    
   X18.3328      Y18.9792      R5.4500    
   X18.1965      Y18.9569      R5.4500    
   X18.0707      Y18.9000      R5.4500    
   X17.9639      Y18.8126      R5.4500    
   X17.8833      Y18.7005      R5.4500    
   X17.8345      Y18.5713      R5.4500    
   X17.8208      Y18.4339      R5.4500    
   X17.8431      Y18.2977      R5.4500    
   X17.9000      Y18.1719      R5.4500    
(BREAK pass 19)
G0   Z5.000     
(Pass: 1)
   X58.134       Y197.968   
G1   Z-0.200     F300 
G17 G2   X58.2662      Y197.9283     R5.4500     F1200
   X58.4042      Y197.9246     R5.4500    
   X58.5385      Y197.9567     R5.4500    
   X58.6599      Y198.0224     R5.4500    
   X58.7601      Y198.1174     R5.4500    
   X58.8324      Y198.2350     R5.4500    
   X58.8717      Y198.3674     R5.4500    
   X58.8754      Y198.5054     R5.4500    
   X58.8433      Y198.6397     R5.4500    
   X58.7775      Y198.7611     R5.4500    
   X58.6826      Y198.8613     R5.4500    
   X58.5649      Y198.9335     R5.4500    
   X58.4326      Y198.9729     R5.4500    
   X58.2946      Y198.9766     R5.4500    
   X58.1603      Y198.9445     R5.4500    
   X58.0389      Y198.8787     R5.4500    
   X57.9387      Y198.7838     R5.4500    
   X57.8665      Y198.6661     R5.4500    
   X57.8271      Y198.5338     R5.4500    
   X57.8234      Y198.3958     R5.4500    
   X57.8555      Y198.2615     R5.4500    
   X57.9213      Y198.1401     R5.4500    
   X58.0162      Y198.0399     R5.4500    
   X58.1339      Y197.9676     R5.4500    
(Pass: 2)
G1   Z-0.400     F300 
G17 G2   X58.2662      Y197.9283     R5.4500     F1200
   X58.4042      Y197.9246     R5.4500    
   X58.5385      Y197.9567     R5.4500    
   X58.6599      Y198.0224     R5.4500    
   X58.7601      Y198.1174     R5.4500    
   X58.8324      Y198.2350     R5.4500    
   X58.8717      Y198.3674     R5.4500    
   X58.8754      Y198.5054     R5.4500    
   X58.8433      Y198.6397     R5.4500    
   X58.7775      Y198.7611     R5.4500    
   X58.6826      Y198.8613     R5.4500    
   X58.5649      Y198.9335     R5.4500    
   X58.4326      Y198.9729     R5.4500    
   X58.2946      Y198.9766     R5.4500    
   X58.1603      Y198.9445     R5.4500    
   X58.0389      Y198.8787     R5.4500    
   X57.9387      Y198.7838     R5.4500    
   X57.8665      Y198.6661     R5.4500    
   X57.8271      Y198.5338     R5.4500    
   X57.8234      Y198.3958     R5.4500    
   X57.8555      Y198.2615     R5.4500    
   X57.9213      Y198.1401     R5.4500    
   X58.0162      Y198.0399     R5.4500    
   X58.1339      Y197.9676     R5.4500    
(Pass: 3)
G1   Z-0.600     F300 
G17 G2   X58.2662      Y197.9283     R5.4500     F1200
   X58.4042      Y197.9246     R5.4500    
   X58.5385      Y197.9567     R5.4500    
   X58.6599      Y198.0224     R5.4500    
   X58.7601      Y198.1174     R5.4500    
   X58.8324      Y198.2350     R5.4500    
   X58.8717      Y198.3674     R5.4500    
   X58.8754      Y198.5054     R5.4500    
   X58.8433      Y198.6397     R5.4500    
   X58.7775      Y198.7611     R5.4500    
   X58.6826      Y198.8613     R5.4500    
   X58.5649      Y198.9335     R5.4500    
   X58.4326      Y198.9729     R5.4500    
   X58.2946      Y198.9766     R5.4500    
   X58.1603      Y198.9445     R5.4500    
   X58.0389      Y198.8787     R5.4500    
   X57.9387      Y198.7838     R5.4500    
   X57.8665      Y198.6661     R5.4500    
   X57.8271      Y198.5338     R5.4500    
   X57.8234      Y198.3958     R5.4500    
   X57.8555      Y198.2615     R5.4500    
   X57.9213      Y198.1401     R5.4500    
   X58.0162      Y198.0399     R5.4500    
   X58.1339      Y197.9676     R5.4500    
(Pass: 4)
G1   Z-0.800     F300 
G17 G2   X58.2662      Y197.9283     R5.4500     F1200
   X58.4042      Y197.9246     R5.4500    
   X58.5385      Y197.9567     R5.4500    
   X58.6599      Y198.0224     R5.4500    
   X58.7601      Y198.1174     R5.4500    
   X58.8324      Y198.2350     R5.4500    
   X58.8717      Y198.3674     R5.4500    
   X58.8754      Y198.5054     R5.4500    
   X58.8433      Y198.6397     R5.4500    
   X58.7775      Y198.7611     R5.4500    
   X58.6826      Y198.8613     R5.4500    
   X58.5649      Y198.9335     R5.4500    
   X58.4326      Y198.9729     R5.4500    
   X58.2946      Y198.9766     R5.4500    
   X58.1603      Y198.9445     R5.4500    
   X58.0389      Y198.8787     R5.4500    
   X57.9387      Y198.7838     R5.4500    
   X57.8665      Y198.6661     R5.4500    
   X57.8271      Y198.5338     R5.4500    
   X57.8234      Y198.3958     R5.4500    
   X57.8555      Y198.2615     R5.4500    
   X57.9213      Y198.1401     R5.4500    
   X58.0162      Y198.0399     R5.4500    
   X58.1339      Y197.9676     R5.4500    
(Pass: 5)
G1   Z-1.000     F300 
G17 G2   X58.2662      Y197.9283     R5.4500     F1200
   X58.4042      Y197.9246     R5.4500    
   X58.5385      Y197.9567     R5.4500    
   X58.6599      Y198.0224     R5.4500    
   X58.7601      Y198.1174     R5.4500    
   X58.8324      Y198.2350     R5.4500    
   X58.8717      Y198.3674     R5.4500    
   X58.8754      Y198.5054     R5.4500    
   X58.8433      Y198.6397     R5.4500    
   X58.7775      Y198.7611     R5.4500    
   X58.6826      Y198.8613     R5.4500    
   X58.5649      Y198.9335     R5.4500    
   X58.4326      Y198.9729     R5.4500    
   X58.2946      Y198.9766     R5.4500    
   X58.1603      Y198.9445     R5.4500    
   X58.0389      Y198.8787     R5.4500    
   X57.9387      Y198.7838     R5.4500    
   X57.8665      Y198.6661     R5.4500    
   X57.8271      Y198.5338     R5.4500    
   X57.8234      Y198.3958     R5.4500    
   X57.8555      Y198.2615     R5.4500    
   X57.9213      Y198.1401     R5.4500    
   X58.0162      Y198.0399     R5.4500    
   X58.1339      Y197.9676     R5.4500    
(Pass: 6)
G1   Z-1.200     F300 
G17 G2   X58.2662      Y197.9283     R5.4500     F1200
   X58.4042      Y197.9246     R5.4500    
   X58.5385      Y197.9567     R5.4500    
   X58.6599      Y198.0224     R5.4500    
   X58.7601      Y198.1174     R5.4500    
   X58.8324      Y198.2350     R5.4500    
   X58.8717      Y198.3674     R5.4500    
   X58.8754      Y198.5054     R5.4500    
   X58.8433      Y198.6397     R5.4500    
   X58.7775      Y198.7611     R5.4500    
   X58.6826      Y198.8613     R5.4500    
   X58.5649      Y198.9335     R5.4500    
   X58.4326      Y198.9729     R5.4500    
   X58.2946      Y198.9766     R5.4500    
   X58.1603      Y198.9445     R5.4500    
   X58.0389      Y198.8787     R5.4500    
   X57.9387      Y198.7838     R5.4500    
   X57.8665      Y198.6661     R5.4500    
   X57.8271      Y198.5338     R5.4500    
   X57.8234      Y198.3958     R5.4500    
   X57.8555      Y198.2615     R5.4500    
   X57.9213      Y198.1401     R5.4500    
   X58.0162      Y198.0399     R5.4500    
   X58.1339      Y197.9676     R5.4500    
(Pass: 7)
G1   Z-1.400     F300 
G17 G2   X58.2662      Y197.9283     R5.4500     F1200
   X58.4042      Y197.9246     R5.4500    
   X58.5385      Y197.9567     R5.4500    
   X58.6599      Y198.0224     R5.4500    
   X58.7601      Y198.1174     R5.4500    
   X58.8324      Y198.2350     R5.4500    
   X58.8717      Y198.3674     R5.4500    
   X58.8754      Y198.5054     R5.4500    
   X58.8433      Y198.6397     R5.4500    
   X58.7775      Y198.7611     R5.4500    
   X58.6826      Y198.8613     R5.4500    
   X58.5649      Y198.9335     R5.4500    
   X58.4326      Y198.9729     R5.4500    
   X58.2946      Y198.9766     R5.4500    
   X58.1603      Y198.9445     R5.4500    
   X58.0389      Y198.8787     R5.4500    
   X57.9387      Y198.7838     R5.4500    
   X57.8665      Y198.6661     R5.4500    
   X57.8271      Y198.5338     R5.4500    
   X57.8234      Y198.3958     R5.4500    
   X57.8555      Y198.2615     R5.4500    
   X57.9213      Y198.1401     R5.4500    
   X58.0162      Y198.0399     R5.4500    
   X58.1339      Y197.9676     R5.4500    
(Pass: 8)
G1   Z-1.600     F300 
G17 G2   X58.2662      Y197.9283     R5.4500     F1200
   X58.4042      Y197.9246     R5.4500    
   X58.5385      Y197.9567     R5.4500    
   X58.6599      Y198.0224     R5.4500    
   X58.7601      Y198.1174     R5.4500    
   X58.8324      Y198.2350     R5.4500    
   X58.8717      Y198.3674     R5.4500    
   X58.8754      Y198.5054     R5.4500    
   X58.8433      Y198.6397     R5.4500    
   X58.7775      Y198.7611     R5.4500    
   X58.6826      Y198.8613     R5.4500    
   X58.5649      Y198.9335     R5.4500    
   X58.4326      Y198.9729     R5.4500    
   X58.2946      Y198.9766     R5.4500    
   X58.1603      Y198.9445     R5.4500    
   X58.0389      Y198.8787     R5.4500    
   X57.9387      Y198.7838     R5.4500    
   X57.8665      Y198.6661     R5.4500    
   X57.8271      Y198.5338     R5.4500    
   X57.8234      Y198.3958     R5.4500    
   X57.8555      Y198.2615     R5.4500    
   X57.9213      Y198.1401     R5.4500    
   X58.0162      Y198.0399     R5.4500    
   X58.1339      Y197.9676     R5.4500    
(Pass: 9)
G1   Z-1.800     F300 
G17 G2   X58.2662      Y197.9283     R5.4500     F1200
   X58.4042      Y197.9246     R5.4500    
   X58.5385      Y197.9567     R5.4500    
   X58.6599      Y198.0224     R5.4500    
   X58.7601      Y198.1174     R5.4500    
   X58.8324      Y198.2350     R5.4500    
   X58.8717      Y198.3674     R5.4500    
   X58.8754      Y198.5054     R5.4500    
   X58.8433      Y198.6397     R5.4500    
   X58.7775      Y198.7611     R5.4500    
   X58.6826      Y198.8613     R5.4500    
   X58.5649      Y198.9335     R5.4500    
   X58.4326      Y198.9729     R5.4500    
   X58.2946      Y198.9766     R5.4500    
   X58.1603      Y198.9445     R5.4500    
   X58.0389      Y198.8787     R5.4500    
   X57.9387      Y198.7838     R5.4500    
   X57.8665      Y198.6661     R5.4500    
   X57.8271      Y198.5338     R5.4500    
   X57.8234      Y198.3958     R5.4500    
   X57.8555      Y198.2615     R5.4500    
   X57.9213      Y198.1401     R5.4500    
   X58.0162      Y198.0399     R5.4500    
   X58.1339      Y197.9676     R5.4500    
(Pass: 10)
G1   Z-2.000     F300 
G17 G2   X58.2662      Y197.9283     R5.4500     F1200
   X58.4042      Y197.9246     R5.4500    
   X58.5385      Y197.9567     R5.4500    
   X58.6599      Y198.0224     R5.4500    
   X58.7601      Y198.1174     R5.4500    
   X58.8324      Y198.2350     R5.4500    
   X58.8717      Y198.3674     R5.4500    
   X58.8754      Y198.5054     R5.4500    
   X58.8433      Y198.6397     R5.4500    
   X58.7775      Y198.7611     R5.4500    
   X58.6826      Y198.8613     R5.4500    
   X58.5649      Y198.9335     R5.4500    
   X58.4326      Y198.9729     R5.4500    
   X58.2946      Y198.9766     R5.4500    
   X58.1603      Y198.9445     R5.4500    
   X58.0389      Y198.8787     R5.4500    
   X57.9387      Y198.7838     R5.4500    
   X57.8665      Y198.6661     R5.4500    
   X57.8271      Y198.5338     R5.4500    
   X57.8234      Y198.3958     R5.4500    
   X57.8555      Y198.2615     R5.4500    
   X57.9213      Y198.1401     R5.4500    
   X58.0162      Y198.0399     R5.4500    
   X58.1339      Y197.9676     R5.4500    
(Pass: 11)
G1   Z-2.200     F300 
G17 G2   X58.2662      Y197.9283     R5.4500     F1200
   X58.4042      Y197.9246     R5.4500    
   X58.5385      Y197.9567     R5.4500    
   X58.6599      Y198.0224     R5.4500    
   X58.7601      Y198.1174     R5.4500    
   X58.8324      Y198.2350     R5.4500    
   X58.8717      Y198.3674     R5.4500    
   X58.8754      Y198.5054     R5.4500    
   X58.8433      Y198.6397     R5.4500    
   X58.7775      Y198.7611     R5.4500    
   X58.6826      Y198.8613     R5.4500    
   X58.5649      Y198.9335     R5.4500    
   X58.4326      Y198.9729     R5.4500    
   X58.2946      Y198.9766     R5.4500    
   X58.1603      Y198.9445     R5.4500    
   X58.0389      Y198.8787     R5.4500    
   X57.9387      Y198.7838     R5.4500    
   X57.8665      Y198.6661     R5.4500    
   X57.8271      Y198.5338     R5.4500    
   X57.8234      Y198.3958     R5.4500    
   X57.8555      Y198.2615     R5.4500    
   X57.9213      Y198.1401     R5.4500    
   X58.0162      Y198.0399     R5.4500    
   X58.1339      Y197.9676     R5.4500    
(Pass: 12)
G1   Z-2.400     F300 
G17 G2   X58.2662      Y197.9283     R5.4500     F1200
   X58.4042      Y197.9246     R5.4500    
   X58.5385      Y197.9567     R5.4500    
   X58.6599      Y198.0224     R5.4500    
   X58.7601      Y198.1174     R5.4500    
   X58.8324      Y198.2350     R5.4500    
   X58.8717      Y198.3674     R5.4500    
   X58.8754      Y198.5054     R5.4500    
   X58.8433      Y198.6397     R5.4500    
   X58.7775      Y198.7611     R5.4500    
   X58.6826      Y198.8613     R5.4500    
   X58.5649      Y198.9335     R5.4500    
   X58.4326      Y198.9729     R5.4500    
   X58.2946      Y198.9766     R5.4500    
   X58.1603      Y198.9445     R5.4500    
   X58.0389      Y198.8787     R5.4500    
   X57.9387      Y198.7838     R5.4500    
   X57.8665      Y198.6661     R5.4500    
   X57.8271      Y198.5338     R5.4500    
   X57.8234      Y198.3958     R5.4500    
   X57.8555      Y198.2615     R5.4500    
   X57.9213      Y198.1401     R5.4500    
   X58.0162      Y198.0399     R5.4500    
   X58.1339      Y197.9676     R5.4500    
(Pass: 13)
G1   Z-2.600     F300 
G17 G2   X58.2662      Y197.9283     R5.4500     F1200
   X58.4042      Y197.9246     R5.4500    
   X58.5385      Y197.9567     R5.4500    
   X58.6599      Y198.0224     R5.4500    
   X58.7601      Y198.1174     R5.4500    
   X58.8324      Y198.2350     R5.4500    
   X58.8717      Y198.3674     R5.4500    
   X58.8754      Y198.5054     R5.4500    
   X58.8433      Y198.6397     R5.4500    
   X58.7775      Y198.7611     R5.4500    
   X58.6826      Y198.8613     R5.4500    
   X58.5649      Y198.9335     R5.4500    
   X58.4326      Y198.9729     R5.4500    
   X58.2946      Y198.9766     R5.4500    
   X58.1603      Y198.9445     R5.4500    
   X58.0389      Y198.8787     R5.4500    
   X57.9387      Y198.7838     R5.4500    
   X57.8665      Y198.6661     R5.4500    
   X57.8271      Y198.5338     R5.4500    
   X57.8234      Y198.3958     R5.4500    
   X57.8555      Y198.2615     R5.4500    
   X57.9213      Y198.1401     R5.4500    
   X58.0162      Y198.0399     R5.4500    
   X58.1339      Y197.9676     R5.4500    
(Pass: 14)
G1   Z-2.800     F300 
G17 G2   X58.2662      Y197.9283     R5.4500     F1200
   X58.4042      Y197.9246     R5.4500    
   X58.5385      Y197.9567     R5.4500    
   X58.6599      Y198.0224     R5.4500    
   X58.7601      Y198.1174     R5.4500    
   X58.8324      Y198.2350     R5.4500    
   X58.8717      Y198.3674     R5.4500    
   X58.8754      Y198.5054     R5.4500    
   X58.8433      Y198.6397     R5.4500    
   X58.7775      Y198.7611     R5.4500    
   X58.6826      Y198.8613     R5.4500    
   X58.5649      Y198.9335     R5.4500    
   X58.4326      Y198.9729     R5.4500    
   X58.2946      Y198.9766     R5.4500    
   X58.1603      Y198.9445     R5.4500    
   X58.0389      Y198.8787     R5.4500    
   X57.9387      Y198.7838     R5.4500    
   X57.8665      Y198.6661     R5.4500    
   X57.8271      Y198.5338     R5.4500    
   X57.8234      Y198.3958     R5.4500    
   X57.8555      Y198.2615     R5.4500    
   X57.9213      Y198.1401     R5.4500    
   X58.0162      Y198.0399     R5.4500    
   X58.1339      Y197.9676     R5.4500    
(Pass: 15)
G1   Z-3.000     F300 
G17 G2   X58.2662      Y197.9283     R5.4500     F1200
   X58.4042      Y197.9246     R5.4500    
   X58.5385      Y197.9567     R5.4500    
   X58.6599      Y198.0224     R5.4500    
   X58.7601      Y198.1174     R5.4500    
   X58.8324      Y198.2350     R5.4500    
   X58.8717      Y198.3674     R5.4500    
   X58.8754      Y198.5054     R5.4500    
   X58.8433      Y198.6397     R5.4500    
   X58.7775      Y198.7611     R5.4500    
   X58.6826      Y198.8613     R5.4500    
   X58.5649      Y198.9335     R5.4500    
   X58.4326      Y198.9729     R5.4500    
   X58.2946      Y198.9766     R5.4500    
   X58.1603      Y198.9445     R5.4500    
   X58.0389      Y198.8787     R5.4500    
   X57.9387      Y198.7838     R5.4500    
   X57.8665      Y198.6661     R5.4500    
   X57.8271      Y198.5338     R5.4500    
   X57.8234      Y198.3958     R5.4500    
   X57.8555      Y198.2615     R5.4500    
   X57.9213      Y198.1401     R5.4500    
   X58.0162      Y198.0399     R5.4500    
   X58.1339      Y197.9676     R5.4500    
(Pass: 16)
G1   Z-3.200     F300 
G17 G2   X58.2662      Y197.9283     R5.4500     F1200
   X58.4042      Y197.9246     R5.4500    
   X58.5385      Y197.9567     R5.4500    
   X58.6599      Y198.0224     R5.4500    
   X58.7601      Y198.1174     R5.4500    
   X58.8324      Y198.2350     R5.4500    
   X58.8717      Y198.3674     R5.4500    
   X58.8754      Y198.5054     R5.4500    
   X58.8433      Y198.6397     R5.4500    
   X58.7775      Y198.7611     R5.4500    
   X58.6826      Y198.8613     R5.4500    
   X58.5649      Y198.9335     R5.4500    
   X58.4326      Y198.9729     R5.4500    
   X58.2946      Y198.9766     R5.4500    
   X58.1603      Y198.9445     R5.4500    
   X58.0389      Y198.8787     R5.4500    
   X57.9387      Y198.7838     R5.4500    
   X57.8665      Y198.6661     R5.4500    
   X57.8271      Y198.5338     R5.4500    
   X57.8234      Y198.3958     R5.4500    
   X57.8555      Y198.2615     R5.4500    
   X57.9213      Y198.1401     R5.4500    
   X58.0162      Y198.0399     R5.4500    
   X58.1339      Y197.9676     R5.4500    
(Pass: 17)
G1   Z-3.400     F300 
G17 G2   X58.2662      Y197.9283     R5.4500     F1200
   X58.4042      Y197.9246     R5.4500    
   X58.5385      Y197.9567     R5.4500    
   X58.6599      Y198.0224     R5.4500    
   X58.7601      Y198.1174     R5.4500    
   X58.8324      Y198.2350     R5.4500    
   X58.8717      Y198.3674     R5.4500    
   X58.8754      Y198.5054     R5.4500    
   X58.8433      Y198.6397     R5.4500    
   X58.7775      Y198.7611     R5.4500    
   X58.6826      Y198.8613     R5.4500    
   X58.5649      Y198.9335     R5.4500    
   X58.4326      Y198.9729     R5.4500    
   X58.2946      Y198.9766     R5.4500    
   X58.1603      Y198.9445     R5.4500    
   X58.0389      Y198.8787     R5.4500    
   X57.9387      Y198.7838     R5.4500    
   X57.8665      Y198.6661     R5.4500    
   X57.8271      Y198.5338     R5.4500    
   X57.8234      Y198.3958     R5.4500    
   X57.8555      Y198.2615     R5.4500    
   X57.9213      Y198.1401     R5.4500    
   X58.0162      Y198.0399     R5.4500    
   X58.1339      Y197.9676     R5.4500    
(Pass: 18)
G1   Z-3.600     F300 
G17 G2   X58.2662      Y197.9283     R5.4500     F1200
   X58.4042      Y197.9246     R5.4500    
   X58.5385      Y197.9567     R5.4500    
   X58.6599      Y198.0224     R5.4500    
   X58.7601      Y198.1174     R5.4500    
   X58.8324      Y198.2350     R5.4500    
   X58.8717      Y198.3674     R5.4500    
   X58.8754      Y198.5054     R5.4500    
   X58.8433      Y198.6397     R5.4500    
   X58.7775      Y198.7611     R5.4500    
   X58.6826      Y198.8613     R5.4500    
   X58.5649      Y198.9335     R5.4500    
   X58.4326      Y198.9729     R5.4500    
   X58.2946      Y198.9766     R5.4500    
   X58.1603      Y198.9445     R5.4500    
   X58.0389      Y198.8787     R5.4500    
   X57.9387      Y198.7838     R5.4500    
   X57.8665      Y198.6661     R5.4500    
   X57.8271      Y198.5338     R5.4500    
   X57.8234      Y198.3958     R5.4500    
   X57.8555      Y198.2615     R5.4500    
   X57.9213      Y198.1401     R5.4500    
   X58.0162      Y198.0399     R5.4500    
   X58.1339      Y197.9676     R5.4500    
(Pass: 19)
G1   Z-3.800     F300 
G17 G2   X58.2662      Y197.9283     R5.4500     F1200
   X58.4042      Y197.9246     R5.4500    
   X58.5385      Y197.9567     R5.4500    
   X58.6599      Y198.0224     R5.4500    
   X58.7601      Y198.1174     R5.4500    
   X58.8324      Y198.2350     R5.4500    
   X58.8717      Y198.3674     R5.4500    
   X58.8754      Y198.5054     R5.4500    
   X58.8433      Y198.6397     R5.4500    
   X58.7775      Y198.7611     R5.4500    
   X58.6826      Y198.8613     R5.4500    
   X58.5649      Y198.9335     R5.4500    
   X58.4326      Y198.9729     R5.4500    
   X58.2946      Y198.9766     R5.4500    
   X58.1603      Y198.9445     R5.4500    
   X58.0389      Y198.8787     R5.4500    
   X57.9387      Y198.7838     R5.4500    
   X57.8665      Y198.6661     R5.4500    
   X57.8271      Y198.5338     R5.4500    
   X57.8234      Y198.3958     R5.4500    
   X57.8555      Y198.2615     R5.4500    
   X57.9213      Y198.1401     R5.4500    
   X58.0162      Y198.0399     R5.4500    
   X58.1339      Y197.9676     R5.4500    
(BREAK pass 19)
G0   Z5.000     
(Pass: 1)
   X412.857      Y18.645    
G1   Z-0.200     F300 
G17 G2   X412.8240     Y18.5107      R5.4500     F1200
   X412.8263     Y18.3726      R5.4500    
   X412.8643     Y18.2399      R5.4500    
   X412.9354     Y18.1215      R5.4500    
   X413.0346     Y18.0256      R5.4500    
   X413.1554     Y17.9586      R5.4500    
   X413.2893     Y17.9251      R5.4500    
   X413.4274     Y17.9275      R5.4500    
   X413.5601     Y17.9655      R5.4500    
   X413.6785     Y18.0365      R5.4500    
   X413.7744     Y18.1358      R5.4500    
   X413.8414     Y18.2565      R5.4500    
   X413.8748     Y18.3905      R5.4500    
   X413.8725     Y18.5285      R5.4500    
   X413.8345     Y18.6613      R5.4500    
   X413.7634     Y18.7796      R5.4500    
   X413.6642     Y18.8756      R5.4500    
   X413.5434     Y18.9426      R5.4500    
   X413.4095     Y18.9760      R5.4500    
   X413.2715     Y18.9737      R5.4500    
   X413.1387     Y18.9357      R5.4500    
   X413.0204     Y18.8646      R5.4500    
   X412.9244     Y18.7653      R5.4500    
   X412.8574     Y18.6446      R5.4500    
(Pass: 2)
G1   Z-0.400     F300 
G17 G2   X412.8240     Y18.5107      R5.4500     F1200
   X412.8263     Y18.3726      R5.4500    
   X412.8643     Y18.2399      R5.4500    
   X412.9354     Y18.1215      R5.4500    
   X413.0346     Y18.0256      R5.4500    
   X413.1554     Y17.9586      R5.4500    
   X413.2893     Y17.9251      R5.4500    
   X413.4274     Y17.9275      R5.4500    
   X413.5601     Y17.9655      R5.4500    
   X413.6785     Y18.0365      R5.4500    
   X413.7744     Y18.1358      R5.4500    
   X413.8414     Y18.2565      R5.4500    
   X413.8748     Y18.3905      R5.4500    
   X413.8725     Y18.5285      R5.4500    
   X413.8345     Y18.6613      R5.4500    
   X413.7634     Y18.7796      R5.4500    
   X413.6642     Y18.8756      R5.4500    
   X413.5434     Y18.9426      R5.4500    
   X413.4095     Y18.9760      R5.4500    
   X413.2715     Y18.9737      R5.4500    
   X413.1387     Y18.9357      R5.4500    
   X413.0204     Y18.8646      R5.4500    
   X412.9244     Y18.7653      R5.4500    
   X412.8574     Y18.6446      R5.4500    
(Pass: 3)
G1   Z-0.600     F300 
G17 G2   X412.8240     Y18.5107      R5.4500     F1200
   X412.8263     Y18.3726      R5.4500    
   X412.8643     Y18.2399      R5.4500    
   X412.9354     Y18.1215      R5.4500    
   X413.0346     Y18.0256      R5.4500    
   X413.1554     Y17.9586      R5.4500    
   X413.2893     Y17.9251      R5.4500    
   X413.4274     Y17.9275      R5.4500    
   X413.5601     Y17.9655      R5.4500    
   X413.6785     Y18.0365      R5.4500    
   X413.7744     Y18.1358      R5.4500    
   X413.8414     Y18.2565      R5.4500    
   X413.8748     Y18.3905      R5.4500    
   X413.8725     Y18.5285      R5.4500    
   X413.8345     Y18.6613      R5.4500    
   X413.7634     Y18.7796      R5.4500    
   X413.6642     Y18.8756      R5.4500    
   X413.5434     Y18.9426      R5.4500    
   X413.4095     Y18.9760      R5.4500    
   X413.2715     Y18.9737      R5.4500    
   X413.1387     Y18.9357      R5.4500    
   X413.0204     Y18.8646      R5.4500    
   X412.9244     Y18.7653      R5.4500    
   X412.8574     Y18.6446      R5.4500    
(Pass: 4)
G1   Z-0.800     F300 
G17 G2   X412.8240     Y18.5107      R5.4500     F1200
   X412.8263     Y18.3726      R5.4500    
   X412.8643     Y18.2399      R5.4500    
   X412.9354     Y18.1215      R5.4500    
   X413.0346     Y18.0256      R5.4500    
   X413.1554     Y17.9586      R5.4500    
   X413.2893     Y17.9251      R5.4500    
   X413.4274     Y17.9275      R5.4500    
   X413.5601     Y17.9655      R5.4500    
   X413.6785     Y18.0365      R5.4500    
   X413.7744     Y18.1358      R5.4500    
   X413.8414     Y18.2565      R5.4500    
   X413.8748     Y18.3905      R5.4500    
   X413.8725     Y18.5285      R5.4500    
   X413.8345     Y18.6613      R5.4500    
   X413.7634     Y18.7796      R5.4500    
   X413.6642     Y18.8756      R5.4500    
   X413.5434     Y18.9426      R5.4500    
   X413.4095     Y18.9760      R5.4500    
   X413.2715     Y18.9737      R5.4500    
   X413.1387     Y18.9357      R5.4500    
   X413.0204     Y18.8646      R5.4500    
   X412.9244     Y18.7653      R5.4500    
   X412.8574     Y18.6446      R5.4500    
(Pass: 5)
G1   Z-1.000     F300 
G17 G2   X412.8240     Y18.5107      R5.4500     F1200
   X412.8263     Y18.3726      R5.4500    
   X412.8643     Y18.2399      R5.4500    
   X412.9354     Y18.1215      R5.4500    
   X413.0346     Y18.0256      R5.4500    
   X413.1554     Y17.9586      R5.4500    
   X413.2893     Y17.9251      R5.4500    
   X413.4274     Y17.9275      R5.4500    
   X413.5601     Y17.9655      R5.4500    
   X413.6785     Y18.0365      R5.4500    
   X413.7744     Y18.1358      R5.4500    
   X413.8414     Y18.2565      R5.4500    
   X413.8748     Y18.3905      R5.4500    
   X413.8725     Y18.5285      R5.4500    
   X413.8345     Y18.6613      R5.4500    
   X413.7634     Y18.7796      R5.4500    
   X413.6642     Y18.8756      R5.4500    
   X413.5434     Y18.9426      R5.4500    
   X413.4095     Y18.9760      R5.4500    
   X413.2715     Y18.9737      R5.4500    
   X413.1387     Y18.9357      R5.4500    
   X413.0204     Y18.8646      R5.4500    
   X412.9244     Y18.7653      R5.4500    
   X412.8574     Y18.6446      R5.4500    
(Pass: 6)
G1   Z-1.200     F300 
G17 G2   X412.8240     Y18.5107      R5.4500     F1200
   X412.8263     Y18.3726      R5.4500    
   X412.8643     Y18.2399      R5.4500    
   X412.9354     Y18.1215      R5.4500    
   X413.0346     Y18.0256      R5.4500    
   X413.1554     Y17.9586      R5.4500    
   X413.2893     Y17.9251      R5.4500    
   X413.4274     Y17.9275      R5.4500    
   X413.5601     Y17.9655      R5.4500    
   X413.6785     Y18.0365      R5.4500    
   X413.7744     Y18.1358      R5.4500    
   X413.8414     Y18.2565      R5.4500    
   X413.8748     Y18.3905      R5.4500    
   X413.8725     Y18.5285      R5.4500    
   X413.8345     Y18.6613      R5.4500    
   X413.7634     Y18.7796      R5.4500    
   X413.6642     Y18.8756      R5.4500    
   X413.5434     Y18.9426      R5.4500    
   X413.4095     Y18.9760      R5.4500    
   X413.2715     Y18.9737      R5.4500    
   X413.1387     Y18.9357      R5.4500    
   X413.0204     Y18.8646      R5.4500    
   X412.9244     Y18.7653      R5.4500    
   X412.8574     Y18.6446      R5.4500    
(Pass: 7)
G1   Z-1.400     F300 
G17 G2   X412.8240     Y18.5107      R5.4500     F1200
   X412.8263     Y18.3726      R5.4500    
   X412.8643     Y18.2399      R5.4500    
   X412.9354     Y18.1215      R5.4500    
   X413.0346     Y18.0256      R5.4500    
   X413.1554     Y17.9586      R5.4500    
   X413.2893     Y17.9251      R5.4500    
   X413.4274     Y17.9275      R5.4500    
   X413.5601     Y17.9655      R5.4500    
   X413.6785     Y18.0365      R5.4500    
   X413.7744     Y18.1358      R5.4500    
   X413.8414     Y18.2565      R5.4500    
   X413.8748     Y18.3905      R5.4500    
   X413.8725     Y18.5285      R5.4500    
   X413.8345     Y18.6613      R5.4500    
   X413.7634     Y18.7796      R5.4500    
   X413.6642     Y18.8756      R5.4500    
   X413.5434     Y18.9426      R5.4500    
   X413.4095     Y18.9760      R5.4500    
   X413.2715     Y18.9737      R5.4500    
   X413.1387     Y18.9357      R5.4500    
   X413.0204     Y18.8646      R5.4500    
   X412.9244     Y18.7653      R5.4500    
   X412.8574     Y18.6446      R5.4500    
(Pass: 8)
G1   Z-1.600     F300 
G17 G2   X412.8240     Y18.5107      R5.4500     F1200
   X412.8263     Y18.3726      R5.4500    
   X412.8643     Y18.2399      R5.4500    
   X412.9354     Y18.1215      R5.4500    
   X413.0346     Y18.0256      R5.4500    
   X413.1554     Y17.9586      R5.4500    
   X413.2893     Y17.9251      R5.4500    
   X413.4274     Y17.9275      R5.4500    
   X413.5601     Y17.9655      R5.4500    
   X413.6785     Y18.0365      R5.4500    
   X413.7744     Y18.1358      R5.4500    
   X413.8414     Y18.2565      R5.4500    
   X413.8748     Y18.3905      R5.4500    
   X413.8725     Y18.5285      R5.4500    
   X413.8345     Y18.6613      R5.4500    
   X413.7634     Y18.7796      R5.4500    
   X413.6642     Y18.8756      R5.4500    
   X413.5434     Y18.9426      R5.4500    
   X413.4095     Y18.9760      R5.4500    
   X413.2715     Y18.9737      R5.4500    
   X413.1387     Y18.9357      R5.4500    
   X413.0204     Y18.8646      R5.4500    
   X412.9244     Y18.7653      R5.4500    
   X412.8574     Y18.6446      R5.4500    
(Pass: 9)
G1   Z-1.800     F300 
G17 G2   X412.8240     Y18.5107      R5.4500     F1200
   X412.8263     Y18.3726      R5.4500    
   X412.8643     Y18.2399      R5.4500    
   X412.9354     Y18.1215      R5.4500    
   X413.0346     Y18.0256      R5.4500    
   X413.1554     Y17.9586      R5.4500    
   X413.2893     Y17.9251      R5.4500    
   X413.4274     Y17.9275      R5.4500    
   X413.5601     Y17.9655      R5.4500    
   X413.6785     Y18.0365      R5.4500    
   X413.7744     Y18.1358      R5.4500    
   X413.8414     Y18.2565      R5.4500    
   X413.8748     Y18.3905      R5.4500    
   X413.8725     Y18.5285      R5.4500    
   X413.8345     Y18.6613      R5.4500    
   X413.7634     Y18.7796      R5.4500    
   X413.6642     Y18.8756      R5.4500    
   X413.5434     Y18.9426      R5.4500    
   X413.4095     Y18.9760      R5.4500    
   X413.2715     Y18.9737      R5.4500    
   X413.1387     Y18.9357      R5.4500    
   X413.0204     Y18.8646      R5.4500    
   X412.9244     Y18.7653      R5.4500    
   X412.8574     Y18.6446      R5.4500    
(Pass: 10)
G1   Z-2.000     F300 
G17 G2   X412.8240     Y18.5107      R5.4500     F1200
   X412.8263     Y18.3726      R5.4500    
   X412.8643     Y18.2399      R5.4500    
   X412.9354     Y18.1215      R5.4500    
   X413.0346     Y18.0256      R5.4500    
   X413.1554     Y17.9586      R5.4500    
   X413.2893     Y17.9251      R5.4500    
   X413.4274     Y17.9275      R5.4500    
   X413.5601     Y17.9655      R5.4500    
   X413.6785     Y18.0365      R5.4500    
   X413.7744     Y18.1358      R5.4500    
   X413.8414     Y18.2565      R5.4500    
   X413.8748     Y18.3905      R5.4500    
   X413.8725     Y18.5285      R5.4500    
   X413.8345     Y18.6613      R5.4500    
   X413.7634     Y18.7796      R5.4500    
   X413.6642     Y18.8756      R5.4500    
   X413.5434     Y18.9426      R5.4500    
   X413.4095     Y18.9760      R5.4500    
   X413.2715     Y18.9737      R5.4500    
   X413.1387     Y18.9357      R5.4500    
   X413.0204     Y18.8646      R5.4500    
   X412.9244     Y18.7653      R5.4500    
   X412.8574     Y18.6446      R5.4500    
(Pass: 11)
G1   Z-2.200     F300 
G17 G2   X412.8240     Y18.5107      R5.4500     F1200
   X412.8263     Y18.3726      R5.4500    
   X412.8643     Y18.2399      R5.4500    
   X412.9354     Y18.1215      R5.4500    
   X413.0346     Y18.0256      R5.4500    
   X413.1554     Y17.9586      R5.4500    
   X413.2893     Y17.9251      R5.4500    
   X413.4274     Y17.9275      R5.4500    
   X413.5601     Y17.9655      R5.4500    
   X413.6785     Y18.0365      R5.4500    
   X413.7744     Y18.1358      R5.4500    
   X413.8414     Y18.2565      R5.4500    
   X413.8748     Y18.3905      R5.4500    
   X413.8725     Y18.5285      R5.4500    
   X413.8345     Y18.6613      R5.4500    
   X413.7634     Y18.7796      R5.4500    
   X413.6642     Y18.8756      R5.4500    
   X413.5434     Y18.9426      R5.4500    
   X413.4095     Y18.9760      R5.4500    
   X413.2715     Y18.9737      R5.4500    
   X413.1387     Y18.9357      R5.4500    
   X413.0204     Y18.8646      R5.4500    
   X412.9244     Y18.7653      R5.4500    
   X412.8574     Y18.6446      R5.4500    
(Pass: 12)
G1   Z-2.400     F300 
G17 G2   X412.8240     Y18.5107      R5.4500     F1200
   X412.8263     Y18.3726      R5.4500    
   X412.8643     Y18.2399      R5.4500    
   X412.9354     Y18.1215      R5.4500    
   X413.0346     Y18.0256      R5.4500    
   X413.1554     Y17.9586      R5.4500    
   X413.2893     Y17.9251      R5.4500    
   X413.4274     Y17.9275      R5.4500    
   X413.5601     Y17.9655      R5.4500    
   X413.6785     Y18.0365      R5.4500    
   X413.7744     Y18.1358      R5.4500    
   X413.8414     Y18.2565      R5.4500    
   X413.8748     Y18.3905      R5.4500    
   X413.8725     Y18.5285      R5.4500    
   X413.8345     Y18.6613      R5.4500    
   X413.7634     Y18.7796      R5.4500    
   X413.6642     Y18.8756      R5.4500    
   X413.5434     Y18.9426      R5.4500    
   X413.4095     Y18.9760      R5.4500    
   X413.2715     Y18.9737      R5.4500    
   X413.1387     Y18.9357      R5.4500    
   X413.0204     Y18.8646      R5.4500    
   X412.9244     Y18.7653      R5.4500    
   X412.8574     Y18.6446      R5.4500    
(Pass: 13)
G1   Z-2.600     F300 
G17 G2   X412.8240     Y18.5107      R5.4500     F1200
   X412.8263     Y18.3726      R5.4500    
   X412.8643     Y18.2399      R5.4500    
   X412.9354     Y18.1215      R5.4500    
   X413.0346     Y18.0256      R5.4500    
   X413.1554     Y17.9586      R5.4500    
   X413.2893     Y17.9251      R5.4500    
   X413.4274     Y17.9275      R5.4500    
   X413.5601     Y17.9655      R5.4500    
   X413.6785     Y18.0365      R5.4500    
   X413.7744     Y18.1358      R5.4500    
   X413.8414     Y18.2565      R5.4500    
   X413.8748     Y18.3905      R5.4500    
   X413.8725     Y18.5285      R5.4500    
   X413.8345     Y18.6613      R5.4500    
   X413.7634     Y18.7796      R5.4500    
   X413.6642     Y18.8756      R5.4500    
   X413.5434     Y18.9426      R5.4500    
   X413.4095     Y18.9760      R5.4500    
   X413.2715     Y18.9737      R5.4500    
   X413.1387     Y18.9357      R5.4500    
   X413.0204     Y18.8646      R5.4500    
   X412.9244     Y18.7653      R5.4500    
   X412.8574     Y18.6446      R5.4500    
(Pass: 14)
G1   Z-2.800     F300 
G17 G2   X412.8240     Y18.5107      R5.4500     F1200
   X412.8263     Y18.3726      R5.4500    
   X412.8643     Y18.2399      R5.4500    
   X412.9354     Y18.1215      R5.4500    
   X413.0346     Y18.0256      R5.4500    
   X413.1554     Y17.9586      R5.4500    
   X413.2893     Y17.9251      R5.4500    
   X413.4274     Y17.9275      R5.4500    
   X413.5601     Y17.9655      R5.4500    
   X413.6785     Y18.0365      R5.4500    
   X413.7744     Y18.1358      R5.4500    
   X413.8414     Y18.2565      R5.4500    
   X413.8748     Y18.3905      R5.4500    
   X413.8725     Y18.5285      R5.4500    
   X413.8345     Y18.6613      R5.4500    
   X413.7634     Y18.7796      R5.4500    
   X413.6642     Y18.8756      R5.4500    
   X413.5434     Y18.9426      R5.4500    
   X413.4095     Y18.9760      R5.4500    
   X413.2715     Y18.9737      R5.4500    
   X413.1387     Y18.9357      R5.4500    
   X413.0204     Y18.8646      R5.4500    
   X412.9244     Y18.7653      R5.4500    
   X412.8574     Y18.6446      R5.4500    
(Pass: 15)
G1   Z-3.000     F300 
G17 G2   X412.8240     Y18.5107      R5.4500     F1200
   X412.8263     Y18.3726      R5.4500    
   X412.8643     Y18.2399      R5.4500    
   X412.9354     Y18.1215      R5.4500    
   X413.0346     Y18.0256      R5.4500    
   X413.1554     Y17.9586      R5.4500    
   X413.2893     Y17.9251      R5.4500    
   X413.4274     Y17.9275      R5.4500    
   X413.5601     Y17.9655      R5.4500    
   X413.6785     Y18.0365      R5.4500    
   X413.7744     Y18.1358      R5.4500    
   X413.8414     Y18.2565      R5.4500    
   X413.8748     Y18.3905      R5.4500    
   X413.8725     Y18.5285      R5.4500    
   X413.8345     Y18.6613      R5.4500    
   X413.7634     Y18.7796      R5.4500    
   X413.6642     Y18.8756      R5.4500    
   X413.5434     Y18.9426      R5.4500    
   X413.4095     Y18.9760      R5.4500    
   X413.2715     Y18.9737      R5.4500    
   X413.1387     Y18.9357      R5.4500    
   X413.0204     Y18.8646      R5.4500    
   X412.9244     Y18.7653      R5.4500    
   X412.8574     Y18.6446      R5.4500    
(Pass: 16)
G1   Z-3.200     F300 
G17 G2   X412.8240     Y18.5107      R5.4500     F1200
   X412.8263     Y18.3726      R5.4500    
   X412.8643     Y18.2399      R5.4500    
   X412.9354     Y18.1215      R5.4500    
   X413.0346     Y18.0256      R5.4500    
   X413.1554     Y17.9586      R5.4500    
   X413.2893     Y17.9251      R5.4500    
   X413.4274     Y17.9275      R5.4500    
   X413.5601     Y17.9655      R5.4500    
   X413.6785     Y18.0365      R5.4500    
   X413.7744     Y18.1358      R5.4500    
   X413.8414     Y18.2565      R5.4500    
   X413.8748     Y18.3905      R5.4500    
   X413.8725     Y18.5285      R5.4500    
   X413.8345     Y18.6613      R5.4500    
   X413.7634     Y18.7796      R5.4500    
   X413.6642     Y18.8756      R5.4500    
   X413.5434     Y18.9426      R5.4500    
   X413.4095     Y18.9760      R5.4500    
   X413.2715     Y18.9737      R5.4500    
   X413.1387     Y18.9357      R5.4500    
   X413.0204     Y18.8646      R5.4500    
   X412.9244     Y18.7653      R5.4500    
   X412.8574     Y18.6446      R5.4500    
(Pass: 17)
G1   Z-3.400     F300 
G17 G2   X412.8240     Y18.5107      R5.4500     F1200
   X412.8263     Y18.3726      R5.4500    
   X412.8643     Y18.2399      R5.4500    
   X412.9354     Y18.1215      R5.4500    
   X413.0346     Y18.0256      R5.4500    
   X413.1554     Y17.9586      R5.4500    
   X413.2893     Y17.9251      R5.4500    
   X413.4274     Y17.9275      R5.4500    
   X413.5601     Y17.9655      R5.4500    
   X413.6785     Y18.0365      R5.4500    
   X413.7744     Y18.1358      R5.4500    
   X413.8414     Y18.2565      R5.4500    
   X413.8748     Y18.3905      R5.4500    
   X413.8725     Y18.5285      R5.4500    
   X413.8345     Y18.6613      R5.4500    
   X413.7634     Y18.7796      R5.4500    
   X413.6642     Y18.8756      R5.4500    
   X413.5434     Y18.9426      R5.4500    
   X413.4095     Y18.9760      R5.4500    
   X413.2715     Y18.9737      R5.4500    
   X413.1387     Y18.9357      R5.4500    
   X413.0204     Y18.8646      R5.4500    
   X412.9244     Y18.7653      R5.4500    
   X412.8574     Y18.6446      R5.4500    
(Pass: 18)
G1   Z-3.600     F300 
G17 G2   X412.8240     Y18.5107      R5.4500     F1200
   X412.8263     Y18.3726      R5.4500    
   X412.8643     Y18.2399      R5.4500    
   X412.9354     Y18.1215      R5.4500    
   X413.0346     Y18.0256      R5.4500    
   X413.1554     Y17.9586      R5.4500    
   X413.2893     Y17.9251      R5.4500    
   X413.4274     Y17.9275      R5.4500    
   X413.5601     Y17.9655      R5.4500    
   X413.6785     Y18.0365      R5.4500    
   X413.7744     Y18.1358      R5.4500    
   X413.8414     Y18.2565      R5.4500    
   X413.8748     Y18.3905      R5.4500    
   X413.8725     Y18.5285      R5.4500    
   X413.8345     Y18.6613      R5.4500    
   X413.7634     Y18.7796      R5.4500    
   X413.6642     Y18.8756      R5.4500    
   X413.5434     Y18.9426      R5.4500    
   X413.4095     Y18.9760      R5.4500    
   X413.2715     Y18.9737      R5.4500    
   X413.1387     Y18.9357      R5.4500    
   X413.0204     Y18.8646      R5.4500    
   X412.9244     Y18.7653      R5.4500    
   X412.8574     Y18.6446      R5.4500    
(Pass: 19)
G1   Z-3.800     F300 
G17 G2   X412.8240     Y18.5107      R5.4500     F1200
   X412.8263     Y18.3726      R5.4500    
   X412.8643     Y18.2399      R5.4500    
   X412.9354     Y18.1215      R5.4500    
   X413.0346     Y18.0256      R5.4500    
   X413.1554     Y17.9586      R5.4500    
   X413.2893     Y17.9251      R5.4500    
   X413.4274     Y17.9275      R5.4500    
   X413.5601     Y17.9655      R5.4500    
   X413.6785     Y18.0365      R5.4500    
   X413.7744     Y18.1358      R5.4500    
   X413.8414     Y18.2565      R5.4500    
   X413.8748     Y18.3905      R5.4500    
   X413.8725     Y18.5285      R5.4500    
   X413.8345     Y18.6613      R5.4500    
   X413.7634     Y18.7796      R5.4500    
   X413.6642     Y18.8756      R5.4500    
   X413.5434     Y18.9426      R5.4500    
   X413.4095     Y18.9760      R5.4500    
   X413.2715     Y18.9737      R5.4500    
   X413.1387     Y18.9357      R5.4500    
   X413.0204     Y18.8646      R5.4500    
   X412.9244     Y18.7653      R5.4500    
   X412.8574     Y18.6446      R5.4500    
(BREAK pass 19)
G0   Z5.000     
(Pass: 1)
   X767.839      Y18.587    
G1   Z-0.200     F300 
G17 G2   X767.8205     Y18.4506      R5.4500     F1200
   X767.8386     Y18.3137      R5.4500    
   X767.8914     Y18.1861      R5.4500    
   X767.9754     Y18.0766      R5.4500    
   X768.0850     Y17.9926      R5.4500    
   X768.2125     Y17.9397      R5.4500    
   X768.3494     Y17.9217      R5.4500    
   X768.4863     Y17.9397      R5.4500    
   X768.6138     Y17.9926      R5.4500    
   X768.7234     Y18.0766      R5.4500    
   X768.8074     Y18.1861      R5.4500    
   X768.8602     Y18.3137      R5.4500    
   X768.8783     Y18.4506      R5.4500    
   X768.8602     Y18.5875      R5.4500    
   X768.8074     Y18.7150      R5.4500    
   X768.7234     Y18.8245      R5.4500    
   X768.6138     Y18.9086      R5.4500    
   X768.4863     Y18.9614      R5.4500    
   X768.3494     Y18.9794      R5.4500    
   X768.2125     Y18.9614      R5.4500    
   X768.0850     Y18.9086      R5.4500    
   X767.9754     Y18.8245      R5.4500    
   X767.8914     Y18.7150      R5.4500    
   X767.8386     Y18.5875      R5.4500    
(Pass: 2)
G1   Z-0.400     F300 
G17 G2   X767.8205     Y18.4506      R5.4500     F1200
   X767.8386     Y18.3137      R5.4500    
   X767.8914     Y18.1861      R5.4500    
   X767.9754     Y18.0766      R5.4500    
   X768.0850     Y17.9926      R5.4500    
   X768.2125     Y17.9397      R5.4500    
   X768.3494     Y17.9217      R5.4500    
   X768.4863     Y17.9397      R5.4500    
   X768.6138     Y17.9926      R5.4500    
   X768.7234     Y18.0766      R5.4500    
   X768.8074     Y18.1861      R5.4500    
   X768.8602     Y18.3137      R5.4500    
   X768.8783     Y18.4506      R5.4500    
   X768.8602     Y18.5875      R5.4500    
   X768.8074     Y18.7150      R5.4500    
   X768.7234     Y18.8245      R5.4500    
   X768.6138     Y18.9086      R5.4500    
   X768.4863     Y18.9614      R5.4500    
   X768.3494     Y18.9794      R5.4500    
   X768.2125     Y18.9614      R5.4500    
   X768.0850     Y18.9086      R5.4500    
   X767.9754     Y18.8245      R5.4500    
   X767.8914     Y18.7150      R5.4500    
   X767.8386     Y18.5875      R5.4500    
(Pass: 3)
G1   Z-0.600     F300 
G17 G2   X767.8205     Y18.4506      R5.4500     F1200
   X767.8386     Y18.3137      R5.4500    
   X767.8914     Y18.1861      R5.4500    
   X767.9754     Y18.0766      R5.4500    
   X768.0850     Y17.9926      R5.4500    
   X768.2125     Y17.9397      R5.4500    
   X768.3494     Y17.9217      R5.4500    
   X768.4863     Y17.9397      R5.4500    
   X768.6138     Y17.9926      R5.4500    
   X768.7234     Y18.0766      R5.4500    
   X768.8074     Y18.1861      R5.4500    
   X768.8602     Y18.3137      R5.4500    
   X768.8783     Y18.4506      R5.4500    
   X768.8602     Y18.5875      R5.4500    
   X768.8074     Y18.7150      R5.4500    
   X768.7234     Y18.8245      R5.4500    
   X768.6138     Y18.9086      R5.4500    
   X768.4863     Y18.9614      R5.4500    
   X768.3494     Y18.9794      R5.4500    
   X768.2125     Y18.9614      R5.4500    
   X768.0850     Y18.9086      R5.4500    
   X767.9754     Y18.8245      R5.4500    
   X767.8914     Y18.7150      R5.4500    
   X767.8386     Y18.5875      R5.4500    
(Pass: 4)
G1   Z-0.800     F300 
G17 G2   X767.8205     Y18.4506      R5.4500     F1200
   X767.8386     Y18.3137      R5.4500    
   X767.8914     Y18.1861      R5.4500    
   X767.9754     Y18.0766      R5.4500    
   X768.0850     Y17.9926      R5.4500    
   X768.2125     Y17.9397      R5.4500    
   X768.3494     Y17.9217      R5.4500    
   X768.4863     Y17.9397      R5.4500    
   X768.6138     Y17.9926      R5.4500    
   X768.7234     Y18.0766      R5.4500    
   X768.8074     Y18.1861      R5.4500    
   X768.8602     Y18.3137      R5.4500    
   X768.8783     Y18.4506      R5.4500    
   X768.8602     Y18.5875      R5.4500    
   X768.8074     Y18.7150      R5.4500    
   X768.7234     Y18.8245      R5.4500    
   X768.6138     Y18.9086      R5.4500    
   X768.4863     Y18.9614      R5.4500    
   X768.3494     Y18.9794      R5.4500    
   X768.2125     Y18.9614      R5.4500    
   X768.0850     Y18.9086      R5.4500    
   X767.9754     Y18.8245      R5.4500    
   X767.8914     Y18.7150      R5.4500    
   X767.8386     Y18.5875      R5.4500    
(Pass: 5)
G1   Z-1.000     F300 
G17 G2   X767.8205     Y18.4506      R5.4500     F1200
   X767.8386     Y18.3137      R5.4500    
   X767.8914     Y18.1861      R5.4500    
   X767.9754     Y18.0766      R5.4500    
   X768.0850     Y17.9926      R5.4500    
   X768.2125     Y17.9397      R5.4500    
   X768.3494     Y17.9217      R5.4500    
   X768.4863     Y17.9397      R5.4500    
   X768.6138     Y17.9926      R5.4500    
   X768.7234     Y18.0766      R5.4500    
   X768.8074     Y18.1861      R5.4500    
   X768.8602     Y18.3137      R5.4500    
   X768.8783     Y18.4506      R5.4500    
   X768.8602     Y18.5875      R5.4500    
   X768.8074     Y18.7150      R5.4500    
   X768.7234     Y18.8245      R5.4500    
   X768.6138     Y18.9086      R5.4500    
   X768.4863     Y18.9614      R5.4500    
   X768.3494     Y18.9794      R5.4500    
   X768.2125     Y18.9614      R5.4500    
   X768.0850     Y18.9086      R5.4500    
   X767.9754     Y18.8245      R5.4500    
   X767.8914     Y18.7150      R5.4500    
   X767.8386     Y18.5875      R5.4500    
(Pass: 6)
G1   Z-1.200     F300 
G17 G2   X767.8205     Y18.4506      R5.4500     F1200
   X767.8386     Y18.3137      R5.4500    
   X767.8914     Y18.1861      R5.4500    
   X767.9754     Y18.0766      R5.4500    
   X768.0850     Y17.9926      R5.4500    
   X768.2125     Y17.9397      R5.4500    
   X768.3494     Y17.9217      R5.4500    
   X768.4863     Y17.9397      R5.4500    
   X768.6138     Y17.9926      R5.4500    
   X768.7234     Y18.0766      R5.4500    
   X768.8074     Y18.1861      R5.4500    
   X768.8602     Y18.3137      R5.4500    
   X768.8783     Y18.4506      R5.4500    
   X768.8602     Y18.5875      R5.4500    
   X768.8074     Y18.7150      R5.4500    
   X768.7234     Y18.8245      R5.4500    
   X768.6138     Y18.9086      R5.4500    
   X768.4863     Y18.9614      R5.4500    
   X768.3494     Y18.9794      R5.4500    
   X768.2125     Y18.9614      R5.4500    
   X768.0850     Y18.9086      R5.4500    
   X767.9754     Y18.8245      R5.4500    
   X767.8914     Y18.7150      R5.4500    
   X767.8386     Y18.5875      R5.4500    
(Pass: 7)
G1   Z-1.400     F300 
G17 G2   X767.8205     Y18.4506      R5.4500     F1200
   X767.8386     Y18.3137      R5.4500    
   X767.8914     Y18.1861      R5.4500    
   X767.9754     Y18.0766      R5.4500    
   X768.0850     Y17.9926      R5.4500    
   X768.2125     Y17.9397      R5.4500    
   X768.3494     Y17.9217      R5.4500    
   X768.4863     Y17.9397      R5.4500    
   X768.6138     Y17.9926      R5.4500    
   X768.7234     Y18.0766      R5.4500    
   X768.8074     Y18.1861      R5.4500    
   X768.8602     Y18.3137      R5.4500    
   X768.8783     Y18.4506      R5.4500    
   X768.8602     Y18.5875      R5.4500    
   X768.8074     Y18.7150      R5.4500    
   X768.7234     Y18.8245      R5.4500    
   X768.6138     Y18.9086      R5.4500    
   X768.4863     Y18.9614      R5.4500    
   X768.3494     Y18.9794      R5.4500    
   X768.2125     Y18.9614      R5.4500    
   X768.0850     Y18.9086      R5.4500    
   X767.9754     Y18.8245      R5.4500    
   X767.8914     Y18.7150      R5.4500    
   X767.8386     Y18.5875      R5.4500    
(Pass: 8)
G1   Z-1.600     F300 
G17 G2   X767.8205     Y18.4506      R5.4500     F1200
   X767.8386     Y18.3137      R5.4500    
   X767.8914     Y18.1861      R5.4500    
   X767.9754     Y18.0766      R5.4500    
   X768.0850     Y17.9926      R5.4500    
   X768.2125     Y17.9397      R5.4500    
   X768.3494     Y17.9217      R5.4500    
   X768.4863     Y17.9397      R5.4500    
   X768.6138     Y17.9926      R5.4500    
   X768.7234     Y18.0766      R5.4500    
   X768.8074     Y18.1861      R5.4500    
   X768.8602     Y18.3137      R5.4500    
   X768.8783     Y18.4506      R5.4500    
   X768.8602     Y18.5875      R5.4500    
   X768.8074     Y18.7150      R5.4500    
   X768.7234     Y18.8245      R5.4500    
   X768.6138     Y18.9086      R5.4500    
   X768.4863     Y18.9614      R5.4500    
   X768.3494     Y18.9794      R5.4500    
   X768.2125     Y18.9614      R5.4500    
   X768.0850     Y18.9086      R5.4500    
   X767.9754     Y18.8245      R5.4500    
   X767.8914     Y18.7150      R5.4500    
   X767.8386     Y18.5875      R5.4500    
(Pass: 9)
G1   Z-1.800     F300 
G17 G2   X767.8205     Y18.4506      R5.4500     F1200
   X767.8386     Y18.3137      R5.4500    
   X767.8914     Y18.1861      R5.4500    
   X767.9754     Y18.0766      R5.4500    
   X768.0850     Y17.9926      R5.4500    
   X768.2125     Y17.9397      R5.4500    
   X768.3494     Y17.9217      R5.4500    
   X768.4863     Y17.9397      R5.4500    
   X768.6138     Y17.9926      R5.4500    
   X768.7234     Y18.0766      R5.4500    
   X768.8074     Y18.1861      R5.4500    
   X768.8602     Y18.3137      R5.4500    
   X768.8783     Y18.4506      R5.4500    
   X768.8602     Y18.5875      R5.4500    
   X768.8074     Y18.7150      R5.4500    
   X768.7234     Y18.8245      R5.4500    
   X768.6138     Y18.9086      R5.4500    
   X768.4863     Y18.9614      R5.4500    
   X768.3494     Y18.9794      R5.4500    
   X768.2125     Y18.9614      R5.4500    
   X768.0850     Y18.9086      R5.4500    
   X767.9754     Y18.8245      R5.4500    
   X767.8914     Y18.7150      R5.4500    
   X767.8386     Y18.5875      R5.4500    
(Pass: 10)
G1   Z-2.000     F300 
G17 G2   X767.8205     Y18.4506      R5.4500     F1200
   X767.8386     Y18.3137      R5.4500    
   X767.8914     Y18.1861      R5.4500    
   X767.9754     Y18.0766      R5.4500    
   X768.0850     Y17.9926      R5.4500    
   X768.2125     Y17.9397      R5.4500    
   X768.3494     Y17.9217      R5.4500    
   X768.4863     Y17.9397      R5.4500    
   X768.6138     Y17.9926      R5.4500    
   X768.7234     Y18.0766      R5.4500    
   X768.8074     Y18.1861      R5.4500    
   X768.8602     Y18.3137      R5.4500    
   X768.8783     Y18.4506      R5.4500    
   X768.8602     Y18.5875      R5.4500    
   X768.8074     Y18.7150      R5.4500    
   X768.7234     Y18.8245      R5.4500    
   X768.6138     Y18.9086      R5.4500    
   X768.4863     Y18.9614      R5.4500    
   X768.3494     Y18.9794      R5.4500    
   X768.2125     Y18.9614      R5.4500    
   X768.0850     Y18.9086      R5.4500    
   X767.9754     Y18.8245      R5.4500    
   X767.8914     Y18.7150      R5.4500    
   X767.8386     Y18.5875      R5.4500    
(Pass: 11)
G1   Z-2.200     F300 
G17 G2   X767.8205     Y18.4506      R5.4500     F1200
   X767.8386     Y18.3137      R5.4500    
   X767.8914     Y18.1861      R5.4500    
   X767.9754     Y18.0766      R5.4500    
   X768.0850     Y17.9926      R5.4500    
   X768.2125     Y17.9397      R5.4500    
   X768.3494     Y17.9217      R5.4500    
   X768.4863     Y17.9397      R5.4500    
   X768.6138     Y17.9926      R5.4500    
   X768.7234     Y18.0766      R5.4500    
   X768.8074     Y18.1861      R5.4500    
   X768.8602     Y18.3137      R5.4500    
   X768.8783     Y18.4506      R5.4500    
   X768.8602     Y18.5875      R5.4500    
   X768.8074     Y18.7150      R5.4500    
   X768.7234     Y18.8245      R5.4500    
   X768.6138     Y18.9086      R5.4500    
   X768.4863     Y18.9614      R5.4500    
   X768.3494     Y18.9794      R5.4500    
   X768.2125     Y18.9614      R5.4500    
   X768.0850     Y18.9086      R5.4500    
   X767.9754     Y18.8245      R5.4500    
   X767.8914     Y18.7150      R5.4500    
   X767.8386     Y18.5875      R5.4500    
(Pass: 12)
G1   Z-2.400     F300 
G17 G2   X767.8205     Y18.4506      R5.4500     F1200
   X767.8386     Y18.3137      R5.4500    
   X767.8914     Y18.1861      R5.4500    
   X767.9754     Y18.0766      R5.4500    
   X768.0850     Y17.9926      R5.4500    
   X768.2125     Y17.9397      R5.4500    
   X768.3494     Y17.9217      R5.4500    
   X768.4863     Y17.9397      R5.4500    
   X768.6138     Y17.9926      R5.4500    
   X768.7234     Y18.0766      R5.4500    
   X768.8074     Y18.1861      R5.4500    
   X768.8602     Y18.3137      R5.4500    
   X768.8783     Y18.4506      R5.4500    
   X768.8602     Y18.5875      R5.4500    
   X768.8074     Y18.7150      R5.4500    
   X768.7234     Y18.8245      R5.4500    
   X768.6138     Y18.9086      R5.4500    
   X768.4863     Y18.9614      R5.4500    
   X768.3494     Y18.9794      R5.4500    
   X768.2125     Y18.9614      R5.4500    
   X768.0850     Y18.9086      R5.4500    
   X767.9754     Y18.8245      R5.4500    
   X767.8914     Y18.7150      R5.4500    
   X767.8386     Y18.5875      R5.4500    
(Pass: 13)
G1   Z-2.600     F300 
G17 G2   X767.8205     Y18.4506      R5.4500     F1200
   X767.8386     Y18.3137      R5.4500    
   X767.8914     Y18.1861      R5.4500    
   X767.9754     Y18.0766      R5.4500    
   X768.0850     Y17.9926      R5.4500    
   X768.2125     Y17.9397      R5.4500    
   X768.3494     Y17.9217      R5.4500    
   X768.4863     Y17.9397      R5.4500    
   X768.6138     Y17.9926      R5.4500    
   X768.7234     Y18.0766      R5.4500    
   X768.8074     Y18.1861      R5.4500    
   X768.8602     Y18.3137      R5.4500    
   X768.8783     Y18.4506      R5.4500    
   X768.8602     Y18.5875      R5.4500    
   X768.8074     Y18.7150      R5.4500    
   X768.7234     Y18.8245      R5.4500    
   X768.6138     Y18.9086      R5.4500    
   X768.4863     Y18.9614      R5.4500    
   X768.3494     Y18.9794      R5.4500    
   X768.2125     Y18.9614      R5.4500    
   X768.0850     Y18.9086      R5.4500    
   X767.9754     Y18.8245      R5.4500    
   X767.8914     Y18.7150      R5.4500    
   X767.8386     Y18.5875      R5.4500    
(Pass: 14)
G1   Z-2.800     F300 
G17 G2   X767.8205     Y18.4506      R5.4500     F1200
   X767.8386     Y18.3137      R5.4500    
   X767.8914     Y18.1861      R5.4500    
   X767.9754     Y18.0766      R5.4500    
   X768.0850     Y17.9926      R5.4500    
   X768.2125     Y17.9397      R5.4500    
   X768.3494     Y17.9217      R5.4500    
   X768.4863     Y17.9397      R5.4500    
   X768.6138     Y17.9926      R5.4500    
   X768.7234     Y18.0766      R5.4500    
   X768.8074     Y18.1861      R5.4500    
   X768.8602     Y18.3137      R5.4500    
   X768.8783     Y18.4506      R5.4500    
   X768.8602     Y18.5875      R5.4500    
   X768.8074     Y18.7150      R5.4500    
   X768.7234     Y18.8245      R5.4500    
   X768.6138     Y18.9086      R5.4500    
   X768.4863     Y18.9614      R5.4500    
   X768.3494     Y18.9794      R5.4500    
   X768.2125     Y18.9614      R5.4500    
   X768.0850     Y18.9086      R5.4500    
   X767.9754     Y18.8245      R5.4500    
   X767.8914     Y18.7150      R5.4500    
   X767.8386     Y18.5875      R5.4500    
(Pass: 15)
G1   Z-3.000     F300 
G17 G2   X767.8205     Y18.4506      R5.4500     F1200
   X767.8386     Y18.3137      R5.4500    
   X767.8914     Y18.1861      R5.4500    
   X767.9754     Y18.0766      R5.4500    
   X768.0850     Y17.9926      R5.4500    
   X768.2125     Y17.9397      R5.4500    
   X768.3494     Y17.9217      R5.4500    
   X768.4863     Y17.9397      R5.4500    
   X768.6138     Y17.9926      R5.4500    
   X768.7234     Y18.0766      R5.4500    
   X768.8074     Y18.1861      R5.4500    
   X768.8602     Y18.3137      R5.4500    
   X768.8783     Y18.4506      R5.4500    
   X768.8602     Y18.5875      R5.4500    
   X768.8074     Y18.7150      R5.4500    
   X768.7234     Y18.8245      R5.4500    
   X768.6138     Y18.9086      R5.4500    
   X768.4863     Y18.9614      R5.4500    
   X768.3494     Y18.9794      R5.4500    
   X768.2125     Y18.9614      R5.4500    
   X768.0850     Y18.9086      R5.4500    
   X767.9754     Y18.8245      R5.4500    
   X767.8914     Y18.7150      R5.4500    
   X767.8386     Y18.5875      R5.4500    
(Pass: 16)
G1   Z-3.200     F300 
G17 G2   X767.8205     Y18.4506      R5.4500     F1200
   X767.8386     Y18.3137      R5.4500    
   X767.8914     Y18.1861      R5.4500    
   X767.9754     Y18.0766      R5.4500    
   X768.0850     Y17.9926      R5.4500    
   X768.2125     Y17.9397      R5.4500    
   X768.3494     Y17.9217      R5.4500    
   X768.4863     Y17.9397      R5.4500    
   X768.6138     Y17.9926      R5.4500    
   X768.7234     Y18.0766      R5.4500    
   X768.8074     Y18.1861      R5.4500    
   X768.8602     Y18.3137      R5.4500    
   X768.8783     Y18.4506      R5.4500    
   X768.8602     Y18.5875      R5.4500    
   X768.8074     Y18.7150      R5.4500    
   X768.7234     Y18.8245      R5.4500    
   X768.6138     Y18.9086      R5.4500    
   X768.4863     Y18.9614      R5.4500    
   X768.3494     Y18.9794      R5.4500    
   X768.2125     Y18.9614      R5.4500    
   X768.0850     Y18.9086      R5.4500    
   X767.9754     Y18.8245      R5.4500    
   X767.8914     Y18.7150      R5.4500    
   X767.8386     Y18.5875      R5.4500    
(Pass: 17)
G1   Z-3.400     F300 
G17 G2   X767.8205     Y18.4506      R5.4500     F1200
   X767.8386     Y18.3137      R5.4500    
   X767.8914     Y18.1861      R5.4500    
   X767.9754     Y18.0766      R5.4500    
   X768.0850     Y17.9926      R5.4500    
   X768.2125     Y17.9397      R5.4500    
   X768.3494     Y17.9217      R5.4500    
   X768.4863     Y17.9397      R5.4500    
   X768.6138     Y17.9926      R5.4500    
   X768.7234     Y18.0766      R5.4500    
   X768.8074     Y18.1861      R5.4500    
   X768.8602     Y18.3137      R5.4500    
   X768.8783     Y18.4506      R5.4500    
   X768.8602     Y18.5875      R5.4500    
   X768.8074     Y18.7150      R5.4500    
   X768.7234     Y18.8245      R5.4500    
   X768.6138     Y18.9086      R5.4500    
   X768.4863     Y18.9614      R5.4500    
   X768.3494     Y18.9794      R5.4500    
   X768.2125     Y18.9614      R5.4500    
   X768.0850     Y18.9086      R5.4500    
   X767.9754     Y18.8245      R5.4500    
   X767.8914     Y18.7150      R5.4500    
   X767.8386     Y18.5875      R5.4500    
(Pass: 18)
G1   Z-3.600     F300 
G17 G2   X767.8205     Y18.4506      R5.4500     F1200
   X767.8386     Y18.3137      R5.4500    
   X767.8914     Y18.1861      R5.4500    
   X767.9754     Y18.0766      R5.4500    
   X768.0850     Y17.9926      R5.4500    
   X768.2125     Y17.9397      R5.4500    
   X768.3494     Y17.9217      R5.4500    
   X768.4863     Y17.9397      R5.4500    
   X768.6138     Y17.9926      R5.4500    
   X768.7234     Y18.0766      R5.4500    
   X768.8074     Y18.1861      R5.4500    
   X768.8602     Y18.3137      R5.4500    
   X768.8783     Y18.4506      R5.4500    
   X768.8602     Y18.5875      R5.4500    
   X768.8074     Y18.7150      R5.4500    
   X768.7234     Y18.8245      R5.4500    
   X768.6138     Y18.9086      R5.4500    
   X768.4863     Y18.9614      R5.4500    
   X768.3494     Y18.9794      R5.4500    
   X768.2125     Y18.9614      R5.4500    
   X768.0850     Y18.9086      R5.4500    
   X767.9754     Y18.8245      R5.4500    
   X767.8914     Y18.7150      R5.4500    
   X767.8386     Y18.5875      R5.4500    
(Pass: 19)
G1   Z-3.800     F300 
G17 G2   X767.8205     Y18.4506      R5.4500     F1200
   X767.8386     Y18.3137      R5.4500    
   X767.8914     Y18.1861      R5.4500    
   X767.9754     Y18.0766      R5.4500    
   X768.0850     Y17.9926      R5.4500    
   X768.2125     Y17.9397      R5.4500    
   X768.3494     Y17.9217      R5.4500    
   X768.4863     Y17.9397      R5.4500    
   X768.6138     Y17.9926      R5.4500    
   X768.7234     Y18.0766      R5.4500    
   X768.8074     Y18.1861      R5.4500    
   X768.8602     Y18.3137      R5.4500    
   X768.8783     Y18.4506      R5.4500    
   X768.8602     Y18.5875      R5.4500    
   X768.8074     Y18.7150      R5.4500    
   X768.7234     Y18.8245      R5.4500    
   X768.6138     Y18.9086      R5.4500    
   X768.4863     Y18.9614      R5.4500    
   X768.3494     Y18.9794      R5.4500    
   X768.2125     Y18.9614      R5.4500    
   X768.0850     Y18.9086      R5.4500    
   X767.9754     Y18.8245      R5.4500    
   X767.8914     Y18.7150      R5.4500    
   X767.8386     Y18.5875      R5.4500    
(BREAK pass 19)
G0   Z5.000     
(Pass: 1)
   X748.378      Y197.922   
G1   Z-0.200     F300 
G17 G2   X748.5134     Y197.9478     R5.4500     F1200
   X748.6380     Y198.0074     R5.4500    
   X748.7428     Y198.0972     R5.4500    
   X748.8209     Y198.2110     R5.4500    
   X748.8668     Y198.3412     R5.4500    
   X748.8775     Y198.4789     R5.4500    
   X748.8522     Y198.6146     R5.4500    
   X748.7926     Y198.7391     R5.4500    
   X748.7028     Y198.8440     R5.4500    
   X748.5889     Y198.9221     R5.4500    
   X748.4587     Y198.9680     R5.4500    
   X748.3211     Y198.9787     R5.4500    
   X748.1854     Y198.9534     R5.4500    
   X748.0608     Y198.8938     R5.4500    
   X747.9560     Y198.8040     R5.4500    
   X747.8779     Y198.6901     R5.4500    
   X747.8320     Y198.5599     R5.4500    
   X747.8213     Y198.4223     R5.4500    
   X747.8466     Y198.2865     R5.4500    
   X747.9062     Y198.1620     R5.4500    
   X747.9960     Y198.0571     R5.4500    
   X748.1099     Y197.9791     R5.4500    
   X748.2401     Y197.9331     R5.4500    
   X748.3777     Y197.9225     R5.4500    
(Pass: 2)
G1   Z-0.400     F300 
G17 G2   X748.5134     Y197.9478     R5.4500     F1200
   X748.6380     Y198.0074     R5.4500    
   X748.7428     Y198.0972     R5.4500    
   X748.8209     Y198.2110     R5.4500    
   X748.8668     Y198.3412     R5.4500    
   X748.8775     Y198.4789     R5.4500    
   X748.8522     Y198.6146     R5.4500    
   X748.7926     Y198.7391     R5.4500    
   X748.7028     Y198.8440     R5.4500    
   X748.5889     Y198.9221     R5.4500    
   X748.4587     Y198.9680     R5.4500    
   X748.3211     Y198.9787     R5.4500    
   X748.1854     Y198.9534     R5.4500    
   X748.0608     Y198.8938     R5.4500    
   X747.9560     Y198.8040     R5.4500    
   X747.8779     Y198.6901     R5.4500    
   X747.8320     Y198.5599     R5.4500    
   X747.8213     Y198.4223     R5.4500    
   X747.8466     Y198.2865     R5.4500    
   X747.9062     Y198.1620     R5.4500    
   X747.9960     Y198.0571     R5.4500    
   X748.1099     Y197.9791     R5.4500    
   X748.2401     Y197.9331     R5.4500    
   X748.3777     Y197.9225     R5.4500    
(Pass: 3)
G1   Z-0.600     F300 
G17 G2   X748.5134     Y197.9478     R5.4500     F1200
   X748.6380     Y198.0074     R5.4500    
   X748.7428     Y198.0972     R5.4500    
   X748.8209     Y198.2110     R5.4500    
   X748.8668     Y198.3412     R5.4500    
   X748.8775     Y198.4789     R5.4500    
   X748.8522     Y198.6146     R5.4500    
   X748.7926     Y198.7391     R5.4500    
   X748.7028     Y198.8440     R5.4500    
   X748.5889     Y198.9221     R5.4500    
   X748.4587     Y198.9680     R5.4500    
   X748.3211     Y198.9787     R5.4500    
   X748.1854     Y198.9534     R5.4500    
   X748.0608     Y198.8938     R5.4500    
   X747.9560     Y198.8040     R5.4500    
   X747.8779     Y198.6901     R5.4500    
   X747.8320     Y198.5599     R5.4500    
   X747.8213     Y198.4223     R5.4500    
   X747.8466     Y198.2865     R5.4500    
   X747.9062     Y198.1620     R5.4500    
   X747.9960     Y198.0571     R5.4500    
   X748.1099     Y197.9791     R5.4500    
   X748.2401     Y197.9331     R5.4500    
   X748.3777     Y197.9225     R5.4500    
(Pass: 4)
G1   Z-0.800     F300 
G17 G2   X748.5134     Y197.9478     R5.4500     F1200
   X748.6380     Y198.0074     R5.4500    
   X748.7428     Y198.0972     R5.4500    
   X748.8209     Y198.2110     R5.4500    
   X748.8668     Y198.3412     R5.4500    
   X748.8775     Y198.4789     R5.4500    
   X748.8522     Y198.6146     R5.4500    
   X748.7926     Y198.7391     R5.4500    
   X748.7028     Y198.8440     R5.4500    
   X748.5889     Y198.9221     R5.4500    
   X748.4587     Y198.9680     R5.4500    
   X748.3211     Y198.9787     R5.4500    
   X748.1854     Y198.9534     R5.4500    
   X748.0608     Y198.8938     R5.4500    
   X747.9560     Y198.8040     R5.4500    
   X747.8779     Y198.6901     R5.4500    
   X747.8320     Y198.5599     R5.4500    
   X747.8213     Y198.4223     R5.4500    
   X747.8466     Y198.2865     R5.4500    
   X747.9062     Y198.1620     R5.4500    
   X747.9960     Y198.0571     R5.4500    
   X748.1099     Y197.9791     R5.4500    
   X748.2401     Y197.9331     R5.4500    
   X748.3777     Y197.9225     R5.4500    
(Pass: 5)
G1   Z-1.000     F300 
G17 G2   X748.5134     Y197.9478     R5.4500     F1200
   X748.6380     Y198.0074     R5.4500    
   X748.7428     Y198.0972     R5.4500    
   X748.8209     Y198.2110     R5.4500    
   X748.8668     Y198.3412     R5.4500    
   X748.8775     Y198.4789     R5.4500    
   X748.8522     Y198.6146     R5.4500    
   X748.7926     Y198.7391     R5.4500    
   X748.7028     Y198.8440     R5.4500    
   X748.5889     Y198.9221     R5.4500    
   X748.4587     Y198.9680     R5.4500    
   X748.3211     Y198.9787     R5.4500    
   X748.1854     Y198.9534     R5.4500    
   X748.0608     Y198.8938     R5.4500    
   X747.9560     Y198.8040     R5.4500    
   X747.8779     Y198.6901     R5.4500    
   X747.8320     Y198.5599     R5.4500    
   X747.8213     Y198.4223     R5.4500    
   X747.8466     Y198.2865     R5.4500    
   X747.9062     Y198.1620     R5.4500    
   X747.9960     Y198.0571     R5.4500    
   X748.1099     Y197.9791     R5.4500    
   X748.2401     Y197.9331     R5.4500    
   X748.3777     Y197.9225     R5.4500    
(Pass: 6)
G1   Z-1.200     F300 
G17 G2   X748.5134     Y197.9478     R5.4500     F1200
   X748.6380     Y198.0074     R5.4500    
   X748.7428     Y198.0972     R5.4500    
   X748.8209     Y198.2110     R5.4500    
   X748.8668     Y198.3412     R5.4500    
   X748.8775     Y198.4789     R5.4500    
   X748.8522     Y198.6146     R5.4500    
   X748.7926     Y198.7391     R5.4500    
   X748.7028     Y198.8440     R5.4500    
   X748.5889     Y198.9221     R5.4500    
   X748.4587     Y198.9680     R5.4500    
   X748.3211     Y198.9787     R5.4500    
   X748.1854     Y198.9534     R5.4500    
   X748.0608     Y198.8938     R5.4500    
   X747.9560     Y198.8040     R5.4500    
   X747.8779     Y198.6901     R5.4500    
   X747.8320     Y198.5599     R5.4500    
   X747.8213     Y198.4223     R5.4500    
   X747.8466     Y198.2865     R5.4500    
   X747.9062     Y198.1620     R5.4500    
   X747.9960     Y198.0571     R5.4500    
   X748.1099     Y197.9791     R5.4500    
   X748.2401     Y197.9331     R5.4500    
   X748.3777     Y197.9225     R5.4500    
(Pass: 7)
G1   Z-1.400     F300 
G17 G2   X748.5134     Y197.9478     R5.4500     F1200
   X748.6380     Y198.0074     R5.4500    
   X748.7428     Y198.0972     R5.4500    
   X748.8209     Y198.2110     R5.4500    
   X748.8668     Y198.3412     R5.4500    
   X748.8775     Y198.4789     R5.4500    
   X748.8522     Y198.6146     R5.4500    
   X748.7926     Y198.7391     R5.4500    
   X748.7028     Y198.8440     R5.4500    
   X748.5889     Y198.9221     R5.4500    
   X748.4587     Y198.9680     R5.4500    
   X748.3211     Y198.9787     R5.4500    
   X748.1854     Y198.9534     R5.4500    
   X748.0608     Y198.8938     R5.4500    
   X747.9560     Y198.8040     R5.4500    
   X747.8779     Y198.6901     R5.4500    
   X747.8320     Y198.5599     R5.4500    
   X747.8213     Y198.4223     R5.4500    
   X747.8466     Y198.2865     R5.4500    
   X747.9062     Y198.1620     R5.4500    
   X747.9960     Y198.0571     R5.4500    
   X748.1099     Y197.9791     R5.4500    
   X748.2401     Y197.9331     R5.4500    
   X748.3777     Y197.9225     R5.4500    
(Pass: 8)
G1   Z-1.600     F300 
G17 G2   X748.5134     Y197.9478     R5.4500     F1200
   X748.6380     Y198.0074     R5.4500    
   X748.7428     Y198.0972     R5.4500    
   X748.8209     Y198.2110     R5.4500    
   X748.8668     Y198.3412     R5.4500    
   X748.8775     Y198.4789     R5.4500    
   X748.8522     Y198.6146     R5.4500    
   X748.7926     Y198.7391     R5.4500    
   X748.7028     Y198.8440     R5.4500    
   X748.5889     Y198.9221     R5.4500    
   X748.4587     Y198.9680     R5.4500    
   X748.3211     Y198.9787     R5.4500    
   X748.1854     Y198.9534     R5.4500    
   X748.0608     Y198.8938     R5.4500    
   X747.9560     Y198.8040     R5.4500    
   X747.8779     Y198.6901     R5.4500    
   X747.8320     Y198.5599     R5.4500    
   X747.8213     Y198.4223     R5.4500    
   X747.8466     Y198.2865     R5.4500    
   X747.9062     Y198.1620     R5.4500    
   X747.9960     Y198.0571     R5.4500    
   X748.1099     Y197.9791     R5.4500    
   X748.2401     Y197.9331     R5.4500    
   X748.3777     Y197.9225     R5.4500    
(Pass: 9)
G1   Z-1.800     F300 
G17 G2   X748.5134     Y197.9478     R5.4500     F1200
   X748.6380     Y198.0074     R5.4500    
   X748.7428     Y198.0972     R5.4500    
   X748.8209     Y198.2110     R5.4500    
   X748.8668     Y198.3412     R5.4500    
   X748.8775     Y198.4789     R5.4500    
   X748.8522     Y198.6146     R5.4500    
   X748.7926     Y198.7391     R5.4500    
   X748.7028     Y198.8440     R5.4500    
   X748.5889     Y198.9221     R5.4500    
   X748.4587     Y198.9680     R5.4500    
   X748.3211     Y198.9787     R5.4500    
   X748.1854     Y198.9534     R5.4500    
   X748.0608     Y198.8938     R5.4500    
   X747.9560     Y198.8040     R5.4500    
   X747.8779     Y198.6901     R5.4500    
   X747.8320     Y198.5599     R5.4500    
   X747.8213     Y198.4223     R5.4500    
   X747.8466     Y198.2865     R5.4500    
   X747.9062     Y198.1620     R5.4500    
   X747.9960     Y198.0571     R5.4500    
   X748.1099     Y197.9791     R5.4500    
   X748.2401     Y197.9331     R5.4500    
   X748.3777     Y197.9225     R5.4500    
(Pass: 10)
G1   Z-2.000     F300 
G17 G2   X748.5134     Y197.9478     R5.4500     F1200
   X748.6380     Y198.0074     R5.4500    
   X748.7428     Y198.0972     R5.4500    
   X748.8209     Y198.2110     R5.4500    
   X748.8668     Y198.3412     R5.4500    
   X748.8775     Y198.4789     R5.4500    
   X748.8522     Y198.6146     R5.4500    
   X748.7926     Y198.7391     R5.4500    
   X748.7028     Y198.8440     R5.4500    
   X748.5889     Y198.9221     R5.4500    
   X748.4587     Y198.9680     R5.4500    
   X748.3211     Y198.9787     R5.4500    
   X748.1854     Y198.9534     R5.4500    
   X748.0608     Y198.8938     R5.4500    
   X747.9560     Y198.8040     R5.4500    
   X747.8779     Y198.6901     R5.4500    
   X747.8320     Y198.5599     R5.4500    
   X747.8213     Y198.4223     R5.4500    
   X747.8466     Y198.2865     R5.4500    
   X747.9062     Y198.1620     R5.4500    
   X747.9960     Y198.0571     R5.4500    
   X748.1099     Y197.9791     R5.4500    
   X748.2401     Y197.9331     R5.4500    
   X748.3777     Y197.9225     R5.4500    
(Pass: 11)
G1   Z-2.200     F300 
G17 G2   X748.5134     Y197.9478     R5.4500     F1200
   X748.6380     Y198.0074     R5.4500    
   X748.7428     Y198.0972     R5.4500    
   X748.8209     Y198.2110     R5.4500    
   X748.8668     Y198.3412     R5.4500    
   X748.8775     Y198.4789     R5.4500    
   X748.8522     Y198.6146     R5.4500    
   X748.7926     Y198.7391     R5.4500    
   X748.7028     Y198.8440     R5.4500    
   X748.5889     Y198.9221     R5.4500    
   X748.4587     Y198.9680     R5.4500    
   X748.3211     Y198.9787     R5.4500    
   X748.1854     Y198.9534     R5.4500    
   X748.0608     Y198.8938     R5.4500    
   X747.9560     Y198.8040     R5.4500    
   X747.8779     Y198.6901     R5.4500    
   X747.8320     Y198.5599     R5.4500    
   X747.8213     Y198.4223     R5.4500    
   X747.8466     Y198.2865     R5.4500    
   X747.9062     Y198.1620     R5.4500    
   X747.9960     Y198.0571     R5.4500    
   X748.1099     Y197.9791     R5.4500    
   X748.2401     Y197.9331     R5.4500    
   X748.3777     Y197.9225     R5.4500    
(Pass: 12)
G1   Z-2.400     F300 
G17 G2   X748.5134     Y197.9478     R5.4500     F1200
   X748.6380     Y198.0074     R5.4500    
   X748.7428     Y198.0972     R5.4500    
   X748.8209     Y198.2110     R5.4500    
   X748.8668     Y198.3412     R5.4500    
   X748.8775     Y198.4789     R5.4500    
   X748.8522     Y198.6146     R5.4500    
   X748.7926     Y198.7391     R5.4500    
   X748.7028     Y198.8440     R5.4500    
   X748.5889     Y198.9221     R5.4500    
   X748.4587     Y198.9680     R5.4500    
   X748.3211     Y198.9787     R5.4500    
   X748.1854     Y198.9534     R5.4500    
   X748.0608     Y198.8938     R5.4500    
   X747.9560     Y198.8040     R5.4500    
   X747.8779     Y198.6901     R5.4500    
   X747.8320     Y198.5599     R5.4500    
   X747.8213     Y198.4223     R5.4500    
   X747.8466     Y198.2865     R5.4500    
   X747.9062     Y198.1620     R5.4500    
   X747.9960     Y198.0571     R5.4500    
   X748.1099     Y197.9791     R5.4500    
   X748.2401     Y197.9331     R5.4500    
   X748.3777     Y197.9225     R5.4500    
(Pass: 13)
G1   Z-2.600     F300 
G17 G2   X748.5134     Y197.9478     R5.4500     F1200
   X748.6380     Y198.0074     R5.4500    
   X748.7428     Y198.0972     R5.4500    
   X748.8209     Y198.2110     R5.4500    
   X748.8668     Y198.3412     R5.4500    
   X748.8775     Y198.4789     R5.4500    
   X748.8522     Y198.6146     R5.4500    
   X748.7926     Y198.7391     R5.4500    
   X748.7028     Y198.8440     R5.4500    
   X748.5889     Y198.9221     R5.4500    
   X748.4587     Y198.9680     R5.4500    
   X748.3211     Y198.9787     R5.4500    
   X748.1854     Y198.9534     R5.4500    
   X748.0608     Y198.8938     R5.4500    
   X747.9560     Y198.8040     R5.4500    
   X747.8779     Y198.6901     R5.4500    
   X747.8320     Y198.5599     R5.4500    
   X747.8213     Y198.4223     R5.4500    
   X747.8466     Y198.2865     R5.4500    
   X747.9062     Y198.1620     R5.4500    
   X747.9960     Y198.0571     R5.4500    
   X748.1099     Y197.9791     R5.4500    
   X748.2401     Y197.9331     R5.4500    
   X748.3777     Y197.9225     R5.4500    
(Pass: 14)
G1   Z-2.800     F300 
G17 G2   X748.5134     Y197.9478     R5.4500     F1200
   X748.6380     Y198.0074     R5.4500    
   X748.7428     Y198.0972     R5.4500    
   X748.8209     Y198.2110     R5.4500    
   X748.8668     Y198.3412     R5.4500    
   X748.8775     Y198.4789     R5.4500    
   X748.8522     Y198.6146     R5.4500    
   X748.7926     Y198.7391     R5.4500    
   X748.7028     Y198.8440     R5.4500    
   X748.5889     Y198.9221     R5.4500    
   X748.4587     Y198.9680     R5.4500    
   X748.3211     Y198.9787     R5.4500    
   X748.1854     Y198.9534     R5.4500    
   X748.0608     Y198.8938     R5.4500    
   X747.9560     Y198.8040     R5.4500    
   X747.8779     Y198.6901     R5.4500    
   X747.8320     Y198.5599     R5.4500    
   X747.8213     Y198.4223     R5.4500    
   X747.8466     Y198.2865     R5.4500    
   X747.9062     Y198.1620     R5.4500    
   X747.9960     Y198.0571     R5.4500    
   X748.1099     Y197.9791     R5.4500    
   X748.2401     Y197.9331     R5.4500    
   X748.3777     Y197.9225     R5.4500    
(Pass: 15)
G1   Z-3.000     F300 
G17 G2   X748.5134     Y197.9478     R5.4500     F1200
   X748.6380     Y198.0074     R5.4500    
   X748.7428     Y198.0972     R5.4500    
   X748.8209     Y198.2110     R5.4500    
   X748.8668     Y198.3412     R5.4500    
   X748.8775     Y198.4789     R5.4500    
   X748.8522     Y198.6146     R5.4500    
   X748.7926     Y198.7391     R5.4500    
   X748.7028     Y198.8440     R5.4500    
   X748.5889     Y198.9221     R5.4500    
   X748.4587     Y198.9680     R5.4500    
   X748.3211     Y198.9787     R5.4500    
   X748.1854     Y198.9534     R5.4500    
   X748.0608     Y198.8938     R5.4500    
   X747.9560     Y198.8040     R5.4500    
   X747.8779     Y198.6901     R5.4500    
   X747.8320     Y198.5599     R5.4500    
   X747.8213     Y198.4223     R5.4500    
   X747.8466     Y198.2865     R5.4500    
   X747.9062     Y198.1620     R5.4500    
   X747.9960     Y198.0571     R5.4500    
   X748.1099     Y197.9791     R5.4500    
   X748.2401     Y197.9331     R5.4500    
   X748.3777     Y197.9225     R5.4500    
(Pass: 16)
G1   Z-3.200     F300 
G17 G2   X748.5134     Y197.9478     R5.4500     F1200
   X748.6380     Y198.0074     R5.4500    
   X748.7428     Y198.0972     R5.4500    
   X748.8209     Y198.2110     R5.4500    
   X748.8668     Y198.3412     R5.4500    
   X748.8775     Y198.4789     R5.4500    
   X748.8522     Y198.6146     R5.4500    
   X748.7926     Y198.7391     R5.4500    
   X748.7028     Y198.8440     R5.4500    
   X748.5889     Y198.9221     R5.4500    
   X748.4587     Y198.9680     R5.4500    
   X748.3211     Y198.9787     R5.4500    
