%
(Generated by SketchUcam {1.2b1})
(File: fake laser mount.skp)
(Bit diameter: 4.9mm)
(Feed rate: 300.0mm/min)
(Material Thickness: 6.3mm)
(Material length: 600.0mm X width: 300.0mm)
(Overhead Gantry: true)
(Retract feed rate NOT limited to plunge feed rate)
(Multipass enabled, Depth = 0.1mm)
(Optimization is ON)
(www.PhlatBoyz.com)
G90 G21 G49 
M3 S11000
G0   Z5.000     
(Pass: 1)
   X17.387       Y58.972    
(plungebore    depth=7.560         diam=4.900     )
G00   Z1.667     
G01   Z-0.100     F300 
G00   z1.667     
G01   Z-0.200    
G00   z1.667     
G01   Z-0.300    
G00   z1.667     
G01   Z-0.400    
G00   z1.667     
G01   Z-0.500    
G00   z1.667     
G01   Z-0.600    
G00   z1.667     
G01   Z-0.700    
G00   z1.667     
G01   Z-0.800    
G00   z1.667     
G01   Z-0.900    
G00   z1.667     
G01   Z-1.000    
G00   z1.667     
G01   Z-1.100    
G00   z1.667     
G01   Z-1.200    
G00   z1.667     
G01   Z-1.300    
G00   z1.667     
G01   Z-1.400    
G00   z1.667     
G01   Z-1.500    
G00   z1.667     
G01   Z-1.600    
G00   z1.667     
G01   Z-1.700    
G00   z1.667     
G01   Z-1.800    
G00   z1.667     
G01   Z-1.900    
G00   z1.667     
G01   Z-2.000    
G00   z1.667     
G01   Z-2.100    
G00   z1.667     
G01   Z-2.200    
G00   z1.667     
G01   Z-2.300    
G00   z1.667     
G01   Z-2.400    
G00   z1.667     
G01   Z-2.500    
G00   z1.667     
G01   Z-2.600    
G00   z1.667     
G01   Z-2.700    
G00   z1.667     
G01   Z-2.800    
G00   z1.667     
G01   Z-2.900    
G00   z1.667     
G01   Z-3.000    
G00   z1.667     
G01   Z-3.100    
G00   z1.667     
G01   Z-3.200    
G00   z1.667     
G01   Z-3.300    
G00   z1.667     
G01   Z-3.400    
G00   z1.667     
G01   Z-3.500    
G00   z1.667     
G01   Z-3.600    
G00   z1.667     
G01   Z-3.700    
G00   z1.667     
G01   Z-3.800    
G00   z1.667     
G01   Z-3.900    
G00   z1.667     
G01   Z-4.000    
G00   z1.667     
G01   Z-4.100    
G00   z1.667     
G01   Z-4.200    
G00   z1.667     
G01   Z-4.300    
G00   z1.667     
G01   Z-4.400    
G00   z1.667     
G01   Z-4.500    
G00   z1.667     
G01   Z-4.600    
G00   z1.667     
G01   Z-4.700    
G00   z1.667     
G01   Z-4.800    
G00   z1.667     
G01   Z-4.900    
G00   z1.667     
G01   Z-5.000    
G00   z1.667     
G01   Z-5.100    
G00   z1.667     
G01   Z-5.200    
G00   z1.667     
G01   Z-5.300    
G00   z1.667     
G01   Z-5.400    
G00   z1.667     
G01   Z-5.500    
G00   z1.667     
G01   Z-5.600    
G00   z1.667     
G01   Z-5.700    
G00   z1.667     
G01   Z-5.800    
G00   z1.667     
G01   Z-5.900    
G00   z1.667     
G01   Z-6.000    
G00   z1.667     
G01   Z-6.100    
G00   z1.667     
G01   Z-6.200    
G00   z1.667     
G01   Z-6.300    
G00   z1.667     
G01   Z-6.400    
G00   z1.667     
G01   Z-6.500    
G00   z1.667     
G01   Z-6.600    
G00   z1.667     
G01   Z-6.700    
G00   z1.667     
G01   Z-6.800    
G00   z1.667     
G01   Z-6.900    
G00   z1.667     
G01   Z-7.000    
G00   z1.667     
G01   Z-7.100    
G00   z1.667     
G01   Z-7.200    
G00   z1.667     
G01   Z-7.300    
G00   z1.667     
G01   Z-7.400    
G00   z1.667     
G01   Z-7.500    
G00   z1.667     
G01   Z-7.560    
G00   z1.667     
G00   Y58.972        Z5.000     
(plungebore end)
(BREAK pass 64)
(Pass: 1)
G0   Y28.972    
(plungebore    depth=7.560         diam=4.900     )
G00   Z1.667     
G01   Z-0.100     F300 
G00   z1.667     
G01   Z-0.200    
G00   z1.667     
G01   Z-0.300    
G00   z1.667     
G01   Z-0.400    
G00   z1.667     
G01   Z-0.500    
G00   z1.667     
G01   Z-0.600    
G00   z1.667     
G01   Z-0.700    
G00   z1.667     
G01   Z-0.800    
G00   z1.667     
G01   Z-0.900    
G00   z1.667     
G01   Z-1.000    
G00   z1.667     
G01   Z-1.100    
G00   z1.667     
G01   Z-1.200    
G00   z1.667     
G01   Z-1.300    
G00   z1.667     
G01   Z-1.400    
G00   z1.667     
G01   Z-1.500    
G00   z1.667     
G01   Z-1.600    
G00   z1.667     
G01   Z-1.700    
G00   z1.667     
G01   Z-1.800    
G00   z1.667     
G01   Z-1.900    
G00   z1.667     
G01   Z-2.000    
G00   z1.667     
G01   Z-2.100    
G00   z1.667     
G01   Z-2.200    
G00   z1.667     
G01   Z-2.300    
G00   z1.667     
G01   Z-2.400    
G00   z1.667     
G01   Z-2.500    
G00   z1.667     
G01   Z-2.600    
G00   z1.667     
G01   Z-2.700    
G00   z1.667     
G01   Z-2.800    
G00   z1.667     
G01   Z-2.900    
G00   z1.667     
G01   Z-3.000    
G00   z1.667     
G01   Z-3.100    
G00   z1.667     
G01   Z-3.200    
G00   z1.667     
G01   Z-3.300    
G00   z1.667     
G01   Z-3.400    
G00   z1.667     
G01   Z-3.500    
G00   z1.667     
G01   Z-3.600    
G00   z1.667     
G01   Z-3.700    
G00   z1.667     
G01   Z-3.800    
G00   z1.667     
G01   Z-3.900    
G00   z1.667     
G01   Z-4.000    
G00   z1.667     
G01   Z-4.100    
G00   z1.667     
G01   Z-4.200    
G00   z1.667     
G01   Z-4.300    
G00   z1.667     
G01   Z-4.400    
G00   z1.667     
G01   Z-4.500    
G00   z1.667     
G01   Z-4.600    
G00   z1.667     
G01   Z-4.700    
G00   z1.667     
G01   Z-4.800    
G00   z1.667     
G01   Z-4.900    
G00   z1.667     
G01   Z-5.000    
G00   z1.667     
G01   Z-5.100    
G00   z1.667     
G01   Z-5.200    
G00   z1.667     
G01   Z-5.300    
G00   z1.667     
G01   Z-5.400    
G00   z1.667     
G01   Z-5.500    
G00   z1.667     
G01   Z-5.600    
G00   z1.667     
G01   Z-5.700    
G00   z1.667     
G01   Z-5.800    
G00   z1.667     
G01   Z-5.900    
G00   z1.667     
G01   Z-6.000    
G00   z1.667     
G01   Z-6.100    
G00   z1.667     
G01   Z-6.200    
G00   z1.667     
G01   Z-6.300    
G00   z1.667     
G01   Z-6.400    
G00   z1.667     
G01   Z-6.500    
G00   z1.667     
G01   Z-6.600    
G00   z1.667     
G01   Z-6.700    
G00   z1.667     
G01   Z-6.800    
G00   z1.667     
G01   Z-6.900    
G00   z1.667     
G01   Z-7.000    
G00   z1.667     
G01   Z-7.100    
G00   z1.667     
G01   Z-7.200    
G00   z1.667     
G01   Z-7.300    
G00   z1.667     
G01   Z-7.400    
G00   z1.667     
G01   Z-7.500    
G00   z1.667     
G01   Z-7.560    
G00   z1.667     
G00   Y28.972        Z5.000     
(plungebore end)
(BREAK pass 64)
(Group: _diam_10.5mm)
(Pass: 1)
G0   X62.400       Y43.978    
(plungebore    depth=7.560         diam=10.500    )
G00   Z1.667     
G01   Z-0.100     F300 
G00   z1.667     
G01   Z-0.200    
G00   z1.667     
G01   Z-0.300    
G00   z1.667     
G01   Z-0.400    
G00   z1.667     
G01   Z-0.500    
G00   z1.667     
G01   Z-0.600    
G00   z1.667     
G01   Z-0.700    
G00   z1.667     
G01   Z-0.800    
G00   z1.667     
G01   Z-0.900    
G00   z1.667     
G01   Z-1.000    
G00   z1.667     
G01   Z-1.100    
G00   z1.667     
G01   Z-1.200    
G00   z1.667     
G01   Z-1.300    
G00   z1.667     
G01   Z-1.400    
G00   z1.667     
G01   Z-1.500    
G00   z1.667     
G01   Z-1.600    
G00   z1.667     
G01   Z-1.700    
G00   z1.667     
G01   Z-1.800    
G00   z1.667     
G01   Z-1.900    
G00   z1.667     
G01   Z-2.000    
G00   z1.667     
G01   Z-2.100    
G00   z1.667     
G01   Z-2.200    
G00   z1.667     
G01   Z-2.300    
G00   z1.667     
G01   Z-2.400    
G00   z1.667     
G01   Z-2.500    
G00   z1.667     
G01   Z-2.600    
G00   z1.667     
G01   Z-2.700    
G00   z1.667     
G01   Z-2.800    
G00   z1.667     
G01   Z-2.900    
G00   z1.667     
G01   Z-3.000    
G00   z1.667     
G01   Z-3.100    
G00   z1.667     
G01   Z-3.200    
G00   z1.667     
G01   Z-3.300    
G00   z1.667     
G01   Z-3.400    
G00   z1.667     
G01   Z-3.500    
G00   z1.667     
G01   Z-3.600    
G00   z1.667     
G01   Z-3.700    
G00   z1.667     
G01   Z-3.800    
G00   z1.667     
G01   Z-3.900    
G00   z1.667     
G01   Z-4.000    
G00   z1.667     
G01   Z-4.100    
G00   z1.667     
G01   Z-4.200    
G00   z1.667     
G01   Z-4.300    
G00   z1.667     
G01   Z-4.400    
G00   z1.667     
G01   Z-4.500    
G00   z1.667     
G01   Z-4.600    
G00   z1.667     
G01   Z-4.700    
G00   z1.667     
G01   Z-4.800    
G00   z1.667     
G01   Z-4.900    
G00   z1.667     
G01   Z-5.000    
G00   z1.667     
G01   Z-5.100    
G00   z1.667     
G01   Z-5.200    
G00   z1.667     
G01   Z-5.300    
G00   z1.667     
G01   Z-5.400    
G00   z1.667     
G01   Z-5.500    
G00   z1.667     
G01   Z-5.600    
G00   z1.667     
G01   Z-5.700    
G00   z1.667     
G01   Z-5.800    
G00   z1.667     
G01   Z-5.900    
G00   z1.667     
G01   Z-6.000    
G00   z1.667     
G01   Z-6.100    
G00   z1.667     
G01   Z-6.200    
G00   z1.667     
G01   Z-6.300    
G00   z1.667     
G01   Z-6.400    
G00   z1.667     
G01   Z-6.500    
G00   z1.667     
G01   Z-6.600    
G00   z1.667     
G01   Z-6.700    
G00   z1.667     
G01   Z-6.800    
G00   z1.667     
G01   Z-6.900    
G00   z1.667     
G01   Z-7.000    
G00   z1.667     
G01   Z-7.100    
G00   z1.667     
G01   Z-7.200    
G00   z1.667     
G01   Z-7.300    
G00   z1.667     
G01   Z-7.400    
G00   z1.667     
G01   Z-7.500    
G00   z1.667     
G01   Z-7.560    
G00   z1.667     
G00   Y41.1780   
G01    Z0.0000    
G02     X62.3996       Y41.1780       Z-0.1000    I0    J2.8000    
G02     X62.3996       Y41.1780       Z-0.2000    I0    J2.8000    
G02     X62.3996       Y41.1780       Z-0.3000    I0    J2.8000    
G02     X62.3996       Y41.1780       Z-0.4000    I0    J2.8000    
G02     X62.3996       Y41.1780       Z-0.5000    I0    J2.8000    
G02     X62.3996       Y41.1780       Z-0.6000    I0    J2.8000    
G02     X62.3996       Y41.1780       Z-0.7000    I0    J2.8000    
G02     X62.3996       Y41.1780       Z-0.8000    I0    J2.8000    
G02     X62.3996       Y41.1780       Z-0.9000    I0    J2.8000    
G02     X62.3996       Y41.1780       Z-1.0000    I0    J2.8000    
G02     X62.3996       Y41.1780       Z-1.1000    I0    J2.8000    
G02     X62.3996       Y41.1780       Z-1.2000    I0    J2.8000    
G02     X62.3996       Y41.1780       Z-1.3000    I0    J2.8000    
G02     X62.3996       Y41.1780       Z-1.4000    I0    J2.8000    
G02     X62.3996       Y41.1780       Z-1.5000    I0    J2.8000    
G02     X62.3996       Y41.1780       Z-1.6000    I0    J2.8000    
G02     X62.3996       Y41.1780       Z-1.7000    I0    J2.8000    
G02     X62.3996       Y41.1780       Z-1.8000    I0    J2.8000    
G02     X62.3996       Y41.1780       Z-1.9000    I0    J2.8000    
G02     X62.3996       Y41.1780       Z-2.0000    I0    J2.8000    
G02     X62.3996       Y41.1780       Z-2.1000    I0    J2.8000    
G02     X62.3996       Y41.1780       Z-2.2000    I0    J2.8000    
G02     X62.3996       Y41.1780       Z-2.3000    I0    J2.8000    
G02     X62.3996       Y41.1780       Z-2.4000    I0    J2.8000    
G02     X62.3996       Y41.1780       Z-2.5000    I0    J2.8000    
G02     X62.3996       Y41.1780       Z-2.6000    I0    J2.8000    
G02     X62.3996       Y41.1780       Z-2.7000    I0    J2.8000    
G02     X62.3996       Y41.1780       Z-2.8000    I0    J2.8000    
G02     X62.3996       Y41.1780       Z-2.9000    I0    J2.8000    
G02     X62.3996       Y41.1780       Z-3.0000    I0    J2.8000    
G02     X62.3996       Y41.1780       Z-3.1000    I0    J2.8000    
G02     X62.3996       Y41.1780       Z-3.2000    I0    J2.8000    
G02     X62.3996       Y41.1780       Z-3.3000    I0    J2.8000    
G02     X62.3996       Y41.1780       Z-3.4000    I0    J2.8000    
G02     X62.3996       Y41.1780       Z-3.5000    I0    J2.8000    
G02     X62.3996       Y41.1780       Z-3.6000    I0    J2.8000    
G02     X62.3996       Y41.1780       Z-3.7000    I0    J2.8000    
G02     X62.3996       Y41.1780       Z-3.8000    I0    J2.8000    
G02     X62.3996       Y41.1780       Z-3.9000    I0    J2.8000    
G02     X62.3996       Y41.1780       Z-4.0000    I0    J2.8000    
G02     X62.3996       Y41.1780       Z-4.1000    I0    J2.8000    
G02     X62.3996       Y41.1780       Z-4.2000    I0    J2.8000    
G02     X62.3996       Y41.1780       Z-4.3000    I0    J2.8000    
G02     X62.3996       Y41.1780       Z-4.4000    I0    J2.8000    
G02     X62.3996       Y41.1780       Z-4.5000    I0    J2.8000    
G02     X62.3996       Y41.1780       Z-4.6000    I0    J2.8000    
G02     X62.3996       Y41.1780       Z-4.7000    I0    J2.8000    
G02     X62.3996       Y41.1780       Z-4.8000    I0    J2.8000    
G02     X62.3996       Y41.1780       Z-4.9000    I0    J2.8000    
G02     X62.3996       Y41.1780       Z-5.0000    I0    J2.8000    
G02     X62.3996       Y41.1780       Z-5.1000    I0    J2.8000    
G02     X62.3996       Y41.1780       Z-5.2000    I0    J2.8000    
G02     X62.3996       Y41.1780       Z-5.3000    I0    J2.8000    
G02     X62.3996       Y41.1780       Z-5.4000    I0    J2.8000    
G02     X62.3996       Y41.1780       Z-5.5000    I0    J2.8000    
G02     X62.3996       Y41.1780       Z-5.6000    I0    J2.8000    
G02     X62.3996       Y41.1780       Z-5.7000    I0    J2.8000    
G02     X62.3996       Y41.1780       Z-5.8000    I0    J2.8000    
G02     X62.3996       Y41.1780       Z-5.9000    I0    J2.8000    
G02     X62.3996       Y41.1780       Z-6.0000    I0    J2.8000    
G02     X62.3996       Y41.1780       Z-6.1000    I0    J2.8000    
G02     X62.3996       Y41.1780       Z-6.2000    I0    J2.8000    
G02     X62.3996       Y41.1780       Z-6.3000    I0    J2.8000    
G02     X62.3996       Y41.1780       Z-6.4000    I0    J2.8000    
G02     X62.3996       Y41.1780       Z-6.5000    I0    J2.8000    
G02     X62.3996       Y41.1780       Z-6.6000    I0    J2.8000    
G02     X62.3996       Y41.1780       Z-6.7000    I0    J2.8000    
G02     X62.3996       Y41.1780       Z-6.8000    I0    J2.8000    
G02     X62.3996       Y41.1780       Z-6.9000    I0    J2.8000    
G02     X62.3996       Y41.1780       Z-7.5600    I0    J2.8000    
G02     X62.3996       Y41.1780    I0.0    J2.8000    
G00   Y43.978        Z5.000     
(plungebore end)
(BREAK pass 64)
(Group complete: _diam_10.5mm)
(Pass: 1)
G0   X83.470    
G1   Z-0.100     F300 
G17 G3   X82.8234      Y51.1150      R39.7570   
   X80.9043      Y58.0253      R39.7570   
   X77.7752      Y64.4786      R39.7570   
   X73.5380      Y70.2649      R39.7570   
   X72.3155      Y71.4224      R39.7570   
G1   X4.937     
   Y28.972    
   Y16.522    
   X72.316    
G17 G3   X73.5379      Y17.6799      R39.7570   
   X77.7752      Y23.4662      R39.7570   
   X80.9043      Y29.9194      R39.7570   
   X82.8234      Y36.8297      R39.7570   
   X83.4701      Y43.9724      R39.7570   
(Pass: 2)
G1   Z-0.200    
G17 G3   X82.8234      Y51.1150      R39.7570   
   X80.9043      Y58.0253      R39.7570   
   X77.7752      Y64.4786      R39.7570   
   X73.5380      Y70.2649      R39.7570   
   X72.3155      Y71.4224      R39.7570   
G1   X4.937     
   Y28.972    
   Y16.522    
   X72.316    
G17 G3   X73.5379      Y17.6799      R39.7570   
   X77.7752      Y23.4662      R39.7570   
   X80.9043      Y29.9194      R39.7570   
   X82.8234      Y36.8297      R39.7570   
   X83.4701      Y43.9724      R39.7570   
(Pass: 3)
G1   Z-0.300    
G17 G3   X82.8234      Y51.1150      R39.7570   
   X80.9043      Y58.0253      R39.7570   
   X77.7752      Y64.4786      R39.7570   
   X73.5380      Y70.2649      R39.7570   
   X72.3155      Y71.4224      R39.7570   
G1   X4.937     
   Y28.972    
   Y16.522    
   X72.316    
G17 G3   X73.5379      Y17.6799      R39.7570   
   X77.7752      Y23.4662      R39.7570   
   X80.9043      Y29.9194      R39.7570   
   X82.8234      Y36.8297      R39.7570   
   X83.4701      Y43.9724      R39.7570   
(Pass: 4)
G1   Z-0.400    
G17 G3   X82.8234      Y51.1150      R39.7570   
   X80.9043      Y58.0253      R39.7570   
   X77.7752      Y64.4786      R39.7570   
   X73.5380      Y70.2649      R39.7570   
   X72.3155      Y71.4224      R39.7570   
G1   X4.937     
   Y28.972    
   Y16.522    
   X72.316    
G17 G3   X73.5379      Y17.6799      R39.7570   
   X77.7752      Y23.4662      R39.7570   
   X80.9043      Y29.9194      R39.7570   
   X82.8234      Y36.8297      R39.7570   
   X83.4701      Y43.9724      R39.7570   
(Pass: 5)
G1   Z-0.500    
G17 G3   X82.8234      Y51.1150      R39.7570   
   X80.9043      Y58.0253      R39.7570   
   X77.7752      Y64.4786      R39.7570   
   X73.5380      Y70.2649      R39.7570   
   X72.3155      Y71.4224      R39.7570   
G1   X4.937     
   Y28.972    
   Y16.522    
   X72.316    
G17 G3   X73.5379      Y17.6799      R39.7570   
   X77.7752      Y23.4662      R39.7570   
   X80.9043      Y29.9194      R39.7570   
   X82.8234      Y36.8297      R39.7570   
   X83.4701      Y43.9724      R39.7570   
(Pass: 6)
G1   Z-0.600    
G17 G3   X82.8234      Y51.1150      R39.7570   
   X80.9043      Y58.0253      R39.7570   
   X77.7752      Y64.4786      R39.7570   
   X73.5380      Y70.2649      R39.7570   
   X72.3155      Y71.4224      R39.7570   
G1   X4.937     
   Y28.972    
   Y16.522    
   X72.316    
G17 G3   X73.5379      Y17.6799      R39.7570   
   X77.7752      Y23.4662      R39.7570   
   X80.9043      Y29.9194      R39.7570   
   X82.8234      Y36.8297      R39.7570   
   X83.4701      Y43.9724      R39.7570   
(Pass: 7)
G1   Z-0.700    
G17 G3   X82.8234      Y51.1150      R39.7570   
   X80.9043      Y58.0253      R39.7570   
   X77.7752      Y64.4786      R39.7570   
   X73.5380      Y70.2649      R39.7570   
   X72.3155      Y71.4224      R39.7570   
G1   X4.937     
   Y28.972    
   Y16.522    
   X72.316    
G17 G3   X73.5379      Y17.6799      R39.7570   
   X77.7752      Y23.4662      R39.7570   
   X80.9043      Y29.9194      R39.7570   
   X82.8234      Y36.8297      R39.7570   
   X83.4701      Y43.9724      R39.7570   
(Pass: 8)
G1   Z-0.800    
G17 G3   X82.8234      Y51.1150      R39.7570   
   X80.9043      Y58.0253      R39.7570   
   X77.7752      Y64.4786      R39.7570   
   X73.5380      Y70.2649      R39.7570   
   X72.3155      Y71.4224      R39.7570   
G1   X4.937     
   Y28.972    
   Y16.522    
   X72.316    
G17 G3   X73.5379      Y17.6799      R39.7570   
   X77.7752      Y23.4662      R39.7570   
   X80.9043      Y29.9194      R39.7570   
   X82.8234      Y36.8297      R39.7570   
   X83.4701      Y43.9724      R39.7570   
(Pass: 9)
G1   Z-0.900    
G17 G3   X82.8234      Y51.1150      R39.7570   
   X80.9043      Y58.0253      R39.7570   
   X77.7752      Y64.4786      R39.7570   
   X73.5380      Y70.2649      R39.7570   
   X72.3155      Y71.4224      R39.7570   
G1   X4.937     
   Y28.972    
   Y16.522    
   X72.316    
G17 G3   X73.5379      Y17.6799      R39.7570   
   X77.7752      Y23.4662      R39.7570   
   X80.9043      Y29.9194      R39.7570   
   X82.8234      Y36.8297      R39.7570   
   X83.4701      Y43.9724      R39.7570   
(Pass: 10)
G1   Z-1.000    
G17 G3   X82.8234      Y51.1150      R39.7570   
   X80.9043      Y58.0253      R39.7570   
   X77.7752      Y64.4786      R39.7570   
   X73.5380      Y70.2649      R39.7570   
   X72.3155      Y71.4224      R39.7570   
G1   X4.937     
   Y28.972    
   Y16.522    
   X72.316    
G17 G3   X73.5379      Y17.6799      R39.7570   
   X77.7752      Y23.4662      R39.7570   
   X80.9043      Y29.9194      R39.7570   
   X82.8234      Y36.8297      R39.7570   
   X83.4701      Y43.9724      R39.7570   
(Pass: 11)
G1   Z-1.100    
G17 G3   X82.8234      Y51.1150      R39.7570   
   X80.9043      Y58.0253      R39.7570   
   X77.7752      Y64.4786      R39.7570   
   X73.5380      Y70.2649      R39.7570   
   X72.3155      Y71.4224      R39.7570   
G1   X4.937     
   Y28.972    
   Y16.522    
   X72.316    
G17 G3   X73.5379      Y17.6799      R39.7570   
   X77.7752      Y23.4662      R39.7570   
   X80.9043      Y29.9194      R39.7570   
   X82.8234      Y36.8297      R39.7570   
   X83.4701      Y43.9724      R39.7570   
(Pass: 12)
G1   Z-1.200    
G17 G3   X82.8234      Y51.1150      R39.7570   
   X80.9043      Y58.0253      R39.7570   
   X77.7752      Y64.4786      R39.7570   
   X73.5380      Y70.2649      R39.7570   
   X72.3155      Y71.4224      R39.7570   
G1   X4.937     
   Y28.972    
   Y16.522    
   X72.316    
G17 G3   X73.5379      Y17.6799      R39.7570   
   X77.7752      Y23.4662      R39.7570   
   X80.9043      Y29.9194      R39.7570   
   X82.8234      Y36.8297      R39.7570   
   X83.4701      Y43.9724      R39.7570   
(Pass: 13)
G1   Z-1.300    
G17 G3   X82.8234      Y51.1150      R39.7570   
   X80.9043      Y58.0253      R39.7570   
   X77.7752      Y64.4786      R39.7570   
   X73.5380      Y70.2649      R39.7570   
   X72.3155      Y71.4224      R39.7570   
G1   X4.937     
   Y28.972    
   Y16.522    
   X72.316    
G17 G3   X73.5379      Y17.6799      R39.7570   
   X77.7752      Y23.4662      R39.7570   
   X80.9043      Y29.9194      R39.7570   
   X82.8234      Y36.8297      R39.7570   
   X83.4701      Y43.9724      R39.7570   
(Pass: 14)
G1   Z-1.400    
G17 G3   X82.8234      Y51.1150      R39.7570   
   X80.9043      Y58.0253      R39.7570   
   X77.7752      Y64.4786      R39.7570   
   X73.5380      Y70.2649      R39.7570   
   X72.3155      Y71.4224      R39.7570   
G1   X4.937     
   Y28.972    
   Y16.522    
   X72.316    
G17 G3   X73.5379      Y17.6799      R39.7570   
   X77.7752      Y23.4662      R39.7570   
   X80.9043      Y29.9194      R39.7570   
   X82.8234      Y36.8297      R39.7570   
   X83.4701      Y43.9724      R39.7570   
(Pass: 15)
G1   Z-1.500    
G17 G3   X82.8234      Y51.1150      R39.7570   
   X80.9043      Y58.0253      R39.7570   
   X77.7752      Y64.4786      R39.7570   
   X73.5380      Y70.2649      R39.7570   
   X72.3155      Y71.4224      R39.7570   
G1   X4.937     
   Y28.972    
   Y16.522    
   X72.316    
G17 G3   X73.5379      Y17.6799      R39.7570   
   X77.7752      Y23.4662      R39.7570   
   X80.9043      Y29.9194      R39.7570   
   X82.8234      Y36.8297      R39.7570   
   X83.4701      Y43.9724      R39.7570   
(Pass: 16)
G1   Z-1.600    
G17 G3   X82.8234      Y51.1150      R39.7570   
   X80.9043      Y58.0253      R39.7570   
   X77.7752      Y64.4786      R39.7570   
   X73.5380      Y70.2649      R39.7570   
   X72.3155      Y71.4224      R39.7570   
G1   X4.937     
   Y28.972    
   Y16.522    
   X72.316    
G17 G3   X73.5379      Y17.6799      R39.7570   
   X77.7752      Y23.4662      R39.7570   
   X80.9043      Y29.9194      R39.7570   
   X82.8234      Y36.8297      R39.7570   
   X83.4701      Y43.9724      R39.7570   
(Pass: 17)
G1   Z-1.700    
G17 G3   X82.8234      Y51.1150      R39.7570   
   X80.9043      Y58.0253      R39.7570   
   X77.7752      Y64.4786      R39.7570   
   X73.5380      Y70.2649      R39.7570   
   X72.3155      Y71.4224      R39.7570   
G1   X4.937     
   Y28.972    
   Y16.522    
   X72.316    
G17 G3   X73.5379      Y17.6799      R39.7570   
   X77.7752      Y23.4662      R39.7570   
   X80.9043      Y29.9194      R39.7570   
   X82.8234      Y36.8297      R39.7570   
   X83.4701      Y43.9724      R39.7570   
(Pass: 18)
G1   Z-1.800    
G17 G3   X82.8234      Y51.1150      R39.7570   
   X80.9043      Y58.0253      R39.7570   
   X77.7752      Y64.4786      R39.7570   
   X73.5380      Y70.2649      R39.7570   
   X72.3155      Y71.4224      R39.7570   
G1   X4.937     
   Y28.972    
   Y16.522    
   X72.316    
G17 G3   X73.5379      Y17.6799      R39.7570   
   X77.7752      Y23.4662      R39.7570   
   X80.9043      Y29.9194      R39.7570   
   X82.8234      Y36.8297      R39.7570   
   X83.4701      Y43.9724      R39.7570   
(Pass: 19)
G1   Z-1.900    
G17 G3   X82.8234      Y51.1150      R39.7570   
   X80.9043      Y58.0253      R39.7570   
   X77.7752      Y64.4786      R39.7570   
   X73.5380      Y70.2649      R39.7570   
   X72.3155      Y71.4224      R39.7570   
G1   X4.937     
   Y28.972    
   Y16.522    
   X72.316    
G17 G3   X73.5379      Y17.6799      R39.7570   
   X77.7752      Y23.4662      R39.7570   
   X80.9043      Y29.9194      R39.7570   
   X82.8234      Y36.8297      R39.7570   
   X83.4701      Y43.9724      R39.7570   
(Pass: 20)
G1   Z-2.000    
G17 G3   X82.8234      Y51.1150      R39.7570   
   X80.9043      Y58.0253      R39.7570   
   X77.7752      Y64.4786      R39.7570   
   X73.5380      Y70.2649      R39.7570   
   X72.3155      Y71.4224      R39.7570   
G1   X4.937     
   Y28.972    
   Y16.522    
   X72.316    
G17 G3   X73.5379      Y17.6799      R39.7570   
   X77.7752      Y23.4662      R39.7570   
   X80.9043      Y29.9194      R39.7570   
   X82.8234      Y36.8297      R39.7570   
   X83.4701      Y43.9724      R39.7570   
(Pass: 21)
G1   Z-2.100    
G17 G3   X82.8234      Y51.1150      R39.7570   
   X80.9043      Y58.0253      R39.7570   
   X77.7752      Y64.4786      R39.7570   
   X73.5380      Y70.2649      R39.7570   
   X72.3155      Y71.4224      R39.7570   
G1   X4.937     
   Y28.972    
   Y16.522    
   X72.316    
G17 G3   X73.5379      Y17.6799      R39.7570   
   X77.7752      Y23.4662      R39.7570   
   X80.9043      Y29.9194      R39.7570   
   X82.8234      Y36.8297      R39.7570   
   X83.4701      Y43.9724      R39.7570   
(Pass: 22)
G1   Z-2.200    
G17 G3   X82.8234      Y51.1150      R39.7570   
   X80.9043      Y58.0253      R39.7570   
   X77.7752      Y64.4786      R39.7570   
   X73.5380      Y70.2649      R39.7570   
   X72.3155      Y71.4224      R39.7570   
G1   X4.937     
   Y28.972    
   Y16.522    
   X72.316    
G17 G3   X73.5379      Y17.6799      R39.7570   
   X77.7752      Y23.4662      R39.7570   
   X80.9043      Y29.9194      R39.7570   
   X82.8234      Y36.8297      R39.7570   
   X83.4701      Y43.9724      R39.7570   
(Pass: 23)
G1   Z-2.300    
G17 G3   X82.8234      Y51.1150      R39.7570   
   X80.9043      Y58.0253      R39.7570   
   X77.7752      Y64.4786      R39.7570   
   X73.5380      Y70.2649      R39.7570   
   X72.3155      Y71.4224      R39.7570   
G1   X4.937     
   Y28.972    
   Y16.522    
   X72.316    
G17 G3   X73.5379      Y17.6799      R39.7570   
   X77.7752      Y23.4662      R39.7570   
   X80.9043      Y29.9194      R39.7570   
   X82.8234      Y36.8297      R39.7570   
   X83.4701      Y43.9724      R39.7570   
(Pass: 24)
G1   Z-2.400    
G17 G3   X82.8234      Y51.1150      R39.7570   
   X80.9043      Y58.0253      R39.7570   
   X77.7752      Y64.4786      R39.7570   
   X73.5380      Y70.2649      R39.7570   
   X72.3155      Y71.4224      R39.7570   
G1   X4.937     
   Y28.972    
   Y16.522    
   X72.316    
G17 G3   X73.5379      Y17.6799      R39.7570   
   X77.7752      Y23.4662      R39.7570   
   X80.9043      Y29.9194      R39.7570   
   X82.8234      Y36.8297      R39.7570   
   X83.4701      Y43.9724      R39.7570   
(Pass: 25)
G1   Z-2.500    
G17 G3   X82.8234      Y51.1150      R39.7570   
   X80.9043      Y58.0253      R39.7570   
   X77.7752      Y64.4786      R39.7570   
   X73.5380      Y70.2649      R39.7570   
   X72.3155      Y71.4224      R39.7570   
G1   X4.937     
   Y28.972    
   Y16.522    
   X72.316    
G17 G3   X73.5379      Y17.6799      R39.7570   
   X77.7752      Y23.4662      R39.7570   
   X80.9043      Y29.9194      R39.7570   
   X82.8234      Y36.8297      R39.7570   
   X83.4701      Y43.9724      R39.7570   
(Pass: 26)
G1   Z-2.600    
G17 G3   X82.8234      Y51.1150      R39.7570   
   X80.9043      Y58.0253      R39.7570   
   X77.7752      Y64.4786      R39.7570   
   X73.5380      Y70.2649      R39.7570   
   X72.3155      Y71.4224      R39.7570   
G1   X4.937     
   Y28.972    
   Y16.522    
   X72.316    
G17 G3   X73.5379      Y17.6799      R39.7570   
   X77.7752      Y23.4662      R39.7570   
   X80.9043      Y29.9194      R39.7570   
   X82.8234      Y36.8297      R39.7570   
   X83.4701      Y43.9724      R39.7570   
(Pass: 27)
G1   Z-2.700    
G17 G3   X82.8234      Y51.1150      R39.7570   
   X80.9043      Y58.0253      R39.7570   
   X77.7752      Y64.4786      R39.7570   
   X73.5380      Y70.2649      R39.7570   
   X72.3155      Y71.4224      R39.7570   
G1   X4.937     
   Y28.972    
   Y16.522    
   X72.316    
G17 G3   X73.5379      Y17.6799      R39.7570   
   X77.7752      Y23.4662      R39.7570   
   X80.9043      Y29.9194      R39.7570   
   X82.8234      Y36.8297      R39.7570   
   X83.4701      Y43.9724      R39.7570   
(Pass: 28)
G1   Z-2.800    
G17 G3   X82.8234      Y51.1150      R39.7570   
   X80.9043      Y58.0253      R39.7570   
   X77.7752      Y64.4786      R39.7570   
   X73.5380      Y70.2649      R39.7570   
   X72.3155      Y71.4224      R39.7570   
G1   X4.937     
   Y28.972    
   Y16.522    
   X72.316    
G17 G3   X73.5379      Y17.6799      R39.7570   
   X77.7752      Y23.4662      R39.7570   
   X80.9043      Y29.9194      R39.7570   
   X82.8234      Y36.8297      R39.7570   
   X83.4701      Y43.9724      R39.7570   
(Pass: 29)
G1   Z-2.900    
G17 G3   X82.8234      Y51.1150      R39.7570   
   X80.9043      Y58.0253      R39.7570   
   X77.7752      Y64.4786      R39.7570   
   X73.5380      Y70.2649      R39.7570   
   X72.3155      Y71.4224      R39.7570   
G1   X4.937     
   Y28.972    
   Y16.522    
   X72.316    
G17 G3   X73.5379      Y17.6799      R39.7570   
   X77.7752      Y23.4662      R39.7570   
   X80.9043      Y29.9194      R39.7570   
   X82.8234      Y36.8297      R39.7570   
   X83.4701      Y43.9724      R39.7570   
(Pass: 30)
G1   Z-3.000    
G17 G3   X82.8234      Y51.1150      R39.7570   
   X80.9043      Y58.0253      R39.7570   
   X77.7752      Y64.4786      R39.7570   
   X73.5380      Y70.2649      R39.7570   
   X72.3155      Y71.4224      R39.7570   
G1   X4.937     
   Y28.972    
   Y16.522    
   X72.316    
G17 G3   X73.5379      Y17.6799      R39.7570   
   X77.7752      Y23.4662      R39.7570   
   X80.9043      Y29.9194      R39.7570   
   X82.8234      Y36.8297      R39.7570   
   X83.4701      Y43.9724      R39.7570   
(Pass: 31)
G1   Z-3.100    
G17 G3   X82.8234      Y51.1150      R39.7570   
   X80.9043      Y58.0253      R39.7570   
   X77.7752      Y64.4786      R39.7570   
   X73.5380      Y70.2649      R39.7570   
   X72.3155      Y71.4224      R39.7570   
G1   X4.937     
   Y28.972    
   Y16.522    
   X72.316    
G17 G3   X73.5379      Y17.6799      R39.7570   
   X77.7752      Y23.4662      R39.7570   
   X80.9043      Y29.9194      R39.7570   
   X82.8234      Y36.8297      R39.7570   
   X83.4701      Y43.9724      R39.7570   
(Pass: 32)
G1   Z-3.200    
G17 G3   X82.8234      Y51.1150      R39.7570   
   X80.9043      Y58.0253      R39.7570   
   X77.7752      Y64.4786      R39.7570   
   X73.5380      Y70.2649      R39.7570   
   X72.3155      Y71.4224      R39.7570   
G1   X4.937     
   Y28.972    
   Y16.522    
   X72.316    
G17 G3   X73.5379      Y17.6799      R39.7570   
   X77.7752      Y23.4662      R39.7570   
   X80.9043      Y29.9194      R39.7570   
   X82.8234      Y36.8297      R39.7570   
   X83.4701      Y43.9724      R39.7570   
(Pass: 33)
G1   Z-3.300    
G17 G3   X82.8234      Y51.1150      R39.7570   
   X80.9043      Y58.0253      R39.7570   
   X77.7752      Y64.4786      R39.7570   
   X73.5380      Y70.2649      R39.7570   
   X72.3155      Y71.4224      R39.7570   
G1   X4.937     
   Y28.972    
   Y16.522    
   X72.316    
G17 G3   X73.5379      Y17.6799      R39.7570   
   X77.7752      Y23.4662      R39.7570   
   X80.9043      Y29.9194      R39.7570   
   X82.8234      Y36.8297      R39.7570   
   X83.4701      Y43.9724      R39.7570   
(Pass: 34)
G1   Z-3.400    
G17 G3   X82.8234      Y51.1150      R39.7570   
   X80.9043      Y58.0253      R39.7570   
   X77.7752      Y64.4786      R39.7570   
   X73.5380      Y70.2649      R39.7570   
   X72.3155      Y71.4224      R39.7570   
G1   X4.937     
   Y28.972    
   Y16.522    
   X72.316    
G17 G3   X73.5379      Y17.6799      R39.7570   
   X77.7752      Y23.4662      R39.7570   
   X80.9043      Y29.9194      R39.7570   
   X82.8234      Y36.8297      R39.7570   
   X83.4701      Y43.9724      R39.7570   
(Pass: 35)
G1   Z-3.500    
G17 G3   X82.8234      Y51.1150      R39.7570   
   X80.9043      Y58.0253      R39.7570   
   X77.7752      Y64.4786      R39.7570   
   X73.5380      Y70.2649      R39.7570   
   X72.3155      Y71.4224      R39.7570   
G1   X4.937     
   Y28.972    
   Y16.522    
   X72.316    
G17 G3   X73.5379      Y17.6799      R39.7570   
   X77.7752      Y23.4662      R39.7570   
   X80.9043      Y29.9194      R39.7570   
   X82.8234      Y36.8297      R39.7570   
   X83.4701      Y43.9724      R39.7570   
(Pass: 36)
G1   Z-3.600    
G17 G3   X82.8234      Y51.1150      R39.7570   
   X80.9043      Y58.0253      R39.7570   
   X77.7752      Y64.4786      R39.7570   
   X73.5380      Y70.2649      R39.7570   
   X72.3155      Y71.4224      R39.7570   
G1   X4.937     
   Y28.972    
   Y16.522    
   X72.316    
G17 G3   X73.5379      Y17.6799      R39.7570   
   X77.7752      Y23.4662      R39.7570   
   X80.9043      Y29.9194      R39.7570   
   X82.8234      Y36.8297      R39.7570   
   X83.4701      Y43.9724      R39.7570   
(Pass: 37)
G1   Z-3.700    
G17 G3   X82.8234      Y51.1150      R39.7570   
   X80.9043      Y58.0253      R39.7570   
   X77.7752      Y64.4786      R39.7570   
   X73.5380      Y70.2649      R39.7570   
   X72.3155      Y71.4224      R39.7570   
G1   X4.937     
   Y28.972    
   Y16.522    
   X72.316    
G17 G3   X73.5379      Y17.6799      R39.7570   
   X77.7752      Y23.4662      R39.7570   
   X80.9043      Y29.9194      R39.7570   
   X82.8234      Y36.8297      R39.7570   
   X83.4701      Y43.9724      R39.7570   
(Pass: 38)
G1   Z-3.800    
G17 G3   X82.8234      Y51.1150      R39.7570   
   X80.9043      Y58.0253      R39.7570   
   X77.7752      Y64.4786      R39.7570   
   X73.5380      Y70.2649      R39.7570   
   X72.3155      Y71.4224      R39.7570   
G1   X4.937     
   Y28.972    
   Y16.522    
   X72.316    
G17 G3   X73.5379      Y17.6799      R39.7570   
   X77.7752      Y23.4662      R39.7570   
   X80.9043      Y29.9194      R39.7570   
   X82.8234      Y36.8297      R39.7570   
   X83.4701      Y43.9724      R39.7570   
(Pass: 39)
G1   Z-3.900    
G17 G3   X82.8234      Y51.1150      R39.7570   
   X80.9043      Y58.0253      R39.7570   
   X77.7752      Y64.4786      R39.7570   
   X73.5380      Y70.2649      R39.7570   
   X72.3155      Y71.4224      R39.7570   
G1   X4.937     
   Y28.972    
   Y16.522    
   X72.316    
G17 G3   X73.5379      Y17.6799      R39.7570   
   X77.7752      Y23.4662      R39.7570   
   X80.9043      Y29.9194      R39.7570   
   X82.8234      Y36.8297      R39.7570   
   X83.4701      Y43.9724      R39.7570   
(Pass: 40)
G1   Z-4.000    
G17 G3   X82.8234      Y51.1150      R39.7570   
   X80.9043      Y58.0253      R39.7570   
   X77.7752      Y64.4786      R39.7570   
   X73.5380      Y70.2649      R39.7570   
   X72.3155      Y71.4224      R39.7570   
G1   X4.937     
   Y28.972    
   Y16.522    
   X72.316    
G17 G3   X73.5379      Y17.6799      R39.7570   
   X77.7752      Y23.4662      R39.7570   
   X80.9043      Y29.9194      R39.7570   
   X82.8234      Y36.8297      R39.7570   
   X83.4701      Y43.9724      R39.7570   
(Pass: 41)
G1   Z-4.100    
G17 G3   X82.8234      Y51.1150      R39.7570   
   X80.9043      Y58.0253      R39.7570   
   X77.7752      Y64.4786      R39.7570   
   X73.5380      Y70.2649      R39.7570   
   X72.3155      Y71.4224      R39.7570   
G1   X4.937     
   Y28.972    
   Y16.522    
   X72.316    
G17 G3   X73.5379      Y17.6799      R39.7570   
   X77.7752      Y23.4662      R39.7570   
   X80.9043      Y29.9194      R39.7570   
   X82.8234      Y36.8297      R39.7570   
   X83.4701      Y43.9724      R39.7570   
(Pass: 42)
G1   Z-4.200    
G17 G3   X82.8234      Y51.1150      R39.7570   
   X80.9043      Y58.0253      R39.7570   
   X77.7752      Y64.4786      R39.7570   
   X73.5380      Y70.2649      R39.7570   
   X72.3155      Y71.4224      R39.7570   
G1   X4.937     
   Y28.972    
   Y16.522    
   X72.316    
G17 G3   X73.5379      Y17.6799      R39.7570   
   X77.7752      Y23.4662      R39.7570   
   X80.9043      Y29.9194      R39.7570   
   X82.8234      Y36.8297      R39.7570   
   X83.4701      Y43.9724      R39.7570   
(Pass: 43)
G1   Z-4.300    
G17 G3   X82.8234      Y51.1150      R39.7570   
   X80.9043      Y58.0253      R39.7570   
   X77.7752      Y64.4786      R39.7570   
   X73.5380      Y70.2649      R39.7570   
   X72.3155      Y71.4224      R39.7570   
G1   X4.937     
   Y28.972    
   Y16.522    
   X72.316    
G17 G3   X73.5379      Y17.6799      R39.7570   
   X77.7752      Y23.4662      R39.7570   
   X80.9043      Y29.9194      R39.7570   
   X82.8234      Y36.8297      R39.7570   
   X83.4701      Y43.9724      R39.7570   
(Pass: 44)
G1   Z-4.400    
G17 G3   X82.8234      Y51.1150      R39.7570   
   X80.9043      Y58.0253      R39.7570   
   X77.7752      Y64.4786      R39.7570   
   X73.5380      Y70.2649      R39.7570   
   X72.3155      Y71.4224      R39.7570   
G1   X4.937     
   Y28.972    
   Y16.522    
   X72.316    
G17 G3   X73.5379      Y17.6799      R39.7570   
   X77.7752      Y23.4662      R39.7570   
   X80.9043      Y29.9194      R39.7570   
   X82.8234      Y36.8297      R39.7570   
   X83.4701      Y43.9724      R39.7570   
(Pass: 45)
G1   Z-4.500    
G17 G3   X82.8234      Y51.1150      R39.7570   
   X80.9043      Y58.0253      R39.7570   
   X77.7752      Y64.4786      R39.7570   
   X73.5380      Y70.2649      R39.7570   
   X72.3155      Y71.4224      R39.7570   
G1   X4.937     
   Y28.972    
   Y16.522    
   X72.316    
G17 G3   X73.5379      Y17.6799      R39.7570   
   X77.7752      Y23.4662      R39.7570   
   X80.9043      Y29.9194      R39.7570   
   X82.8234      Y36.8297      R39.7570   
   X83.4701      Y43.9724      R39.7570   
(Pass: 46)
G1   Z-4.600    
G17 G3   X82.8234      Y51.1150      R39.7570   
   X80.9043      Y58.0253      R39.7570   
   X77.7752      Y64.4786      R39.7570   
   X73.5380      Y70.2649      R39.7570   
   X72.3155      Y71.4224      R39.7570   
G1   X4.937     
   Y28.972    
   Y16.522    
   X72.316    
G17 G3   X73.5379      Y17.6799      R39.7570   
   X77.7752      Y23.4662      R39.7570   
   X80.9043      Y29.9194      R39.7570   
   X82.8234      Y36.8297      R39.7570   
   X83.4701      Y43.9724      R39.7570   
(Pass: 47)
G1   Z-4.700    
G17 G3   X82.8234      Y51.1150      R39.7570   
   X80.9043      Y58.0253      R39.7570   
   X77.7752      Y64.4786      R39.7570   
   X73.5380      Y70.2649      R39.7570   
   X72.3155      Y71.4224      R39.7570   
G1   X4.937     
   Y28.972    
   Y16.522    
   X72.316    
G17 G3   X73.5379      Y17.6799      R39.7570   
   X77.7752      Y23.4662      R39.7570   
   X80.9043      Y29.9194      R39.7570   
   X82.8234      Y36.8297      R39.7570   
   X83.4701      Y43.9724      R39.7570   
(Pass: 48)
G1   Z-4.800    
G17 G3   X82.8234      Y51.1150      R39.7570   
   X80.9043      Y58.0253      R39.7570   
   X77.7752      Y64.4786      R39.7570   
   X73.5380      Y70.2649      R39.7570   
   X72.3155      Y71.4224      R39.7570   
G1   X4.937     
   Y28.972    
   Y16.522    
   X72.316    
G17 G3   X73.5379      Y17.6799      R39.7570   
   X77.7752      Y23.4662      R39.7570   
   X80.9043      Y29.9194      R39.7570   
   X82.8234      Y36.8297      R39.7570   
   X83.4701      Y43.9724      R39.7570   
(Pass: 49)
G1   Z-4.900    
G17 G3   X82.8234      Y51.1150      R39.7570   
   X80.9043      Y58.0253      R39.7570   
   X77.7752      Y64.4786      R39.7570   
   X73.5380      Y70.2649      R39.7570   
   X72.3155      Y71.4224      R39.7570   
G1   X4.937     
   Y28.972    
   Y16.522    
   X72.316    
G17 G3   X73.5379      Y17.6799      R39.7570   
   X77.7752      Y23.4662      R39.7570   
   X80.9043      Y29.9194      R39.7570   
   X82.8234      Y36.8297      R39.7570   
   X83.4701      Y43.9724      R39.7570   
(Pass: 50)
G1   Z-5.000    
G17 G3   X82.8234      Y51.1150      R39.7570   
   X80.9043      Y58.0253      R39.7570   
   X77.7752      Y64.4786      R39.7570   
   X73.5380      Y70.2649      R39.7570   
   X72.3155      Y71.4224      R39.7570   
G1   X4.937     
   Y28.972    
   Y16.522    
   X72.316    
G17 G3   X73.5379      Y17.6799      R39.7570   
   X77.7752      Y23.4662      R39.7570   
   X80.9043      Y29.9194      R39.7570   
   X82.8234      Y36.8297      R39.7570   
   X83.4701      Y43.9724      R39.7570   
(Pass: 51)
G1   Z-5.100    
G17 G3   X82.8234      Y51.1150      R39.7570   
   X80.9043      Y58.0253      R39.7570   
   X77.7752      Y64.4786      R39.7570   
   X73.5380      Y70.2649      R39.7570   
   X72.3155      Y71.4224      R39.7570   
G1   X4.937     
   Y28.972    
   Y16.522    
   X72.316    
G17 G3   X73.5379      Y17.6799      R39.7570   
   X77.7752      Y23.4662      R39.7570   
   X80.9043      Y29.9194      R39.7570   
   X82.8234      Y36.8297      R39.7570   
   X83.4701      Y43.9724      R39.7570   
(Pass: 52)
G1   Z-5.200    
G17 G3   X82.8234      Y51.1150      R39.7570   
   X80.9043      Y58.0253      R39.7570   
   X77.7752      Y64.4786      R39.7570   
   X73.5380      Y70.2649      R39.7570   
   X72.3155      Y71.4224      R39.7570   
G1   X4.937     
   Y28.972    
   Y16.522    
   X72.316    
G17 G3   X73.5379      Y17.6799      R39.7570   
   X77.7752      Y23.4662      R39.7570   
   X80.9043      Y29.9194      R39.7570   
   X82.8234      Y36.8297      R39.7570   
   X83.4701      Y43.9724      R39.7570   
(Pass: 53)
G1   Z-5.300    
G17 G3   X82.8234      Y51.1150      R39.7570   
   X80.9043      Y58.0253      R39.7570   
   X77.7752      Y64.4786      R39.7570   
   X73.5380      Y70.2649      R39.7570   
   X72.3155      Y71.4224      R39.7570   
G1   X4.937     
   Y28.972    
   Y16.522    
   X72.316    
G17 G3   X73.5379      Y17.6799      R39.7570   
   X77.7752      Y23.4662      R39.7570   
   X80.9043      Y29.9194      R39.7570   
   X82.8234      Y36.8297      R39.7570   
   X83.4701      Y43.9724      R39.7570   
(Pass: 54)
G1   Z-5.400    
G17 G3   X82.8234      Y51.1150      R39.7570   
   X80.9043      Y58.0253      R39.7570   
   X77.7752      Y64.4786      R39.7570   
   X73.5380      Y70.2649      R39.7570   
   X72.3155      Y71.4224      R39.7570   
G1   X4.937     
   Y28.972    
   Y16.522    
   X72.316    
G17 G3   X73.5379      Y17.6799      R39.7570   
   X77.7752      Y23.4662      R39.7570   
   X80.9043      Y29.9194      R39.7570   
   X82.8234      Y36.8297      R39.7570   
   X83.4701      Y43.9724      R39.7570   
(Pass: 55)
G1   Z-5.500    
G17 G3   X82.8234      Y51.1150      R39.7570   
   X80.9043      Y58.0253      R39.7570   
   X77.7752      Y64.4786      R39.7570   
   X73.5380      Y70.2649      R39.7570   
   X72.3155      Y71.4224      R39.7570   
G1   X4.937     
   Y28.972    
   Y16.522    
   X72.316    
G17 G3   X73.5379      Y17.6799      R39.7570   
   X77.7752      Y23.4662      R39.7570   
   X80.9043      Y29.9194      R39.7570   
   X82.8234      Y36.8297      R39.7570   
   X83.4701      Y43.9724      R39.7570   
(Pass: 56)
G1   Z-5.600    
G17 G3   X82.8234      Y51.1150      R39.7570   
   X80.9043      Y58.0253      R39.7570   
   X77.7752      Y64.4786      R39.7570   
   X73.5380      Y70.2649      R39.7570   
   X72.3155      Y71.4224      R39.7570   
G1   X4.937     
   Y28.972    
   Y16.522    
   X72.316    
G17 G3   X73.5379      Y17.6799      R39.7570   
   X77.7752      Y23.4662      R39.7570   
   X80.9043      Y29.9194      R39.7570   
   X82.8234      Y36.8297      R39.7570   
   X83.4701      Y43.9724      R39.7570   
(Pass: 57)
G1   Z-5.700    
G17 G3   X82.8234      Y51.1150      R39.7570   
   X80.9043      Y58.0253      R39.7570   
   X77.7752      Y64.4786      R39.7570   
   X73.5380      Y70.2649      R39.7570   
   X72.3155      Y71.4224      R39.7570   
G1   X4.937     
   Y28.972    
   Y16.522    
   X72.316    
G17 G3   X73.5379      Y17.6799      R39.7570   
   X77.7752      Y23.4662      R39.7570   
   X80.9043      Y29.9194      R39.7570   
   X82.8234      Y36.8297      R39.7570   
   X83.4701      Y43.9724      R39.7570   
(Pass: 58)
G1   Z-5.800    
G17 G3   X82.8234      Y51.1150      R39.7570   
   X80.9043      Y58.0253      R39.7570   
   X77.7752      Y64.4786      R39.7570   
   X73.5380      Y70.2649      R39.7570   
   X72.3155      Y71.4224      R39.7570   
G1   X4.937     
   Y28.972    
   Y16.522    
   X72.316    
G17 G3   X73.5379      Y17.6799      R39.7570   
   X77.7752      Y23.4662      R39.7570   
   X80.9043      Y29.9194      R39.7570   
   X82.8234      Y36.8297      R39.7570   
   X83.4701      Y43.9724      R39.7570   
(Pass: 59)
G1   Z-5.900    
G17 G3   X82.8234      Y51.1150      R39.7570   
   X80.9043      Y58.0253      R39.7570   
   X77.7752      Y64.4786      R39.7570   
   X73.5380      Y70.2649      R39.7570   
   X72.3155      Y71.4224      R39.7570   
G1   X4.937     
   Y28.972    
   Y16.522    
   X72.316    
G17 G3   X73.5379      Y17.6799      R39.7570   
   X77.7752      Y23.4662      R39.7570   
   X80.9043      Y29.9194      R39.7570   
   X82.8234      Y36.8297      R39.7570   
   X83.4701      Y43.9724      R39.7570   
(Pass: 60)
G1   Z-6.000    
G17 G3   X82.8234      Y51.1150      R39.7570   
   X80.9043      Y58.0253      R39.7570   
   X77.7752      Y64.4786      R39.7570   
   X73.5380      Y70.2649      R39.7570   
   X72.3155      Y71.4224      R39.7570   
G1   X4.937     
   Y28.972    
   Y16.522    
   X72.316    
G17 G3   X73.5379      Y17.6799      R39.7570   
   X77.7752      Y23.4662      R39.7570   
   X80.9043      Y29.9194      R39.7570   
   X82.8234      Y36.8297      R39.7570   
   X83.4701      Y43.9724      R39.7570   
(Pass: 61)
G1   Z-6.100    
G17 G3   X82.8234      Y51.1150      R39.7570   
   X80.9043      Y58.0253      R39.7570   
   X77.7752      Y64.4786      R39.7570   
   X73.5380      Y70.2649      R39.7570   
   X72.3155      Y71.4224      R39.7570   
G1   X4.937     
   Y28.972    
   Y16.522    
   X72.316    
G17 G3   X73.5379      Y17.6799      R39.7570   
   X77.7752      Y23.4662      R39.7570   
   X80.9043      Y29.9194      R39.7570   
   X82.8234      Y36.8297      R39.7570   
   X83.4701      Y43.9724      R39.7570   
(Pass: 62)
G1   Z-6.200    
G17 G3   X82.8234      Y51.1150      R39.7570   
   X80.9043      Y58.0253      R39.7570   
   X77.7752      Y64.4786      R39.7570   
   X73.5380      Y70.2649      R39.7570   
   X72.3155      Y71.4224      R39.7570   
G1   X4.937     
   Y28.972    
   Y16.522    
   X72.316    
G17 G3   X73.5379      Y17.6799      R39.7570   
   X77.7752      Y23.4662      R39.7570   
   X80.9043      Y29.9194      R39.7570   
   X82.8234      Y36.8297      R39.7570   
   X83.4701      Y43.9724      R39.7570   
(Pass: 63)
G1   Z-6.300    
G17 G3   X82.8234      Y51.1150      R39.7570   
   X80.9043      Y58.0253      R39.7570   
   X77.7752      Y64.4786      R39.7570   
   X73.5380      Y70.2649      R39.7570   
   X72.3155      Y71.4224      R39.7570   
G1   X4.937     
   Y28.972    
   Y16.522    
   X72.316    
G17 G3   X73.5379      Y17.6799      R39.7570   
   X77.7752      Y23.4662      R39.7570   
   X80.9043      Y29.9194      R39.7570   
   X82.8234      Y36.8297      R39.7570   
   X83.4701      Y43.9724      R39.7570   
(Pass: 64)
G1   Z-6.400    
G17 G3   X82.8234      Y51.1150      R39.7570   
   X80.9043      Y58.0253      R39.7570   
   X77.7752      Y64.4786      R39.7570   
   X73.5380      Y70.2649      R39.7570   
   X72.3155      Y71.4224      R39.7570   
G1   X4.937     
   Y28.972    
   Y16.522    
   X72.316    
G17 G3   X73.5379      Y17.6799      R39.7570   
   X77.7752      Y23.4662      R39.7570   
   X80.9043      Y29.9194      R39.7570   
   X82.8234      Y36.8297      R39.7570   
   X83.4701      Y43.9724      R39.7570   
(BREAK pass 64)
G0   Z5.000     
G0 X0 Y0 (home)
M05
M30
%
