%
(Generated by SketchUcam {1.2b1})
(File: fake laser mount.skp)
(Bit diameter: 5.0mm)
(Feed rate: 300.0mm/min)
(Material Thickness: 3.5mm)
(Material length: 600.0mm X width: 300.0mm)
(Overhead Gantry: true)
(Retract feed rate NOT limited to plunge feed rate)
(Multipass enabled, Depth = 0.1mm)
(Optimization is ON)
(www.PhlatBoyz.com)
G90 G21 G49 
M3 S11000
G0   Z5.000     
(Pass: 1)
   X17.387       Y58.972    
(plungebore    depth=4.200         diam=5.000     )
G00   Z1.667     
G01   Z-0.100     F300 
G00   z1.667     
G01   Z-0.200    
G00   z1.667     
G01   Z-0.300    
G00   z1.667     
G01   Z-0.400    
G00   z1.667     
G01   Z-0.500    
G00   z1.667     
G01   Z-0.600    
G00   z1.667     
G01   Z-0.700    
G00   z1.667     
G01   Z-0.800    
G00   z1.667     
G01   Z-0.900    
G00   z1.667     
G01   Z-1.000    
G00   z1.667     
G01   Z-1.100    
G00   z1.667     
G01   Z-1.200    
G00   z1.667     
G01   Z-1.300    
G00   z1.667     
G01   Z-1.400    
G00   z1.667     
G01   Z-1.500    
G00   z1.667     
G01   Z-1.600    
G00   z1.667     
G01   Z-1.700    
G00   z1.667     
G01   Z-1.800    
G00   z1.667     
G01   Z-1.900    
G00   z1.667     
G01   Z-2.000    
G00   z1.667     
G01   Z-2.100    
G00   z1.667     
G01   Z-2.200    
G00   z1.667     
G01   Z-2.300    
G00   z1.667     
G01   Z-2.400    
G00   z1.667     
G01   Z-2.500    
G00   z1.667     
G01   Z-2.600    
G00   z1.667     
G01   Z-2.700    
G00   z1.667     
G01   Z-2.800    
G00   z1.667     
G01   Z-2.900    
G00   z1.667     
G01   Z-3.000    
G00   z1.667     
G01   Z-3.100    
G00   z1.667     
G01   Z-3.200    
G00   z1.667     
G01   Z-3.300    
G00   z1.667     
G01   Z-3.400    
G00   z1.667     
G01   Z-3.500    
G00   z1.667     
G01   Z-3.600    
G00   z1.667     
G01   Z-3.700    
G00   z1.667     
G01   Z-3.800    
G00   z1.667     
G01   Z-3.900    
G00   z1.667     
G01   Z-4.000    
G00   z1.667     
G01   Z-4.100    
G00   z1.667     
G01   Z-4.200    
G00   z1.667     
G00   Y58.972        Z5.000     
(plungebore end)
(BREAK pass 36)
(Pass: 1)
G0   Y28.972    
(plungebore    depth=4.200         diam=5.000     )
G00   Z1.667     
G01   Z-0.100     F300 
G00   z1.667     
G01   Z-0.200    
G00   z1.667     
G01   Z-0.300    
G00   z1.667     
G01   Z-0.400    
G00   z1.667     
G01   Z-0.500    
G00   z1.667     
G01   Z-0.600    
G00   z1.667     
G01   Z-0.700    
G00   z1.667     
G01   Z-0.800    
G00   z1.667     
G01   Z-0.900    
G00   z1.667     
G01   Z-1.000    
G00   z1.667     
G01   Z-1.100    
G00   z1.667     
G01   Z-1.200    
G00   z1.667     
G01   Z-1.300    
G00   z1.667     
G01   Z-1.400    
G00   z1.667     
G01   Z-1.500    
G00   z1.667     
G01   Z-1.600    
G00   z1.667     
G01   Z-1.700    
G00   z1.667     
G01   Z-1.800    
G00   z1.667     
G01   Z-1.900    
G00   z1.667     
G01   Z-2.000    
G00   z1.667     
G01   Z-2.100    
G00   z1.667     
G01   Z-2.200    
G00   z1.667     
G01   Z-2.300    
G00   z1.667     
G01   Z-2.400    
G00   z1.667     
G01   Z-2.500    
G00   z1.667     
G01   Z-2.600    
G00   z1.667     
G01   Z-2.700    
G00   z1.667     
G01   Z-2.800    
G00   z1.667     
G01   Z-2.900    
G00   z1.667     
G01   Z-3.000    
G00   z1.667     
G01   Z-3.100    
G00   z1.667     
G01   Z-3.200    
G00   z1.667     
G01   Z-3.300    
G00   z1.667     
G01   Z-3.400    
G00   z1.667     
G01   Z-3.500    
G00   z1.667     
G01   Z-3.600    
G00   z1.667     
G01   Z-3.700    
G00   z1.667     
G01   Z-3.800    
G00   z1.667     
G01   Z-3.900    
G00   z1.667     
G01   Z-4.000    
G00   z1.667     
G01   Z-4.100    
G00   z1.667     
G01   Z-4.200    
G00   z1.667     
G00   Y28.972        Z5.000     
(plungebore end)
(BREAK pass 36)
(Group: _diam_10.5mm)
(Pass: 1)
G0   X62.400       Y43.978    
(plungebore    depth=4.200         diam=10.500    )
G00   Z1.667     
G01   Z-0.100     F300 
G00   z1.667     
G01   Z-0.200    
G00   z1.667     
G01   Z-0.300    
G00   z1.667     
G01   Z-0.400    
G00   z1.667     
G01   Z-0.500    
G00   z1.667     
G01   Z-0.600    
G00   z1.667     
G01   Z-0.700    
G00   z1.667     
G01   Z-0.800    
G00   z1.667     
G01   Z-0.900    
G00   z1.667     
G01   Z-1.000    
G00   z1.667     
G01   Z-1.100    
G00   z1.667     
G01   Z-1.200    
G00   z1.667     
G01   Z-1.300    
G00   z1.667     
G01   Z-1.400    
G00   z1.667     
G01   Z-1.500    
G00   z1.667     
G01   Z-1.600    
G00   z1.667     
G01   Z-1.700    
G00   z1.667     
G01   Z-1.800    
G00   z1.667     
G01   Z-1.900    
G00   z1.667     
G01   Z-2.000    
G00   z1.667     
G01   Z-2.100    
G00   z1.667     
G01   Z-2.200    
G00   z1.667     
G01   Z-2.300    
G00   z1.667     
G01   Z-2.400    
G00   z1.667     
G01   Z-2.500    
G00   z1.667     
G01   Z-2.600    
G00   z1.667     
G01   Z-2.700    
G00   z1.667     
G01   Z-2.800    
G00   z1.667     
G01   Z-2.900    
G00   z1.667     
G01   Z-3.000    
G00   z1.667     
G01   Z-3.100    
G00   z1.667     
G01   Z-3.200    
G00   z1.667     
G01   Z-3.300    
G00   z1.667     
G01   Z-3.400    
G00   z1.667     
G01   Z-3.500    
G00   z1.667     
G01   Z-3.600    
G00   z1.667     
G01   Z-3.700    
G00   z1.667     
G01   Z-3.800    
G00   z1.667     
G01   Z-3.900    
G00   z1.667     
G01   Z-4.000    
G00   z1.667     
G01   Z-4.100    
G00   z1.667     
G01   Z-4.200    
G00   z1.667     
G00   Y41.2280   
G01    Z0.0000    
G02     X62.3996       Y41.2280       Z-0.1000    I0    J2.7500    
G02     X62.3996       Y41.2280       Z-0.2000    I0    J2.7500    
G02     X62.3996       Y41.2280       Z-0.3000    I0    J2.7500    
G02     X62.3996       Y41.2280       Z-0.4000    I0    J2.7500    
G02     X62.3996       Y41.2280       Z-0.5000    I0    J2.7500    
G02     X62.3996       Y41.2280       Z-0.6000    I0    J2.7500    
G02     X62.3996       Y41.2280       Z-0.7000    I0    J2.7500    
G02     X62.3996       Y41.2280       Z-0.8000    I0    J2.7500    
G02     X62.3996       Y41.2280       Z-0.9000    I0    J2.7500    
G02     X62.3996       Y41.2280       Z-1.0000    I0    J2.7500    
G02     X62.3996       Y41.2280       Z-1.1000    I0    J2.7500    
G02     X62.3996       Y41.2280       Z-1.2000    I0    J2.7500    
G02     X62.3996       Y41.2280       Z-1.3000    I0    J2.7500    
G02     X62.3996       Y41.2280       Z-1.4000    I0    J2.7500    
G02     X62.3996       Y41.2280       Z-1.5000    I0    J2.7500    
G02     X62.3996       Y41.2280       Z-1.6000    I0    J2.7500    
G02     X62.3996       Y41.2280       Z-1.7000    I0    J2.7500    
G02     X62.3996       Y41.2280       Z-1.8000    I0    J2.7500    
G02     X62.3996       Y41.2280       Z-1.9000    I0    J2.7500    
G02     X62.3996       Y41.2280       Z-2.0000    I0    J2.7500    
G02     X62.3996       Y41.2280       Z-2.1000    I0    J2.7500    
G02     X62.3996       Y41.2280       Z-2.2000    I0    J2.7500    
G02     X62.3996       Y41.2280       Z-2.3000    I0    J2.7500    
G02     X62.3996       Y41.2280       Z-2.4000    I0    J2.7500    
G02     X62.3996       Y41.2280       Z-2.5000    I0    J2.7500    
G02     X62.3996       Y41.2280       Z-2.6000    I0    J2.7500    
G02     X62.3996       Y41.2280       Z-2.7000    I0    J2.7500    
G02     X62.3996       Y41.2280       Z-2.8000    I0    J2.7500    
G02     X62.3996       Y41.2280       Z-2.9000    I0    J2.7500    
G02     X62.3996       Y41.2280       Z-3.0000    I0    J2.7500    
G02     X62.3996       Y41.2280       Z-3.1000    I0    J2.7500    
G02     X62.3996       Y41.2280       Z-3.2000    I0    J2.7500    
G02     X62.3996       Y41.2280       Z-3.3000    I0    J2.7500    
G02     X62.3996       Y41.2280       Z-3.4000    I0    J2.7500    
G02     X62.3996       Y41.2280       Z-3.5000    I0    J2.7500    
G02     X62.3996       Y41.2280       Z-4.2000    I0    J2.7500    
G02     X62.3996       Y41.2280    I0.0    J2.7500    
G00   Y43.978        Z5.000     
(plungebore end)
(BREAK pass 36)
(Group complete: _diam_10.5mm)
(Pass: 1)
G0   X83.520    
G1   Z-0.100     F300 
G17 G3   X82.8728      Y51.1240      R39.8070   
   X80.9513      Y58.0431      R39.8070   
   X77.8182      Y64.5045      R39.8070   
   X73.5756      Y70.2981      R39.8070   
   X72.3354      Y71.4724      R39.8070   
G1   X45.579    
   X37.579    
   X4.887     
   Y48.408    
   Y40.408    
   Y28.972    
   Y16.472    
   X38.564    
   X46.564    
   X72.336    
G17 G3   X73.5756      Y17.6467      R39.8070   
   X77.8182      Y23.4403      R39.8070   
   X80.9513      Y29.9017      R39.8070   
   X82.8728      Y36.8207      R39.8070   
   X83.5203      Y43.9724      R39.8070   
(Pass: 2)
G1   Z-0.200    
G17 G3   X82.8728      Y51.1240      R39.8070   
   X80.9513      Y58.0431      R39.8070   
   X77.8182      Y64.5045      R39.8070   
   X73.5756      Y70.2981      R39.8070   
   X72.3354      Y71.4724      R39.8070   
G1   X45.579    
   X37.579    
   X4.887     
   Y48.408    
   Y40.408    
   Y28.972    
   Y16.472    
   X38.564    
   X46.564    
   X72.336    
G17 G3   X73.5756      Y17.6467      R39.8070   
   X77.8182      Y23.4403      R39.8070   
   X80.9513      Y29.9017      R39.8070   
   X82.8728      Y36.8207      R39.8070   
   X83.5203      Y43.9724      R39.8070   
(Pass: 3)
G1   Z-0.300    
G17 G3   X82.8728      Y51.1240      R39.8070   
   X80.9513      Y58.0431      R39.8070   
   X77.8182      Y64.5045      R39.8070   
   X73.5756      Y70.2981      R39.8070   
   X72.3354      Y71.4724      R39.8070   
G1   X45.579    
   X37.579    
   X4.887     
   Y48.408    
   Y40.408    
   Y28.972    
   Y16.472    
   X38.564    
   X46.564    
   X72.336    
G17 G3   X73.5756      Y17.6467      R39.8070   
   X77.8182      Y23.4403      R39.8070   
   X80.9513      Y29.9017      R39.8070   
   X82.8728      Y36.8207      R39.8070   
   X83.5203      Y43.9724      R39.8070   
(Pass: 4)
G1   Z-0.400    
G17 G3   X82.8728      Y51.1240      R39.8070   
   X80.9513      Y58.0431      R39.8070   
   X77.8182      Y64.5045      R39.8070   
   X73.5756      Y70.2981      R39.8070   
   X72.3354      Y71.4724      R39.8070   
G1   X45.579    
   X37.579    
   X4.887     
   Y48.408    
   Y40.408    
   Y28.972    
   Y16.472    
   X38.564    
   X46.564    
   X72.336    
G17 G3   X73.5756      Y17.6467      R39.8070   
   X77.8182      Y23.4403      R39.8070   
   X80.9513      Y29.9017      R39.8070   
   X82.8728      Y36.8207      R39.8070   
   X83.5203      Y43.9724      R39.8070   
(Pass: 5)
G1   Z-0.500    
G17 G3   X82.8728      Y51.1240      R39.8070   
   X80.9513      Y58.0431      R39.8070   
   X77.8182      Y64.5045      R39.8070   
   X73.5756      Y70.2981      R39.8070   
   X72.3354      Y71.4724      R39.8070   
G1   X45.579    
   X37.579    
   X4.887     
   Y48.408    
   Y40.408    
   Y28.972    
   Y16.472    
   X38.564    
   X46.564    
   X72.336    
G17 G3   X73.5756      Y17.6467      R39.8070   
   X77.8182      Y23.4403      R39.8070   
   X80.9513      Y29.9017      R39.8070   
   X82.8728      Y36.8207      R39.8070   
   X83.5203      Y43.9724      R39.8070   
(Pass: 6)
G1   Z-0.600    
G17 G3   X82.8728      Y51.1240      R39.8070   
   X80.9513      Y58.0431      R39.8070   
   X77.8182      Y64.5045      R39.8070   
   X73.5756      Y70.2981      R39.8070   
   X72.3354      Y71.4724      R39.8070   
G1   X45.579    
   X37.579    
   X4.887     
   Y48.408    
   Y40.408    
   Y28.972    
   Y16.472    
   X38.564    
   X46.564    
   X72.336    
G17 G3   X73.5756      Y17.6467      R39.8070   
   X77.8182      Y23.4403      R39.8070   
   X80.9513      Y29.9017      R39.8070   
   X82.8728      Y36.8207      R39.8070   
   X83.5203      Y43.9724      R39.8070   
(Pass: 7)
G1   Z-0.700    
G17 G3   X82.8728      Y51.1240      R39.8070   
   X80.9513      Y58.0431      R39.8070   
   X77.8182      Y64.5045      R39.8070   
   X73.5756      Y70.2981      R39.8070   
   X72.3354      Y71.4724      R39.8070   
G1   X45.579    
   X37.579    
   X4.887     
   Y48.408    
   Y40.408    
   Y28.972    
   Y16.472    
   X38.564    
   X46.564    
   X72.336    
G17 G3   X73.5756      Y17.6467      R39.8070   
   X77.8182      Y23.4403      R39.8070   
   X80.9513      Y29.9017      R39.8070   
   X82.8728      Y36.8207      R39.8070   
   X83.5203      Y43.9724      R39.8070   
(Pass: 8)
G1   Z-0.800    
G17 G3   X82.8728      Y51.1240      R39.8070   
   X80.9513      Y58.0431      R39.8070   
   X77.8182      Y64.5045      R39.8070   
   X73.5756      Y70.2981      R39.8070   
   X72.3354      Y71.4724      R39.8070   
G1   X45.579    
   X37.579    
   X4.887     
   Y48.408    
   Y40.408    
   Y28.972    
   Y16.472    
   X38.564    
   X46.564    
   X72.336    
G17 G3   X73.5756      Y17.6467      R39.8070   
   X77.8182      Y23.4403      R39.8070   
   X80.9513      Y29.9017      R39.8070   
   X82.8728      Y36.8207      R39.8070   
   X83.5203      Y43.9724      R39.8070   
(Pass: 9)
G1   Z-0.900    
G17 G3   X82.8728      Y51.1240      R39.8070   
   X80.9513      Y58.0431      R39.8070   
   X77.8182      Y64.5045      R39.8070   
   X73.5756      Y70.2981      R39.8070   
   X72.3354      Y71.4724      R39.8070   
G1   X45.579    
   X37.579    
   X4.887     
   Y48.408    
   Y40.408    
   Y28.972    
   Y16.472    
   X38.564    
   X46.564    
   X72.336    
G17 G3   X73.5756      Y17.6467      R39.8070   
   X77.8182      Y23.4403      R39.8070   
   X80.9513      Y29.9017      R39.8070   
   X82.8728      Y36.8207      R39.8070   
   X83.5203      Y43.9724      R39.8070   
(Pass: 10)
G1   Z-1.000    
G17 G3   X82.8728      Y51.1240      R39.8070   
   X80.9513      Y58.0431      R39.8070   
   X77.8182      Y64.5045      R39.8070   
   X73.5756      Y70.2981      R39.8070   
   X72.3354      Y71.4724      R39.8070   
G1   X45.579    
   X37.579    
   X4.887     
   Y48.408    
   Y40.408    
   Y28.972    
   Y16.472    
   X38.564    
   X46.564    
   X72.336    
G17 G3   X73.5756      Y17.6467      R39.8070   
   X77.8182      Y23.4403      R39.8070   
   X80.9513      Y29.9017      R39.8070   
   X82.8728      Y36.8207      R39.8070   
   X83.5203      Y43.9724      R39.8070   
(Pass: 11)
G1   Z-1.100    
G17 G3   X82.8728      Y51.1240      R39.8070   
   X80.9513      Y58.0431      R39.8070   
   X77.8182      Y64.5045      R39.8070   
   X73.5756      Y70.2981      R39.8070   
   X72.3354      Y71.4724      R39.8070   
G1   X45.579    
   X37.579    
   X4.887     
   Y48.408    
   Y40.408    
   Y28.972    
   Y16.472    
   X38.564    
   X46.564    
   X72.336    
G17 G3   X73.5756      Y17.6467      R39.8070   
   X77.8182      Y23.4403      R39.8070   
   X80.9513      Y29.9017      R39.8070   
   X82.8728      Y36.8207      R39.8070   
   X83.5203      Y43.9724      R39.8070   
(Pass: 12)
G1   Z-1.200    
G17 G3   X82.8728      Y51.1240      R39.8070   
   X80.9513      Y58.0431      R39.8070   
   X77.8182      Y64.5045      R39.8070   
   X73.5756      Y70.2981      R39.8070   
   X72.3354      Y71.4724      R39.8070   
G1   X45.579    
   X37.579    
   X4.887     
   Y48.408    
   Y40.408    
   Y28.972    
   Y16.472    
   X38.564    
   X46.564    
   X72.336    
G17 G3   X73.5756      Y17.6467      R39.8070   
   X77.8182      Y23.4403      R39.8070   
   X80.9513      Y29.9017      R39.8070   
   X82.8728      Y36.8207      R39.8070   
   X83.5203      Y43.9724      R39.8070   
(Pass: 13)
G1   Z-1.300    
G17 G3   X82.8728      Y51.1240      R39.8070   
   X80.9513      Y58.0431      R39.8070   
   X77.8182      Y64.5045      R39.8070   
   X73.5756      Y70.2981      R39.8070   
   X72.3354      Y71.4724      R39.8070   
G1   X45.579    
   X37.579    
   X4.887     
   Y48.408    
   Y40.408    
   Y28.972    
   Y16.472    
   X38.564    
   X46.564    
   X72.336    
G17 G3   X73.5756      Y17.6467      R39.8070   
   X77.8182      Y23.4403      R39.8070   
   X80.9513      Y29.9017      R39.8070   
   X82.8728      Y36.8207      R39.8070   
   X83.5203      Y43.9724      R39.8070   
(Pass: 14)
G1   Z-1.400    
G17 G3   X82.8728      Y51.1240      R39.8070   
   X80.9513      Y58.0431      R39.8070   
   X77.8182      Y64.5045      R39.8070   
   X73.5756      Y70.2981      R39.8070   
   X72.3354      Y71.4724      R39.8070   
G1   X45.579    
   X37.579    
   X4.887     
   Y48.408    
   Y40.408    
   Y28.972    
   Y16.472    
   X38.564    
   X46.564    
   X72.336    
G17 G3   X73.5756      Y17.6467      R39.8070   
   X77.8182      Y23.4403      R39.8070   
   X80.9513      Y29.9017      R39.8070   
   X82.8728      Y36.8207      R39.8070   
   X83.5203      Y43.9724      R39.8070   
(Pass: 15)
G1   Z-1.500    
G17 G3   X82.8728      Y51.1240      R39.8070   
   X80.9513      Y58.0431      R39.8070   
   X77.8182      Y64.5045      R39.8070   
   X73.5756      Y70.2981      R39.8070   
   X72.3354      Y71.4724      R39.8070   
G1   X45.579    
   X37.579    
   X4.887     
   Y48.408    
   Y40.408    
   Y28.972    
   Y16.472    
   X38.564    
   X46.564    
   X72.336    
G17 G3   X73.5756      Y17.6467      R39.8070   
   X77.8182      Y23.4403      R39.8070   
   X80.9513      Y29.9017      R39.8070   
   X82.8728      Y36.8207      R39.8070   
   X83.5203      Y43.9724      R39.8070   
(Pass: 16)
G1   Z-1.600    
G17 G3   X82.8728      Y51.1240      R39.8070   
   X80.9513      Y58.0431      R39.8070   
   X77.8182      Y64.5045      R39.8070   
   X73.5756      Y70.2981      R39.8070   
   X72.3354      Y71.4724      R39.8070   
G1   X45.579    
   X37.579    
   X4.887     
   Y48.408    
   Y40.408    
   Y28.972    
   Y16.472    
   X38.564    
   X46.564    
   X72.336    
G17 G3   X73.5756      Y17.6467      R39.8070   
   X77.8182      Y23.4403      R39.8070   
   X80.9513      Y29.9017      R39.8070   
   X82.8728      Y36.8207      R39.8070   
   X83.5203      Y43.9724      R39.8070   
(Pass: 17)
G1   Z-1.700    
G17 G3   X82.8728      Y51.1240      R39.8070   
   X80.9513      Y58.0431      R39.8070   
   X77.8182      Y64.5045      R39.8070   
   X73.5756      Y70.2981      R39.8070   
   X72.3354      Y71.4724      R39.8070   
G1   X45.579    
   X37.579    
   X4.887     
   Y48.408    
   Y40.408    
   Y28.972    
   Y16.472    
   X38.564    
   X46.564    
   X72.336    
G17 G3   X73.5756      Y17.6467      R39.8070   
   X77.8182      Y23.4403      R39.8070   
   X80.9513      Y29.9017      R39.8070   
   X82.8728      Y36.8207      R39.8070   
   X83.5203      Y43.9724      R39.8070   
(Pass: 18)
G1   Z-1.800    
G17 G3   X82.8728      Y51.1240      R39.8070   
   X80.9513      Y58.0431      R39.8070   
   X77.8182      Y64.5045      R39.8070   
   X73.5756      Y70.2981      R39.8070   
   X72.3354      Y71.4724      R39.8070   
G1   X45.579    
   Z-1.750    
   X37.579    
   Z-1.800    
   X4.887     
   Y48.408    
   Z-1.750    
   Y40.408    
   Z-1.800    
   Y28.972    
   Y16.472    
   X38.564    
   Z-1.750    
   X46.564    
   Z-1.800    
   X72.336    
G17 G3   X73.5756      Y17.6467      R39.8070   
   X77.8182      Y23.4403      R39.8070   
   X80.9513      Y29.9017      R39.8070   
   X82.8728      Y36.8207      R39.8070   
   X83.5203      Y43.9724      R39.8070   
(Pass: 19)
G1   Z-1.900    
G17 G3   X82.8728      Y51.1240      R39.8070   
   X80.9513      Y58.0431      R39.8070   
   X77.8182      Y64.5045      R39.8070   
   X73.5756      Y70.2981      R39.8070   
   X72.3354      Y71.4724      R39.8070   
G1   X45.579    
   Z-1.750    
   X37.579    
   Z-1.900    
   X4.887     
   Y48.408    
   Z-1.750    
   Y40.408    
   Z-1.900    
   Y28.972    
   Y16.472    
   X38.564    
   Z-1.750    
   X46.564    
   Z-1.900    
   X72.336    
G17 G3   X73.5756      Y17.6467      R39.8070   
   X77.8182      Y23.4403      R39.8070   
   X80.9513      Y29.9017      R39.8070   
   X82.8728      Y36.8207      R39.8070   
   X83.5203      Y43.9724      R39.8070   
(Pass: 20)
G1   Z-2.000    
G17 G3   X82.8728      Y51.1240      R39.8070   
   X80.9513      Y58.0431      R39.8070   
   X77.8182      Y64.5045      R39.8070   
   X73.5756      Y70.2981      R39.8070   
   X72.3354      Y71.4724      R39.8070   
G1   X45.579    
   Z-1.750    
   X37.579    
   Z-2.000    
   X4.887     
   Y48.408    
   Z-1.750    
   Y40.408    
   Z-2.000    
   Y28.972    
   Y16.472    
   X38.564    
   Z-1.750    
   X46.564    
   Z-2.000    
   X72.336    
G17 G3   X73.5756      Y17.6467      R39.8070   
   X77.8182      Y23.4403      R39.8070   
   X80.9513      Y29.9017      R39.8070   
   X82.8728      Y36.8207      R39.8070   
   X83.5203      Y43.9724      R39.8070   
(Pass: 21)
G1   Z-2.100    
G17 G3   X82.8728      Y51.1240      R39.8070   
   X80.9513      Y58.0431      R39.8070   
   X77.8182      Y64.5045      R39.8070   
   X73.5756      Y70.2981      R39.8070   
   X72.3354      Y71.4724      R39.8070   
G1   X45.579    
   Z-1.750    
   X37.579    
   Z-2.100    
   X4.887     
   Y48.408    
   Z-1.750    
   Y40.408    
   Z-2.100    
   Y28.972    
   Y16.472    
   X38.564    
   Z-1.750    
   X46.564    
   Z-2.100    
   X72.336    
G17 G3   X73.5756      Y17.6467      R39.8070   
   X77.8182      Y23.4403      R39.8070   
   X80.9513      Y29.9017      R39.8070   
   X82.8728      Y36.8207      R39.8070   
   X83.5203      Y43.9724      R39.8070   
(Pass: 22)
G1   Z-2.200    
G17 G3   X82.8728      Y51.1240      R39.8070   
   X80.9513      Y58.0431      R39.8070   
   X77.8182      Y64.5045      R39.8070   
   X73.5756      Y70.2981      R39.8070   
   X72.3354      Y71.4724      R39.8070   
G1   X45.579    
   Z-1.750    
   X37.579    
   Z-2.200    
   X4.887     
   Y48.408    
   Z-1.750    
   Y40.408    
   Z-2.200    
   Y28.972    
   Y16.472    
   X38.564    
   Z-1.750    
   X46.564    
   Z-2.200    
   X72.336    
G17 G3   X73.5756      Y17.6467      R39.8070   
   X77.8182      Y23.4403      R39.8070   
   X80.9513      Y29.9017      R39.8070   
   X82.8728      Y36.8207      R39.8070   
   X83.5203      Y43.9724      R39.8070   
(Pass: 23)
G1   Z-2.300    
G17 G3   X82.8728      Y51.1240      R39.8070   
   X80.9513      Y58.0431      R39.8070   
   X77.8182      Y64.5045      R39.8070   
   X73.5756      Y70.2981      R39.8070   
   X72.3354      Y71.4724      R39.8070   
G1   X45.579    
   Z-1.750    
   X37.579    
   Z-2.300    
   X4.887     
   Y48.408    
   Z-1.750    
   Y40.408    
   Z-2.300    
   Y28.972    
   Y16.472    
   X38.564    
   Z-1.750    
   X46.564    
   Z-2.300    
   X72.336    
G17 G3   X73.5756      Y17.6467      R39.8070   
   X77.8182      Y23.4403      R39.8070   
   X80.9513      Y29.9017      R39.8070   
   X82.8728      Y36.8207      R39.8070   
   X83.5203      Y43.9724      R39.8070   
(Pass: 24)
G1   Z-2.400    
G17 G3   X82.8728      Y51.1240      R39.8070   
   X80.9513      Y58.0431      R39.8070   
   X77.8182      Y64.5045      R39.8070   
   X73.5756      Y70.2981      R39.8070   
   X72.3354      Y71.4724      R39.8070   
G1   X45.579    
   Z-1.750    
   X37.579    
   Z-2.400    
   X4.887     
   Y48.408    
   Z-1.750    
   Y40.408    
   Z-2.400    
   Y28.972    
   Y16.472    
   X38.564    
   Z-1.750    
   X46.564    
   Z-2.400    
   X72.336    
G17 G3   X73.5756      Y17.6467      R39.8070   
   X77.8182      Y23.4403      R39.8070   
   X80.9513      Y29.9017      R39.8070   
   X82.8728      Y36.8207      R39.8070   
   X83.5203      Y43.9724      R39.8070   
(Pass: 25)
G1   Z-2.500    
G17 G3   X82.8728      Y51.1240      R39.8070   
   X80.9513      Y58.0431      R39.8070   
   X77.8182      Y64.5045      R39.8070   
   X73.5756      Y70.2981      R39.8070   
   X72.3354      Y71.4724      R39.8070   
G1   X45.579    
   Z-1.750    
   X37.579    
   Z-2.500    
   X4.887     
   Y48.408    
   Z-1.750    
   Y40.408    
   Z-2.500    
   Y28.972    
   Y16.472    
   X38.564    
   Z-1.750    
   X46.564    
   Z-2.500    
   X72.336    
G17 G3   X73.5756      Y17.6467      R39.8070   
   X77.8182      Y23.4403      R39.8070   
   X80.9513      Y29.9017      R39.8070   
   X82.8728      Y36.8207      R39.8070   
   X83.5203      Y43.9724      R39.8070   
(Pass: 26)
G1   Z-2.600    
G17 G3   X82.8728      Y51.1240      R39.8070   
   X80.9513      Y58.0431      R39.8070   
   X77.8182      Y64.5045      R39.8070   
   X73.5756      Y70.2981      R39.8070   
   X72.3354      Y71.4724      R39.8070   
G1   X45.579    
   Z-1.750    
   X37.579    
   Z-2.600    
   X4.887     
   Y48.408    
   Z-1.750    
   Y40.408    
   Z-2.600    
   Y28.972    
   Y16.472    
   X38.564    
   Z-1.750    
   X46.564    
   Z-2.600    
   X72.336    
G17 G3   X73.5756      Y17.6467      R39.8070   
   X77.8182      Y23.4403      R39.8070   
   X80.9513      Y29.9017      R39.8070   
   X82.8728      Y36.8207      R39.8070   
   X83.5203      Y43.9724      R39.8070   
(Pass: 27)
G1   Z-2.700    
G17 G3   X82.8728      Y51.1240      R39.8070   
   X80.9513      Y58.0431      R39.8070   
   X77.8182      Y64.5045      R39.8070   
   X73.5756      Y70.2981      R39.8070   
   X72.3354      Y71.4724      R39.8070   
G1   X45.579    
   Z-1.750    
   X37.579    
   Z-2.700    
   X4.887     
   Y48.408    
   Z-1.750    
   Y40.408    
   Z-2.700    
   Y28.972    
   Y16.472    
   X38.564    
   Z-1.750    
   X46.564    
   Z-2.700    
   X72.336    
G17 G3   X73.5756      Y17.6467      R39.8070   
   X77.8182      Y23.4403      R39.8070   
   X80.9513      Y29.9017      R39.8070   
   X82.8728      Y36.8207      R39.8070   
   X83.5203      Y43.9724      R39.8070   
(Pass: 28)
G1   Z-2.800    
G17 G3   X82.8728      Y51.1240      R39.8070   
   X80.9513      Y58.0431      R39.8070   
   X77.8182      Y64.5045      R39.8070   
   X73.5756      Y70.2981      R39.8070   
   X72.3354      Y71.4724      R39.8070   
G1   X45.579    
   Z-1.750    
   X37.579    
   Z-2.800    
   X4.887     
   Y48.408    
   Z-1.750    
   Y40.408    
   Z-2.800    
   Y28.972    
   Y16.472    
   X38.564    
   Z-1.750    
   X46.564    
   Z-2.800    
   X72.336    
G17 G3   X73.5756      Y17.6467      R39.8070   
   X77.8182      Y23.4403      R39.8070   
   X80.9513      Y29.9017      R39.8070   
   X82.8728      Y36.8207      R39.8070   
   X83.5203      Y43.9724      R39.8070   
(Pass: 29)
G1   Z-2.900    
G17 G3   X82.8728      Y51.1240      R39.8070   
   X80.9513      Y58.0431      R39.8070   
   X77.8182      Y64.5045      R39.8070   
   X73.5756      Y70.2981      R39.8070   
   X72.3354      Y71.4724      R39.8070   
G1   X45.579    
   Z-1.750    
   X37.579    
   Z-2.900    
   X4.887     
   Y48.408    
   Z-1.750    
   Y40.408    
   Z-2.900    
   Y28.972    
   Y16.472    
   X38.564    
   Z-1.750    
   X46.564    
   Z-2.900    
   X72.336    
G17 G3   X73.5756      Y17.6467      R39.8070   
   X77.8182      Y23.4403      R39.8070   
   X80.9513      Y29.9017      R39.8070   
   X82.8728      Y36.8207      R39.8070   
   X83.5203      Y43.9724      R39.8070   
(Pass: 30)
G1   Z-3.000    
G17 G3   X82.8728      Y51.1240      R39.8070   
   X80.9513      Y58.0431      R39.8070   
   X77.8182      Y64.5045      R39.8070   
   X73.5756      Y70.2981      R39.8070   
   X72.3354      Y71.4724      R39.8070   
G1   X45.579    
   Z-1.750    
   X37.579    
   Z-3.000    
   X4.887     
   Y48.408    
   Z-1.750    
   Y40.408    
   Z-3.000    
   Y28.972    
   Y16.472    
   X38.564    
   Z-1.750    
   X46.564    
   Z-3.000    
   X72.336    
G17 G3   X73.5756      Y17.6467      R39.8070   
   X77.8182      Y23.4403      R39.8070   
   X80.9513      Y29.9017      R39.8070   
   X82.8728      Y36.8207      R39.8070   
   X83.5203      Y43.9724      R39.8070   
(Pass: 31)
G1   Z-3.100    
G17 G3   X82.8728      Y51.1240      R39.8070   
   X80.9513      Y58.0431      R39.8070   
   X77.8182      Y64.5045      R39.8070   
   X73.5756      Y70.2981      R39.8070   
   X72.3354      Y71.4724      R39.8070   
G1   X45.579    
   Z-1.750    
   X37.579    
   Z-3.100    
   X4.887     
   Y48.408    
   Z-1.750    
   Y40.408    
   Z-3.100    
   Y28.972    
   Y16.472    
   X38.564    
   Z-1.750    
   X46.564    
   Z-3.100    
   X72.336    
G17 G3   X73.5756      Y17.6467      R39.8070   
   X77.8182      Y23.4403      R39.8070   
   X80.9513      Y29.9017      R39.8070   
   X82.8728      Y36.8207      R39.8070   
   X83.5203      Y43.9724      R39.8070   
(Pass: 32)
G1   Z-3.200    
G17 G3   X82.8728      Y51.1240      R39.8070   
   X80.9513      Y58.0431      R39.8070   
   X77.8182      Y64.5045      R39.8070   
   X73.5756      Y70.2981      R39.8070   
   X72.3354      Y71.4724      R39.8070   
G1   X45.579    
   Z-1.750    
   X37.579    
   Z-3.200    
   X4.887     
   Y48.408    
   Z-1.750    
   Y40.408    
   Z-3.200    
   Y28.972    
   Y16.472    
   X38.564    
   Z-1.750    
   X46.564    
   Z-3.200    
   X72.336    
G17 G3   X73.5756      Y17.6467      R39.8070   
   X77.8182      Y23.4403      R39.8070   
   X80.9513      Y29.9017      R39.8070   
   X82.8728      Y36.8207      R39.8070   
   X83.5203      Y43.9724      R39.8070   
(Pass: 33)
G1   Z-3.300    
G17 G3   X82.8728      Y51.1240      R39.8070   
   X80.9513      Y58.0431      R39.8070   
   X77.8182      Y64.5045      R39.8070   
   X73.5756      Y70.2981      R39.8070   
   X72.3354      Y71.4724      R39.8070   
G1   X45.579    
   Z-1.750    
   X37.579    
   Z-3.300    
   X4.887     
   Y48.408    
   Z-1.750    
   Y40.408    
   Z-3.300    
   Y28.972    
   Y16.472    
   X38.564    
   Z-1.750    
   X46.564    
   Z-3.300    
   X72.336    
G17 G3   X73.5756      Y17.6467      R39.8070   
   X77.8182      Y23.4403      R39.8070   
   X80.9513      Y29.9017      R39.8070   
   X82.8728      Y36.8207      R39.8070   
   X83.5203      Y43.9724      R39.8070   
(Pass: 34)
G1   Z-3.400    
G17 G3   X82.8728      Y51.1240      R39.8070   
   X80.9513      Y58.0431      R39.8070   
   X77.8182      Y64.5045      R39.8070   
   X73.5756      Y70.2981      R39.8070   
   X72.3354      Y71.4724      R39.8070   
G1   X45.579    
   Z-1.750    
   X37.579    
   Z-3.400    
   X4.887     
   Y48.408    
   Z-1.750    
   Y40.408    
   Z-3.400    
   Y28.972    
   Y16.472    
   X38.564    
   Z-1.750    
   X46.564    
   Z-3.400    
   X72.336    
G17 G3   X73.5756      Y17.6467      R39.8070   
   X77.8182      Y23.4403      R39.8070   
   X80.9513      Y29.9017      R39.8070   
   X82.8728      Y36.8207      R39.8070   
   X83.5203      Y43.9724      R39.8070   
(Pass: 35)
G1   Z-3.500    
G17 G3   X82.8728      Y51.1240      R39.8070   
   X80.9513      Y58.0431      R39.8070   
   X77.8182      Y64.5045      R39.8070   
   X73.5756      Y70.2981      R39.8070   
   X72.3354      Y71.4724      R39.8070   
G1   X45.579    
   Z-1.750    
   X37.579    
   Z-3.500    
   X4.887     
   Y48.408    
   Z-1.750    
   Y40.408    
   Z-3.500    
   Y28.972    
   Y16.472    
   X38.564    
   Z-1.750    
   X46.564    
   Z-3.500    
   X72.336    
G17 G3   X73.5756      Y17.6467      R39.8070   
   X77.8182      Y23.4403      R39.8070   
   X80.9513      Y29.9017      R39.8070   
   X82.8728      Y36.8207      R39.8070   
   X83.5203      Y43.9724      R39.8070   
(Pass: 36)
G1   Z-3.600    
G17 G3   X82.8728      Y51.1240      R39.8070   
   X80.9513      Y58.0431      R39.8070   
   X77.8182      Y64.5045      R39.8070   
   X73.5756      Y70.2981      R39.8070   
   X72.3354      Y71.4724      R39.8070   
G1   X45.579    
   Z-1.750    
   X37.579    
   Z-3.600    
   X4.887     
   Y48.408    
   Z-1.750    
   Y40.408    
   Z-3.600    
   Y28.972    
   Y16.472    
   X38.564    
   Z-1.750    
   X46.564    
   Z-3.600    
   X72.336    
G17 G3   X73.5756      Y17.6467      R39.8070   
   X77.8182      Y23.4403      R39.8070   
   X80.9513      Y29.9017      R39.8070   
   X82.8728      Y36.8207      R39.8070   
   X83.5203      Y43.9724      R39.8070   
(BREAK pass 36)
G0   Z5.000     
G0 X0 Y0 (home)
M05
M30
%
