%
(Generated by SketchUcam {1.2b1})
(File: fuck yout.skp)
(Bit diameter: 3.0mm)
(Feed rate: 400.0mm/min)
(Material Thickness: 3.5mm)
(Material length: 600.0mm X width: 300.0mm)
(Overhead Gantry: true)
(Retract feed rate NOT limited to plunge feed rate)
(Multipass enabled, Depth = 0.1mm)
(Optimization is ON)
(www.PhlatBoyz.com)
G90 G21 G49 
M3 S11000
(Group: _diam_6.0mm)
G0   Z6.000     
(Pass: 1)
   X27.360       Y36.576    
(plungebore    depth=4.900         diam=6.000     )
G00   Z2.000     
G01   Z-0.100     F400 
G00   z2.000     
G01   Z-0.200    
G00   z2.000     
G01   Z-0.300    
G00   z2.000     
G01   Z-0.400    
G00   z2.000     
G01   Z-0.500    
G00   z2.000     
G01   Z-0.600    
G00   z2.000     
G01   Z-0.700    
G00   z2.000     
G01   Z-0.800    
G00   z2.000     
G01   Z-0.900    
G00   z2.000     
G01   Z-1.000    
G00   z2.000     
G01   Z-1.100    
G00   z2.000     
G01   Z-1.200    
G00   z2.000     
G01   Z-1.300    
G00   z2.000     
G01   Z-1.400    
G00   z2.000     
G01   Z-1.500    
G00   z2.000     
G01   Z-1.600    
G00   z2.000     
G01   Z-1.700    
G00   z2.000     
G01   Z-1.800    
G00   z2.000     
G01   Z-1.900    
G00   z2.000     
G01   Z-2.000    
G00   z2.000     
G01   Z-2.100    
G00   z2.000     
G01   Z-2.200    
G00   z2.000     
G01   Z-2.300    
G00   z2.000     
G01   Z-2.400    
G00   z2.000     
G01   Z-2.500    
G00   z2.000     
G01   Z-2.600    
G00   z2.000     
G01   Z-2.700    
G00   z2.000     
G01   Z-2.800    
G00   z2.000     
G01   Z-2.900    
G00   z2.000     
G01   Z-3.000    
G00   z2.000     
G01   Z-3.100    
G00   z2.000     
G01   Z-3.200    
G00   z2.000     
G01   Z-3.300    
G00   z2.000     
G01   Z-3.400    
G00   z2.000     
G01   Z-3.500    
G00   z2.000     
G01   Z-3.600    
G00   z2.000     
G01   Z-3.700    
G00   z2.000     
G01   Z-3.800    
G00   z2.000     
G01   Z-3.900    
G00   z2.000     
G01   Z-4.000    
G00   z2.000     
G01   Z-4.100    
G00   z2.000     
G01   Z-4.200    
G00   z2.000     
G01   Z-4.300    
G00   z2.000     
G01   Z-4.400    
G00   z2.000     
G01   Z-4.500    
G00   z2.000     
G01   Z-4.600    
G00   z2.000     
G01   Z-4.700    
G00   z2.000     
G01   Z-4.800    
G00   z2.000     
G01   Z-4.900    
G00   z2.000     
G00   Y35.0756   
G01    Z0.0000    
G02     X27.3596       Y35.0756       Z-0.1000    I0    J1.5000    
G02     X27.3596       Y35.0756       Z-0.2000    I0    J1.5000    
G02     X27.3596       Y35.0756       Z-0.3000    I0    J1.5000    
G02     X27.3596       Y35.0756       Z-0.4000    I0    J1.5000    
G02     X27.3596       Y35.0756       Z-0.5000    I0    J1.5000    
G02     X27.3596       Y35.0756       Z-0.6000    I0    J1.5000    
G02     X27.3596       Y35.0756       Z-0.7000    I0    J1.5000    
G02     X27.3596       Y35.0756       Z-0.8000    I0    J1.5000    
G02     X27.3596       Y35.0756       Z-0.9000    I0    J1.5000    
G02     X27.3596       Y35.0756       Z-1.0000    I0    J1.5000    
G02     X27.3596       Y35.0756       Z-1.1000    I0    J1.5000    
G02     X27.3596       Y35.0756       Z-1.2000    I0    J1.5000    
G02     X27.3596       Y35.0756       Z-1.3000    I0    J1.5000    
G02     X27.3596       Y35.0756       Z-1.4000    I0    J1.5000    
G02     X27.3596       Y35.0756       Z-1.5000    I0    J1.5000    
G02     X27.3596       Y35.0756       Z-1.6000    I0    J1.5000    
G02     X27.3596       Y35.0756       Z-1.7000    I0    J1.5000    
G02     X27.3596       Y35.0756       Z-1.8000    I0    J1.5000    
G02     X27.3596       Y35.0756       Z-1.9000    I0    J1.5000    
G02     X27.3596       Y35.0756       Z-2.0000    I0    J1.5000    
G02     X27.3596       Y35.0756       Z-2.1000    I0    J1.5000    
G02     X27.3596       Y35.0756       Z-2.2000    I0    J1.5000    
G02     X27.3596       Y35.0756       Z-2.3000    I0    J1.5000    
G02     X27.3596       Y35.0756       Z-2.4000    I0    J1.5000    
G02     X27.3596       Y35.0756       Z-2.5000    I0    J1.5000    
G02     X27.3596       Y35.0756       Z-2.6000    I0    J1.5000    
G02     X27.3596       Y35.0756       Z-2.7000    I0    J1.5000    
G02     X27.3596       Y35.0756       Z-2.8000    I0    J1.5000    
G02     X27.3596       Y35.0756       Z-2.9000    I0    J1.5000    
G02     X27.3596       Y35.0756       Z-3.0000    I0    J1.5000    
G02     X27.3596       Y35.0756       Z-3.1000    I0    J1.5000    
G02     X27.3596       Y35.0756       Z-3.2000    I0    J1.5000    
G02     X27.3596       Y35.0756       Z-3.3000    I0    J1.5000    
G02     X27.3596       Y35.0756       Z-3.4000    I0    J1.5000    
G02     X27.3596       Y35.0756       Z-3.5000    I0    J1.5000    
G02     X27.3596       Y35.0756       Z-3.6000    I0    J1.5000    
G02     X27.3596       Y35.0756       Z-3.7000    I0    J1.5000    
G02     X27.3596       Y35.0756       Z-3.8000    I0    J1.5000    
G02     X27.3596       Y35.0756       Z-3.9000    I0    J1.5000    
G02     X27.3596       Y35.0756       Z-4.0000    I0    J1.5000    
G02     X27.3596       Y35.0756       Z-4.1000    I0    J1.5000    
G02     X27.3596       Y35.0756       Z-4.2000    I0    J1.5000    
G02     X27.3596       Y35.0756       Z-4.3000    I0    J1.5000    
G02     X27.3596       Y35.0756       Z-4.4000    I0    J1.5000    
G02     X27.3596       Y35.0756       Z-4.5000    I0    J1.5000    
G02     X27.3596       Y35.0756       Z-4.9000    I0    J1.5000    
G02     X27.3596       Y35.0756    I0.0    J1.5000    
G00   Y36.576        Z6.000     
(plungebore end)
(BREAK pass 36)
(Group complete: _diam_6.0mm)
(Pass: 1)
G0   X12.323       Y62.322    
(plungebore    depth=4.900         diam=3.000     )
G00   Z2.000     
G01   Z-0.100     F400 
G00   z2.000     
G01   Z-0.200    
G00   z2.000     
G01   Z-0.300    
G00   z2.000     
G01   Z-0.400    
G00   z2.000     
G01   Z-0.500    
G00   z2.000     
G01   Z-0.600    
G00   z2.000     
G01   Z-0.700    
G00   z2.000     
G01   Z-0.800    
G00   z2.000     
G01   Z-0.900    
G00   z2.000     
G01   Z-1.000    
G00   z2.000     
G01   Z-1.100    
G00   z2.000     
G01   Z-1.200    
G00   z2.000     
G01   Z-1.300    
G00   z2.000     
G01   Z-1.400    
G00   z2.000     
G01   Z-1.500    
G00   z2.000     
G01   Z-1.600    
G00   z2.000     
G01   Z-1.700    
G00   z2.000     
G01   Z-1.800    
G00   z2.000     
G01   Z-1.900    
G00   z2.000     
G01   Z-2.000    
G00   z2.000     
G01   Z-2.100    
G00   z2.000     
G01   Z-2.200    
G00   z2.000     
G01   Z-2.300    
G00   z2.000     
G01   Z-2.400    
G00   z2.000     
G01   Z-2.500    
G00   z2.000     
G01   Z-2.600    
G00   z2.000     
G01   Z-2.700    
G00   z2.000     
G01   Z-2.800    
G00   z2.000     
G01   Z-2.900    
G00   z2.000     
G01   Z-3.000    
G00   z2.000     
G01   Z-3.100    
G00   z2.000     
G01   Z-3.200    
G00   z2.000     
G01   Z-3.300    
G00   z2.000     
G01   Z-3.400    
G00   z2.000     
G01   Z-3.500    
G00   z2.000     
G01   Z-3.600    
G00   z2.000     
G01   Z-3.700    
G00   z2.000     
G01   Z-3.800    
G00   z2.000     
G01   Z-3.900    
G00   z2.000     
G01   Z-4.000    
G00   z2.000     
G01   Z-4.100    
G00   z2.000     
G01   Z-4.200    
G00   z2.000     
G01   Z-4.300    
G00   z2.000     
G01   Z-4.400    
G00   z2.000     
G01   Z-4.500    
G00   z2.000     
G01   Z-4.600    
G00   z2.000     
G01   Z-4.700    
G00   z2.000     
G01   Z-4.800    
G00   z2.000     
G01   Z-4.900    
G00   z2.000     
G00   Y62.322        Z6.000     
(plungebore end)
(BREAK pass 36)
(Pass: 1)
G0   X43.323    
(plungebore    depth=4.900         diam=3.000     )
G00   Z2.000     
G01   Z-0.100     F400 
G00   z2.000     
G01   Z-0.200    
G00   z2.000     
G01   Z-0.300    
G00   z2.000     
G01   Z-0.400    
G00   z2.000     
G01   Z-0.500    
G00   z2.000     
G01   Z-0.600    
G00   z2.000     
G01   Z-0.700    
G00   z2.000     
G01   Z-0.800    
G00   z2.000     
G01   Z-0.900    
G00   z2.000     
G01   Z-1.000    
G00   z2.000     
G01   Z-1.100    
G00   z2.000     
G01   Z-1.200    
G00   z2.000     
G01   Z-1.300    
G00   z2.000     
G01   Z-1.400    
G00   z2.000     
G01   Z-1.500    
G00   z2.000     
G01   Z-1.600    
G00   z2.000     
G01   Z-1.700    
G00   z2.000     
G01   Z-1.800    
G00   z2.000     
G01   Z-1.900    
G00   z2.000     
G01   Z-2.000    
G00   z2.000     
G01   Z-2.100    
G00   z2.000     
G01   Z-2.200    
G00   z2.000     
G01   Z-2.300    
G00   z2.000     
G01   Z-2.400    
G00   z2.000     
G01   Z-2.500    
G00   z2.000     
G01   Z-2.600    
G00   z2.000     
G01   Z-2.700    
G00   z2.000     
G01   Z-2.800    
G00   z2.000     
G01   Z-2.900    
G00   z2.000     
G01   Z-3.000    
G00   z2.000     
G01   Z-3.100    
G00   z2.000     
G01   Z-3.200    
G00   z2.000     
G01   Z-3.300    
G00   z2.000     
G01   Z-3.400    
G00   z2.000     
G01   Z-3.500    
G00   z2.000     
G01   Z-3.600    
G00   z2.000     
G01   Z-3.700    
G00   z2.000     
G01   Z-3.800    
G00   z2.000     
G01   Z-3.900    
G00   z2.000     
G01   Z-4.000    
G00   z2.000     
G01   Z-4.100    
G00   z2.000     
G01   Z-4.200    
G00   z2.000     
G01   Z-4.300    
G00   z2.000     
G01   Z-4.400    
G00   z2.000     
G01   Z-4.500    
G00   z2.000     
G01   Z-4.600    
G00   z2.000     
G01   Z-4.700    
G00   z2.000     
G01   Z-4.800    
G00   z2.000     
G01   Z-4.900    
G00   z2.000     
G00   Y62.322        Z6.000     
(plungebore end)
(BREAK pass 36)
(Pass: 1)
G0   X50.630       Y69.322    
G1   Z-0.100     F400 
   X4.823     
   Y6.322     
   X50.630    
   Y69.322    
(Pass: 2)
   Z-0.200    
   X4.823     
   Y6.322     
   X50.630    
   Y69.322    
(Pass: 3)
   Z-0.300    
   X4.823     
   Y6.322     
   X50.630    
   Y69.322    
(Pass: 4)
   Z-0.400    
   X4.823     
   Y6.322     
   X50.630    
   Y69.322    
(Pass: 5)
   Z-0.500    
   X4.823     
   Y6.322     
   X50.630    
   Y69.322    
(Pass: 6)
   Z-0.600    
   X4.823     
   Y6.322     
   X50.630    
   Y69.322    
(Pass: 7)
   Z-0.700    
   X4.823     
   Y6.322     
   X50.630    
   Y69.322    
(Pass: 8)
   Z-0.800    
   X4.823     
   Y6.322     
   X50.630    
   Y69.322    
(Pass: 9)
   Z-0.900    
   X4.823     
   Y6.322     
   X50.630    
   Y69.322    
(Pass: 10)
   Z-1.000    
   X4.823     
   Y6.322     
   X50.630    
   Y69.322    
(Pass: 11)
   Z-1.100    
   X4.823     
   Y6.322     
   X50.630    
   Y69.322    
(Pass: 12)
   Z-1.200    
   X4.823     
   Y6.322     
   X50.630    
   Y69.322    
(Pass: 13)
   Z-1.300    
   X4.823     
   Y6.322     
   X50.630    
   Y69.322    
(Pass: 14)
   Z-1.400    
   X4.823     
   Y6.322     
   X50.630    
   Y69.322    
(Pass: 15)
   Z-1.500    
   X4.823     
   Y6.322     
   X50.630    
   Y69.322    
(Pass: 16)
   Z-1.600    
   X4.823     
   Y6.322     
   X50.630    
   Y69.322    
(Pass: 17)
   Z-1.700    
   X4.823     
   Y6.322     
   X50.630    
   Y69.322    
(Pass: 18)
   Z-1.800    
   X4.823     
   Y6.322     
   X50.630    
   Y69.322    
(Pass: 19)
   Z-1.900    
   X4.823     
   Y6.322     
   X50.630    
   Y69.322    
(Pass: 20)
   Z-2.000    
   X4.823     
   Y6.322     
   X50.630    
   Y69.322    
(Pass: 21)
   Z-2.100    
   X4.823     
   Y6.322     
   X50.630    
   Y69.322    
(Pass: 22)
   Z-2.200    
   X4.823     
   Y6.322     
   X50.630    
   Y69.322    
(Pass: 23)
   Z-2.300    
   X4.823     
   Y6.322     
   X50.630    
   Y69.322    
(Pass: 24)
   Z-2.400    
   X4.823     
   Y6.322     
   X50.630    
   Y69.322    
(Pass: 25)
   Z-2.500    
   X4.823     
   Y6.322     
   X50.630    
   Y69.322    
(Pass: 26)
   Z-2.600    
   X4.823     
   Y6.322     
   X50.630    
   Y69.322    
(Pass: 27)
   Z-2.700    
   X4.823     
   Y6.322     
   X50.630    
   Y69.322    
(Pass: 28)
   Z-2.800    
   X4.823     
   Y6.322     
   X50.630    
   Y69.322    
(Pass: 29)
   Z-2.900    
   X4.823     
   Y6.322     
   X50.630    
   Y69.322    
(Pass: 30)
   Z-3.000    
   X4.823     
   Y6.322     
   X50.630    
   Y69.322    
(Pass: 31)
   Z-3.100    
   X4.823     
   Y6.322     
   X50.630    
   Y69.322    
(Pass: 32)
   Z-3.200    
   X4.823     
   Y6.322     
   X50.630    
   Y69.322    
(Pass: 33)
   Z-3.300    
   X4.823     
   Y6.322     
   X50.630    
   Y69.322    
(Pass: 34)
   Z-3.400    
   X4.823     
   Y6.322     
   X50.630    
   Y69.322    
(Pass: 35)
   Z-3.500    
   X4.823     
   Y6.322     
   X50.630    
   Y69.322    
(Pass: 36)
   Z-3.600    
   X4.823     
   Y6.322     
   X50.630    
   Y69.322    
(BREAK pass 36)
G0   Z6.000     
G0 X0 Y0 (home)
M05
M30
%
