%
(Generated by SketchUcam {1.2b1})
(File: laser.skp)
(Bit diameter: 4.9mm)
(Feed rate: 1200.0mm/min)
(Plunge Feed rate: 300.0mm/min)
(Material Thickness: 3.5mm)
(Material length: 600.0mm X width: 1200.0mm)
(Overhead Gantry: true)
(Retract feed rate NOT limited to plunge feed rate)
(Multipass enabled, Depth = 0.5mm)
(Optimization is ON)
(www.PhlatBoyz.com)
G90 G21 G49 
M3 S11000
(Group: Outside Panels)
(Group: Mechanical Panels)
(Group complete: Mechanical Panels)
(Group: SIde Panels)
(Group complete: SIde Panels)
(Group: Front Panels)
(Group complete: Front Panels)
(Group: Rear Panels)
(Group complete: Rear Panels)
(Group complete: Outside Panels)
(Group: Power Supplies)
(Group complete: Power Supplies)
(Group: Computers)
(Group complete: Computers)
(Group: Fans)
(Group complete: Fans)
(Group: Lid)
(Group: Lid Front Panels)
(Group complete: Lid Front Panels)
(Group: Lid Top Panels)
(Group complete: Lid Top Panels)
(Group complete: Lid)
(Group: Laser Assembly)
(Group complete: Laser Assembly)
(Group: X Axis Mirror)
(Group complete: X Axis Mirror)
G0   Z5.000     
(Pass: 1)
   X19.700       Y24.806    
G1   Z-0.500     F300 
G17 G2   X19.7834      Y24.6961      R5.4500     F1200
   X19.8922      Y24.6111      R5.4500    
   X20.0193      Y24.5572      R5.4500    
   X20.1560      Y24.5380      R5.4500    
   X20.2930      Y24.5548      R5.4500    
   X20.4210      Y24.6065      R5.4500    
   X20.5313      Y24.6896      R5.4500    
   X20.6163      Y24.7984      R5.4500    
   X20.6702      Y24.9255      R5.4500    
   X20.6894      Y25.0622      R5.4500    
   X20.6726      Y25.1992      R5.4500    
   X20.6209      Y25.3272      R5.4500    
   X20.5378      Y25.4375      R5.4500    
   X20.4290      Y25.5225      R5.4500    
   X20.3019      Y25.5765      R5.4500    
   X20.1652      Y25.5957      R5.4500    
   X20.0282      Y25.5788      R5.4500    
   X19.9002      Y25.5271      R5.4500    
   X19.7899      Y25.4440      R5.4500    
   X19.7049      Y25.3352      R5.4500    
   X19.6510      Y25.2082      R5.4500    
   X19.6318      Y25.0714      R5.4500    
   X19.6486      Y24.9344      R5.4500    
   X19.7003      Y24.8064      R5.4500    
(Pass: 2)
G1   Z-1.000     F300 
G17 G2   X19.7834      Y24.6961      R5.4500     F1200
   X19.8922      Y24.6111      R5.4500    
   X20.0193      Y24.5572      R5.4500    
   X20.1560      Y24.5380      R5.4500    
   X20.2930      Y24.5548      R5.4500    
   X20.4210      Y24.6065      R5.4500    
   X20.5313      Y24.6896      R5.4500    
   X20.6163      Y24.7984      R5.4500    
   X20.6702      Y24.9255      R5.4500    
   X20.6894      Y25.0622      R5.4500    
   X20.6726      Y25.1992      R5.4500    
   X20.6209      Y25.3272      R5.4500    
   X20.5378      Y25.4375      R5.4500    
   X20.4290      Y25.5225      R5.4500    
   X20.3019      Y25.5765      R5.4500    
   X20.1652      Y25.5957      R5.4500    
   X20.0282      Y25.5788      R5.4500    
   X19.9002      Y25.5271      R5.4500    
   X19.7899      Y25.4440      R5.4500    
   X19.7049      Y25.3352      R5.4500    
   X19.6510      Y25.2082      R5.4500    
   X19.6318      Y25.0714      R5.4500    
   X19.6486      Y24.9344      R5.4500    
   X19.7003      Y24.8064      R5.4500    
(Pass: 3)
G1   Z-1.500     F300 
G17 G2   X19.7834      Y24.6961      R5.4500     F1200
   X19.8922      Y24.6111      R5.4500    
   X20.0193      Y24.5572      R5.4500    
   X20.1560      Y24.5380      R5.4500    
   X20.2930      Y24.5548      R5.4500    
   X20.4210      Y24.6065      R5.4500    
   X20.5313      Y24.6896      R5.4500    
   X20.6163      Y24.7984      R5.4500    
   X20.6702      Y24.9255      R5.4500    
   X20.6894      Y25.0622      R5.4500    
   X20.6726      Y25.1992      R5.4500    
   X20.6209      Y25.3272      R5.4500    
   X20.5378      Y25.4375      R5.4500    
   X20.4290      Y25.5225      R5.4500    
   X20.3019      Y25.5765      R5.4500    
   X20.1652      Y25.5957      R5.4500    
   X20.0282      Y25.5788      R5.4500    
   X19.9002      Y25.5271      R5.4500    
   X19.7899      Y25.4440      R5.4500    
   X19.7049      Y25.3352      R5.4500    
   X19.6510      Y25.2082      R5.4500    
   X19.6318      Y25.0714      R5.4500    
   X19.6486      Y24.9344      R5.4500    
   X19.7003      Y24.8064      R5.4500    
(Pass: 4)
G1   Z-2.000     F300 
G17 G2   X19.7834      Y24.6961      R5.4500     F1200
   X19.8922      Y24.6111      R5.4500    
   X20.0193      Y24.5572      R5.4500    
   X20.1560      Y24.5380      R5.4500    
   X20.2930      Y24.5548      R5.4500    
   X20.4210      Y24.6065      R5.4500    
   X20.5313      Y24.6896      R5.4500    
   X20.6163      Y24.7984      R5.4500    
   X20.6702      Y24.9255      R5.4500    
   X20.6894      Y25.0622      R5.4500    
   X20.6726      Y25.1992      R5.4500    
   X20.6209      Y25.3272      R5.4500    
   X20.5378      Y25.4375      R5.4500    
   X20.4290      Y25.5225      R5.4500    
   X20.3019      Y25.5765      R5.4500    
   X20.1652      Y25.5957      R5.4500    
   X20.0282      Y25.5788      R5.4500    
   X19.9002      Y25.5271      R5.4500    
   X19.7899      Y25.4440      R5.4500    
   X19.7049      Y25.3352      R5.4500    
   X19.6510      Y25.2082      R5.4500    
   X19.6318      Y25.0714      R5.4500    
   X19.6486      Y24.9344      R5.4500    
   X19.7003      Y24.8064      R5.4500    
(Pass: 5)
G1   Z-2.500     F300 
G17 G2   X19.7834      Y24.6961      R5.4500     F1200
   X19.8922      Y24.6111      R5.4500    
   X20.0193      Y24.5572      R5.4500    
   X20.1560      Y24.5380      R5.4500    
   X20.2930      Y24.5548      R5.4500    
   X20.4210      Y24.6065      R5.4500    
   X20.5313      Y24.6896      R5.4500    
   X20.6163      Y24.7984      R5.4500    
   X20.6702      Y24.9255      R5.4500    
   X20.6894      Y25.0622      R5.4500    
   X20.6726      Y25.1992      R5.4500    
   X20.6209      Y25.3272      R5.4500    
   X20.5378      Y25.4375      R5.4500    
   X20.4290      Y25.5225      R5.4500    
   X20.3019      Y25.5765      R5.4500    
   X20.1652      Y25.5957      R5.4500    
   X20.0282      Y25.5788      R5.4500    
   X19.9002      Y25.5271      R5.4500    
   X19.7899      Y25.4440      R5.4500    
   X19.7049      Y25.3352      R5.4500    
   X19.6510      Y25.2082      R5.4500    
   X19.6318      Y25.0714      R5.4500    
   X19.6486      Y24.9344      R5.4500    
   X19.7003      Y24.8064      R5.4500    
(Pass: 6)
G1   Z-3.000     F300 
G17 G2   X19.7834      Y24.6961      R5.4500     F1200
   X19.8922      Y24.6111      R5.4500    
   X20.0193      Y24.5572      R5.4500    
   X20.1560      Y24.5380      R5.4500    
   X20.2930      Y24.5548      R5.4500    
   X20.4210      Y24.6065      R5.4500    
   X20.5313      Y24.6896      R5.4500    
   X20.6163      Y24.7984      R5.4500    
   X20.6702      Y24.9255      R5.4500    
   X20.6894      Y25.0622      R5.4500    
   X20.6726      Y25.1992      R5.4500    
   X20.6209      Y25.3272      R5.4500    
   X20.5378      Y25.4375      R5.4500    
   X20.4290      Y25.5225      R5.4500    
   X20.3019      Y25.5765      R5.4500    
   X20.1652      Y25.5957      R5.4500    
   X20.0282      Y25.5788      R5.4500    
   X19.9002      Y25.5271      R5.4500    
   X19.7899      Y25.4440      R5.4500    
   X19.7049      Y25.3352      R5.4500    
   X19.6510      Y25.2082      R5.4500    
   X19.6318      Y25.0714      R5.4500    
   X19.6486      Y24.9344      R5.4500    
   X19.7003      Y24.8064      R5.4500    
(Pass: 7)
G1   Z-3.500     F300 
G17 G2   X19.7834      Y24.6961      R5.4500     F1200
   X19.8922      Y24.6111      R5.4500    
   X20.0193      Y24.5572      R5.4500    
   X20.1560      Y24.5380      R5.4500    
   X20.2930      Y24.5548      R5.4500    
   X20.4210      Y24.6065      R5.4500    
   X20.5313      Y24.6896      R5.4500    
   X20.6163      Y24.7984      R5.4500    
   X20.6702      Y24.9255      R5.4500    
   X20.6894      Y25.0622      R5.4500    
   X20.6726      Y25.1992      R5.4500    
   X20.6209      Y25.3272      R5.4500    
   X20.5378      Y25.4375      R5.4500    
   X20.4290      Y25.5225      R5.4500    
   X20.3019      Y25.5765      R5.4500    
   X20.1652      Y25.5957      R5.4500    
   X20.0282      Y25.5788      R5.4500    
   X19.9002      Y25.5271      R5.4500    
   X19.7899      Y25.4440      R5.4500    
   X19.7049      Y25.3352      R5.4500    
   X19.6510      Y25.2082      R5.4500    
   X19.6318      Y25.0714      R5.4500    
   X19.6486      Y24.9344      R5.4500    
   X19.7003      Y24.8064      R5.4500    
(Pass: 8)
G1   Z-4.000     F300 
G17 G2   X19.7834      Y24.6961      R5.4500     F1200
   X19.8922      Y24.6111      R5.4500    
   X20.0193      Y24.5572      R5.4500    
   X20.1560      Y24.5380      R5.4500    
   X20.2930      Y24.5548      R5.4500    
   X20.4210      Y24.6065      R5.4500    
   X20.5313      Y24.6896      R5.4500    
   X20.6163      Y24.7984      R5.4500    
   X20.6702      Y24.9255      R5.4500    
   X20.6894      Y25.0622      R5.4500    
   X20.6726      Y25.1992      R5.4500    
   X20.6209      Y25.3272      R5.4500    
   X20.5378      Y25.4375      R5.4500    
   X20.4290      Y25.5225      R5.4500    
   X20.3019      Y25.5765      R5.4500    
   X20.1652      Y25.5957      R5.4500    
   X20.0282      Y25.5788      R5.4500    
   X19.9002      Y25.5271      R5.4500    
   X19.7899      Y25.4440      R5.4500    
   X19.7049      Y25.3352      R5.4500    
   X19.6510      Y25.2082      R5.4500    
   X19.6318      Y25.0714      R5.4500    
   X19.6486      Y24.9344      R5.4500    
   X19.7003      Y24.8064      R5.4500    
(Pass: 9)
G1   Z-4.200     F300 
G17 G2   X19.7834      Y24.6961      R5.4500     F1200
   X19.8922      Y24.6111      R5.4500    
   X20.0193      Y24.5572      R5.4500    
   X20.1560      Y24.5380      R5.4500    
   X20.2930      Y24.5548      R5.4500    
   X20.4210      Y24.6065      R5.4500    
   X20.5313      Y24.6896      R5.4500    
   X20.6163      Y24.7984      R5.4500    
   X20.6702      Y24.9255      R5.4500    
   X20.6894      Y25.0622      R5.4500    
   X20.6726      Y25.1992      R5.4500    
   X20.6209      Y25.3272      R5.4500    
   X20.5378      Y25.4375      R5.4500    
   X20.4290      Y25.5225      R5.4500    
   X20.3019      Y25.5765      R5.4500    
   X20.1652      Y25.5957      R5.4500    
   X20.0282      Y25.5788      R5.4500    
   X19.9002      Y25.5271      R5.4500    
   X19.7899      Y25.4440      R5.4500    
   X19.7049      Y25.3352      R5.4500    
   X19.6510      Y25.2082      R5.4500    
   X19.6318      Y25.0714      R5.4500    
   X19.6486      Y24.9344      R5.4500    
   X19.7003      Y24.8064      R5.4500    
(BREAK pass 9)
G0   Z5.000     
(Pass: 1)
   X106.611      Y87.517    
G1   Z-0.500     F300 
   X113.711    F1200
   Y93.617    
   X106.611   
   Y90.567    
   Y87.517    
(Pass: 2)
   Z-1.000     F300 
   X113.711    F1200
   Y93.617    
   X106.611   
   Y90.567    
   Y87.517    
(Pass: 3)
   Z-1.500     F300 
   X113.711    F1200
   Y93.617    
   X106.611   
   Y90.567    
   Y87.517    
(Pass: 4)
   Z-2.000     F300 
   X113.711    F1200
   Y93.617    
   X106.611   
   Y90.567    
   Y87.517    
(Pass: 5)
   Z-2.500     F300 
   X113.711    F1200
   Y93.617    
   X106.611   
   Y90.567    
   Y87.517    
(Pass: 6)
   Z-3.000     F300 
   X113.711    F1200
   Y93.617    
   X106.611   
   Y90.567    
   Y87.517    
(Pass: 7)
   Z-3.500     F300 
   X113.711    F1200
   Y93.617    
   X106.611   
   Y90.567    
   Y87.517    
(Pass: 8)
   Z-4.000     F300 
   X113.711    F1200
   Y93.617    
   X106.611   
   Y90.567    
   Y87.517    
(Pass: 9)
   Z-4.200     F300 
   X113.711    F1200
   Y93.617    
   X106.611   
   Y90.567    
   Y87.517    
(BREAK pass 9)
G0   Z5.000     
(Pass: 1)
   X148.512      Y154.153   
G1   Z-0.500     F300 
G17 G2   X148.6212     Y154.0689     R5.4500     F1200
   X148.7488     Y154.0160     R5.4500    
   X148.8857     Y153.9980     R5.4500    
   X149.0226     Y154.0160     R5.4500    
   X149.1501     Y154.0689     R5.4500    
   X149.2596     Y154.1529     R5.4500    
   X149.3437     Y154.2625     R5.4500    
   X149.3965     Y154.3900     R5.4500    
   X149.4145     Y154.5269     R5.4500    
   X149.3965     Y154.6638     R5.4500    
   X149.3437     Y154.7913     R5.4500    
   X149.2596     Y154.9008     R5.4500    
   X149.1501     Y154.9849     R5.4500    
   X149.0226     Y155.0377     R5.4500    
   X148.8857     Y155.0557     R5.4500    
   X148.7488     Y155.0377     R5.4500    
   X148.6212     Y154.9849     R5.4500    
   X148.5117     Y154.9008     R5.4500    
   X148.4277     Y154.7913     R5.4500    
   X148.3748     Y154.6638     R5.4500    
   X148.3568     Y154.5269     R5.4500    
   X148.3748     Y154.3900     R5.4500    
   X148.4277     Y154.2625     R5.4500    
   X148.5117     Y154.1529     R5.4500    
(Pass: 2)
G1   Z-1.000     F300 
G17 G2   X148.6212     Y154.0689     R5.4500     F1200
   X148.7488     Y154.0160     R5.4500    
   X148.8857     Y153.9980     R5.4500    
   X149.0226     Y154.0160     R5.4500    
   X149.1501     Y154.0689     R5.4500    
   X149.2596     Y154.1529     R5.4500    
   X149.3437     Y154.2625     R5.4500    
   X149.3965     Y154.3900     R5.4500    
   X149.4145     Y154.5269     R5.4500    
   X149.3965     Y154.6638     R5.4500    
   X149.3437     Y154.7913     R5.4500    
   X149.2596     Y154.9008     R5.4500    
   X149.1501     Y154.9849     R5.4500    
   X149.0226     Y155.0377     R5.4500    
   X148.8857     Y155.0557     R5.4500    
   X148.7488     Y155.0377     R5.4500    
   X148.6212     Y154.9849     R5.4500    
   X148.5117     Y154.9008     R5.4500    
   X148.4277     Y154.7913     R5.4500    
   X148.3748     Y154.6638     R5.4500    
   X148.3568     Y154.5269     R5.4500    
   X148.3748     Y154.3900     R5.4500    
   X148.4277     Y154.2625     R5.4500    
   X148.5117     Y154.1529     R5.4500    
(Pass: 3)
G1   Z-1.500     F300 
G17 G2   X148.6212     Y154.0689     R5.4500     F1200
   X148.7488     Y154.0160     R5.4500    
   X148.8857     Y153.9980     R5.4500    
   X149.0226     Y154.0160     R5.4500    
   X149.1501     Y154.0689     R5.4500    
   X149.2596     Y154.1529     R5.4500    
   X149.3437     Y154.2625     R5.4500    
   X149.3965     Y154.3900     R5.4500    
   X149.4145     Y154.5269     R5.4500    
   X149.3965     Y154.6638     R5.4500    
   X149.3437     Y154.7913     R5.4500    
   X149.2596     Y154.9008     R5.4500    
   X149.1501     Y154.9849     R5.4500    
   X149.0226     Y155.0377     R5.4500    
   X148.8857     Y155.0557     R5.4500    
   X148.7488     Y155.0377     R5.4500    
   X148.6212     Y154.9849     R5.4500    
   X148.5117     Y154.9008     R5.4500    
   X148.4277     Y154.7913     R5.4500    
   X148.3748     Y154.6638     R5.4500    
   X148.3568     Y154.5269     R5.4500    
   X148.3748     Y154.3900     R5.4500    
   X148.4277     Y154.2625     R5.4500    
   X148.5117     Y154.1529     R5.4500    
(Pass: 4)
G1   Z-2.000     F300 
G17 G2   X148.6212     Y154.0689     R5.4500     F1200
   X148.7488     Y154.0160     R5.4500    
   X148.8857     Y153.9980     R5.4500    
   X149.0226     Y154.0160     R5.4500    
   X149.1501     Y154.0689     R5.4500    
   X149.2596     Y154.1529     R5.4500    
   X149.3437     Y154.2625     R5.4500    
   X149.3965     Y154.3900     R5.4500    
   X149.4145     Y154.5269     R5.4500    
   X149.3965     Y154.6638     R5.4500    
   X149.3437     Y154.7913     R5.4500    
   X149.2596     Y154.9008     R5.4500    
   X149.1501     Y154.9849     R5.4500    
   X149.0226     Y155.0377     R5.4500    
   X148.8857     Y155.0557     R5.4500    
   X148.7488     Y155.0377     R5.4500    
   X148.6212     Y154.9849     R5.4500    
   X148.5117     Y154.9008     R5.4500    
   X148.4277     Y154.7913     R5.4500    
   X148.3748     Y154.6638     R5.4500    
   X148.3568     Y154.5269     R5.4500    
   X148.3748     Y154.3900     R5.4500    
   X148.4277     Y154.2625     R5.4500    
   X148.5117     Y154.1529     R5.4500    
(Pass: 5)
G1   Z-2.500     F300 
G17 G2   X148.6212     Y154.0689     R5.4500     F1200
   X148.7488     Y154.0160     R5.4500    
   X148.8857     Y153.9980     R5.4500    
   X149.0226     Y154.0160     R5.4500    
   X149.1501     Y154.0689     R5.4500    
   X149.2596     Y154.1529     R5.4500    
   X149.3437     Y154.2625     R5.4500    
   X149.3965     Y154.3900     R5.4500    
   X149.4145     Y154.5269     R5.4500    
   X149.3965     Y154.6638     R5.4500    
   X149.3437     Y154.7913     R5.4500    
   X149.2596     Y154.9008     R5.4500    
   X149.1501     Y154.9849     R5.4500    
   X149.0226     Y155.0377     R5.4500    
   X148.8857     Y155.0557     R5.4500    
   X148.7488     Y155.0377     R5.4500    
   X148.6212     Y154.9849     R5.4500    
   X148.5117     Y154.9008     R5.4500    
   X148.4277     Y154.7913     R5.4500    
   X148.3748     Y154.6638     R5.4500    
   X148.3568     Y154.5269     R5.4500    
   X148.3748     Y154.3900     R5.4500    
   X148.4277     Y154.2625     R5.4500    
   X148.5117     Y154.1529     R5.4500    
(Pass: 6)
G1   Z-3.000     F300 
G17 G2   X148.6212     Y154.0689     R5.4500     F1200
   X148.7488     Y154.0160     R5.4500    
   X148.8857     Y153.9980     R5.4500    
   X149.0226     Y154.0160     R5.4500    
   X149.1501     Y154.0689     R5.4500    
   X149.2596     Y154.1529     R5.4500    
   X149.3437     Y154.2625     R5.4500    
   X149.3965     Y154.3900     R5.4500    
   X149.4145     Y154.5269     R5.4500    
   X149.3965     Y154.6638     R5.4500    
   X149.3437     Y154.7913     R5.4500    
   X149.2596     Y154.9008     R5.4500    
   X149.1501     Y154.9849     R5.4500    
   X149.0226     Y155.0377     R5.4500    
   X148.8857     Y155.0557     R5.4500    
   X148.7488     Y155.0377     R5.4500    
   X148.6212     Y154.9849     R5.4500    
   X148.5117     Y154.9008     R5.4500    
   X148.4277     Y154.7913     R5.4500    
   X148.3748     Y154.6638     R5.4500    
   X148.3568     Y154.5269     R5.4500    
   X148.3748     Y154.3900     R5.4500    
   X148.4277     Y154.2625     R5.4500    
   X148.5117     Y154.1529     R5.4500    
(Pass: 7)
G1   Z-3.500     F300 
G17 G2   X148.6212     Y154.0689     R5.4500     F1200
   X148.7488     Y154.0160     R5.4500    
   X148.8857     Y153.9980     R5.4500    
   X149.0226     Y154.0160     R5.4500    
   X149.1501     Y154.0689     R5.4500    
   X149.2596     Y154.1529     R5.4500    
   X149.3437     Y154.2625     R5.4500    
   X149.3965     Y154.3900     R5.4500    
   X149.4145     Y154.5269     R5.4500    
   X149.3965     Y154.6638     R5.4500    
   X149.3437     Y154.7913     R5.4500    
   X149.2596     Y154.9008     R5.4500    
   X149.1501     Y154.9849     R5.4500    
   X149.0226     Y155.0377     R5.4500    
   X148.8857     Y155.0557     R5.4500    
   X148.7488     Y155.0377     R5.4500    
   X148.6212     Y154.9849     R5.4500    
   X148.5117     Y154.9008     R5.4500    
   X148.4277     Y154.7913     R5.4500    
   X148.3748     Y154.6638     R5.4500    
   X148.3568     Y154.5269     R5.4500    
   X148.3748     Y154.3900     R5.4500    
   X148.4277     Y154.2625     R5.4500    
   X148.5117     Y154.1529     R5.4500    
(Pass: 8)
G1   Z-4.000     F300 
G17 G2   X148.6212     Y154.0689     R5.4500     F1200
   X148.7488     Y154.0160     R5.4500    
   X148.8857     Y153.9980     R5.4500    
   X149.0226     Y154.0160     R5.4500    
   X149.1501     Y154.0689     R5.4500    
   X149.2596     Y154.1529     R5.4500    
   X149.3437     Y154.2625     R5.4500    
   X149.3965     Y154.3900     R5.4500    
   X149.4145     Y154.5269     R5.4500    
   X149.3965     Y154.6638     R5.4500    
   X149.3437     Y154.7913     R5.4500    
   X149.2596     Y154.9008     R5.4500    
   X149.1501     Y154.9849     R5.4500    
   X149.0226     Y155.0377     R5.4500    
   X148.8857     Y155.0557     R5.4500    
   X148.7488     Y155.0377     R5.4500    
   X148.6212     Y154.9849     R5.4500    
   X148.5117     Y154.9008     R5.4500    
   X148.4277     Y154.7913     R5.4500    
   X148.3748     Y154.6638     R5.4500    
   X148.3568     Y154.5269     R5.4500    
   X148.3748     Y154.3900     R5.4500    
   X148.4277     Y154.2625     R5.4500    
   X148.5117     Y154.1529     R5.4500    
(Pass: 9)
G1   Z-4.200     F300 
G17 G2   X148.6212     Y154.0689     R5.4500     F1200
   X148.7488     Y154.0160     R5.4500    
   X148.8857     Y153.9980     R5.4500    
   X149.0226     Y154.0160     R5.4500    
   X149.1501     Y154.0689     R5.4500    
   X149.2596     Y154.1529     R5.4500    
   X149.3437     Y154.2625     R5.4500    
   X149.3965     Y154.3900     R5.4500    
   X149.4145     Y154.5269     R5.4500    
   X149.3965     Y154.6638     R5.4500    
   X149.3437     Y154.7913     R5.4500    
   X149.2596     Y154.9008     R5.4500    
   X149.1501     Y154.9849     R5.4500    
   X149.0226     Y155.0377     R5.4500    
   X148.8857     Y155.0557     R5.4500    
   X148.7488     Y155.0377     R5.4500    
   X148.6212     Y154.9849     R5.4500    
   X148.5117     Y154.9008     R5.4500    
   X148.4277     Y154.7913     R5.4500    
   X148.3748     Y154.6638     R5.4500    
   X148.3568     Y154.5269     R5.4500    
   X148.3748     Y154.3900     R5.4500    
   X148.4277     Y154.2625     R5.4500    
   X148.5117     Y154.1529     R5.4500    
(BREAK pass 9)
G0   Z5.000     
(Pass: 1)
   X155.517      Y161.168   
G1   Z-0.500     F300 
G17 G2   X158.1118     Y159.1766     R17.4500    F1200
   X161.1336     Y157.9249     R17.4500   
   X164.3763     Y157.4980     R17.4500   
   X167.6190     Y157.9249     R17.4500   
   X170.6407     Y159.1766     R17.4500   
   X173.2355     Y161.1676     R17.4500   
   X175.2266     Y163.7625     R17.4500   
   X176.4782     Y166.7842     R17.4500   
   X176.9051     Y170.0269     R17.4500   
   X176.4782     Y173.2696     R17.4500   
   X175.2266     Y176.2913     R17.4500   
   X173.2355     Y178.8861     R17.4500   
   X170.6407     Y180.8772     R17.4500   
   X167.6190     Y182.1288     R17.4500   
   X164.3763     Y182.5557     R17.4500   
   X161.1336     Y182.1288     R17.4500   
   X158.1118     Y180.8772     R17.4500   
   X155.5170     Y178.8861     R17.4500   
   X153.5260     Y176.2913     R17.4500   
   X152.2743     Y173.2696     R17.4500   
   X151.8474     Y170.0269     R17.4500   
   X152.2743     Y166.7842     R17.4500   
   X153.5260     Y163.7625     R17.4500   
   X155.5170     Y161.1676     R17.4500   
(Pass: 2)
G1   Z-1.000     F300 
G17 G2   X158.1118     Y159.1766     R17.4500    F1200
   X161.1336     Y157.9249     R17.4500   
   X164.3763     Y157.4980     R17.4500   
   X167.6190     Y157.9249     R17.4500   
   X170.6407     Y159.1766     R17.4500   
   X173.2355     Y161.1676     R17.4500   
   X175.2266     Y163.7625     R17.4500   
   X176.4782     Y166.7842     R17.4500   
   X176.9051     Y170.0269     R17.4500   
   X176.4782     Y173.2696     R17.4500   
   X175.2266     Y176.2913     R17.4500   
   X173.2355     Y178.8861     R17.4500   
   X170.6407     Y180.8772     R17.4500   
   X167.6190     Y182.1288     R17.4500   
   X164.3763     Y182.5557     R17.4500   
   X161.1336     Y182.1288     R17.4500   
   X158.1118     Y180.8772     R17.4500   
   X155.5170     Y178.8861     R17.4500   
   X153.5260     Y176.2913     R17.4500   
   X152.2743     Y173.2696     R17.4500   
   X151.8474     Y170.0269     R17.4500   
   X152.2743     Y166.7842     R17.4500   
   X153.5260     Y163.7625     R17.4500   
   X155.5170     Y161.1676     R17.4500   
(Pass: 3)
G1   Z-1.500     F300 
G17 G2   X158.1118     Y159.1766     R17.4500    F1200
   X161.1336     Y157.9249     R17.4500   
   X164.3763     Y157.4980     R17.4500   
   X167.6190     Y157.9249     R17.4500   
   X170.6407     Y159.1766     R17.4500   
   X173.2355     Y161.1676     R17.4500   
   X175.2266     Y163.7625     R17.4500   
   X176.4782     Y166.7842     R17.4500   
   X176.9051     Y170.0269     R17.4500   
   X176.4782     Y173.2696     R17.4500   
   X175.2266     Y176.2913     R17.4500   
   X173.2355     Y178.8861     R17.4500   
   X170.6407     Y180.8772     R17.4500   
   X167.6190     Y182.1288     R17.4500   
   X164.3763     Y182.5557     R17.4500   
   X161.1336     Y182.1288     R17.4500   
   X158.1118     Y180.8772     R17.4500   
   X155.5170     Y178.8861     R17.4500   
   X153.5260     Y176.2913     R17.4500   
   X152.2743     Y173.2696     R17.4500   
   X151.8474     Y170.0269     R17.4500   
   X152.2743     Y166.7842     R17.4500   
   X153.5260     Y163.7625     R17.4500   
   X155.5170     Y161.1676     R17.4500   
(Pass: 4)
G1   Z-2.000     F300 
G17 G2   X158.1118     Y159.1766     R17.4500    F1200
   X161.1336     Y157.9249     R17.4500   
   X164.3763     Y157.4980     R17.4500   
   X167.6190     Y157.9249     R17.4500   
   X170.6407     Y159.1766     R17.4500   
   X173.2355     Y161.1676     R17.4500   
   X175.2266     Y163.7625     R17.4500   
   X176.4782     Y166.7842     R17.4500   
   X176.9051     Y170.0269     R17.4500   
   X176.4782     Y173.2696     R17.4500   
   X175.2266     Y176.2913     R17.4500   
   X173.2355     Y178.8861     R17.4500   
   X170.6407     Y180.8772     R17.4500   
   X167.6190     Y182.1288     R17.4500   
   X164.3763     Y182.5557     R17.4500   
   X161.1336     Y182.1288     R17.4500   
   X158.1118     Y180.8772     R17.4500   
   X155.5170     Y178.8861     R17.4500   
   X153.5260     Y176.2913     R17.4500   
   X152.2743     Y173.2696     R17.4500   
   X151.8474     Y170.0269     R17.4500   
   X152.2743     Y166.7842     R17.4500   
   X153.5260     Y163.7625     R17.4500   
   X155.5170     Y161.1676     R17.4500   
(Pass: 5)
G1   Z-2.500     F300 
G17 G2   X158.1118     Y159.1766     R17.4500    F1200
   X161.1336     Y157.9249     R17.4500   
   X164.3763     Y157.4980     R17.4500   
   X167.6190     Y157.9249     R17.4500   
   X170.6407     Y159.1766     R17.4500   
   X173.2355     Y161.1676     R17.4500   
   X175.2266     Y163.7625     R17.4500   
   X176.4782     Y166.7842     R17.4500   
   X176.9051     Y170.0269     R17.4500   
   X176.4782     Y173.2696     R17.4500   
   X175.2266     Y176.2913     R17.4500   
   X173.2355     Y178.8861     R17.4500   
   X170.6407     Y180.8772     R17.4500   
   X167.6190     Y182.1288     R17.4500   
   X164.3763     Y182.5557     R17.4500   
   X161.1336     Y182.1288     R17.4500   
   X158.1118     Y180.8772     R17.4500   
   X155.5170     Y178.8861     R17.4500   
   X153.5260     Y176.2913     R17.4500   
   X152.2743     Y173.2696     R17.4500   
   X151.8474     Y170.0269     R17.4500   
   X152.2743     Y166.7842     R17.4500   
   X153.5260     Y163.7625     R17.4500   
   X155.5170     Y161.1676     R17.4500   
(Pass: 6)
G1   Z-3.000     F300 
G17 G2   X158.1118     Y159.1766     R17.4500    F1200
   X161.1336     Y157.9249     R17.4500   
   X164.3763     Y157.4980     R17.4500   
   X167.6190     Y157.9249     R17.4500   
   X170.6407     Y159.1766     R17.4500   
   X173.2355     Y161.1676     R17.4500   
   X175.2266     Y163.7625     R17.4500   
   X176.4782     Y166.7842     R17.4500   
   X176.9051     Y170.0269     R17.4500   
   X176.4782     Y173.2696     R17.4500   
   X175.2266     Y176.2913     R17.4500   
   X173.2355     Y178.8861     R17.4500   
   X170.6407     Y180.8772     R17.4500   
   X167.6190     Y182.1288     R17.4500   
   X164.3763     Y182.5557     R17.4500   
   X161.1336     Y182.1288     R17.4500   
   X158.1118     Y180.8772     R17.4500   
   X155.5170     Y178.8861     R17.4500   
   X153.5260     Y176.2913     R17.4500   
   X152.2743     Y173.2696     R17.4500   
   X151.8474     Y170.0269     R17.4500   
   X152.2743     Y166.7842     R17.4500   
   X153.5260     Y163.7625     R17.4500   
   X155.5170     Y161.1676     R17.4500   
(Pass: 7)
G1   Z-3.500     F300 
G17 G2   X158.1118     Y159.1766     R17.4500    F1200
   X161.1336     Y157.9249     R17.4500   
   X164.3763     Y157.4980     R17.4500   
   X167.6190     Y157.9249     R17.4500   
   X170.6407     Y159.1766     R17.4500   
   X173.2355     Y161.1676     R17.4500   
   X175.2266     Y163.7625     R17.4500   
   X176.4782     Y166.7842     R17.4500   
   X176.9051     Y170.0269     R17.4500   
   X176.4782     Y173.2696     R17.4500   
   X175.2266     Y176.2913     R17.4500   
   X173.2355     Y178.8861     R17.4500   
   X170.6407     Y180.8772     R17.4500   
   X167.6190     Y182.1288     R17.4500   
   X164.3763     Y182.5557     R17.4500   
   X161.1336     Y182.1288     R17.4500   
   X158.1118     Y180.8772     R17.4500   
   X155.5170     Y178.8861     R17.4500   
   X153.5260     Y176.2913     R17.4500   
   X152.2743     Y173.2696     R17.4500   
   X151.8474     Y170.0269     R17.4500   
   X152.2743     Y166.7842     R17.4500   
   X153.5260     Y163.7625     R17.4500   
   X155.5170     Y161.1676     R17.4500   
(Pass: 8)
G1   Z-4.000     F300 
G17 G2   X158.1118     Y159.1766     R17.4500    F1200
   X161.1336     Y157.9249     R17.4500   
   X164.3763     Y157.4980     R17.4500   
   X167.6190     Y157.9249     R17.4500   
   X170.6407     Y159.1766     R17.4500   
   X173.2355     Y161.1676     R17.4500   
   X175.2266     Y163.7625     R17.4500   
   X176.4782     Y166.7842     R17.4500   
   X176.9051     Y170.0269     R17.4500   
   X176.4782     Y173.2696     R17.4500   
   X175.2266     Y176.2913     R17.4500   
   X173.2355     Y178.8861     R17.4500   
   X170.6407     Y180.8772     R17.4500   
   X167.6190     Y182.1288     R17.4500   
   X164.3763     Y182.5557     R17.4500   
   X161.1336     Y182.1288     R17.4500   
   X158.1118     Y180.8772     R17.4500   
   X155.5170     Y178.8861     R17.4500   
   X153.5260     Y176.2913     R17.4500   
   X152.2743     Y173.2696     R17.4500   
   X151.8474     Y170.0269     R17.4500   
   X152.2743     Y166.7842     R17.4500   
   X153.5260     Y163.7625     R17.4500   
   X155.5170     Y161.1676     R17.4500   
(Pass: 9)
G1   Z-4.200     F300 
G17 G2   X158.1118     Y159.1766     R17.4500    F1200
   X161.1336     Y157.9249     R17.4500   
   X164.3763     Y157.4980     R17.4500   
   X167.6190     Y157.9249     R17.4500   
   X170.6407     Y159.1766     R17.4500   
   X173.2355     Y161.1676     R17.4500   
   X175.2266     Y163.7625     R17.4500   
   X176.4782     Y166.7842     R17.4500   
   X176.9051     Y170.0269     R17.4500   
   X176.4782     Y173.2696     R17.4500   
   X175.2266     Y176.2913     R17.4500   
   X173.2355     Y178.8861     R17.4500   
   X170.6407     Y180.8772     R17.4500   
   X167.6190     Y182.1288     R17.4500   
   X164.3763     Y182.5557     R17.4500   
   X161.1336     Y182.1288     R17.4500   
   X158.1118     Y180.8772     R17.4500   
   X155.5170     Y178.8861     R17.4500   
   X153.5260     Y176.2913     R17.4500   
   X152.2743     Y173.2696     R17.4500   
   X151.8474     Y170.0269     R17.4500   
   X152.2743     Y166.7842     R17.4500   
   X153.5260     Y163.7625     R17.4500   
   X155.5170     Y161.1676     R17.4500   
(BREAK pass 9)
G0   Z5.000     
(Pass: 1)
   X179.428      Y154.791   
G1   Z-0.500     F300 
G17 G2   X179.3748     Y154.6638     R5.4500     F1200
   X179.3568     Y154.5269     R5.4500    
   X179.3748     Y154.3900     R5.4500    
   X179.4277     Y154.2625     R5.4500    
   X179.5117     Y154.1529     R5.4500    
   X179.6212     Y154.0689     R5.4500    
   X179.7488     Y154.0160     R5.4500    
   X179.8857     Y153.9980     R5.4500    
   X180.0226     Y154.0160     R5.4500    
   X180.1501     Y154.0689     R5.4500    
   X180.2596     Y154.1529     R5.4500    
   X180.3437     Y154.2625     R5.4500    
   X180.3965     Y154.3900     R5.4500    
   X180.4145     Y154.5269     R5.4500    
   X180.3965     Y154.6638     R5.4500    
   X180.3437     Y154.7913     R5.4500    
   X180.2596     Y154.9008     R5.4500    
   X180.1501     Y154.9849     R5.4500    
   X180.0226     Y155.0377     R5.4500    
   X179.8857     Y155.0557     R5.4500    
   X179.7488     Y155.0377     R5.4500    
   X179.6212     Y154.9849     R5.4500    
   X179.5117     Y154.9008     R5.4500    
   X179.4277     Y154.7913     R5.4500    
(Pass: 2)
G1   Z-1.000     F300 
G17 G2   X179.3748     Y154.6638     R5.4500     F1200
   X179.3568     Y154.5269     R5.4500    
   X179.3748     Y154.3900     R5.4500    
   X179.4277     Y154.2625     R5.4500    
   X179.5117     Y154.1529     R5.4500    
   X179.6212     Y154.0689     R5.4500    
   X179.7488     Y154.0160     R5.4500    
   X179.8857     Y153.9980     R5.4500    
   X180.0226     Y154.0160     R5.4500    
   X180.1501     Y154.0689     R5.4500    
   X180.2596     Y154.1529     R5.4500    
   X180.3437     Y154.2625     R5.4500    
   X180.3965     Y154.3900     R5.4500    
   X180.4145     Y154.5269     R5.4500    
   X180.3965     Y154.6638     R5.4500    
   X180.3437     Y154.7913     R5.4500    
   X180.2596     Y154.9008     R5.4500    
   X180.1501     Y154.9849     R5.4500    
   X180.0226     Y155.0377     R5.4500    
   X179.8857     Y155.0557     R5.4500    
   X179.7488     Y155.0377     R5.4500    
   X179.6212     Y154.9849     R5.4500    
   X179.5117     Y154.9008     R5.4500    
   X179.4277     Y154.7913     R5.4500    
(Pass: 3)
G1   Z-1.500     F300 
G17 G2   X179.3748     Y154.6638     R5.4500     F1200
   X179.3568     Y154.5269     R5.4500    
   X179.3748     Y154.3900     R5.4500    
   X179.4277     Y154.2625     R5.4500    
   X179.5117     Y154.1529     R5.4500    
   X179.6212     Y154.0689     R5.4500    
   X179.7488     Y154.0160     R5.4500    
   X179.8857     Y153.9980     R5.4500    
   X180.0226     Y154.0160     R5.4500    
   X180.1501     Y154.0689     R5.4500    
   X180.2596     Y154.1529     R5.4500    
   X180.3437     Y154.2625     R5.4500    
   X180.3965     Y154.3900     R5.4500    
   X180.4145     Y154.5269     R5.4500    
   X180.3965     Y154.6638     R5.4500    
   X180.3437     Y154.7913     R5.4500    
   X180.2596     Y154.9008     R5.4500    
   X180.1501     Y154.9849     R5.4500    
   X180.0226     Y155.0377     R5.4500    
   X179.8857     Y155.0557     R5.4500    
   X179.7488     Y155.0377     R5.4500    
   X179.6212     Y154.9849     R5.4500    
   X179.5117     Y154.9008     R5.4500    
   X179.4277     Y154.7913     R5.4500    
(Pass: 4)
G1   Z-2.000     F300 
G17 G2   X179.3748     Y154.6638     R5.4500     F1200
   X179.3568     Y154.5269     R5.4500    
   X179.3748     Y154.3900     R5.4500    
   X179.4277     Y154.2625     R5.4500    
   X179.5117     Y154.1529     R5.4500    
   X179.6212     Y154.0689     R5.4500    
   X179.7488     Y154.0160     R5.4500    
   X179.8857     Y153.9980     R5.4500    
   X180.0226     Y154.0160     R5.4500    
   X180.1501     Y154.0689     R5.4500    
   X180.2596     Y154.1529     R5.4500    
   X180.3437     Y154.2625     R5.4500    
   X180.3965     Y154.3900     R5.4500    
   X180.4145     Y154.5269     R5.4500    
   X180.3965     Y154.6638     R5.4500    
   X180.3437     Y154.7913     R5.4500    
   X180.2596     Y154.9008     R5.4500    
   X180.1501     Y154.9849     R5.4500    
   X180.0226     Y155.0377     R5.4500    
   X179.8857     Y155.0557     R5.4500    
   X179.7488     Y155.0377     R5.4500    
   X179.6212     Y154.9849     R5.4500    
   X179.5117     Y154.9008     R5.4500    
   X179.4277     Y154.7913     R5.4500    
(Pass: 5)
G1   Z-2.500     F300 
G17 G2   X179.3748     Y154.6638     R5.4500     F1200
   X179.3568     Y154.5269     R5.4500    
   X179.3748     Y154.3900     R5.4500    
   X179.4277     Y154.2625     R5.4500    
   X179.5117     Y154.1529     R5.4500    
   X179.6212     Y154.0689     R5.4500    
   X179.7488     Y154.0160     R5.4500    
   X179.8857     Y153.9980     R5.4500    
   X180.0226     Y154.0160     R5.4500    
   X180.1501     Y154.0689     R5.4500    
   X180.2596     Y154.1529     R5.4500    
   X180.3437     Y154.2625     R5.4500    
   X180.3965     Y154.3900     R5.4500    
   X180.4145     Y154.5269     R5.4500    
   X180.3965     Y154.6638     R5.4500    
   X180.3437     Y154.7913     R5.4500    
   X180.2596     Y154.9008     R5.4500    
   X180.1501     Y154.9849     R5.4500    
   X180.0226     Y155.0377     R5.4500    
   X179.8857     Y155.0557     R5.4500    
   X179.7488     Y155.0377     R5.4500    
   X179.6212     Y154.9849     R5.4500    
   X179.5117     Y154.9008     R5.4500    
   X179.4277     Y154.7913     R5.4500    
(Pass: 6)
G1   Z-3.000     F300 
G17 G2   X179.3748     Y154.6638     R5.4500     F1200
   X179.3568     Y154.5269     R5.4500    
   X179.3748     Y154.3900     R5.4500    
   X179.4277     Y154.2625     R5.4500    
   X179.5117     Y154.1529     R5.4500    
   X179.6212     Y154.0689     R5.4500    
   X179.7488     Y154.0160     R5.4500    
   X179.8857     Y153.9980     R5.4500    
   X180.0226     Y154.0160     R5.4500    
   X180.1501     Y154.0689     R5.4500    
   X180.2596     Y154.1529     R5.4500    
   X180.3437     Y154.2625     R5.4500    
   X180.3965     Y154.3900     R5.4500    
   X180.4145     Y154.5269     R5.4500    
   X180.3965     Y154.6638     R5.4500    
   X180.3437     Y154.7913     R5.4500    
   X180.2596     Y154.9008     R5.4500    
   X180.1501     Y154.9849     R5.4500    
   X180.0226     Y155.0377     R5.4500    
   X179.8857     Y155.0557     R5.4500    
   X179.7488     Y155.0377     R5.4500    
   X179.6212     Y154.9849     R5.4500    
   X179.5117     Y154.9008     R5.4500    
   X179.4277     Y154.7913     R5.4500    
(Pass: 7)
G1   Z-3.500     F300 
G17 G2   X179.3748     Y154.6638     R5.4500     F1200
   X179.3568     Y154.5269     R5.4500    
   X179.3748     Y154.3900     R5.4500    
   X179.4277     Y154.2625     R5.4500    
   X179.5117     Y154.1529     R5.4500    
   X179.6212     Y154.0689     R5.4500    
   X179.7488     Y154.0160     R5.4500    
   X179.8857     Y153.9980     R5.4500    
   X180.0226     Y154.0160     R5.4500    
   X180.1501     Y154.0689     R5.4500    
   X180.2596     Y154.1529     R5.4500    
   X180.3437     Y154.2625     R5.4500    
   X180.3965     Y154.3900     R5.4500    
   X180.4145     Y154.5269     R5.4500    
   X180.3965     Y154.6638     R5.4500    
   X180.3437     Y154.7913     R5.4500    
   X180.2596     Y154.9008     R5.4500    
   X180.1501     Y154.9849     R5.4500    
   X180.0226     Y155.0377     R5.4500    
   X179.8857     Y155.0557     R5.4500    
   X179.7488     Y155.0377     R5.4500    
   X179.6212     Y154.9849     R5.4500    
   X179.5117     Y154.9008     R5.4500    
   X179.4277     Y154.7913     R5.4500    
(Pass: 8)
G1   Z-4.000     F300 
G17 G2   X179.3748     Y154.6638     R5.4500     F1200
   X179.3568     Y154.5269     R5.4500    
   X179.3748     Y154.3900     R5.4500    
   X179.4277     Y154.2625     R5.4500    
   X179.5117     Y154.1529     R5.4500    
   X179.6212     Y154.0689     R5.4500    
   X179.7488     Y154.0160     R5.4500    
   X179.8857     Y153.9980     R5.4500    
   X180.0226     Y154.0160     R5.4500    
   X180.1501     Y154.0689     R5.4500    
   X180.2596     Y154.1529     R5.4500    
   X180.3437     Y154.2625     R5.4500    
   X180.3965     Y154.3900     R5.4500    
   X180.4145     Y154.5269     R5.4500    
   X180.3965     Y154.6638     R5.4500    
   X180.3437     Y154.7913     R5.4500    
   X180.2596     Y154.9008     R5.4500    
   X180.1501     Y154.9849     R5.4500    
   X180.0226     Y155.0377     R5.4500    
   X179.8857     Y155.0557     R5.4500    
   X179.7488     Y155.0377     R5.4500    
   X179.6212     Y154.9849     R5.4500    
   X179.5117     Y154.9008     R5.4500    
   X179.4277     Y154.7913     R5.4500    
(Pass: 9)
G1   Z-4.200     F300 
G17 G2   X179.3748     Y154.6638     R5.4500     F1200
   X179.3568     Y154.5269     R5.4500    
   X179.3748     Y154.3900     R5.4500    
   X179.4277     Y154.2625     R5.4500    
   X179.5117     Y154.1529     R5.4500    
   X179.6212     Y154.0689     R5.4500    
   X179.7488     Y154.0160     R5.4500    
   X179.8857     Y153.9980     R5.4500    
   X180.0226     Y154.0160     R5.4500    
   X180.1501     Y154.0689     R5.4500    
   X180.2596     Y154.1529     R5.4500    
   X180.3437     Y154.2625     R5.4500    
   X180.3965     Y154.3900     R5.4500    
   X180.4145     Y154.5269     R5.4500    
   X180.3965     Y154.6638     R5.4500    
   X180.3437     Y154.7913     R5.4500    
   X180.2596     Y154.9008     R5.4500    
   X180.1501     Y154.9849     R5.4500    
   X180.0226     Y155.0377     R5.4500    
   X179.8857     Y155.0557     R5.4500    
   X179.7488     Y155.0377     R5.4500    
   X179.6212     Y154.9849     R5.4500    
   X179.5117     Y154.9008     R5.4500    
   X179.4277     Y154.7913     R5.4500    
(BREAK pass 9)
G0   Z5.000     
(Pass: 1)
   X179.767      Y185.012   
G1   Z-0.500     F300 
G17 G2   X179.9040     Y184.9983     R5.4500     F1200
   X180.0402     Y185.0211     R5.4500    
   X180.1658     Y185.0783     R5.4500    
   X180.2724     Y185.1661     R5.4500    
   X180.3526     Y185.2785     R5.4500    
   X180.4010     Y185.4078     R5.4500    
   X180.4142     Y185.5452     R5.4500    
   X180.3915     Y185.6814     R5.4500    
   X180.3343     Y185.8070     R5.4500    
   X180.2465     Y185.9136     R5.4500    
   X180.1341     Y185.9938     R5.4500    
   X180.0048     Y186.0422     R5.4500    
   X179.8674     Y186.0554     R5.4500    
   X179.7312     Y186.0327     R5.4500    
   X179.6055     Y185.9755     R5.4500    
   X179.4990     Y185.8877     R5.4500    
   X179.4188     Y185.7753     R5.4500    
   X179.3704     Y185.6460     R5.4500    
   X179.3571     Y185.5086     R5.4500    
   X179.3799     Y185.3724     R5.4500    
   X179.4371     Y185.2468     R5.4500    
   X179.5249     Y185.1402     R5.4500    
   X179.6373     Y185.0600     R5.4500    
   X179.7666     Y185.0116     R5.4500    
(Pass: 2)
G1   Z-1.000     F300 
G17 G2   X179.9040     Y184.9983     R5.4500     F1200
   X180.0402     Y185.0211     R5.4500    
   X180.1658     Y185.0783     R5.4500    
   X180.2724     Y185.1661     R5.4500    
   X180.3526     Y185.2785     R5.4500    
   X180.4010     Y185.4078     R5.4500    
   X180.4142     Y185.5452     R5.4500    
   X180.3915     Y185.6814     R5.4500    
   X180.3343     Y185.8070     R5.4500    
   X180.2465     Y185.9136     R5.4500    
   X180.1341     Y185.9938     R5.4500    
   X180.0048     Y186.0422     R5.4500    
   X179.8674     Y186.0554     R5.4500    
   X179.7312     Y186.0327     R5.4500    
   X179.6055     Y185.9755     R5.4500    
   X179.4990     Y185.8877     R5.4500    
   X179.4188     Y185.7753     R5.4500    
   X179.3704     Y185.6460     R5.4500    
   X179.3571     Y185.5086     R5.4500    
   X179.3799     Y185.3724     R5.4500    
   X179.4371     Y185.2468     R5.4500    
   X179.5249     Y185.1402     R5.4500    
   X179.6373     Y185.0600     R5.4500    
   X179.7666     Y185.0116     R5.4500    
(Pass: 3)
G1   Z-1.500     F300 
G17 G2   X179.9040     Y184.9983     R5.4500     F1200
   X180.0402     Y185.0211     R5.4500    
   X180.1658     Y185.0783     R5.4500    
   X180.2724     Y185.1661     R5.4500    
   X180.3526     Y185.2785     R5.4500    
   X180.4010     Y185.4078     R5.4500    
   X180.4142     Y185.5452     R5.4500    
   X180.3915     Y185.6814     R5.4500    
   X180.3343     Y185.8070     R5.4500    
   X180.2465     Y185.9136     R5.4500    
   X180.1341     Y185.9938     R5.4500    
   X180.0048     Y186.0422     R5.4500    
   X179.8674     Y186.0554     R5.4500    
   X179.7312     Y186.0327     R5.4500    
   X179.6055     Y185.9755     R5.4500    
   X179.4990     Y185.8877     R5.4500    
   X179.4188     Y185.7753     R5.4500    
   X179.3704     Y185.6460     R5.4500    
   X179.3571     Y185.5086     R5.4500    
   X179.3799     Y185.3724     R5.4500    
   X179.4371     Y185.2468     R5.4500    
   X179.5249     Y185.1402     R5.4500    
   X179.6373     Y185.0600     R5.4500    
   X179.7666     Y185.0116     R5.4500    
(Pass: 4)
G1   Z-2.000     F300 
G17 G2   X179.9040     Y184.9983     R5.4500     F1200
   X180.0402     Y185.0211     R5.4500    
   X180.1658     Y185.0783     R5.4500    
   X180.2724     Y185.1661     R5.4500    
   X180.3526     Y185.2785     R5.4500    
   X180.4010     Y185.4078     R5.4500    
   X180.4142     Y185.5452     R5.4500    
   X180.3915     Y185.6814     R5.4500    
   X180.3343     Y185.8070     R5.4500    
   X180.2465     Y185.9136     R5.4500    
   X180.1341     Y185.9938     R5.4500    
   X180.0048     Y186.0422     R5.4500    
   X179.8674     Y186.0554     R5.4500    
   X179.7312     Y186.0327     R5.4500    
   X179.6055     Y185.9755     R5.4500    
   X179.4990     Y185.8877     R5.4500    
   X179.4188     Y185.7753     R5.4500    
   X179.3704     Y185.6460     R5.4500    
   X179.3571     Y185.5086     R5.4500    
   X179.3799     Y185.3724     R5.4500    
   X179.4371     Y185.2468     R5.4500    
   X179.5249     Y185.1402     R5.4500    
   X179.6373     Y185.0600     R5.4500    
   X179.7666     Y185.0116     R5.4500    
(Pass: 5)
G1   Z-2.500     F300 
G17 G2   X179.9040     Y184.9983     R5.4500     F1200
   X180.0402     Y185.0211     R5.4500    
   X180.1658     Y185.0783     R5.4500    
   X180.2724     Y185.1661     R5.4500    
   X180.3526     Y185.2785     R5.4500    
   X180.4010     Y185.4078     R5.4500    
   X180.4142     Y185.5452     R5.4500    
   X180.3915     Y185.6814     R5.4500    
   X180.3343     Y185.8070     R5.4500    
   X180.2465     Y185.9136     R5.4500    
   X180.1341     Y185.9938     R5.4500    
   X180.0048     Y186.0422     R5.4500    
   X179.8674     Y186.0554     R5.4500    
   X179.7312     Y186.0327     R5.4500    
   X179.6055     Y185.9755     R5.4500    
   X179.4990     Y185.8877     R5.4500    
   X179.4188     Y185.7753     R5.4500    
   X179.3704     Y185.6460     R5.4500    
   X179.3571     Y185.5086     R5.4500    
   X179.3799     Y185.3724     R5.4500    
   X179.4371     Y185.2468     R5.4500    
   X179.5249     Y185.1402     R5.4500    
   X179.6373     Y185.0600     R5.4500    
   X179.7666     Y185.0116     R5.4500    
(Pass: 6)
G1   Z-3.000     F300 
G17 G2   X179.9040     Y184.9983     R5.4500     F1200
   X180.0402     Y185.0211     R5.4500    
   X180.1658     Y185.0783     R5.4500    
   X180.2724     Y185.1661     R5.4500    
   X180.3526     Y185.2785     R5.4500    
   X180.4010     Y185.4078     R5.4500    
   X180.4142     Y185.5452     R5.4500    
   X180.3915     Y185.6814     R5.4500    
   X180.3343     Y185.8070     R5.4500    
   X180.2465     Y185.9136     R5.4500    
   X180.1341     Y185.9938     R5.4500    
   X180.0048     Y186.0422     R5.4500    
   X179.8674     Y186.0554     R5.4500    
   X179.7312     Y186.0327     R5.4500    
   X179.6055     Y185.9755     R5.4500    
   X179.4990     Y185.8877     R5.4500    
   X179.4188     Y185.7753     R5.4500    
   X179.3704     Y185.6460     R5.4500    
   X179.3571     Y185.5086     R5.4500    
   X179.3799     Y185.3724     R5.4500    
   X179.4371     Y185.2468     R5.4500    
   X179.5249     Y185.1402     R5.4500    
   X179.6373     Y185.0600     R5.4500    
   X179.7666     Y185.0116     R5.4500    
(Pass: 7)
G1   Z-3.500     F300 
G17 G2   X179.9040     Y184.9983     R5.4500     F1200
   X180.0402     Y185.0211     R5.4500    
   X180.1658     Y185.0783     R5.4500    
   X180.2724     Y185.1661     R5.4500    
   X180.3526     Y185.2785     R5.4500    
   X180.4010     Y185.4078     R5.4500    
   X180.4142     Y185.5452     R5.4500    
   X180.3915     Y185.6814     R5.4500    
   X180.3343     Y185.8070     R5.4500    
   X180.2465     Y185.9136     R5.4500    
   X180.1341     Y185.9938     R5.4500    
   X180.0048     Y186.0422     R5.4500    
   X179.8674     Y186.0554     R5.4500    
   X179.7312     Y186.0327     R5.4500    
   X179.6055     Y185.9755     R5.4500    
   X179.4990     Y185.8877     R5.4500    
   X179.4188     Y185.7753     R5.4500    
   X179.3704     Y185.6460     R5.4500    
   X179.3571     Y185.5086     R5.4500    
   X179.3799     Y185.3724     R5.4500    
   X179.4371     Y185.2468     R5.4500    
   X179.5249     Y185.1402     R5.4500    
   X179.6373     Y185.0600     R5.4500    
   X179.7666     Y185.0116     R5.4500    
(Pass: 8)
G1   Z-4.000     F300 
G17 G2   X179.9040     Y184.9983     R5.4500     F1200
   X180.0402     Y185.0211     R5.4500    
   X180.1658     Y185.0783     R5.4500    
   X180.2724     Y185.1661     R5.4500    
   X180.3526     Y185.2785     R5.4500    
   X180.4010     Y185.4078     R5.4500    
   X180.4142     Y185.5452     R5.4500    
   X180.3915     Y185.6814     R5.4500    
   X180.3343     Y185.8070     R5.4500    
   X180.2465     Y185.9136     R5.4500    
   X180.1341     Y185.9938     R5.4500    
   X180.0048     Y186.0422     R5.4500    
   X179.8674     Y186.0554     R5.4500    
   X179.7312     Y186.0327     R5.4500    
   X179.6055     Y185.9755     R5.4500    
   X179.4990     Y185.8877     R5.4500    
   X179.4188     Y185.7753     R5.4500    
   X179.3704     Y185.6460     R5.4500    
   X179.3571     Y185.5086     R5.4500    
   X179.3799     Y185.3724     R5.4500    
   X179.4371     Y185.2468     R5.4500    
   X179.5249     Y185.1402     R5.4500    
   X179.6373     Y185.0600     R5.4500    
   X179.7666     Y185.0116     R5.4500    
(Pass: 9)
G1   Z-4.200     F300 
G17 G2   X179.9040     Y184.9983     R5.4500     F1200
   X180.0402     Y185.0211     R5.4500    
   X180.1658     Y185.0783     R5.4500    
   X180.2724     Y185.1661     R5.4500    
   X180.3526     Y185.2785     R5.4500    
   X180.4010     Y185.4078     R5.4500    
   X180.4142     Y185.5452     R5.4500    
   X180.3915     Y185.6814     R5.4500    
   X180.3343     Y185.8070     R5.4500    
   X180.2465     Y185.9136     R5.4500    
   X180.1341     Y185.9938     R5.4500    
   X180.0048     Y186.0422     R5.4500    
   X179.8674     Y186.0554     R5.4500    
   X179.7312     Y186.0327     R5.4500    
   X179.6055     Y185.9755     R5.4500    
   X179.4990     Y185.8877     R5.4500    
   X179.4188     Y185.7753     R5.4500    
   X179.3704     Y185.6460     R5.4500    
   X179.3571     Y185.5086     R5.4500    
   X179.3799     Y185.3724     R5.4500    
   X179.4371     Y185.2468     R5.4500    
   X179.5249     Y185.1402     R5.4500    
   X179.6373     Y185.0600     R5.4500    
   X179.7666     Y185.0116     R5.4500    
(BREAK pass 9)
G0   Z5.000     
(Pass: 1)
   X149.397      Y185.390   
G1   Z-0.500     F300 
G17 G2   X149.4145     Y185.5272     R5.4500     F1200
   X149.3964     Y185.6641     R5.4500    
   X149.3435     Y185.7916     R5.4500    
   X149.2594     Y185.9011     R5.4500    
   X149.1498     Y185.9850     R5.4500    
   X149.0223     Y186.0378     R5.4500    
   X148.8854     Y186.0557     R5.4500    
   X148.7485     Y186.0376     R5.4500    
   X148.6210     Y185.9847     R5.4500    
   X148.5115     Y185.9006     R5.4500    
   X148.4275     Y185.7911     R5.4500    
   X148.3748     Y185.6635     R5.4500    
   X148.3568     Y185.5266     R5.4500    
   X148.3749     Y185.3897     R5.4500    
   X148.4278     Y185.2622     R5.4500    
   X148.5119     Y185.1527     R5.4500    
   X148.6215     Y185.0687     R5.4500    
   X148.7491     Y185.0160     R5.4500    
   X148.8860     Y184.9980     R5.4500    
   X149.0228     Y185.0161     R5.4500    
   X149.1504     Y185.0690     R5.4500    
   X149.2599     Y185.1531     R5.4500    
   X149.3438     Y185.2627     R5.4500    
   X149.3966     Y185.3903     R5.4500    
(Pass: 2)
G1   Z-1.000     F300 
G17 G2   X149.4145     Y185.5272     R5.4500     F1200
   X149.3964     Y185.6641     R5.4500    
   X149.3435     Y185.7916     R5.4500    
   X149.2594     Y185.9011     R5.4500    
   X149.1498     Y185.9850     R5.4500    
   X149.0223     Y186.0378     R5.4500    
   X148.8854     Y186.0557     R5.4500    
   X148.7485     Y186.0376     R5.4500    
   X148.6210     Y185.9847     R5.4500    
   X148.5115     Y185.9006     R5.4500    
   X148.4275     Y185.7911     R5.4500    
   X148.3748     Y185.6635     R5.4500    
   X148.3568     Y185.5266     R5.4500    
   X148.3749     Y185.3897     R5.4500    
   X148.4278     Y185.2622     R5.4500    
   X148.5119     Y185.1527     R5.4500    
   X148.6215     Y185.0687     R5.4500    
   X148.7491     Y185.0160     R5.4500    
   X148.8860     Y184.9980     R5.4500    
   X149.0228     Y185.0161     R5.4500    
   X149.1504     Y185.0690     R5.4500    
   X149.2599     Y185.1531     R5.4500    
   X149.3438     Y185.2627     R5.4500    
   X149.3966     Y185.3903     R5.4500    
(Pass: 3)
G1   Z-1.500     F300 
G17 G2   X149.4145     Y185.5272     R5.4500     F1200
   X149.3964     Y185.6641     R5.4500    
   X149.3435     Y185.7916     R5.4500    
   X149.2594     Y185.9011     R5.4500    
   X149.1498     Y185.9850     R5.4500    
   X149.0223     Y186.0378     R5.4500    
   X148.8854     Y186.0557     R5.4500    
   X148.7485     Y186.0376     R5.4500    
   X148.6210     Y185.9847     R5.4500    
   X148.5115     Y185.9006     R5.4500    
   X148.4275     Y185.7911     R5.4500    
   X148.3748     Y185.6635     R5.4500    
   X148.3568     Y185.5266     R5.4500    
   X148.3749     Y185.3897     R5.4500    
   X148.4278     Y185.2622     R5.4500    
   X148.5119     Y185.1527     R5.4500    
   X148.6215     Y185.0687     R5.4500    
   X148.7491     Y185.0160     R5.4500    
   X148.8860     Y184.9980     R5.4500    
   X149.0228     Y185.0161     R5.4500    
   X149.1504     Y185.0690     R5.4500    
   X149.2599     Y185.1531     R5.4500    
   X149.3438     Y185.2627     R5.4500    
   X149.3966     Y185.3903     R5.4500    
(Pass: 4)
G1   Z-2.000     F300 
G17 G2   X149.4145     Y185.5272     R5.4500     F1200
   X149.3964     Y185.6641     R5.4500    
   X149.3435     Y185.7916     R5.4500    
   X149.2594     Y185.9011     R5.4500    
   X149.1498     Y185.9850     R5.4500    
   X149.0223     Y186.0378     R5.4500    
   X148.8854     Y186.0557     R5.4500    
   X148.7485     Y186.0376     R5.4500    
   X148.6210     Y185.9847     R5.4500    
   X148.5115     Y185.9006     R5.4500    
   X148.4275     Y185.7911     R5.4500    
   X148.3748     Y185.6635     R5.4500    
   X148.3568     Y185.5266     R5.4500    
   X148.3749     Y185.3897     R5.4500    
   X148.4278     Y185.2622     R5.4500    
   X148.5119     Y185.1527     R5.4500    
   X148.6215     Y185.0687     R5.4500    
   X148.7491     Y185.0160     R5.4500    
   X148.8860     Y184.9980     R5.4500    
   X149.0228     Y185.0161     R5.4500    
   X149.1504     Y185.0690     R5.4500    
   X149.2599     Y185.1531     R5.4500    
   X149.3438     Y185.2627     R5.4500    
   X149.3966     Y185.3903     R5.4500    
(Pass: 5)
G1   Z-2.500     F300 
G17 G2   X149.4145     Y185.5272     R5.4500     F1200
   X149.3964     Y185.6641     R5.4500    
   X149.3435     Y185.7916     R5.4500    
   X149.2594     Y185.9011     R5.4500    
   X149.1498     Y185.9850     R5.4500    
   X149.0223     Y186.0378     R5.4500    
   X148.8854     Y186.0557     R5.4500    
   X148.7485     Y186.0376     R5.4500    
   X148.6210     Y185.9847     R5.4500    
   X148.5115     Y185.9006     R5.4500    
   X148.4275     Y185.7911     R5.4500    
   X148.3748     Y185.6635     R5.4500    
   X148.3568     Y185.5266     R5.4500    
   X148.3749     Y185.3897     R5.4500    
   X148.4278     Y185.2622     R5.4500    
   X148.5119     Y185.1527     R5.4500    
   X148.6215     Y185.0687     R5.4500    
   X148.7491     Y185.0160     R5.4500    
   X148.8860     Y184.9980     R5.4500    
   X149.0228     Y185.0161     R5.4500    
   X149.1504     Y185.0690     R5.4500    
   X149.2599     Y185.1531     R5.4500    
   X149.3438     Y185.2627     R5.4500    
   X149.3966     Y185.3903     R5.4500    
(Pass: 6)
G1   Z-3.000     F300 
G17 G2   X149.4145     Y185.5272     R5.4500     F1200
   X149.3964     Y185.6641     R5.4500    
   X149.3435     Y185.7916     R5.4500    
   X149.2594     Y185.9011     R5.4500    
   X149.1498     Y185.9850     R5.4500    
   X149.0223     Y186.0378     R5.4500    
   X148.8854     Y186.0557     R5.4500    
   X148.7485     Y186.0376     R5.4500    
   X148.6210     Y185.9847     R5.4500    
   X148.5115     Y185.9006     R5.4500    
   X148.4275     Y185.7911     R5.4500    
   X148.3748     Y185.6635     R5.4500    
   X148.3568     Y185.5266     R5.4500    
   X148.3749     Y185.3897     R5.4500    
   X148.4278     Y185.2622     R5.4500    
   X148.5119     Y185.1527     R5.4500    
   X148.6215     Y185.0687     R5.4500    
   X148.7491     Y185.0160     R5.4500    
   X148.8860     Y184.9980     R5.4500    
   X149.0228     Y185.0161     R5.4500    
   X149.1504     Y185.0690     R5.4500    
   X149.2599     Y185.1531     R5.4500    
   X149.3438     Y185.2627     R5.4500    
   X149.3966     Y185.3903     R5.4500    
(Pass: 7)
G1   Z-3.500     F300 
G17 G2   X149.4145     Y185.5272     R5.4500     F1200
   X149.3964     Y185.6641     R5.4500    
   X149.3435     Y185.7916     R5.4500    
   X149.2594     Y185.9011     R5.4500    
   X149.1498     Y185.9850     R5.4500    
   X149.0223     Y186.0378     R5.4500    
   X148.8854     Y186.0557     R5.4500    
   X148.7485     Y186.0376     R5.4500    
   X148.6210     Y185.9847     R5.4500    
   X148.5115     Y185.9006     R5.4500    
   X148.4275     Y185.7911     R5.4500    
   X148.3748     Y185.6635     R5.4500    
   X148.3568     Y185.5266     R5.4500    
   X148.3749     Y185.3897     R5.4500    
   X148.4278     Y185.2622     R5.4500    
   X148.5119     Y185.1527     R5.4500    
   X148.6215     Y185.0687     R5.4500    
   X148.7491     Y185.0160     R5.4500    
   X148.8860     Y184.9980     R5.4500    
   X149.0228     Y185.0161     R5.4500    
   X149.1504     Y185.0690     R5.4500    
   X149.2599     Y185.1531     R5.4500    
   X149.3438     Y185.2627     R5.4500    
   X149.3966     Y185.3903     R5.4500    
(Pass: 8)
G1   Z-4.000     F300 
G17 G2   X149.4145     Y185.5272     R5.4500     F1200
   X149.3964     Y185.6641     R5.4500    
   X149.3435     Y185.7916     R5.4500    
   X149.2594     Y185.9011     R5.4500    
   X149.1498     Y185.9850     R5.4500    
   X149.0223     Y186.0378     R5.4500    
   X148.8854     Y186.0557     R5.4500    
   X148.7485     Y186.0376     R5.4500    
   X148.6210     Y185.9847     R5.4500    
   X148.5115     Y185.9006     R5.4500    
   X148.4275     Y185.7911     R5.4500    
   X148.3748     Y185.6635     R5.4500    
   X148.3568     Y185.5266     R5.4500    
   X148.3749     Y185.3897     R5.4500    
   X148.4278     Y185.2622     R5.4500    
   X148.5119     Y185.1527     R5.4500    
   X148.6215     Y185.0687     R5.4500    
   X148.7491     Y185.0160     R5.4500    
   X148.8860     Y184.9980     R5.4500    
   X149.0228     Y185.0161     R5.4500    
   X149.1504     Y185.0690     R5.4500    
   X149.2599     Y185.1531     R5.4500    
   X149.3438     Y185.2627     R5.4500    
   X149.3966     Y185.3903     R5.4500    
(Pass: 9)
G1   Z-4.200     F300 
G17 G2   X149.4145     Y185.5272     R5.4500     F1200
   X149.3964     Y185.6641     R5.4500    
   X149.3435     Y185.7916     R5.4500    
   X149.2594     Y185.9011     R5.4500    
   X149.1498     Y185.9850     R5.4500    
   X149.0223     Y186.0378     R5.4500    
   X148.8854     Y186.0557     R5.4500    
   X148.7485     Y186.0376     R5.4500    
   X148.6210     Y185.9847     R5.4500    
   X148.5115     Y185.9006     R5.4500    
   X148.4275     Y185.7911     R5.4500    
   X148.3748     Y185.6635     R5.4500    
   X148.3568     Y185.5266     R5.4500    
   X148.3749     Y185.3897     R5.4500    
   X148.4278     Y185.2622     R5.4500    
   X148.5119     Y185.1527     R5.4500    
   X148.6215     Y185.0687     R5.4500    
   X148.7491     Y185.0160     R5.4500    
   X148.8860     Y184.9980     R5.4500    
   X149.0228     Y185.0161     R5.4500    
   X149.1504     Y185.0690     R5.4500    
   X149.2599     Y185.1531     R5.4500    
   X149.3438     Y185.2627     R5.4500    
   X149.3966     Y185.3903     R5.4500    
(BREAK pass 9)
G0   Z5.000     
(Pass: 1)
   X145.953      Y250.738   
G1   Z-0.500     F300 
G17 G2   X148.1607     Y251.0266     R13.4500    F1200
   X150.2185     Y251.8769     R13.4500   
   X151.9861     Y253.2307     R13.4500   
   X153.3430     Y254.9959     R13.4500   
   X154.1969     Y257.0521     R13.4500   
   X154.4894     Y259.2593     R13.4500   
   X154.2008     Y261.4670     R13.4500   
   X153.3506     Y263.5247     R13.4500   
   X151.9967     Y265.2923     R13.4500   
   X150.2315     Y266.6493     R13.4500   
   X148.1753     Y267.5031     R13.4500   
   X145.9681     Y267.7957     R13.4500   
   X143.7604     Y267.5070     R13.4500   
   X141.7027     Y266.6568     R13.4500   
   X139.9351     Y265.3030     R13.4500   
   X138.5781     Y263.5378     R13.4500   
   X137.7243     Y261.4815     R13.4500   
   X137.4317     Y259.2744     R13.4500   
   X137.7204     Y257.0667     R13.4500   
   X138.5706     Y255.0089     R13.4500   
   X139.9245     Y253.2413     R13.4500   
   X141.6896     Y251.8844     R13.4500   
   X143.7459     Y251.0305     R13.4500   
   X145.9531     Y250.7380     R13.4500   
(Pass: 2)
G1   Z-1.000     F300 
G17 G2   X148.1607     Y251.0266     R13.4500    F1200
   X150.2185     Y251.8769     R13.4500   
   X151.9861     Y253.2307     R13.4500   
   X153.3430     Y254.9959     R13.4500   
   X154.1969     Y257.0521     R13.4500   
   X154.4894     Y259.2593     R13.4500   
   X154.2008     Y261.4670     R13.4500   
   X153.3506     Y263.5247     R13.4500   
   X151.9967     Y265.2923     R13.4500   
   X150.2315     Y266.6493     R13.4500   
   X148.1753     Y267.5031     R13.4500   
   X145.9681     Y267.7957     R13.4500   
   X143.7604     Y267.5070     R13.4500   
   X141.7027     Y266.6568     R13.4500   
   X139.9351     Y265.3030     R13.4500   
   X138.5781     Y263.5378     R13.4500   
   X137.7243     Y261.4815     R13.4500   
   X137.4317     Y259.2744     R13.4500   
   X137.7204     Y257.0667     R13.4500   
   X138.5706     Y255.0089     R13.4500   
   X139.9245     Y253.2413     R13.4500   
   X141.6896     Y251.8844     R13.4500   
   X143.7459     Y251.0305     R13.4500   
   X145.9531     Y250.7380     R13.4500   
(Pass: 3)
G1   Z-1.500     F300 
G17 G2   X148.1607     Y251.0266     R13.4500    F1200
   X150.2185     Y251.8769     R13.4500   
   X151.9861     Y253.2307     R13.4500   
   X153.3430     Y254.9959     R13.4500   
   X154.1969     Y257.0521     R13.4500   
   X154.4894     Y259.2593     R13.4500   
   X154.2008     Y261.4670     R13.4500   
   X153.3506     Y263.5247     R13.4500   
   X151.9967     Y265.2923     R13.4500   
   X150.2315     Y266.6493     R13.4500   
   X148.1753     Y267.5031     R13.4500   
   X145.9681     Y267.7957     R13.4500   
   X143.7604     Y267.5070     R13.4500   
   X141.7027     Y266.6568     R13.4500   
   X139.9351     Y265.3030     R13.4500   
   X138.5781     Y263.5378     R13.4500   
   X137.7243     Y261.4815     R13.4500   
   X137.4317     Y259.2744     R13.4500   
   X137.7204     Y257.0667     R13.4500   
   X138.5706     Y255.0089     R13.4500   
   X139.9245     Y253.2413     R13.4500   
   X141.6896     Y251.8844     R13.4500   
   X143.7459     Y251.0305     R13.4500   
   X145.9531     Y250.7380     R13.4500   
(Pass: 4)
G1   Z-2.000     F300 
G17 G2   X148.1607     Y251.0266     R13.4500    F1200
   X150.2185     Y251.8769     R13.4500   
   X151.9861     Y253.2307     R13.4500   
   X153.3430     Y254.9959     R13.4500   
   X154.1969     Y257.0521     R13.4500   
   X154.4894     Y259.2593     R13.4500   
   X154.2008     Y261.4670     R13.4500   
   X153.3506     Y263.5247     R13.4500   
   X151.9967     Y265.2923     R13.4500   
   X150.2315     Y266.6493     R13.4500   
   X148.1753     Y267.5031     R13.4500   
   X145.9681     Y267.7957     R13.4500   
   X143.7604     Y267.5070     R13.4500   
   X141.7027     Y266.6568     R13.4500   
   X139.9351     Y265.3030     R13.4500   
   X138.5781     Y263.5378     R13.4500   
   X137.7243     Y261.4815     R13.4500   
   X137.4317     Y259.2744     R13.4500   
   X137.7204     Y257.0667     R13.4500   
   X138.5706     Y255.0089     R13.4500   
   X139.9245     Y253.2413     R13.4500   
   X141.6896     Y251.8844     R13.4500   
   X143.7459     Y251.0305     R13.4500   
   X145.9531     Y250.7380     R13.4500   
(Pass: 5)
G1   Z-2.500     F300 
G17 G2   X148.1607     Y251.0266     R13.4500    F1200
   X150.2185     Y251.8769     R13.4500   
   X151.9861     Y253.2307     R13.4500   
   X153.3430     Y254.9959     R13.4500   
   X154.1969     Y257.0521     R13.4500   
   X154.4894     Y259.2593     R13.4500   
   X154.2008     Y261.4670     R13.4500   
   X153.3506     Y263.5247     R13.4500   
   X151.9967     Y265.2923     R13.4500   
   X150.2315     Y266.6493     R13.4500   
   X148.1753     Y267.5031     R13.4500   
   X145.9681     Y267.7957     R13.4500   
   X143.7604     Y267.5070     R13.4500   
   X141.7027     Y266.6568     R13.4500   
   X139.9351     Y265.3030     R13.4500   
   X138.5781     Y263.5378     R13.4500   
   X137.7243     Y261.4815     R13.4500   
   X137.4317     Y259.2744     R13.4500   
   X137.7204     Y257.0667     R13.4500   
   X138.5706     Y255.0089     R13.4500   
   X139.9245     Y253.2413     R13.4500   
   X141.6896     Y251.8844     R13.4500   
   X143.7459     Y251.0305     R13.4500   
   X145.9531     Y250.7380     R13.4500   
(Pass: 6)
G1   Z-3.000     F300 
G17 G2   X148.1607     Y251.0266     R13.4500    F1200
   X150.2185     Y251.8769     R13.4500   
   X151.9861     Y253.2307     R13.4500   
   X153.3430     Y254.9959     R13.4500   
   X154.1969     Y257.0521     R13.4500   
   X154.4894     Y259.2593     R13.4500   
   X154.2008     Y261.4670     R13.4500   
   X153.3506     Y263.5247     R13.4500   
   X151.9967     Y265.2923     R13.4500   
   X150.2315     Y266.6493     R13.4500   
   X148.1753     Y267.5031     R13.4500   
   X145.9681     Y267.7957     R13.4500   
   X143.7604     Y267.5070     R13.4500   
   X141.7027     Y266.6568     R13.4500   
   X139.9351     Y265.3030     R13.4500   
   X138.5781     Y263.5378     R13.4500   
   X137.7243     Y261.4815     R13.4500   
   X137.4317     Y259.2744     R13.4500   
   X137.7204     Y257.0667     R13.4500   
   X138.5706     Y255.0089     R13.4500   
   X139.9245     Y253.2413     R13.4500   
   X141.6896     Y251.8844     R13.4500   
   X143.7459     Y251.0305     R13.4500   
   X145.9531     Y250.7380     R13.4500   
(Pass: 7)
G1   Z-3.500     F300 
G17 G2   X148.1607     Y251.0266     R13.4500    F1200
   X150.2185     Y251.8769     R13.4500   
   X151.9861     Y253.2307     R13.4500   
   X153.3430     Y254.9959     R13.4500   
   X154.1969     Y257.0521     R13.4500   
   X154.4894     Y259.2593     R13.4500   
   X154.2008     Y261.4670     R13.4500   
   X153.3506     Y263.5247     R13.4500   
   X151.9967     Y265.2923     R13.4500   
   X150.2315     Y266.6493     R13.4500   
   X148.1753     Y267.5031     R13.4500   
   X145.9681     Y267.7957     R13.4500   
   X143.7604     Y267.5070     R13.4500   
   X141.7027     Y266.6568     R13.4500   
   X139.9351     Y265.3030     R13.4500   
   X138.5781     Y263.5378     R13.4500   
   X137.7243     Y261.4815     R13.4500   
   X137.4317     Y259.2744     R13.4500   
   X137.7204     Y257.0667     R13.4500   
   X138.5706     Y255.0089     R13.4500   
   X139.9245     Y253.2413     R13.4500   
   X141.6896     Y251.8844     R13.4500   
   X143.7459     Y251.0305     R13.4500   
   X145.9531     Y250.7380     R13.4500   
(Pass: 8)
G1   Z-4.000     F300 
G17 G2   X148.1607     Y251.0266     R13.4500    F1200
   X150.2185     Y251.8769     R13.4500   
   X151.9861     Y253.2307     R13.4500   
   X153.3430     Y254.9959     R13.4500   
   X154.1969     Y257.0521     R13.4500   
   X154.4894     Y259.2593     R13.4500   
   X154.2008     Y261.4670     R13.4500   
   X153.3506     Y263.5247     R13.4500   
   X151.9967     Y265.2923     R13.4500   
   X150.2315     Y266.6493     R13.4500   
   X148.1753     Y267.5031     R13.4500   
   X145.9681     Y267.7957     R13.4500   
   X143.7604     Y267.5070     R13.4500   
   X141.7027     Y266.6568     R13.4500   
   X139.9351     Y265.3030     R13.4500   
   X138.5781     Y263.5378     R13.4500   
   X137.7243     Y261.4815     R13.4500   
   X137.4317     Y259.2744     R13.4500   
   X137.7204     Y257.0667     R13.4500   
   X138.5706     Y255.0089     R13.4500   
   X139.9245     Y253.2413     R13.4500   
   X141.6896     Y251.8844     R13.4500   
   X143.7459     Y251.0305     R13.4500   
   X145.9531     Y250.7380     R13.4500   
(Pass: 9)
G1   Z-4.200     F300 
G17 G2   X148.1607     Y251.0266     R13.4500    F1200
   X150.2185     Y251.8769     R13.4500   
   X151.9861     Y253.2307     R13.4500   
   X153.3430     Y254.9959     R13.4500   
   X154.1969     Y257.0521     R13.4500   
   X154.4894     Y259.2593     R13.4500   
   X154.2008     Y261.4670     R13.4500   
   X153.3506     Y263.5247     R13.4500   
   X151.9967     Y265.2923     R13.4500   
   X150.2315     Y266.6493     R13.4500   
   X148.1753     Y267.5031     R13.4500   
   X145.9681     Y267.7957     R13.4500   
   X143.7604     Y267.5070     R13.4500   
   X141.7027     Y266.6568     R13.4500   
   X139.9351     Y265.3030     R13.4500   
   X138.5781     Y263.5378     R13.4500   
   X137.7243     Y261.4815     R13.4500   
   X137.4317     Y259.2744     R13.4500   
   X137.7204     Y257.0667     R13.4500   
   X138.5706     Y255.0089     R13.4500   
   X139.9245     Y253.2413     R13.4500   
   X141.6896     Y251.8844     R13.4500   
   X143.7459     Y251.0305     R13.4500   
   X145.9531     Y250.7380     R13.4500   
(BREAK pass 9)
G0   Z5.000     
(Pass: 1)
   X97.203       Y248.918   
G1   Z-0.500     F300 
   Y275.018    F1200
   X80.103    
   Y248.918   
   X97.203    
(Pass: 2)
   Z-1.000     F300 
   Y275.018    F1200
   X80.103    
   Y248.918   
   X97.203    
(Pass: 3)
   Z-1.500     F300 
   Y275.018    F1200
   X80.103    
   Y248.918   
   X97.203    
(Pass: 4)
   Z-2.000     F300 
   Y275.018    F1200
   X80.103    
   Y248.918   
   X97.203    
(Pass: 5)
   Z-2.500     F300 
   Y275.018    F1200
   X80.103    
   Y248.918   
   X97.203    
(Pass: 6)
   Z-3.000     F300 
   Y275.018    F1200
   X80.103    
   Y248.918   
   X97.203    
(Pass: 7)
   Z-3.500     F300 
   Y275.018    F1200
   X80.103    
   Y248.918   
   X97.203    
(Pass: 8)
   Z-4.000     F300 
   Y275.018    F1200
   X80.103    
   Y248.918   
   X97.203    
(Pass: 9)
   Z-4.200     F300 
   Y275.018    F1200
   X80.103    
   Y248.918   
   X97.203    
(BREAK pass 9)
G0   Z5.000     
(Pass: 1)
   X63.203       Y239.818   
G1   Z-0.500     F300 
   Y283.418    F1200
   X39.820    
   Y239.818   
   X63.203    
(Pass: 2)
   Z-1.000     F300 
   Y283.418    F1200
   X39.820    
   Y239.818   
   X63.203    
(Pass: 3)
   Z-1.500     F300 
   Y283.418    F1200
   X39.820    
   Y239.818   
   X63.203    
(Pass: 4)
   Z-2.000     F300 
   Y283.418    F1200
   X39.820    
   Y239.818   
   X63.203    
(Pass: 5)
   Z-2.500     F300 
   Y283.418    F1200
   X39.820    
   Y239.818   
   X63.203    
(Pass: 6)
   Z-3.000     F300 
   Y283.418    F1200
   X39.820    
   Y239.818   
   X63.203    
(Pass: 7)
   Z-3.500     F300 
   Y283.418    F1200
   X39.820    
   Y239.818   
   X63.203    
(Pass: 8)
   Z-4.000     F300 
   Y283.418    F1200
   X39.820    
   Y239.818   
   X63.203    
(Pass: 9)
   Z-4.200     F300 
   Y283.418    F1200
   X39.820    
   Y239.818   
   X63.203    
(BREAK pass 9)
G0   Z5.000     
(Pass: 1)
   X20.340       Y324.569   
G1   Z-0.500     F300 
G17 G2   X20.4628      Y324.6328     R5.4500     F1200
   X20.5648      Y324.7258     R5.4500    
   X20.6393      Y324.8421     R5.4500    
   X20.6812      Y324.9737     R5.4500    
   X20.6876      Y325.1116     R5.4500    
   X20.6580      Y325.2464     R5.4500    
   X20.5946      Y325.3691     R5.4500    
   X20.5016      Y325.4711     R5.4500    
   X20.3853      Y325.5456     R5.4500    
   X20.2538      Y325.5874     R5.4500    
   X20.1159      Y325.5938     R5.4500    
   X19.9810      Y325.5643     R5.4500    
   X19.8584      Y325.5008     R5.4500    
   X19.7563      Y325.4078     R5.4500    
   X19.6819      Y325.2916     R5.4500    
   X19.6400      Y325.1600     R5.4500    
   X19.6336      Y325.0221     R5.4500    
   X19.6632      Y324.8872     R5.4500    
   X19.7266      Y324.7646     R5.4500    
   X19.8196      Y324.6626     R5.4500    
   X19.9359      Y324.5881     R5.4500    
   X20.0674      Y324.5462     R5.4500    
   X20.2053      Y324.5399     R5.4500    
   X20.3402      Y324.5694     R5.4500    
(Pass: 2)
G1   Z-1.000     F300 
G17 G2   X20.4628      Y324.6328     R5.4500     F1200
   X20.5648      Y324.7258     R5.4500    
   X20.6393      Y324.8421     R5.4500    
   X20.6812      Y324.9737     R5.4500    
   X20.6876      Y325.1116     R5.4500    
   X20.6580      Y325.2464     R5.4500    
   X20.5946      Y325.3691     R5.4500    
   X20.5016      Y325.4711     R5.4500    
   X20.3853      Y325.5456     R5.4500    
   X20.2538      Y325.5874     R5.4500    
   X20.1159      Y325.5938     R5.4500    
   X19.9810      Y325.5643     R5.4500    
   X19.8584      Y325.5008     R5.4500    
   X19.7563      Y325.4078     R5.4500    
   X19.6819      Y325.2916     R5.4500    
   X19.6400      Y325.1600     R5.4500    
   X19.6336      Y325.0221     R5.4500    
   X19.6632      Y324.8872     R5.4500    
   X19.7266      Y324.7646     R5.4500    
   X19.8196      Y324.6626     R5.4500    
   X19.9359      Y324.5881     R5.4500    
   X20.0674      Y324.5462     R5.4500    
   X20.2053      Y324.5399     R5.4500    
   X20.3402      Y324.5694     R5.4500    
(Pass: 3)
G1   Z-1.500     F300 
G17 G2   X20.4628      Y324.6328     R5.4500     F1200
   X20.5648      Y324.7258     R5.4500    
   X20.6393      Y324.8421     R5.4500    
   X20.6812      Y324.9737     R5.4500    
   X20.6876      Y325.1116     R5.4500    
   X20.6580      Y325.2464     R5.4500    
   X20.5946      Y325.3691     R5.4500    
   X20.5016      Y325.4711     R5.4500    
   X20.3853      Y325.5456     R5.4500    
   X20.2538      Y325.5874     R5.4500    
   X20.1159      Y325.5938     R5.4500    
   X19.9810      Y325.5643     R5.4500    
   X19.8584      Y325.5008     R5.4500    
   X19.7563      Y325.4078     R5.4500    
   X19.6819      Y325.2916     R5.4500    
   X19.6400      Y325.1600     R5.4500    
   X19.6336      Y325.0221     R5.4500    
   X19.6632      Y324.8872     R5.4500    
   X19.7266      Y324.7646     R5.4500    
   X19.8196      Y324.6626     R5.4500    
   X19.9359      Y324.5881     R5.4500    
   X20.0674      Y324.5462     R5.4500    
   X20.2053      Y324.5399     R5.4500    
   X20.3402      Y324.5694     R5.4500    
(Pass: 4)
G1   Z-2.000     F300 
G17 G2   X20.4628      Y324.6328     R5.4500     F1200
   X20.5648      Y324.7258     R5.4500    
   X20.6393      Y324.8421     R5.4500    
   X20.6812      Y324.9737     R5.4500    
   X20.6876      Y325.1116     R5.4500    
   X20.6580      Y325.2464     R5.4500    
   X20.5946      Y325.3691     R5.4500    
   X20.5016      Y325.4711     R5.4500    
   X20.3853      Y325.5456     R5.4500    
   X20.2538      Y325.5874     R5.4500    
   X20.1159      Y325.5938     R5.4500    
   X19.9810      Y325.5643     R5.4500    
   X19.8584      Y325.5008     R5.4500    
   X19.7563      Y325.4078     R5.4500    
   X19.6819      Y325.2916     R5.4500    
   X19.6400      Y325.1600     R5.4500    
   X19.6336      Y325.0221     R5.4500    
   X19.6632      Y324.8872     R5.4500    
   X19.7266      Y324.7646     R5.4500    
   X19.8196      Y324.6626     R5.4500    
   X19.9359      Y324.5881     R5.4500    
   X20.0674      Y324.5462     R5.4500    
   X20.2053      Y324.5399     R5.4500    
   X20.3402      Y324.5694     R5.4500    
(Pass: 5)
G1   Z-2.500     F300 
G17 G2   X20.4628      Y324.6328     R5.4500     F1200
   X20.5648      Y324.7258     R5.4500    
   X20.6393      Y324.8421     R5.4500    
   X20.6812      Y324.9737     R5.4500    
   X20.6876      Y325.1116     R5.4500    
   X20.6580      Y325.2464     R5.4500    
   X20.5946      Y325.3691     R5.4500    
   X20.5016      Y325.4711     R5.4500    
   X20.3853      Y325.5456     R5.4500    
   X20.2538      Y325.5874     R5.4500    
   X20.1159      Y325.5938     R5.4500    
   X19.9810      Y325.5643     R5.4500    
   X19.8584      Y325.5008     R5.4500    
   X19.7563      Y325.4078     R5.4500    
   X19.6819      Y325.2916     R5.4500    
   X19.6400      Y325.1600     R5.4500    
   X19.6336      Y325.0221     R5.4500    
   X19.6632      Y324.8872     R5.4500    
   X19.7266      Y324.7646     R5.4500    
   X19.8196      Y324.6626     R5.4500    
   X19.9359      Y324.5881     R5.4500    
   X20.0674      Y324.5462     R5.4500    
   X20.2053      Y324.5399     R5.4500    
   X20.3402      Y324.5694     R5.4500    
(Pass: 6)
G1   Z-3.000     F300 
G17 G2   X20.4628      Y324.6328     R5.4500     F1200
   X20.5648      Y324.7258     R5.4500    
   X20.6393      Y324.8421     R5.4500    
   X20.6812      Y324.9737     R5.4500    
   X20.6876      Y325.1116     R5.4500    
   X20.6580      Y325.2464     R5.4500    
   X20.5946      Y325.3691     R5.4500    
   X20.5016      Y325.4711     R5.4500    
   X20.3853      Y325.5456     R5.4500    
   X20.2538      Y325.5874     R5.4500    
   X20.1159      Y325.5938     R5.4500    
   X19.9810      Y325.5643     R5.4500    
   X19.8584      Y325.5008     R5.4500    
   X19.7563      Y325.4078     R5.4500    
   X19.6819      Y325.2916     R5.4500    
   X19.6400      Y325.1600     R5.4500    
   X19.6336      Y325.0221     R5.4500    
   X19.6632      Y324.8872     R5.4500    
   X19.7266      Y324.7646     R5.4500    
   X19.8196      Y324.6626     R5.4500    
   X19.9359      Y324.5881     R5.4500    
   X20.0674      Y324.5462     R5.4500    
   X20.2053      Y324.5399     R5.4500    
   X20.3402      Y324.5694     R5.4500    
(Pass: 7)
G1   Z-3.500     F300 
G17 G2   X20.4628      Y324.6328     R5.4500     F1200
   X20.5648      Y324.7258     R5.4500    
   X20.6393      Y324.8421     R5.4500    
   X20.6812      Y324.9737     R5.4500    
   X20.6876      Y325.1116     R5.4500    
   X20.6580      Y325.2464     R5.4500    
   X20.5946      Y325.3691     R5.4500    
   X20.5016      Y325.4711     R5.4500    
   X20.3853      Y325.5456     R5.4500    
   X20.2538      Y325.5874     R5.4500    
   X20.1159      Y325.5938     R5.4500    
   X19.9810      Y325.5643     R5.4500    
   X19.8584      Y325.5008     R5.4500    
   X19.7563      Y325.4078     R5.4500    
   X19.6819      Y325.2916     R5.4500    
   X19.6400      Y325.1600     R5.4500    
   X19.6336      Y325.0221     R5.4500    
   X19.6632      Y324.8872     R5.4500    
   X19.7266      Y324.7646     R5.4500    
   X19.8196      Y324.6626     R5.4500    
   X19.9359      Y324.5881     R5.4500    
   X20.0674      Y324.5462     R5.4500    
   X20.2053      Y324.5399     R5.4500    
   X20.3402      Y324.5694     R5.4500    
(Pass: 8)
G1   Z-4.000     F300 
G17 G2   X20.4628      Y324.6328     R5.4500     F1200
   X20.5648      Y324.7258     R5.4500    
   X20.6393      Y324.8421     R5.4500    
   X20.6812      Y324.9737     R5.4500    
   X20.6876      Y325.1116     R5.4500    
   X20.6580      Y325.2464     R5.4500    
   X20.5946      Y325.3691     R5.4500    
   X20.5016      Y325.4711     R5.4500    
   X20.3853      Y325.5456     R5.4500    
   X20.2538      Y325.5874     R5.4500    
   X20.1159      Y325.5938     R5.4500    
   X19.9810      Y325.5643     R5.4500    
   X19.8584      Y325.5008     R5.4500    
   X19.7563      Y325.4078     R5.4500    
   X19.6819      Y325.2916     R5.4500    
   X19.6400      Y325.1600     R5.4500    
   X19.6336      Y325.0221     R5.4500    
   X19.6632      Y324.8872     R5.4500    
   X19.7266      Y324.7646     R5.4500    
   X19.8196      Y324.6626     R5.4500    
   X19.9359      Y324.5881     R5.4500    
   X20.0674      Y324.5462     R5.4500    
   X20.2053      Y324.5399     R5.4500    
   X20.3402      Y324.5694     R5.4500    
(Pass: 9)
G1   Z-4.200     F300 
G17 G2   X20.4628      Y324.6328     R5.4500     F1200
   X20.5648      Y324.7258     R5.4500    
   X20.6393      Y324.8421     R5.4500    
   X20.6812      Y324.9737     R5.4500    
   X20.6876      Y325.1116     R5.4500    
   X20.6580      Y325.2464     R5.4500    
   X20.5946      Y325.3691     R5.4500    
   X20.5016      Y325.4711     R5.4500    
   X20.3853      Y325.5456     R5.4500    
   X20.2538      Y325.5874     R5.4500    
   X20.1159      Y325.5938     R5.4500    
   X19.9810      Y325.5643     R5.4500    
   X19.8584      Y325.5008     R5.4500    
   X19.7563      Y325.4078     R5.4500    
   X19.6819      Y325.2916     R5.4500    
   X19.6400      Y325.1600     R5.4500    
   X19.6336      Y325.0221     R5.4500    
   X19.6632      Y324.8872     R5.4500    
   X19.7266      Y324.7646     R5.4500    
   X19.8196      Y324.6626     R5.4500    
   X19.9359      Y324.5881     R5.4500    
   X20.0674      Y324.5462     R5.4500    
   X20.2053      Y324.5399     R5.4500    
   X20.3402      Y324.5694     R5.4500    
(BREAK pass 9)
G0   Z5.000     
(Pass: 1)
   X199.636      Y325.136   
G1   Z-0.500     F300 
G17 G2   X199.6362     Y324.9979     R5.4500     F1200
   X199.6719     Y324.8646     R5.4500    
   X199.7409     Y324.7450     R5.4500    
   X199.8385     Y324.6473     R5.4500    
   X199.9581     Y324.5783     R5.4500    
   X200.0914     Y324.5425     R5.4500    
   X200.2295     Y324.5425     R5.4500    
   X200.3629     Y324.5782     R5.4500    
   X200.4824     Y324.6472     R5.4500    
   X200.5801     Y324.7448     R5.4500    
   X200.6491     Y324.8643     R5.4500    
   X200.6849     Y324.9977     R5.4500    
   X200.6849     Y325.1357     R5.4500    
   X200.6492     Y325.2691     R5.4500    
   X200.5802     Y325.3887     R5.4500    
   X200.4826     Y325.4863     R5.4500    
   X200.3631     Y325.5554     R5.4500    
   X200.2298     Y325.5911     R5.4500    
   X200.0917     Y325.5912     R5.4500    
   X199.9583     Y325.5555     R5.4500    
   X199.8387     Y325.4865     R5.4500    
   X199.7411     Y325.3889     R5.4500    
   X199.6720     Y325.2693     R5.4500    
   X199.6363     Y325.1360     R5.4500    
(Pass: 2)
G1   Z-1.000     F300 
G17 G2   X199.6362     Y324.9979     R5.4500     F1200
   X199.6719     Y324.8646     R5.4500    
   X199.7409     Y324.7450     R5.4500    
   X199.8385     Y324.6473     R5.4500    
   X199.9581     Y324.5783     R5.4500    
   X200.0914     Y324.5425     R5.4500    
   X200.2295     Y324.5425     R5.4500    
   X200.3629     Y324.5782     R5.4500    
   X200.4824     Y324.6472     R5.4500    
   X200.5801     Y324.7448     R5.4500    
   X200.6491     Y324.8643     R5.4500    
   X200.6849     Y324.9977     R5.4500    
   X200.6849     Y325.1357     R5.4500    
   X200.6492     Y325.2691     R5.4500    
   X200.5802     Y325.3887     R5.4500    
   X200.4826     Y325.4863     R5.4500    
   X200.3631     Y325.5554     R5.4500    
   X200.2298     Y325.5911     R5.4500    
   X200.0917     Y325.5912     R5.4500    
   X199.9583     Y325.5555     R5.4500    
   X199.8387     Y325.4865     R5.4500    
   X199.7411     Y325.3889     R5.4500    
   X199.6720     Y325.2693     R5.4500    
   X199.6363     Y325.1360     R5.4500    
(Pass: 3)
G1   Z-1.500     F300 
G17 G2   X199.6362     Y324.9979     R5.4500     F1200
   X199.6719     Y324.8646     R5.4500    
   X199.7409     Y324.7450     R5.4500    
   X199.8385     Y324.6473     R5.4500    
   X199.9581     Y324.5783     R5.4500    
   X200.0914     Y324.5425     R5.4500    
   X200.2295     Y324.5425     R5.4500    
   X200.3629     Y324.5782     R5.4500    
   X200.4824     Y324.6472     R5.4500    
   X200.5801     Y324.7448     R5.4500    
   X200.6491     Y324.8643     R5.4500    
   X200.6849     Y324.9977     R5.4500    
   X200.6849     Y325.1357     R5.4500    
   X200.6492     Y325.2691     R5.4500    
   X200.5802     Y325.3887     R5.4500    
   X200.4826     Y325.4863     R5.4500    
   X200.3631     Y325.5554     R5.4500    
   X200.2298     Y325.5911     R5.4500    
   X200.0917     Y325.5912     R5.4500    
   X199.9583     Y325.5555     R5.4500    
   X199.8387     Y325.4865     R5.4500    
   X199.7411     Y325.3889     R5.4500    
   X199.6720     Y325.2693     R5.4500    
   X199.6363     Y325.1360     R5.4500    
(Pass: 4)
G1   Z-2.000     F300 
G17 G2   X199.6362     Y324.9979     R5.4500     F1200
   X199.6719     Y324.8646     R5.4500    
   X199.7409     Y324.7450     R5.4500    
   X199.8385     Y324.6473     R5.4500    
   X199.9581     Y324.5783     R5.4500    
   X200.0914     Y324.5425     R5.4500    
   X200.2295     Y324.5425     R5.4500    
   X200.3629     Y324.5782     R5.4500    
   X200.4824     Y324.6472     R5.4500    
   X200.5801     Y324.7448     R5.4500    
   X200.6491     Y324.8643     R5.4500    
   X200.6849     Y324.9977     R5.4500    
   X200.6849     Y325.1357     R5.4500    
   X200.6492     Y325.2691     R5.4500    
   X200.5802     Y325.3887     R5.4500    
   X200.4826     Y325.4863     R5.4500    
   X200.3631     Y325.5554     R5.4500    
   X200.2298     Y325.5911     R5.4500    
   X200.0917     Y325.5912     R5.4500    
   X199.9583     Y325.5555     R5.4500    
   X199.8387     Y325.4865     R5.4500    
   X199.7411     Y325.3889     R5.4500    
   X199.6720     Y325.2693     R5.4500    
   X199.6363     Y325.1360     R5.4500    
(Pass: 5)
G1   Z-2.500     F300 
G17 G2   X199.6362     Y324.9979     R5.4500     F1200
   X199.6719     Y324.8646     R5.4500    
   X199.7409     Y324.7450     R5.4500    
   X199.8385     Y324.6473     R5.4500    
   X199.9581     Y324.5783     R5.4500    
   X200.0914     Y324.5425     R5.4500    
   X200.2295     Y324.5425     R5.4500    
   X200.3629     Y324.5782     R5.4500    
   X200.4824     Y324.6472     R5.4500    
   X200.5801     Y324.7448     R5.4500    
   X200.6491     Y324.8643     R5.4500    
   X200.6849     Y324.9977     R5.4500    
   X200.6849     Y325.1357     R5.4500    
   X200.6492     Y325.2691     R5.4500    
   X200.5802     Y325.3887     R5.4500    
   X200.4826     Y325.4863     R5.4500    
   X200.3631     Y325.5554     R5.4500    
   X200.2298     Y325.5911     R5.4500    
   X200.0917     Y325.5912     R5.4500    
   X199.9583     Y325.5555     R5.4500    
   X199.8387     Y325.4865     R5.4500    
   X199.7411     Y325.3889     R5.4500    
   X199.6720     Y325.2693     R5.4500    
   X199.6363     Y325.1360     R5.4500    
(Pass: 6)
G1   Z-3.000     F300 
G17 G2   X199.6362     Y324.9979     R5.4500     F1200
   X199.6719     Y324.8646     R5.4500    
   X199.7409     Y324.7450     R5.4500    
   X199.8385     Y324.6473     R5.4500    
   X199.9581     Y324.5783     R5.4500    
   X200.0914     Y324.5425     R5.4500    
   X200.2295     Y324.5425     R5.4500    
   X200.3629     Y324.5782     R5.4500    
   X200.4824     Y324.6472     R5.4500    
   X200.5801     Y324.7448     R5.4500    
   X200.6491     Y324.8643     R5.4500    
   X200.6849     Y324.9977     R5.4500    
   X200.6849     Y325.1357     R5.4500    
   X200.6492     Y325.2691     R5.4500    
   X200.5802     Y325.3887     R5.4500    
   X200.4826     Y325.4863     R5.4500    
   X200.3631     Y325.5554     R5.4500    
   X200.2298     Y325.5911     R5.4500    
   X200.0917     Y325.5912     R5.4500    
   X199.9583     Y325.5555     R5.4500    
   X199.8387     Y325.4865     R5.4500    
   X199.7411     Y325.3889     R5.4500    
   X199.6720     Y325.2693     R5.4500    
   X199.6363     Y325.1360     R5.4500    
(Pass: 7)
G1   Z-3.500     F300 
G17 G2   X199.6362     Y324.9979     R5.4500     F1200
   X199.6719     Y324.8646     R5.4500    
   X199.7409     Y324.7450     R5.4500    
   X199.8385     Y324.6473     R5.4500    
   X199.9581     Y324.5783     R5.4500    
   X200.0914     Y324.5425     R5.4500    
   X200.2295     Y324.5425     R5.4500    
   X200.3629     Y324.5782     R5.4500    
   X200.4824     Y324.6472     R5.4500    
   X200.5801     Y324.7448     R5.4500    
   X200.6491     Y324.8643     R5.4500    
   X200.6849     Y324.9977     R5.4500    
   X200.6849     Y325.1357     R5.4500    
   X200.6492     Y325.2691     R5.4500    
   X200.5802     Y325.3887     R5.4500    
   X200.4826     Y325.4863     R5.4500    
   X200.3631     Y325.5554     R5.4500    
   X200.2298     Y325.5911     R5.4500    
   X200.0917     Y325.5912     R5.4500    
   X199.9583     Y325.5555     R5.4500    
   X199.8387     Y325.4865     R5.4500    
   X199.7411     Y325.3889     R5.4500    
   X199.6720     Y325.2693     R5.4500    
   X199.6363     Y325.1360     R5.4500    
(Pass: 8)
G1   Z-4.000     F300 
G17 G2   X199.6362     Y324.9979     R5.4500     F1200
   X199.6719     Y324.8646     R5.4500    
   X199.7409     Y324.7450     R5.4500    
   X199.8385     Y324.6473     R5.4500    
   X199.9581     Y324.5783     R5.4500    
   X200.0914     Y324.5425     R5.4500    
   X200.2295     Y324.5425     R5.4500    
   X200.3629     Y324.5782     R5.4500    
   X200.4824     Y324.6472     R5.4500    
   X200.5801     Y324.7448     R5.4500    
   X200.6491     Y324.8643     R5.4500    
   X200.6849     Y324.9977     R5.4500    
   X200.6849     Y325.1357     R5.4500    
   X200.6492     Y325.2691     R5.4500    
   X200.5802     Y325.3887     R5.4500    
   X200.4826     Y325.4863     R5.4500    
   X200.3631     Y325.5554     R5.4500    
   X200.2298     Y325.5911     R5.4500    
   X200.0917     Y325.5912     R5.4500    
   X199.9583     Y325.5555     R5.4500    
   X199.8387     Y325.4865     R5.4500    
   X199.7411     Y325.3889     R5.4500    
   X199.6720     Y325.2693     R5.4500    
   X199.6363     Y325.1360     R5.4500    
(Pass: 9)
G1   Z-4.200     F300 
G17 G2   X199.6362     Y324.9979     R5.4500     F1200
   X199.6719     Y324.8646     R5.4500    
   X199.7409     Y324.7450     R5.4500    
   X199.8385     Y324.6473     R5.4500    
   X199.9581     Y324.5783     R5.4500    
   X200.0914     Y324.5425     R5.4500    
   X200.2295     Y324.5425     R5.4500    
   X200.3629     Y324.5782     R5.4500    
   X200.4824     Y324.6472     R5.4500    
   X200.5801     Y324.7448     R5.4500    
   X200.6491     Y324.8643     R5.4500    
   X200.6849     Y324.9977     R5.4500    
   X200.6849     Y325.1357     R5.4500    
   X200.6492     Y325.2691     R5.4500    
   X200.5802     Y325.3887     R5.4500    
   X200.4826     Y325.4863     R5.4500    
   X200.3631     Y325.5554     R5.4500    
   X200.2298     Y325.5911     R5.4500    
   X200.0917     Y325.5912     R5.4500    
   X199.9583     Y325.5555     R5.4500    
   X199.8387     Y325.4865     R5.4500    
   X199.7411     Y325.3889     R5.4500    
   X199.6720     Y325.2693     R5.4500    
   X199.6363     Y325.1360     R5.4500    
(BREAK pass 9)
G0   Z5.000     
(Pass: 1)
   X200.300      Y25.577    
G1   Z-0.500     F300 
G17 G2   X200.1630     Y25.5957      R5.4500     F1200
   X200.0260     Y25.5783      R5.4500    
   X199.8982     Y25.5260      R5.4500    
   X199.7883     Y25.4425      R5.4500    
   X199.7038     Y25.3333      R5.4500    
   X199.6504     Y25.2060      R5.4500    
   X199.6317     Y25.0692      R5.4500    
   X199.6491     Y24.9322      R5.4500    
   X199.7014     Y24.8045      R5.4500    
   X199.7850     Y24.6946      R5.4500    
   X199.8941     Y24.6100      R5.4500    
   X200.0214     Y24.5566      R5.4500    
   X200.1582     Y24.5380      R5.4500    
   X200.2952     Y24.5554      R5.4500    
   X200.4230     Y24.6076      R5.4500    
   X200.5329     Y24.6912      R5.4500    
   X200.6174     Y24.8003      R5.4500    
   X200.6708     Y24.9277      R5.4500    
   X200.6894     Y25.0644      R5.4500    
   X200.6720     Y25.2014      R5.4500    
   X200.6198     Y25.3292      R5.4500    
   X200.5362     Y25.4391      R5.4500    
   X200.4271     Y25.5236      R5.4500    
   X200.2998     Y25.5770      R5.4500    
(Pass: 2)
G1   Z-1.000     F300 
G17 G2   X200.1630     Y25.5957      R5.4500     F1200
   X200.0260     Y25.5783      R5.4500    
   X199.8982     Y25.5260      R5.4500    
   X199.7883     Y25.4425      R5.4500    
   X199.7038     Y25.3333      R5.4500    
   X199.6504     Y25.2060      R5.4500    
   X199.6317     Y25.0692      R5.4500    
   X199.6491     Y24.9322      R5.4500    
   X199.7014     Y24.8045      R5.4500    
   X199.7850     Y24.6946      R5.4500    
   X199.8941     Y24.6100      R5.4500    
   X200.0214     Y24.5566      R5.4500    
   X200.1582     Y24.5380      R5.4500    
   X200.2952     Y24.5554      R5.4500    
   X200.4230     Y24.6076      R5.4500    
   X200.5329     Y24.6912      R5.4500    
   X200.6174     Y24.8003      R5.4500    
   X200.6708     Y24.9277      R5.4500    
   X200.6894     Y25.0644      R5.4500    
   X200.6720     Y25.2014      R5.4500    
   X200.6198     Y25.3292      R5.4500    
   X200.5362     Y25.4391      R5.4500    
   X200.4271     Y25.5236      R5.4500    
   X200.2998     Y25.5770      R5.4500    
(Pass: 3)
G1   Z-1.500     F300 
G17 G2   X200.1630     Y25.5957      R5.4500     F1200
   X200.0260     Y25.5783      R5.4500    
   X199.8982     Y25.5260      R5.4500    
   X199.7883     Y25.4425      R5.4500    
   X199.7038     Y25.3333      R5.4500    
   X199.6504     Y25.2060      R5.4500    
   X199.6317     Y25.0692      R5.4500    
   X199.6491     Y24.9322      R5.4500    
   X199.7014     Y24.8045      R5.4500    
   X199.7850     Y24.6946      R5.4500    
   X199.8941     Y24.6100      R5.4500    
   X200.0214     Y24.5566      R5.4500    
   X200.1582     Y24.5380      R5.4500    
   X200.2952     Y24.5554      R5.4500    
   X200.4230     Y24.6076      R5.4500    
   X200.5329     Y24.6912      R5.4500    
   X200.6174     Y24.8003      R5.4500    
   X200.6708     Y24.9277      R5.4500    
   X200.6894     Y25.0644      R5.4500    
   X200.6720     Y25.2014      R5.4500    
   X200.6198     Y25.3292      R5.4500    
   X200.5362     Y25.4391      R5.4500    
   X200.4271     Y25.5236      R5.4500    
   X200.2998     Y25.5770      R5.4500    
(Pass: 4)
G1   Z-2.000     F300 
G17 G2   X200.1630     Y25.5957      R5.4500     F1200
   X200.0260     Y25.5783      R5.4500    
   X199.8982     Y25.5260      R5.4500    
   X199.7883     Y25.4425      R5.4500    
   X199.7038     Y25.3333      R5.4500    
   X199.6504     Y25.2060      R5.4500    
   X199.6317     Y25.0692      R5.4500    
   X199.6491     Y24.9322      R5.4500    
   X199.7014     Y24.8045      R5.4500    
   X199.7850     Y24.6946      R5.4500    
   X199.8941     Y24.6100      R5.4500    
   X200.0214     Y24.5566      R5.4500    
   X200.1582     Y24.5380      R5.4500    
   X200.2952     Y24.5554      R5.4500    
   X200.4230     Y24.6076      R5.4500    
   X200.5329     Y24.6912      R5.4500    
   X200.6174     Y24.8003      R5.4500    
   X200.6708     Y24.9277      R5.4500    
   X200.6894     Y25.0644      R5.4500    
   X200.6720     Y25.2014      R5.4500    
   X200.6198     Y25.3292      R5.4500    
   X200.5362     Y25.4391      R5.4500    
   X200.4271     Y25.5236      R5.4500    
   X200.2998     Y25.5770      R5.4500    
(Pass: 5)
G1   Z-2.500     F300 
G17 G2   X200.1630     Y25.5957      R5.4500     F1200
   X200.0260     Y25.5783      R5.4500    
   X199.8982     Y25.5260      R5.4500    
   X199.7883     Y25.4425      R5.4500    
   X199.7038     Y25.3333      R5.4500    
   X199.6504     Y25.2060      R5.4500    
   X199.6317     Y25.0692      R5.4500    
   X199.6491     Y24.9322      R5.4500    
   X199.7014     Y24.8045      R5.4500    
   X199.7850     Y24.6946      R5.4500    
   X199.8941     Y24.6100      R5.4500    
   X200.0214     Y24.5566      R5.4500    
   X200.1582     Y24.5380      R5.4500    
   X200.2952     Y24.5554      R5.4500    
   X200.4230     Y24.6076      R5.4500    
   X200.5329     Y24.6912      R5.4500    
   X200.6174     Y24.8003      R5.4500    
   X200.6708     Y24.9277      R5.4500    
   X200.6894     Y25.0644      R5.4500    
   X200.6720     Y25.2014      R5.4500    
   X200.6198     Y25.3292      R5.4500    
   X200.5362     Y25.4391      R5.4500    
   X200.4271     Y25.5236      R5.4500    
   X200.2998     Y25.5770      R5.4500    
(Pass: 6)
G1   Z-3.000     F300 
G17 G2   X200.1630     Y25.5957      R5.4500     F1200
   X200.0260     Y25.5783      R5.4500    
   X199.8982     Y25.5260      R5.4500    
   X199.7883     Y25.4425      R5.4500    
   X199.7038     Y25.3333      R5.4500    
   X199.6504     Y25.2060      R5.4500    
   X199.6317     Y25.0692      R5.4500    
   X199.6491     Y24.9322      R5.4500    
   X199.7014     Y24.8045      R5.4500    
   X199.7850     Y24.6946      R5.4500    
   X199.8941     Y24.6100      R5.4500    
   X200.0214     Y24.5566      R5.4500    
   X200.1582     Y24.5380      R5.4500    
   X200.2952     Y24.5554      R5.4500    
   X200.4230     Y24.6076      R5.4500    
   X200.5329     Y24.6912      R5.4500    
   X200.6174     Y24.8003      R5.4500    
   X200.6708     Y24.9277      R5.4500    
   X200.6894     Y25.0644      R5.4500    
   X200.6720     Y25.2014      R5.4500    
   X200.6198     Y25.3292      R5.4500    
   X200.5362     Y25.4391      R5.4500    
   X200.4271     Y25.5236      R5.4500    
   X200.2998     Y25.5770      R5.4500    
(Pass: 7)
G1   Z-3.500     F300 
G17 G2   X200.1630     Y25.5957      R5.4500     F1200
   X200.0260     Y25.5783      R5.4500    
   X199.8982     Y25.5260      R5.4500    
   X199.7883     Y25.4425      R5.4500    
   X199.7038     Y25.3333      R5.4500    
   X199.6504     Y25.2060      R5.4500    
   X199.6317     Y25.0692      R5.4500    
   X199.6491     Y24.9322      R5.4500    
   X199.7014     Y24.8045      R5.4500    
   X199.7850     Y24.6946      R5.4500    
   X199.8941     Y24.6100      R5.4500    
   X200.0214     Y24.5566      R5.4500    
   X200.1582     Y24.5380      R5.4500    
   X200.2952     Y24.5554      R5.4500    
   X200.4230     Y24.6076      R5.4500    
   X200.5329     Y24.6912      R5.4500    
   X200.6174     Y24.8003      R5.4500    
   X200.6708     Y24.9277      R5.4500    
   X200.6894     Y25.0644      R5.4500    
   X200.6720     Y25.2014      R5.4500    
   X200.6198     Y25.3292      R5.4500    
   X200.5362     Y25.4391      R5.4500    
   X200.4271     Y25.5236      R5.4500    
   X200.2998     Y25.5770      R5.4500    
(Pass: 8)
G1   Z-4.000     F300 
G17 G2   X200.1630     Y25.5957      R5.4500     F1200
   X200.0260     Y25.5783      R5.4500    
   X199.8982     Y25.5260      R5.4500    
   X199.7883     Y25.4425      R5.4500    
   X199.7038     Y25.3333      R5.4500    
   X199.6504     Y25.2060      R5.4500    
   X199.6317     Y25.0692      R5.4500    
   X199.6491     Y24.9322      R5.4500    
   X199.7014     Y24.8045      R5.4500    
   X199.7850     Y24.6946      R5.4500    
   X199.8941     Y24.6100      R5.4500    
   X200.0214     Y24.5566      R5.4500    
   X200.1582     Y24.5380      R5.4500    
