%
(Generated by SketchUcam {1.2b1})
(File: rear fuck you.skp)
(Bit diameter: 5.0mm)
(Feed rate: 300.0mm/min)
(Material Thickness: 3.5mm)
(Material length: 600.0mm X width: 300.0mm)
(Overhead Gantry: true)
(Retract feed rate NOT limited to plunge feed rate)
(Multipass enabled, Depth = 0.1mm)
(Optimization is ON)
(www.PhlatBoyz.com)
G90 G21 G49 
M3 S11000
G0   Z5.000     
(Pass: 1)
   X17.968       Y197.891   
(plungebore    depth=4.200         diam=5.000     )
G00   Z1.667     
G01   Z-0.100     F300 
G00   z1.667     
G01   Z-0.200    
G00   z1.667     
G01   Z-0.300    
G00   z1.667     
G01   Z-0.400    
G00   z1.667     
G01   Z-0.500    
G00   z1.667     
G01   Z-0.600    
G00   z1.667     
G01   Z-0.700    
G00   z1.667     
G01   Z-0.800    
G00   z1.667     
G01   Z-0.900    
G00   z1.667     
G01   Z-1.000    
G00   z1.667     
G01   Z-1.100    
G00   z1.667     
G01   Z-1.200    
G00   z1.667     
G01   Z-1.300    
G00   z1.667     
G01   Z-1.400    
G00   z1.667     
G01   Z-1.500    
G00   z1.667     
G01   Z-1.600    
G00   z1.667     
G01   Z-1.700    
G00   z1.667     
G01   Z-1.800    
G00   z1.667     
G01   Z-1.900    
G00   z1.667     
G01   Z-2.000    
G00   z1.667     
G01   Z-2.100    
G00   z1.667     
G01   Z-2.200    
G00   z1.667     
G01   Z-2.300    
G00   z1.667     
G01   Z-2.400    
G00   z1.667     
G01   Z-2.500    
G00   z1.667     
G01   Z-2.600    
G00   z1.667     
G01   Z-2.700    
G00   z1.667     
G01   Z-2.800    
G00   z1.667     
G01   Z-2.900    
G00   z1.667     
G01   Z-3.000    
G00   z1.667     
G01   Z-3.100    
G00   z1.667     
G01   Z-3.200    
G00   z1.667     
G01   Z-3.300    
G00   z1.667     
G01   Z-3.400    
G00   z1.667     
G01   Z-3.500    
G00   z1.667     
G01   Z-3.600    
G00   z1.667     
G01   Z-3.700    
G00   z1.667     
G01   Z-3.800    
G00   z1.667     
G01   Z-3.900    
G00   z1.667     
G01   Z-4.000    
G00   z1.667     
G01   Z-4.100    
G00   z1.667     
G01   Z-4.200    
G00   z1.667     
G00   Y197.891       Z5.000     
(plungebore end)
(BREAK pass 36)
(Pass: 1)
G0   X47.974       Y198.058   
(plungebore    depth=4.200         diam=5.000     )
G00   Z1.667     
G01   Z-0.100     F300 
G00   z1.667     
G01   Z-0.200    
G00   z1.667     
G01   Z-0.300    
G00   z1.667     
G01   Z-0.400    
G00   z1.667     
G01   Z-0.500    
G00   z1.667     
G01   Z-0.600    
G00   z1.667     
G01   Z-0.700    
G00   z1.667     
G01   Z-0.800    
G00   z1.667     
G01   Z-0.900    
G00   z1.667     
G01   Z-1.000    
G00   z1.667     
G01   Z-1.100    
G00   z1.667     
G01   Z-1.200    
G00   z1.667     
G01   Z-1.300    
G00   z1.667     
G01   Z-1.400    
G00   z1.667     
G01   Z-1.500    
G00   z1.667     
G01   Z-1.600    
G00   z1.667     
G01   Z-1.700    
G00   z1.667     
G01   Z-1.800    
G00   z1.667     
G01   Z-1.900    
G00   z1.667     
G01   Z-2.000    
G00   z1.667     
G01   Z-2.100    
G00   z1.667     
G01   Z-2.200    
G00   z1.667     
G01   Z-2.300    
G00   z1.667     
G01   Z-2.400    
G00   z1.667     
G01   Z-2.500    
G00   z1.667     
G01   Z-2.600    
G00   z1.667     
G01   Z-2.700    
G00   z1.667     
G01   Z-2.800    
G00   z1.667     
G01   Z-2.900    
G00   z1.667     
G01   Z-3.000    
G00   z1.667     
G01   Z-3.100    
G00   z1.667     
G01   Z-3.200    
G00   z1.667     
G01   Z-3.300    
G00   z1.667     
G01   Z-3.400    
G00   z1.667     
G01   Z-3.500    
G00   z1.667     
G01   Z-3.600    
G00   z1.667     
G01   Z-3.700    
G00   z1.667     
G01   Z-3.800    
G00   z1.667     
G01   Z-3.900    
G00   z1.667     
G01   Z-4.000    
G00   z1.667     
G01   Z-4.100    
G00   z1.667     
G01   Z-4.200    
G00   z1.667     
G00   Y198.058       Z5.000     
(plungebore end)
(BREAK pass 36)
(Pass: 1)
G0   X18.000       Y18.000    
(plungebore    depth=4.200         diam=5.000     )
G00   Z1.667     
G01   Z-0.100     F300 
G00   z1.667     
G01   Z-0.200    
G00   z1.667     
G01   Z-0.300    
G00   z1.667     
G01   Z-0.400    
G00   z1.667     
G01   Z-0.500    
G00   z1.667     
G01   Z-0.600    
G00   z1.667     
G01   Z-0.700    
G00   z1.667     
G01   Z-0.800    
G00   z1.667     
G01   Z-0.900    
G00   z1.667     
G01   Z-1.000    
G00   z1.667     
G01   Z-1.100    
G00   z1.667     
G01   Z-1.200    
G00   z1.667     
G01   Z-1.300    
G00   z1.667     
G01   Z-1.400    
G00   z1.667     
G01   Z-1.500    
G00   z1.667     
G01   Z-1.600    
G00   z1.667     
G01   Z-1.700    
G00   z1.667     
G01   Z-1.800    
G00   z1.667     
G01   Z-1.900    
G00   z1.667     
G01   Z-2.000    
G00   z1.667     
G01   Z-2.100    
G00   z1.667     
G01   Z-2.200    
G00   z1.667     
G01   Z-2.300    
G00   z1.667     
G01   Z-2.400    
G00   z1.667     
G01   Z-2.500    
G00   z1.667     
G01   Z-2.600    
G00   z1.667     
G01   Z-2.700    
G00   z1.667     
G01   Z-2.800    
G00   z1.667     
G01   Z-2.900    
G00   z1.667     
G01   Z-3.000    
G00   z1.667     
G01   Z-3.100    
G00   z1.667     
G01   Z-3.200    
G00   z1.667     
G01   Z-3.300    
G00   z1.667     
G01   Z-3.400    
G00   z1.667     
G01   Z-3.500    
G00   z1.667     
G01   Z-3.600    
G00   z1.667     
G01   Z-3.700    
G00   z1.667     
G01   Z-3.800    
G00   z1.667     
G01   Z-3.900    
G00   z1.667     
G01   Z-4.000    
G00   z1.667     
G01   Z-4.100    
G00   z1.667     
G01   Z-4.200    
G00   z1.667     
G00   Y18.000        Z5.000     
(plungebore end)
(BREAK pass 36)
(Pass: 1)
G0   X48.000    
(plungebore    depth=4.200         diam=5.000     )
G00   Z1.667     
G01   Z-0.100     F300 
G00   z1.667     
G01   Z-0.200    
G00   z1.667     
G01   Z-0.300    
G00   z1.667     
G01   Z-0.400    
G00   z1.667     
G01   Z-0.500    
G00   z1.667     
G01   Z-0.600    
G00   z1.667     
G01   Z-0.700    
G00   z1.667     
G01   Z-0.800    
G00   z1.667     
G01   Z-0.900    
G00   z1.667     
G01   Z-1.000    
G00   z1.667     
G01   Z-1.100    
G00   z1.667     
G01   Z-1.200    
G00   z1.667     
G01   Z-1.300    
G00   z1.667     
G01   Z-1.400    
G00   z1.667     
G01   Z-1.500    
G00   z1.667     
G01   Z-1.600    
G00   z1.667     
G01   Z-1.700    
G00   z1.667     
G01   Z-1.800    
G00   z1.667     
G01   Z-1.900    
G00   z1.667     
G01   Z-2.000    
G00   z1.667     
G01   Z-2.100    
G00   z1.667     
G01   Z-2.200    
G00   z1.667     
G01   Z-2.300    
G00   z1.667     
G01   Z-2.400    
G00   z1.667     
G01   Z-2.500    
G00   z1.667     
G01   Z-2.600    
G00   z1.667     
G01   Z-2.700    
G00   z1.667     
G01   Z-2.800    
G00   z1.667     
G01   Z-2.900    
G00   z1.667     
G01   Z-3.000    
G00   z1.667     
G01   Z-3.100    
G00   z1.667     
G01   Z-3.200    
G00   z1.667     
G01   Z-3.300    
G00   z1.667     
G01   Z-3.400    
G00   z1.667     
G01   Z-3.500    
G00   z1.667     
G01   Z-3.600    
G00   z1.667     
G01   Z-3.700    
G00   z1.667     
G01   Z-3.800    
G00   z1.667     
G01   Z-3.900    
G00   z1.667     
G01   Z-4.000    
G00   z1.667     
G01   Z-4.100    
G00   z1.667     
G01   Z-4.200    
G00   z1.667     
G00   Y18.000        Z5.000     
(plungebore end)
(BREAK pass 36)
(Group: _diam_6.0mm)
(Pass: 1)
G0   X33.000       Y122.000   
(plungebore    depth=4.200         diam=6.000     )
G00   Z1.667     
G01   Z-0.100     F300 
G00   z1.667     
G01   Z-0.200    
G00   z1.667     
G01   Z-0.300    
G00   z1.667     
G01   Z-0.400    
G00   z1.667     
G01   Z-0.500    
G00   z1.667     
G01   Z-0.600    
G00   z1.667     
G01   Z-0.700    
G00   z1.667     
G01   Z-0.800    
G00   z1.667     
G01   Z-0.900    
G00   z1.667     
G01   Z-1.000    
G00   z1.667     
G01   Z-1.100    
G00   z1.667     
G01   Z-1.200    
G00   z1.667     
G01   Z-1.300    
G00   z1.667     
G01   Z-1.400    
G00   z1.667     
G01   Z-1.500    
G00   z1.667     
G01   Z-1.600    
G00   z1.667     
G01   Z-1.700    
G00   z1.667     
G01   Z-1.800    
G00   z1.667     
G01   Z-1.900    
G00   z1.667     
G01   Z-2.000    
G00   z1.667     
G01   Z-2.100    
G00   z1.667     
G01   Z-2.200    
G00   z1.667     
G01   Z-2.300    
G00   z1.667     
G01   Z-2.400    
G00   z1.667     
G01   Z-2.500    
G00   z1.667     
G01   Z-2.600    
G00   z1.667     
G01   Z-2.700    
G00   z1.667     
G01   Z-2.800    
G00   z1.667     
G01   Z-2.900    
G00   z1.667     
G01   Z-3.000    
G00   z1.667     
G01   Z-3.100    
G00   z1.667     
G01   Z-3.200    
G00   z1.667     
G01   Z-3.300    
G00   z1.667     
G01   Z-3.400    
G00   z1.667     
G01   Z-3.500    
G00   z1.667     
G01   Z-3.600    
G00   z1.667     
G01   Z-3.700    
G00   z1.667     
G01   Z-3.800    
G00   z1.667     
G01   Z-3.900    
G00   z1.667     
G01   Z-4.000    
G00   z1.667     
G01   Z-4.100    
G00   z1.667     
G01   Z-4.200    
G00   z1.667     
G00   Y121.5000  
G01    Z0.0000    
G02     X33.0000       Y121.5000      Z-0.1000    I0    J0.5000    
G02     X33.0000       Y121.5000      Z-0.2000    I0    J0.5000    
G02     X33.0000       Y121.5000      Z-0.3000    I0    J0.5000    
G02     X33.0000       Y121.5000      Z-0.4000    I0    J0.5000    
G02     X33.0000       Y121.5000      Z-0.5000    I0    J0.5000    
G02     X33.0000       Y121.5000      Z-0.6000    I0    J0.5000    
G02     X33.0000       Y121.5000      Z-0.7000    I0    J0.5000    
G02     X33.0000       Y121.5000      Z-0.8000    I0    J0.5000    
G02     X33.0000       Y121.5000      Z-0.9000    I0    J0.5000    
G02     X33.0000       Y121.5000      Z-1.0000    I0    J0.5000    
G02     X33.0000       Y121.5000      Z-1.1000    I0    J0.5000    
G02     X33.0000       Y121.5000      Z-1.2000    I0    J0.5000    
G02     X33.0000       Y121.5000      Z-1.3000    I0    J0.5000    
G02     X33.0000       Y121.5000      Z-1.4000    I0    J0.5000    
G02     X33.0000       Y121.5000      Z-1.5000    I0    J0.5000    
G02     X33.0000       Y121.5000      Z-1.6000    I0    J0.5000    
G02     X33.0000       Y121.5000      Z-1.7000    I0    J0.5000    
G02     X33.0000       Y121.5000      Z-1.8000    I0    J0.5000    
G02     X33.0000       Y121.5000      Z-1.9000    I0    J0.5000    
G02     X33.0000       Y121.5000      Z-2.0000    I0    J0.5000    
G02     X33.0000       Y121.5000      Z-2.1000    I0    J0.5000    
G02     X33.0000       Y121.5000      Z-2.2000    I0    J0.5000    
G02     X33.0000       Y121.5000      Z-2.3000    I0    J0.5000    
G02     X33.0000       Y121.5000      Z-2.4000    I0    J0.5000    
G02     X33.0000       Y121.5000      Z-2.5000    I0    J0.5000    
G02     X33.0000       Y121.5000      Z-2.6000    I0    J0.5000    
G02     X33.0000       Y121.5000      Z-2.7000    I0    J0.5000    
G02     X33.0000       Y121.5000      Z-2.8000    I0    J0.5000    
G02     X33.0000       Y121.5000      Z-2.9000    I0    J0.5000    
G02     X33.0000       Y121.5000      Z-3.0000    I0    J0.5000    
G02     X33.0000       Y121.5000      Z-3.1000    I0    J0.5000    
G02     X33.0000       Y121.5000      Z-3.2000    I0    J0.5000    
G02     X33.0000       Y121.5000      Z-3.3000    I0    J0.5000    
G02     X33.0000       Y121.5000      Z-3.4000    I0    J0.5000    
G02     X33.0000       Y121.5000      Z-3.5000    I0    J0.5000    
G02     X33.0000       Y121.5000      Z-4.2000    I0    J0.5000    
G02     X33.0000       Y121.5000   I0.0    J0.5000    
G00   Y122.000       Z5.000     
(plungebore end)
(BREAK pass 36)
(Group complete: _diam_6.0mm)
(Pass: 1)
G0   X60.500       Y124.540   
G1   Z-0.100     F300 
   Y210.500   
   X37.000    
   X29.000    
   X5.500     
   Y124.929   
   Y116.929   
   Y5.500     
   X29.000    
   X37.000    
   X60.500    
   Y116.540   
   Y124.540   
(Pass: 2)
   Z-0.200    
   Y210.500   
   X37.000    
   X29.000    
   X5.500     
   Y124.929   
   Y116.929   
   Y5.500     
   X29.000    
   X37.000    
   X60.500    
   Y116.540   
   Y124.540   
(Pass: 3)
   Z-0.300    
   Y210.500   
   X37.000    
   X29.000    
   X5.500     
   Y124.929   
   Y116.929   
   Y5.500     
   X29.000    
   X37.000    
   X60.500    
   Y116.540   
   Y124.540   
(Pass: 4)
   Z-0.400    
   Y210.500   
   X37.000    
   X29.000    
   X5.500     
   Y124.929   
   Y116.929   
   Y5.500     
   X29.000    
   X37.000    
   X60.500    
   Y116.540   
   Y124.540   
(Pass: 5)
   Z-0.500    
   Y210.500   
   X37.000    
   X29.000    
   X5.500     
   Y124.929   
   Y116.929   
   Y5.500     
   X29.000    
   X37.000    
   X60.500    
   Y116.540   
   Y124.540   
(Pass: 6)
   Z-0.600    
   Y210.500   
   X37.000    
   X29.000    
   X5.500     
   Y124.929   
   Y116.929   
   Y5.500     
   X29.000    
   X37.000    
   X60.500    
   Y116.540   
   Y124.540   
(Pass: 7)
   Z-0.700    
   Y210.500   
   X37.000    
   X29.000    
   X5.500     
   Y124.929   
   Y116.929   
   Y5.500     
   X29.000    
   X37.000    
   X60.500    
   Y116.540   
   Y124.540   
(Pass: 8)
   Z-0.800    
   Y210.500   
   X37.000    
   X29.000    
   X5.500     
   Y124.929   
   Y116.929   
   Y5.500     
   X29.000    
   X37.000    
   X60.500    
   Y116.540   
   Y124.540   
(Pass: 9)
   Z-0.900    
   Y210.500   
   X37.000    
   X29.000    
   X5.500     
   Y124.929   
   Y116.929   
   Y5.500     
   X29.000    
   X37.000    
   X60.500    
   Y116.540   
   Y124.540   
(Pass: 10)
   Z-1.000    
   Y210.500   
   X37.000    
   X29.000    
   X5.500     
   Y124.929   
   Y116.929   
   Y5.500     
   X29.000    
   X37.000    
   X60.500    
   Y116.540   
   Y124.540   
(Pass: 11)
   Z-1.100    
   Y210.500   
   X37.000    
   X29.000    
   X5.500     
   Y124.929   
   Y116.929   
   Y5.500     
   X29.000    
   X37.000    
   X60.500    
   Y116.540   
   Y124.540   
(Pass: 12)
   Z-1.200    
   Y210.500   
   X37.000    
   X29.000    
   X5.500     
   Y124.929   
   Y116.929   
   Y5.500     
   X29.000    
   X37.000    
   X60.500    
   Y116.540   
   Y124.540   
(Pass: 13)
   Z-1.300    
   Y210.500   
   X37.000    
   X29.000    
   X5.500     
   Y124.929   
   Y116.929   
   Y5.500     
   X29.000    
   X37.000    
   X60.500    
   Y116.540   
   Y124.540   
(Pass: 14)
   Z-1.400    
   Y210.500   
   X37.000    
   X29.000    
   X5.500     
   Y124.929   
   Y116.929   
   Y5.500     
   X29.000    
   X37.000    
   X60.500    
   Y116.540   
   Y124.540   
(Pass: 15)
   Z-1.500    
   Y210.500   
   X37.000    
   X29.000    
   X5.500     
   Y124.929   
   Y116.929   
   Y5.500     
   X29.000    
   X37.000    
   X60.500    
   Y116.540   
   Y124.540   
(Pass: 16)
   Z-1.600    
   Y210.500   
   X37.000    
   X29.000    
   X5.500     
   Y124.929   
   Y116.929   
   Y5.500     
   X29.000    
   X37.000    
   X60.500    
   Y116.540   
   Y124.540   
(Pass: 17)
   Z-1.700    
   Y210.500   
   X37.000    
   X29.000    
   X5.500     
   Y124.929   
   Y116.929   
   Y5.500     
   X29.000    
   X37.000    
   X60.500    
   Y116.540   
   Y124.540   
(Pass: 18)
   Z-1.800    
   Y210.500   
   X37.000    
   Z-1.750    
   X29.000    
   Z-1.800    
   X5.500     
   Y124.929   
   Z-1.750    
   Y116.929   
   Z-1.800    
   Y5.500     
   X29.000    
   Z-1.750    
   X37.000    
   Z-1.800    
   X60.500    
   Y116.540   
   Z-1.750    
   Y124.540   
   Z-1.800    
(Pass: 19)
   Z-1.900    
   Y210.500   
   X37.000    
   Z-1.750    
   X29.000    
   Z-1.900    
   X5.500     
   Y124.929   
   Z-1.750    
   Y116.929   
   Z-1.900    
   Y5.500     
   X29.000    
   Z-1.750    
   X37.000    
   Z-1.900    
   X60.500    
   Y116.540   
   Z-1.750    
   Y124.540   
   Z-1.900    
(Pass: 20)
   Z-2.000    
   Y210.500   
   X37.000    
   Z-1.750    
   X29.000    
   Z-2.000    
   X5.500     
   Y124.929   
   Z-1.750    
   Y116.929   
   Z-2.000    
   Y5.500     
   X29.000    
   Z-1.750    
   X37.000    
   Z-2.000    
   X60.500    
   Y116.540   
   Z-1.750    
   Y124.540   
   Z-2.000    
(Pass: 21)
   Z-2.100    
   Y210.500   
   X37.000    
   Z-1.750    
   X29.000    
   Z-2.100    
   X5.500     
   Y124.929   
   Z-1.750    
   Y116.929   
   Z-2.100    
   Y5.500     
   X29.000    
   Z-1.750    
   X37.000    
   Z-2.100    
   X60.500    
   Y116.540   
   Z-1.750    
   Y124.540   
   Z-2.100    
(Pass: 22)
   Z-2.200    
   Y210.500   
   X37.000    
   Z-1.750    
   X29.000    
   Z-2.200    
   X5.500     
   Y124.929   
   Z-1.750    
   Y116.929   
   Z-2.200    
   Y5.500     
   X29.000    
   Z-1.750    
   X37.000    
   Z-2.200    
   X60.500    
   Y116.540   
   Z-1.750    
   Y124.540   
   Z-2.200    
(Pass: 23)
   Z-2.300    
   Y210.500   
   X37.000    
   Z-1.750    
   X29.000    
   Z-2.300    
   X5.500     
   Y124.929   
   Z-1.750    
   Y116.929   
   Z-2.300    
   Y5.500     
   X29.000    
   Z-1.750    
   X37.000    
   Z-2.300    
   X60.500    
   Y116.540   
   Z-1.750    
   Y124.540   
   Z-2.300    
(Pass: 24)
   Z-2.400    
   Y210.500   
   X37.000    
   Z-1.750    
   X29.000    
   Z-2.400    
   X5.500     
   Y124.929   
   Z-1.750    
   Y116.929   
   Z-2.400    
   Y5.500     
   X29.000    
   Z-1.750    
   X37.000    
   Z-2.400    
   X60.500    
   Y116.540   
   Z-1.750    
   Y124.540   
   Z-2.400    
(Pass: 25)
   Z-2.500    
   Y210.500   
   X37.000    
   Z-1.750    
   X29.000    
   Z-2.500    
   X5.500     
   Y124.929   
   Z-1.750    
   Y116.929   
   Z-2.500    
   Y5.500     
   X29.000    
   Z-1.750    
   X37.000    
   Z-2.500    
   X60.500    
   Y116.540   
   Z-1.750    
   Y124.540   
   Z-2.500    
(Pass: 26)
   Z-2.600    
   Y210.500   
   X37.000    
   Z-1.750    
   X29.000    
   Z-2.600    
   X5.500     
   Y124.929   
   Z-1.750    
   Y116.929   
   Z-2.600    
   Y5.500     
   X29.000    
   Z-1.750    
   X37.000    
   Z-2.600    
   X60.500    
   Y116.540   
   Z-1.750    
   Y124.540   
   Z-2.600    
(Pass: 27)
   Z-2.700    
   Y210.500   
   X37.000    
   Z-1.750    
   X29.000    
   Z-2.700    
   X5.500     
   Y124.929   
   Z-1.750    
   Y116.929   
   Z-2.700    
   Y5.500     
   X29.000    
   Z-1.750    
   X37.000    
   Z-2.700    
   X60.500    
   Y116.540   
   Z-1.750    
   Y124.540   
   Z-2.700    
(Pass: 28)
   Z-2.800    
   Y210.500   
   X37.000    
   Z-1.750    
   X29.000    
   Z-2.800    
   X5.500     
   Y124.929   
   Z-1.750    
   Y116.929   
   Z-2.800    
   Y5.500     
   X29.000    
   Z-1.750    
   X37.000    
   Z-2.800    
   X60.500    
   Y116.540   
   Z-1.750    
   Y124.540   
   Z-2.800    
(Pass: 29)
   Z-2.900    
   Y210.500   
   X37.000    
   Z-1.750    
   X29.000    
   Z-2.900    
   X5.500     
   Y124.929   
   Z-1.750    
   Y116.929   
   Z-2.900    
   Y5.500     
   X29.000    
   Z-1.750    
   X37.000    
   Z-2.900    
   X60.500    
   Y116.540   
   Z-1.750    
   Y124.540   
   Z-2.900    
(Pass: 30)
   Z-3.000    
   Y210.500   
   X37.000    
   Z-1.750    
   X29.000    
   Z-3.000    
   X5.500     
   Y124.929   
   Z-1.750    
   Y116.929   
   Z-3.000    
   Y5.500     
   X29.000    
   Z-1.750    
   X37.000    
   Z-3.000    
   X60.500    
   Y116.540   
   Z-1.750    
   Y124.540   
   Z-3.000    
(Pass: 31)
   Z-3.100    
   Y210.500   
   X37.000    
   Z-1.750    
   X29.000    
   Z-3.100    
   X5.500     
   Y124.929   
   Z-1.750    
   Y116.929   
   Z-3.100    
   Y5.500     
   X29.000    
   Z-1.750    
   X37.000    
   Z-3.100    
   X60.500    
   Y116.540   
   Z-1.750    
   Y124.540   
   Z-3.100    
(Pass: 32)
   Z-3.200    
   Y210.500   
   X37.000    
   Z-1.750    
   X29.000    
   Z-3.200    
   X5.500     
   Y124.929   
   Z-1.750    
   Y116.929   
   Z-3.200    
   Y5.500     
   X29.000    
   Z-1.750    
   X37.000    
   Z-3.200    
   X60.500    
   Y116.540   
   Z-1.750    
   Y124.540   
   Z-3.200    
(Pass: 33)
   Z-3.300    
   Y210.500   
   X37.000    
   Z-1.750    
   X29.000    
   Z-3.300    
   X5.500     
   Y124.929   
   Z-1.750    
   Y116.929   
   Z-3.300    
   Y5.500     
   X29.000    
   Z-1.750    
   X37.000    
   Z-3.300    
   X60.500    
   Y116.540   
   Z-1.750    
   Y124.540   
   Z-3.300    
(Pass: 34)
   Z-3.400    
   Y210.500   
   X37.000    
   Z-1.750    
   X29.000    
   Z-3.400    
   X5.500     
   Y124.929   
   Z-1.750    
   Y116.929   
   Z-3.400    
   Y5.500     
   X29.000    
   Z-1.750    
   X37.000    
   Z-3.400    
   X60.500    
   Y116.540   
   Z-1.750    
   Y124.540   
   Z-3.400    
(Pass: 35)
   Z-3.500    
   Y210.500   
   X37.000    
   Z-1.750    
   X29.000    
   Z-3.500    
   X5.500     
   Y124.929   
   Z-1.750    
   Y116.929   
   Z-3.500    
   Y5.500     
   X29.000    
   Z-1.750    
   X37.000    
   Z-3.500    
   X60.500    
   Y116.540   
   Z-1.750    
   Y124.540   
   Z-3.500    
(Pass: 36)
   Z-3.600    
   Y210.500   
   X37.000    
   Z-1.750    
   X29.000    
   Z-3.600    
   X5.500     
   Y124.929   
   Z-1.750    
   Y116.929   
   Z-3.600    
   Y5.500     
   X29.000    
   Z-1.750    
   X37.000    
   Z-3.600    
   X60.500    
   Y116.540   
   Z-1.750    
   Y124.540   
   Z-3.600    
(BREAK pass 36)
G0   Z5.000     
G0 X0 Y0 (home)
M05
M30
%
