%
(Generated by SketchUcam {1.2b1})
(Bit diameter: 5.0mm)
(Feed rate: 1200.0mm/min)
(Plunge Feed rate: 300.0mm/min)
(Material Thickness: 3.5mm)
(Material length: 600.0mm X width: 300.0mm)
(Overhead Gantry: true)
(Retract feed rate NOT limited to plunge feed rate)
(Multipass enabled, Depth = 0.5mm)
(Optimization is ON)
(www.PhlatBoyz.com)
G90 G21 G49 
M3 S11000
G0   Z5.000     
(Pass: 1)
   X17.968       Y197.891   
(plungebore    depth=4.200         diam=5.000     )
G00   Z1.667     
G01   Z-0.500     F300 
G00   z1.667     
G01   Z-1.000    
G00   z1.667     
G01   Z-1.500    
G00   z1.667     
G01   Z-2.000    
G00   z1.667     
G01   Z-2.500    
G00   z1.667     
G01   Z-3.000    
G00   z1.667     
G01   Z-3.500    
G00   z1.667     
G01   Z-4.000    
G00   z1.667     
G01   Z-4.200    
G00   z1.667     
G00   Y197.891       Z5.000     
(plungebore end)
(BREAK pass 9)
(Pass: 1)
G0   X47.974       Y198.058   
(plungebore    depth=4.200         diam=5.000     )
G00   Z1.667     
G01   Z-0.500     F300 
G00   z1.667     
G01   Z-1.000    
G00   z1.667     
G01   Z-1.500    
G00   z1.667     
G01   Z-2.000    
G00   z1.667     
G01   Z-2.500    
G00   z1.667     
G01   Z-3.000    
G00   z1.667     
G01   Z-3.500    
G00   z1.667     
G01   Z-4.000    
G00   z1.667     
G01   Z-4.200    
G00   z1.667     
G00   Y198.058       Z5.000     
(plungebore end)
(BREAK pass 9)
(Group: _diam_6.0mm)
(Pass: 1)
G0   X33.000       Y122.000   
(plungebore    depth=4.200         diam=6.000     )
G00   Z1.667     
G01   Z-0.500     F300 
G00   z1.667     
G01   Z-1.000    
G00   z1.667     
G01   Z-1.500    
G00   z1.667     
G01   Z-2.000    
G00   z1.667     
G01   Z-2.500    
G00   z1.667     
G01   Z-3.000    
G00   z1.667     
G01   Z-3.500    
G00   z1.667     
G01   Z-4.000    
G00   z1.667     
G01   Z-4.200    
G00   z1.667     
G00   Y121.5000  
G01    Z0.0000     F1200
G02     X33.0000       Y121.5000      Z-0.5000    I0    J0.5000    
G02     X33.0000       Y121.5000      Z-1.0000    I0    J0.5000    
G02     X33.0000       Y121.5000      Z-1.5000    I0    J0.5000    
G02     X33.0000       Y121.5000      Z-2.0000    I0    J0.5000    
G02     X33.0000       Y121.5000      Z-2.5000    I0    J0.5000    
G02     X33.0000       Y121.5000      Z-3.0000    I0    J0.5000    
G02     X33.0000       Y121.5000      Z-3.5000    I0    J0.5000    
G02     X33.0000       Y121.5000      Z-4.2000    I0    J0.5000    
G02     X33.0000       Y121.5000   I0.0    J0.5000    
G00   Y122.000       Z5.000     
(plungebore end)
(BREAK pass 9)
(Group complete: _diam_6.0mm)
(Pass: 1)
G0   X18.000       Y18.000    
(plungebore    depth=4.200         diam=5.000     )
G00   Z1.667     
G01   Z-0.500     F300 
G00   z1.667     
G01   Z-1.000    
G00   z1.667     
G01   Z-1.500    
G00   z1.667     
G01   Z-2.000    
G00   z1.667     
G01   Z-2.500    
G00   z1.667     
G01   Z-3.000    
G00   z1.667     
G01   Z-3.500    
G00   z1.667     
G01   Z-4.000    
G00   z1.667     
G01   Z-4.200    
G00   z1.667     
G00   Y18.000        Z5.000     
(plungebore end)
(BREAK pass 9)
(Pass: 1)
G0   X48.000    
(plungebore    depth=4.200         diam=5.000     )
G00   Z1.667     
G01   Z-0.500     F300 
G00   z1.667     
G01   Z-1.000    
G00   z1.667     
G01   Z-1.500    
G00   z1.667     
G01   Z-2.000    
G00   z1.667     
G01   Z-2.500    
G00   z1.667     
G01   Z-3.000    
G00   z1.667     
G01   Z-3.500    
G00   z1.667     
G01   Z-4.000    
G00   z1.667     
G01   Z-4.200    
G00   z1.667     
G00   Y18.000        Z5.000     
(plungebore end)
(BREAK pass 9)
(Pass: 1)
G0   X60.500       Y5.500     
G1   Z-0.500     F300 
   Y210.500    F1200
   X5.500     
   Y5.500     
   X60.500    
(Pass: 2)
   Z-1.000     F300 
   Y210.500    F1200
   X5.500     
   Y5.500     
   X60.500    
(Pass: 3)
   Z-1.500     F300 
   Y210.500    F1200
   X5.500     
   Y5.500     
   X60.500    
(Pass: 4)
   Z-2.000     F300 
   Y210.500    F1200
   X5.500     
   Y5.500     
   X60.500    
(Pass: 5)
   Z-2.500     F300 
   Y210.500    F1200
   X5.500     
   Y5.500     
   X60.500    
(Pass: 6)
   Z-3.000     F300 
   Y210.500    F1200
   X5.500     
   Y5.500     
   X60.500    
(Pass: 7)
   Z-3.500     F300 
   Y210.500    F1200
   X5.500     
   Y5.500     
   X60.500    
(Pass: 8)
   Z-4.000     F300 
   Y210.500    F1200
   X5.500     
   Y5.500     
   X60.500    
(Pass: 9)
   Z-4.200     F300 
   Y210.500    F1200
   X5.500     
   Y5.500     
   X60.500    
(BREAK pass 9)
G0   Z5.000     
G0 X0 Y0 (home)
M05
M30
%
