%
(Generated by SketchUcam {1.2b1})
(File: laser.skp)
(Bit diameter: 5.0mm)
(Feed rate: 600.0mm/min)
(Plunge Feed rate: 400.0mm/min)
(Material Thickness: 3.2mm)
(Material length: 600.0mm X width: 300.0mm)
(Overhead Gantry: true)
(Retract feed rate NOT limited to plunge feed rate)
(Multipass enabled, Depth = 0.1mm)
(Optimization is ON)
(www.PhlatBoyz.com)
(Loaded profile 5mmaluminum)
G90 G21 G49 
M3 S11000
(Group: Roof Side RailRoof Side Rail)
(Group complete: Roof Side RailRoof Side Rail)
(Group: Roof Side RailRoof Side Rail)
(Group complete: Roof Side RailRoof Side Rail)
(Group: Outside Panels)
(Group: Mechanical Panels)
(Group: Rear Panels)
(Group complete: Rear Panels)
(Group complete: Mechanical Panels)
(Group: SIde Panels)
(Group complete: SIde Panels)
(Group: Lid Front Panels)
(Group complete: Lid Front Panels)
(Group: Front Panels)
(Group complete: Front Panels)
(Group: Lid Top Panels)
(Group complete: Lid Top Panels)
(Group complete: Outside Panels)
(Group: Power Supplies)
(Group complete: Power Supplies)
(Group: Computers)
(Group complete: Computers)
(Group: Fans)
(Group complete: Fans)
(Group: _diam_7.1mm)
(Group complete: _diam_7.1mm)
(Group: _diam_7.1mm)
(Group complete: _diam_7.1mm)
(Group: _diam_7.1mm)
(Group complete: _diam_7.1mm)
(Group: _diam_7.1mm)
(Group complete: _diam_7.1mm)
G0   Z5.000     
(Pass: 1)
   X35.769       Y36.090    
(plungebore    depth=4.480         diam=5.000     )
G00   Z1.667     
G01   Z-0.100     F400 
G00   z1.667     
G01   Z-0.200    
G00   z1.667     
G01   Z-0.300    
G00   z1.667     
G01   Z-0.400    
G00   z1.667     
G01   Z-0.500    
G00   z1.667     
G01   Z-0.600    
G00   z1.667     
G01   Z-0.700    
G00   z1.667     
G01   Z-0.800    
G00   z1.667     
G01   Z-0.900    
G00   z1.667     
G01   Z-1.000    
G00   z1.667     
G01   Z-1.100    
G00   z1.667     
G01   Z-1.200    
G00   z1.667     
G01   Z-1.300    
G00   z1.667     
G01   Z-1.400    
G00   z1.667     
G01   Z-1.500    
G00   z1.667     
G01   Z-1.600    
G00   z1.667     
G01   Z-1.700    
G00   z1.667     
G01   Z-1.800    
G00   z1.667     
G01   Z-1.900    
G00   z1.667     
G01   Z-2.000    
G00   z1.667     
G01   Z-2.100    
G00   z1.667     
G01   Z-2.200    
G00   z1.667     
G01   Z-2.300    
G00   z1.667     
G01   Z-2.400    
G00   z1.667     
G01   Z-2.500    
G00   z1.667     
G01   Z-2.600    
G00   z1.667     
G01   Z-2.700    
G00   z1.667     
G01   Z-2.800    
G00   z1.667     
G01   Z-2.900    
G00   z1.667     
G01   Z-3.000    
G00   z1.667     
G01   Z-3.100    
G00   z1.667     
G01   Z-3.200    
G00   z1.667     
G01   Z-3.300    
G00   z1.667     
G01   Z-3.400    
G00   z1.667     
G01   Z-3.500    
G00   z1.667     
G01   Z-3.600    
G00   z1.667     
G01   Z-3.700    
G00   z1.667     
G01   Z-3.800    
G00   z1.667     
G01   Z-3.900    
G00   z1.667     
G01   Z-4.000    
G00   z1.667     
G01   Z-4.100    
G00   z1.667     
G01   Z-4.200    
G00   z1.667     
G01   Z-4.300    
G00   z1.667     
G01   Z-4.400    
G00   z1.667     
G01   Z-4.480    
G00   z1.667     
G00   Y36.090        Z5.000     
(plungebore end)
(BREAK pass 34)
(Pass: 1)
G0   X45.759    
(plungebore    depth=4.480         diam=5.000     )
G00   Z1.667     
G01   Z-0.100     F400 
G00   z1.667     
G01   Z-0.200    
G00   z1.667     
G01   Z-0.300    
G00   z1.667     
G01   Z-0.400    
G00   z1.667     
G01   Z-0.500    
G00   z1.667     
G01   Z-0.600    
G00   z1.667     
G01   Z-0.700    
G00   z1.667     
G01   Z-0.800    
G00   z1.667     
G01   Z-0.900    
G00   z1.667     
G01   Z-1.000    
G00   z1.667     
G01   Z-1.100    
G00   z1.667     
G01   Z-1.200    
G00   z1.667     
G01   Z-1.300    
G00   z1.667     
G01   Z-1.400    
G00   z1.667     
G01   Z-1.500    
G00   z1.667     
G01   Z-1.600    
G00   z1.667     
G01   Z-1.700    
G00   z1.667     
G01   Z-1.800    
G00   z1.667     
G01   Z-1.900    
G00   z1.667     
G01   Z-2.000    
G00   z1.667     
G01   Z-2.100    
G00   z1.667     
G01   Z-2.200    
G00   z1.667     
G01   Z-2.300    
G00   z1.667     
G01   Z-2.400    
G00   z1.667     
G01   Z-2.500    
G00   z1.667     
G01   Z-2.600    
G00   z1.667     
G01   Z-2.700    
G00   z1.667     
G01   Z-2.800    
G00   z1.667     
G01   Z-2.900    
G00   z1.667     
G01   Z-3.000    
G00   z1.667     
G01   Z-3.100    
G00   z1.667     
G01   Z-3.200    
G00   z1.667     
G01   Z-3.300    
G00   z1.667     
G01   Z-3.400    
G00   z1.667     
G01   Z-3.500    
G00   z1.667     
G01   Z-3.600    
G00   z1.667     
G01   Z-3.700    
G00   z1.667     
G01   Z-3.800    
G00   z1.667     
G01   Z-3.900    
G00   z1.667     
G01   Z-4.000    
G00   z1.667     
G01   Z-4.100    
G00   z1.667     
G01   Z-4.200    
G00   z1.667     
G01   Z-4.300    
G00   z1.667     
G01   Z-4.400    
G00   z1.667     
G01   Z-4.480    
G00   z1.667     
G00   Y36.090        Z5.000     
(plungebore end)
(BREAK pass 34)
(Pass: 1)
G0   X55.769    
(plungebore    depth=4.480         diam=5.000     )
G00   Z1.667     
G01   Z-0.100     F400 
G00   z1.667     
G01   Z-0.200    
G00   z1.667     
G01   Z-0.300    
G00   z1.667     
G01   Z-0.400    
G00   z1.667     
G01   Z-0.500    
G00   z1.667     
G01   Z-0.600    
G00   z1.667     
G01   Z-0.700    
G00   z1.667     
G01   Z-0.800    
G00   z1.667     
G01   Z-0.900    
G00   z1.667     
G01   Z-1.000    
G00   z1.667     
G01   Z-1.100    
G00   z1.667     
G01   Z-1.200    
G00   z1.667     
G01   Z-1.300    
G00   z1.667     
G01   Z-1.400    
G00   z1.667     
G01   Z-1.500    
G00   z1.667     
G01   Z-1.600    
G00   z1.667     
G01   Z-1.700    
G00   z1.667     
G01   Z-1.800    
G00   z1.667     
G01   Z-1.900    
G00   z1.667     
G01   Z-2.000    
G00   z1.667     
G01   Z-2.100    
G00   z1.667     
G01   Z-2.200    
G00   z1.667     
G01   Z-2.300    
G00   z1.667     
G01   Z-2.400    
G00   z1.667     
G01   Z-2.500    
G00   z1.667     
G01   Z-2.600    
G00   z1.667     
G01   Z-2.700    
G00   z1.667     
G01   Z-2.800    
G00   z1.667     
G01   Z-2.900    
G00   z1.667     
G01   Z-3.000    
G00   z1.667     
G01   Z-3.100    
G00   z1.667     
G01   Z-3.200    
G00   z1.667     
G01   Z-3.300    
G00   z1.667     
G01   Z-3.400    
G00   z1.667     
G01   Z-3.500    
G00   z1.667     
G01   Z-3.600    
G00   z1.667     
G01   Z-3.700    
G00   z1.667     
G01   Z-3.800    
G00   z1.667     
G01   Z-3.900    
G00   z1.667     
G01   Z-4.000    
G00   z1.667     
G01   Z-4.100    
G00   z1.667     
G01   Z-4.200    
G00   z1.667     
G01   Z-4.300    
G00   z1.667     
G01   Z-4.400    
G00   z1.667     
G01   Z-4.480    
G00   z1.667     
G00   Y36.090        Z5.000     
(plungebore end)
(BREAK pass 34)
(Pass: 1)
G0   X35.769       Y46.090    
(plungebore    depth=4.480         diam=5.000     )
G00   Z1.667     
G01   Z-0.100     F400 
G00   z1.667     
G01   Z-0.200    
G00   z1.667     
G01   Z-0.300    
G00   z1.667     
G01   Z-0.400    
G00   z1.667     
G01   Z-0.500    
G00   z1.667     
G01   Z-0.600    
G00   z1.667     
G01   Z-0.700    
G00   z1.667     
G01   Z-0.800    
G00   z1.667     
G01   Z-0.900    
G00   z1.667     
G01   Z-1.000    
G00   z1.667     
G01   Z-1.100    
G00   z1.667     
G01   Z-1.200    
G00   z1.667     
G01   Z-1.300    
G00   z1.667     
G01   Z-1.400    
G00   z1.667     
G01   Z-1.500    
G00   z1.667     
G01   Z-1.600    
G00   z1.667     
G01   Z-1.700    
G00   z1.667     
G01   Z-1.800    
G00   z1.667     
G01   Z-1.900    
G00   z1.667     
G01   Z-2.000    
G00   z1.667     
G01   Z-2.100    
G00   z1.667     
G01   Z-2.200    
G00   z1.667     
G01   Z-2.300    
G00   z1.667     
G01   Z-2.400    
G00   z1.667     
G01   Z-2.500    
G00   z1.667     
G01   Z-2.600    
G00   z1.667     
G01   Z-2.700    
G00   z1.667     
G01   Z-2.800    
G00   z1.667     
G01   Z-2.900    
G00   z1.667     
G01   Z-3.000    
G00   z1.667     
G01   Z-3.100    
G00   z1.667     
G01   Z-3.200    
G00   z1.667     
G01   Z-3.300    
G00   z1.667     
G01   Z-3.400    
G00   z1.667     
G01   Z-3.500    
G00   z1.667     
G01   Z-3.600    
G00   z1.667     
G01   Z-3.700    
G00   z1.667     
G01   Z-3.800    
G00   z1.667     
G01   Z-3.900    
G00   z1.667     
G01   Z-4.000    
G00   z1.667     
G01   Z-4.100    
G00   z1.667     
G01   Z-4.200    
G00   z1.667     
G01   Z-4.300    
G00   z1.667     
G01   Z-4.400    
G00   z1.667     
G01   Z-4.480    
G00   z1.667     
G00   Y46.090        Z5.000     
(plungebore end)
(BREAK pass 34)
(Pass: 1)
G0   Y26.090    
(plungebore    depth=4.480         diam=5.000     )
G00   Z1.667     
G01   Z-0.100     F400 
G00   z1.667     
G01   Z-0.200    
G00   z1.667     
G01   Z-0.300    
G00   z1.667     
G01   Z-0.400    
G00   z1.667     
G01   Z-0.500    
G00   z1.667     
G01   Z-0.600    
G00   z1.667     
G01   Z-0.700    
G00   z1.667     
G01   Z-0.800    
G00   z1.667     
G01   Z-0.900    
G00   z1.667     
G01   Z-1.000    
G00   z1.667     
G01   Z-1.100    
G00   z1.667     
G01   Z-1.200    
G00   z1.667     
G01   Z-1.300    
G00   z1.667     
G01   Z-1.400    
G00   z1.667     
G01   Z-1.500    
G00   z1.667     
G01   Z-1.600    
G00   z1.667     
G01   Z-1.700    
G00   z1.667     
G01   Z-1.800    
G00   z1.667     
G01   Z-1.900    
G00   z1.667     
G01   Z-2.000    
G00   z1.667     
G01   Z-2.100    
G00   z1.667     
G01   Z-2.200    
G00   z1.667     
G01   Z-2.300    
G00   z1.667     
G01   Z-2.400    
G00   z1.667     
G01   Z-2.500    
G00   z1.667     
G01   Z-2.600    
G00   z1.667     
G01   Z-2.700    
G00   z1.667     
G01   Z-2.800    
G00   z1.667     
G01   Z-2.900    
G00   z1.667     
G01   Z-3.000    
G00   z1.667     
G01   Z-3.100    
G00   z1.667     
G01   Z-3.200    
G00   z1.667     
G01   Z-3.300    
G00   z1.667     
G01   Z-3.400    
G00   z1.667     
G01   Z-3.500    
G00   z1.667     
G01   Z-3.600    
G00   z1.667     
G01   Z-3.700    
G00   z1.667     
G01   Z-3.800    
G00   z1.667     
G01   Z-3.900    
G00   z1.667     
G01   Z-4.000    
G00   z1.667     
G01   Z-4.100    
G00   z1.667     
G01   Z-4.200    
G00   z1.667     
G01   Z-4.300    
G00   z1.667     
G01   Z-4.400    
G00   z1.667     
G01   Z-4.480    
G00   z1.667     
G00   Y26.090        Z5.000     
(plungebore end)
(BREAK pass 34)
(Pass: 1)
G0   X25.759       Y36.090    
(plungebore    depth=4.480         diam=5.000     )
G00   Z1.667     
G01   Z-0.100     F400 
G00   z1.667     
G01   Z-0.200    
G00   z1.667     
G01   Z-0.300    
G00   z1.667     
G01   Z-0.400    
G00   z1.667     
G01   Z-0.500    
G00   z1.667     
G01   Z-0.600    
G00   z1.667     
G01   Z-0.700    
G00   z1.667     
G01   Z-0.800    
G00   z1.667     
G01   Z-0.900    
G00   z1.667     
G01   Z-1.000    
G00   z1.667     
G01   Z-1.100    
G00   z1.667     
G01   Z-1.200    
G00   z1.667     
G01   Z-1.300    
G00   z1.667     
G01   Z-1.400    
G00   z1.667     
G01   Z-1.500    
G00   z1.667     
G01   Z-1.600    
G00   z1.667     
G01   Z-1.700    
G00   z1.667     
G01   Z-1.800    
G00   z1.667     
G01   Z-1.900    
G00   z1.667     
G01   Z-2.000    
G00   z1.667     
G01   Z-2.100    
G00   z1.667     
G01   Z-2.200    
G00   z1.667     
G01   Z-2.300    
G00   z1.667     
G01   Z-2.400    
G00   z1.667     
G01   Z-2.500    
G00   z1.667     
G01   Z-2.600    
G00   z1.667     
G01   Z-2.700    
G00   z1.667     
G01   Z-2.800    
G00   z1.667     
G01   Z-2.900    
G00   z1.667     
G01   Z-3.000    
G00   z1.667     
G01   Z-3.100    
G00   z1.667     
G01   Z-3.200    
G00   z1.667     
G01   Z-3.300    
G00   z1.667     
G01   Z-3.400    
G00   z1.667     
G01   Z-3.500    
G00   z1.667     
G01   Z-3.600    
G00   z1.667     
G01   Z-3.700    
G00   z1.667     
G01   Z-3.800    
G00   z1.667     
G01   Z-3.900    
G00   z1.667     
G01   Z-4.000    
G00   z1.667     
G01   Z-4.100    
G00   z1.667     
G01   Z-4.200    
G00   z1.667     
G01   Z-4.300    
G00   z1.667     
G01   Z-4.400    
G00   z1.667     
G01   Z-4.480    
G00   z1.667     
G00   Y36.090        Z5.000     
(plungebore end)
(BREAK pass 34)
(Pass: 1)
G0   X15.769    
(plungebore    depth=4.480         diam=5.000     )
G00   Z1.667     
G01   Z-0.100     F400 
G00   z1.667     
G01   Z-0.200    
G00   z1.667     
G01   Z-0.300    
G00   z1.667     
G01   Z-0.400    
G00   z1.667     
G01   Z-0.500    
G00   z1.667     
G01   Z-0.600    
G00   z1.667     
G01   Z-0.700    
G00   z1.667     
G01   Z-0.800    
G00   z1.667     
G01   Z-0.900    
G00   z1.667     
G01   Z-1.000    
G00   z1.667     
G01   Z-1.100    
G00   z1.667     
G01   Z-1.200    
G00   z1.667     
G01   Z-1.300    
G00   z1.667     
G01   Z-1.400    
G00   z1.667     
G01   Z-1.500    
G00   z1.667     
G01   Z-1.600    
G00   z1.667     
G01   Z-1.700    
G00   z1.667     
G01   Z-1.800    
G00   z1.667     
G01   Z-1.900    
G00   z1.667     
G01   Z-2.000    
G00   z1.667     
G01   Z-2.100    
G00   z1.667     
G01   Z-2.200    
G00   z1.667     
G01   Z-2.300    
G00   z1.667     
G01   Z-2.400    
G00   z1.667     
G01   Z-2.500    
G00   z1.667     
G01   Z-2.600    
G00   z1.667     
G01   Z-2.700    
G00   z1.667     
G01   Z-2.800    
G00   z1.667     
G01   Z-2.900    
G00   z1.667     
G01   Z-3.000    
G00   z1.667     
G01   Z-3.100    
G00   z1.667     
G01   Z-3.200    
G00   z1.667     
G01   Z-3.300    
G00   z1.667     
G01   Z-3.400    
G00   z1.667     
G01   Z-3.500    
G00   z1.667     
G01   Z-3.600    
G00   z1.667     
G01   Z-3.700    
G00   z1.667     
G01   Z-3.800    
G00   z1.667     
G01   Z-3.900    
G00   z1.667     
G01   Z-4.000    
G00   z1.667     
G01   Z-4.100    
G00   z1.667     
G01   Z-4.200    
G00   z1.667     
G01   Z-4.300    
G00   z1.667     
G01   Z-4.400    
G00   z1.667     
G01   Z-4.480    
G00   z1.667     
G00   Y36.090        Z5.000     
(plungebore end)
(BREAK pass 34)
(Pass: 1)
G0   X19.548       Y22.101    
G1   Z-0.100     F400 
G17 G2   X19.8187      Y22.1371      R1.0685     F600 
   X20.0897      Y22.1014      R1.0685    
   X20.3422      Y21.9969      R1.0685    
   X20.5590      Y21.8305      R1.0685    
   X20.7254      Y21.6136      R1.0685    
   X20.8300      Y21.3612      R1.0685    
   X20.8657      Y21.0902      R1.0685    
   X20.8300      Y20.8192      R1.0685    
   X20.7254      Y20.5667      R1.0685    
   X20.5590      Y20.3499      R1.0685    
   X20.3422      Y20.1835      R1.0685    
   X20.0897      Y20.0789      R1.0685    
   X19.8187      Y20.0433      R1.0685    
   X19.5478      Y20.0789      R1.0685    
   X19.2953      Y20.1835      R1.0685    
   X19.0784      Y20.3499      R1.0685    
   X18.9121      Y20.5667      R1.0685    
   X18.8075      Y20.8192      R1.0685    
   X18.7718      Y21.0902      R1.0685    
   X18.8075      Y21.3612      R1.0685    
   X18.9121      Y21.6136      R1.0685    
   X19.0784      Y21.8305      R1.0685    
   X19.2953      Y21.9969      R1.0685    
   X19.5478      Y22.1014      R1.0685    
(Pass: 2)
G1   Z-0.200     F400 
G17 G2   X19.8187      Y22.1371      R1.0685     F600 
   X20.0897      Y22.1014      R1.0685    
   X20.3422      Y21.9969      R1.0685    
   X20.5590      Y21.8305      R1.0685    
   X20.7254      Y21.6136      R1.0685    
   X20.8300      Y21.3612      R1.0685    
   X20.8657      Y21.0902      R1.0685    
   X20.8300      Y20.8192      R1.0685    
   X20.7254      Y20.5667      R1.0685    
   X20.5590      Y20.3499      R1.0685    
   X20.3422      Y20.1835      R1.0685    
   X20.0897      Y20.0789      R1.0685    
   X19.8187      Y20.0433      R1.0685    
   X19.5478      Y20.0789      R1.0685    
   X19.2953      Y20.1835      R1.0685    
   X19.0784      Y20.3499      R1.0685    
   X18.9121      Y20.5667      R1.0685    
   X18.8075      Y20.8192      R1.0685    
   X18.7718      Y21.0902      R1.0685    
   X18.8075      Y21.3612      R1.0685    
   X18.9121      Y21.6136      R1.0685    
   X19.0784      Y21.8305      R1.0685    
   X19.2953      Y21.9969      R1.0685    
   X19.5478      Y22.1014      R1.0685    
(Pass: 3)
G1   Z-0.300     F400 
G17 G2   X19.8187      Y22.1371      R1.0685     F600 
   X20.0897      Y22.1014      R1.0685    
   X20.3422      Y21.9969      R1.0685    
   X20.5590      Y21.8305      R1.0685    
   X20.7254      Y21.6136      R1.0685    
   X20.8300      Y21.3612      R1.0685    
   X20.8657      Y21.0902      R1.0685    
   X20.8300      Y20.8192      R1.0685    
   X20.7254      Y20.5667      R1.0685    
   X20.5590      Y20.3499      R1.0685    
   X20.3422      Y20.1835      R1.0685    
   X20.0897      Y20.0789      R1.0685    
   X19.8187      Y20.0433      R1.0685    
   X19.5478      Y20.0789      R1.0685    
   X19.2953      Y20.1835      R1.0685    
   X19.0784      Y20.3499      R1.0685    
   X18.9121      Y20.5667      R1.0685    
   X18.8075      Y20.8192      R1.0685    
   X18.7718      Y21.0902      R1.0685    
   X18.8075      Y21.3612      R1.0685    
   X18.9121      Y21.6136      R1.0685    
   X19.0784      Y21.8305      R1.0685    
   X19.2953      Y21.9969      R1.0685    
   X19.5478      Y22.1014      R1.0685    
(Pass: 4)
G1   Z-0.400     F400 
G17 G2   X19.8187      Y22.1371      R1.0685     F600 
   X20.0897      Y22.1014      R1.0685    
   X20.3422      Y21.9969      R1.0685    
   X20.5590      Y21.8305      R1.0685    
   X20.7254      Y21.6136      R1.0685    
   X20.8300      Y21.3612      R1.0685    
   X20.8657      Y21.0902      R1.0685    
   X20.8300      Y20.8192      R1.0685    
   X20.7254      Y20.5667      R1.0685    
   X20.5590      Y20.3499      R1.0685    
   X20.3422      Y20.1835      R1.0685    
   X20.0897      Y20.0789      R1.0685    
   X19.8187      Y20.0433      R1.0685    
   X19.5478      Y20.0789      R1.0685    
   X19.2953      Y20.1835      R1.0685    
   X19.0784      Y20.3499      R1.0685    
   X18.9121      Y20.5667      R1.0685    
   X18.8075      Y20.8192      R1.0685    
   X18.7718      Y21.0902      R1.0685    
   X18.8075      Y21.3612      R1.0685    
   X18.9121      Y21.6136      R1.0685    
   X19.0784      Y21.8305      R1.0685    
   X19.2953      Y21.9969      R1.0685    
   X19.5478      Y22.1014      R1.0685    
(Pass: 5)
G1   Z-0.500     F400 
G17 G2   X19.8187      Y22.1371      R1.0685     F600 
   X20.0897      Y22.1014      R1.0685    
   X20.3422      Y21.9969      R1.0685    
   X20.5590      Y21.8305      R1.0685    
   X20.7254      Y21.6136      R1.0685    
   X20.8300      Y21.3612      R1.0685    
   X20.8657      Y21.0902      R1.0685    
   X20.8300      Y20.8192      R1.0685    
   X20.7254      Y20.5667      R1.0685    
   X20.5590      Y20.3499      R1.0685    
   X20.3422      Y20.1835      R1.0685    
   X20.0897      Y20.0789      R1.0685    
   X19.8187      Y20.0433      R1.0685    
   X19.5478      Y20.0789      R1.0685    
   X19.2953      Y20.1835      R1.0685    
   X19.0784      Y20.3499      R1.0685    
   X18.9121      Y20.5667      R1.0685    
   X18.8075      Y20.8192      R1.0685    
   X18.7718      Y21.0902      R1.0685    
   X18.8075      Y21.3612      R1.0685    
   X18.9121      Y21.6136      R1.0685    
   X19.0784      Y21.8305      R1.0685    
   X19.2953      Y21.9969      R1.0685    
   X19.5478      Y22.1014      R1.0685    
(Pass: 6)
G1   Z-0.600     F400 
G17 G2   X19.8187      Y22.1371      R1.0685     F600 
   X20.0897      Y22.1014      R1.0685    
   X20.3422      Y21.9969      R1.0685    
   X20.5590      Y21.8305      R1.0685    
   X20.7254      Y21.6136      R1.0685    
   X20.8300      Y21.3612      R1.0685    
   X20.8657      Y21.0902      R1.0685    
   X20.8300      Y20.8192      R1.0685    
   X20.7254      Y20.5667      R1.0685    
   X20.5590      Y20.3499      R1.0685    
   X20.3422      Y20.1835      R1.0685    
   X20.0897      Y20.0789      R1.0685    
   X19.8187      Y20.0433      R1.0685    
   X19.5478      Y20.0789      R1.0685    
   X19.2953      Y20.1835      R1.0685    
   X19.0784      Y20.3499      R1.0685    
   X18.9121      Y20.5667      R1.0685    
   X18.8075      Y20.8192      R1.0685    
   X18.7718      Y21.0902      R1.0685    
   X18.8075      Y21.3612      R1.0685    
   X18.9121      Y21.6136      R1.0685    
   X19.0784      Y21.8305      R1.0685    
   X19.2953      Y21.9969      R1.0685    
   X19.5478      Y22.1014      R1.0685    
(Pass: 7)
G1   Z-0.700     F400 
G17 G2   X19.8187      Y22.1371      R1.0685     F600 
   X20.0897      Y22.1014      R1.0685    
   X20.3422      Y21.9969      R1.0685    
   X20.5590      Y21.8305      R1.0685    
   X20.7254      Y21.6136      R1.0685    
   X20.8300      Y21.3612      R1.0685    
   X20.8657      Y21.0902      R1.0685    
   X20.8300      Y20.8192      R1.0685    
   X20.7254      Y20.5667      R1.0685    
   X20.5590      Y20.3499      R1.0685    
   X20.3422      Y20.1835      R1.0685    
   X20.0897      Y20.0789      R1.0685    
   X19.8187      Y20.0433      R1.0685    
   X19.5478      Y20.0789      R1.0685    
   X19.2953      Y20.1835      R1.0685    
   X19.0784      Y20.3499      R1.0685    
   X18.9121      Y20.5667      R1.0685    
   X18.8075      Y20.8192      R1.0685    
   X18.7718      Y21.0902      R1.0685    
   X18.8075      Y21.3612      R1.0685    
   X18.9121      Y21.6136      R1.0685    
   X19.0784      Y21.8305      R1.0685    
   X19.2953      Y21.9969      R1.0685    
   X19.5478      Y22.1014      R1.0685    
(Pass: 8)
G1   Z-0.800     F400 
G17 G2   X19.8187      Y22.1371      R1.0685     F600 
   X20.0897      Y22.1014      R1.0685    
   X20.3422      Y21.9969      R1.0685    
   X20.5590      Y21.8305      R1.0685    
   X20.7254      Y21.6136      R1.0685    
   X20.8300      Y21.3612      R1.0685    
   X20.8657      Y21.0902      R1.0685    
   X20.8300      Y20.8192      R1.0685    
   X20.7254      Y20.5667      R1.0685    
   X20.5590      Y20.3499      R1.0685    
   X20.3422      Y20.1835      R1.0685    
   X20.0897      Y20.0789      R1.0685    
   X19.8187      Y20.0433      R1.0685    
   X19.5478      Y20.0789      R1.0685    
   X19.2953      Y20.1835      R1.0685    
   X19.0784      Y20.3499      R1.0685    
   X18.9121      Y20.5667      R1.0685    
   X18.8075      Y20.8192      R1.0685    
   X18.7718      Y21.0902      R1.0685    
   X18.8075      Y21.3612      R1.0685    
   X18.9121      Y21.6136      R1.0685    
   X19.0784      Y21.8305      R1.0685    
   X19.2953      Y21.9969      R1.0685    
   X19.5478      Y22.1014      R1.0685    
(Pass: 9)
G1   Z-0.900     F400 
G17 G2   X19.8187      Y22.1371      R1.0685     F600 
   X20.0897      Y22.1014      R1.0685    
   X20.3422      Y21.9969      R1.0685    
   X20.5590      Y21.8305      R1.0685    
   X20.7254      Y21.6136      R1.0685    
   X20.8300      Y21.3612      R1.0685    
   X20.8657      Y21.0902      R1.0685    
   X20.8300      Y20.8192      R1.0685    
   X20.7254      Y20.5667      R1.0685    
   X20.5590      Y20.3499      R1.0685    
   X20.3422      Y20.1835      R1.0685    
   X20.0897      Y20.0789      R1.0685    
   X19.8187      Y20.0433      R1.0685    
   X19.5478      Y20.0789      R1.0685    
   X19.2953      Y20.1835      R1.0685    
   X19.0784      Y20.3499      R1.0685    
   X18.9121      Y20.5667      R1.0685    
   X18.8075      Y20.8192      R1.0685    
   X18.7718      Y21.0902      R1.0685    
   X18.8075      Y21.3612      R1.0685    
   X18.9121      Y21.6136      R1.0685    
   X19.0784      Y21.8305      R1.0685    
   X19.2953      Y21.9969      R1.0685    
   X19.5478      Y22.1014      R1.0685    
(Pass: 10)
G1   Z-1.000     F400 
G17 G2   X19.8187      Y22.1371      R1.0685     F600 
   X20.0897      Y22.1014      R1.0685    
   X20.3422      Y21.9969      R1.0685    
   X20.5590      Y21.8305      R1.0685    
   X20.7254      Y21.6136      R1.0685    
   X20.8300      Y21.3612      R1.0685    
   X20.8657      Y21.0902      R1.0685    
   X20.8300      Y20.8192      R1.0685    
   X20.7254      Y20.5667      R1.0685    
   X20.5590      Y20.3499      R1.0685    
   X20.3422      Y20.1835      R1.0685    
   X20.0897      Y20.0789      R1.0685    
   X19.8187      Y20.0433      R1.0685    
   X19.5478      Y20.0789      R1.0685    
   X19.2953      Y20.1835      R1.0685    
   X19.0784      Y20.3499      R1.0685    
   X18.9121      Y20.5667      R1.0685    
   X18.8075      Y20.8192      R1.0685    
   X18.7718      Y21.0902      R1.0685    
   X18.8075      Y21.3612      R1.0685    
   X18.9121      Y21.6136      R1.0685    
   X19.0784      Y21.8305      R1.0685    
   X19.2953      Y21.9969      R1.0685    
   X19.5478      Y22.1014      R1.0685    
(Pass: 11)
G1   Z-1.100     F400 
G17 G2   X19.8187      Y22.1371      R1.0685     F600 
   X20.0897      Y22.1014      R1.0685    
   X20.3422      Y21.9969      R1.0685    
   X20.5590      Y21.8305      R1.0685    
   X20.7254      Y21.6136      R1.0685    
   X20.8300      Y21.3612      R1.0685    
   X20.8657      Y21.0902      R1.0685    
   X20.8300      Y20.8192      R1.0685    
   X20.7254      Y20.5667      R1.0685    
   X20.5590      Y20.3499      R1.0685    
   X20.3422      Y20.1835      R1.0685    
   X20.0897      Y20.0789      R1.0685    
   X19.8187      Y20.0433      R1.0685    
   X19.5478      Y20.0789      R1.0685    
   X19.2953      Y20.1835      R1.0685    
   X19.0784      Y20.3499      R1.0685    
   X18.9121      Y20.5667      R1.0685    
   X18.8075      Y20.8192      R1.0685    
   X18.7718      Y21.0902      R1.0685    
   X18.8075      Y21.3612      R1.0685    
   X18.9121      Y21.6136      R1.0685    
   X19.0784      Y21.8305      R1.0685    
   X19.2953      Y21.9969      R1.0685    
   X19.5478      Y22.1014      R1.0685    
(Pass: 12)
G1   Z-1.200     F400 
G17 G2   X19.8187      Y22.1371      R1.0685     F600 
   X20.0897      Y22.1014      R1.0685    
   X20.3422      Y21.9969      R1.0685    
   X20.5590      Y21.8305      R1.0685    
   X20.7254      Y21.6136      R1.0685    
   X20.8300      Y21.3612      R1.0685    
   X20.8657      Y21.0902      R1.0685    
   X20.8300      Y20.8192      R1.0685    
   X20.7254      Y20.5667      R1.0685    
   X20.5590      Y20.3499      R1.0685    
   X20.3422      Y20.1835      R1.0685    
   X20.0897      Y20.0789      R1.0685    
   X19.8187      Y20.0433      R1.0685    
   X19.5478      Y20.0789      R1.0685    
   X19.2953      Y20.1835      R1.0685    
   X19.0784      Y20.3499      R1.0685    
   X18.9121      Y20.5667      R1.0685    
   X18.8075      Y20.8192      R1.0685    
   X18.7718      Y21.0902      R1.0685    
   X18.8075      Y21.3612      R1.0685    
   X18.9121      Y21.6136      R1.0685    
   X19.0784      Y21.8305      R1.0685    
   X19.2953      Y21.9969      R1.0685    
   X19.5478      Y22.1014      R1.0685    
(Pass: 13)
G1   Z-1.300     F400 
G17 G2   X19.8187      Y22.1371      R1.0685     F600 
   X20.0897      Y22.1014      R1.0685    
   X20.3422      Y21.9969      R1.0685    
   X20.5590      Y21.8305      R1.0685    
   X20.7254      Y21.6136      R1.0685    
   X20.8300      Y21.3612      R1.0685    
   X20.8657      Y21.0902      R1.0685    
   X20.8300      Y20.8192      R1.0685    
   X20.7254      Y20.5667      R1.0685    
   X20.5590      Y20.3499      R1.0685    
   X20.3422      Y20.1835      R1.0685    
   X20.0897      Y20.0789      R1.0685    
   X19.8187      Y20.0433      R1.0685    
   X19.5478      Y20.0789      R1.0685    
   X19.2953      Y20.1835      R1.0685    
   X19.0784      Y20.3499      R1.0685    
   X18.9121      Y20.5667      R1.0685    
   X18.8075      Y20.8192      R1.0685    
   X18.7718      Y21.0902      R1.0685    
   X18.8075      Y21.3612      R1.0685    
   X18.9121      Y21.6136      R1.0685    
   X19.0784      Y21.8305      R1.0685    
   X19.2953      Y21.9969      R1.0685    
   X19.5478      Y22.1014      R1.0685    
(Pass: 14)
G1   Z-1.400     F400 
G17 G2   X19.8187      Y22.1371      R1.0685     F600 
   X20.0897      Y22.1014      R1.0685    
   X20.3422      Y21.9969      R1.0685    
   X20.5590      Y21.8305      R1.0685    
   X20.7254      Y21.6136      R1.0685    
   X20.8300      Y21.3612      R1.0685    
   X20.8657      Y21.0902      R1.0685    
   X20.8300      Y20.8192      R1.0685    
   X20.7254      Y20.5667      R1.0685    
   X20.5590      Y20.3499      R1.0685    
   X20.3422      Y20.1835      R1.0685    
   X20.0897      Y20.0789      R1.0685    
   X19.8187      Y20.0433      R1.0685    
   X19.5478      Y20.0789      R1.0685    
   X19.2953      Y20.1835      R1.0685    
   X19.0784      Y20.3499      R1.0685    
   X18.9121      Y20.5667      R1.0685    
   X18.8075      Y20.8192      R1.0685    
   X18.7718      Y21.0902      R1.0685    
   X18.8075      Y21.3612      R1.0685    
   X18.9121      Y21.6136      R1.0685    
   X19.0784      Y21.8305      R1.0685    
   X19.2953      Y21.9969      R1.0685    
   X19.5478      Y22.1014      R1.0685    
(Pass: 15)
G1   Z-1.500     F400 
G17 G2   X19.8187      Y22.1371      R1.0685     F600 
   X20.0897      Y22.1014      R1.0685    
   X20.3422      Y21.9969      R1.0685    
   X20.5590      Y21.8305      R1.0685    
   X20.7254      Y21.6136      R1.0685    
   X20.8300      Y21.3612      R1.0685    
   X20.8657      Y21.0902      R1.0685    
   X20.8300      Y20.8192      R1.0685    
   X20.7254      Y20.5667      R1.0685    
   X20.5590      Y20.3499      R1.0685    
   X20.3422      Y20.1835      R1.0685    
   X20.0897      Y20.0789      R1.0685    
   X19.8187      Y20.0433      R1.0685    
   X19.5478      Y20.0789      R1.0685    
   X19.2953      Y20.1835      R1.0685    
   X19.0784      Y20.3499      R1.0685    
   X18.9121      Y20.5667      R1.0685    
   X18.8075      Y20.8192      R1.0685    
   X18.7718      Y21.0902      R1.0685    
   X18.8075      Y21.3612      R1.0685    
   X18.9121      Y21.6136      R1.0685    
   X19.0784      Y21.8305      R1.0685    
   X19.2953      Y21.9969      R1.0685    
   X19.5478      Y22.1014      R1.0685    
(Pass: 16)
G1   Z-1.600     F400 
G17 G2   X19.8187      Y22.1371      R1.0685     F600 
   X20.0897      Y22.1014      R1.0685    
   X20.3422      Y21.9969      R1.0685    
   X20.5590      Y21.8305      R1.0685    
   X20.7254      Y21.6136      R1.0685    
   X20.8300      Y21.3612      R1.0685    
   X20.8657      Y21.0902      R1.0685    
   X20.8300      Y20.8192      R1.0685    
   X20.7254      Y20.5667      R1.0685    
   X20.5590      Y20.3499      R1.0685    
   X20.3422      Y20.1835      R1.0685    
   X20.0897      Y20.0789      R1.0685    
   X19.8187      Y20.0433      R1.0685    
   X19.5478      Y20.0789      R1.0685    
   X19.2953      Y20.1835      R1.0685    
   X19.0784      Y20.3499      R1.0685    
   X18.9121      Y20.5667      R1.0685    
   X18.8075      Y20.8192      R1.0685    
   X18.7718      Y21.0902      R1.0685    
   X18.8075      Y21.3612      R1.0685    
   X18.9121      Y21.6136      R1.0685    
   X19.0784      Y21.8305      R1.0685    
   X19.2953      Y21.9969      R1.0685    
   X19.5478      Y22.1014      R1.0685    
(Pass: 17)
G1   Z-1.700     F400 
G17 G2   X19.8187      Y22.1371      R1.0685     F600 
   X20.0897      Y22.1014      R1.0685    
   X20.3422      Y21.9969      R1.0685    
   X20.5590      Y21.8305      R1.0685    
   X20.7254      Y21.6136      R1.0685    
   X20.8300      Y21.3612      R1.0685    
   X20.8657      Y21.0902      R1.0685    
   X20.8300      Y20.8192      R1.0685    
   X20.7254      Y20.5667      R1.0685    
   X20.5590      Y20.3499      R1.0685    
   X20.3422      Y20.1835      R1.0685    
   X20.0897      Y20.0789      R1.0685    
   X19.8187      Y20.0433      R1.0685    
   X19.5478      Y20.0789      R1.0685    
   X19.2953      Y20.1835      R1.0685    
   X19.0784      Y20.3499      R1.0685    
   X18.9121      Y20.5667      R1.0685    
   X18.8075      Y20.8192      R1.0685    
   X18.7718      Y21.0902      R1.0685    
   X18.8075      Y21.3612      R1.0685    
   X18.9121      Y21.6136      R1.0685    
   X19.0784      Y21.8305      R1.0685    
   X19.2953      Y21.9969      R1.0685    
   X19.5478      Y22.1014      R1.0685    
(Pass: 18)
G1   Z-1.800     F400 
G17 G2   X19.8187      Y22.1371      R1.0685     F600 
   X20.0897      Y22.1014      R1.0685    
   X20.3422      Y21.9969      R1.0685    
   X20.5590      Y21.8305      R1.0685    
   X20.7254      Y21.6136      R1.0685    
   X20.8300      Y21.3612      R1.0685    
   X20.8657      Y21.0902      R1.0685    
   X20.8300      Y20.8192      R1.0685    
   X20.7254      Y20.5667      R1.0685    
   X20.5590      Y20.3499      R1.0685    
   X20.3422      Y20.1835      R1.0685    
   X20.0897      Y20.0789      R1.0685    
   X19.8187      Y20.0433      R1.0685    
   X19.5478      Y20.0789      R1.0685    
   X19.2953      Y20.1835      R1.0685    
   X19.0784      Y20.3499      R1.0685    
   X18.9121      Y20.5667      R1.0685    
   X18.8075      Y20.8192      R1.0685    
   X18.7718      Y21.0902      R1.0685    
   X18.8075      Y21.3612      R1.0685    
   X18.9121      Y21.6136      R1.0685    
   X19.0784      Y21.8305      R1.0685    
   X19.2953      Y21.9969      R1.0685    
   X19.5478      Y22.1014      R1.0685    
(Pass: 19)
G1   Z-1.900     F400 
G17 G2   X19.8187      Y22.1371      R1.0685     F600 
   X20.0897      Y22.1014      R1.0685    
   X20.3422      Y21.9969      R1.0685    
   X20.5590      Y21.8305      R1.0685    
   X20.7254      Y21.6136      R1.0685    
   X20.8300      Y21.3612      R1.0685    
   X20.8657      Y21.0902      R1.0685    
   X20.8300      Y20.8192      R1.0685    
   X20.7254      Y20.5667      R1.0685    
   X20.5590      Y20.3499      R1.0685    
   X20.3422      Y20.1835      R1.0685    
   X20.0897      Y20.0789      R1.0685    
   X19.8187      Y20.0433      R1.0685    
   X19.5478      Y20.0789      R1.0685    
   X19.2953      Y20.1835      R1.0685    
   X19.0784      Y20.3499      R1.0685    
   X18.9121      Y20.5667      R1.0685    
   X18.8075      Y20.8192      R1.0685    
   X18.7718      Y21.0902      R1.0685    
   X18.8075      Y21.3612      R1.0685    
   X18.9121      Y21.6136      R1.0685    
   X19.0784      Y21.8305      R1.0685    
   X19.2953      Y21.9969      R1.0685    
   X19.5478      Y22.1014      R1.0685    
(Pass: 20)
G1   Z-2.000     F400 
G17 G2   X19.8187      Y22.1371      R1.0685     F600 
   X20.0897      Y22.1014      R1.0685    
   X20.3422      Y21.9969      R1.0685    
   X20.5590      Y21.8305      R1.0685    
   X20.7254      Y21.6136      R1.0685    
   X20.8300      Y21.3612      R1.0685    
   X20.8657      Y21.0902      R1.0685    
   X20.8300      Y20.8192      R1.0685    
   X20.7254      Y20.5667      R1.0685    
   X20.5590      Y20.3499      R1.0685    
   X20.3422      Y20.1835      R1.0685    
   X20.0897      Y20.0789      R1.0685    
   X19.8187      Y20.0433      R1.0685    
   X19.5478      Y20.0789      R1.0685    
   X19.2953      Y20.1835      R1.0685    
   X19.0784      Y20.3499      R1.0685    
   X18.9121      Y20.5667      R1.0685    
   X18.8075      Y20.8192      R1.0685    
   X18.7718      Y21.0902      R1.0685    
   X18.8075      Y21.3612      R1.0685    
   X18.9121      Y21.6136      R1.0685    
   X19.0784      Y21.8305      R1.0685    
   X19.2953      Y21.9969      R1.0685    
   X19.5478      Y22.1014      R1.0685    
(Pass: 21)
G1   Z-2.100     F400 
G17 G2   X19.8187      Y22.1371      R1.0685     F600 
   X20.0897      Y22.1014      R1.0685    
   X20.3422      Y21.9969      R1.0685    
   X20.5590      Y21.8305      R1.0685    
   X20.7254      Y21.6136      R1.0685    
   X20.8300      Y21.3612      R1.0685    
   X20.8657      Y21.0902      R1.0685    
   X20.8300      Y20.8192      R1.0685    
   X20.7254      Y20.5667      R1.0685    
   X20.5590      Y20.3499      R1.0685    
   X20.3422      Y20.1835      R1.0685    
   X20.0897      Y20.0789      R1.0685    
   X19.8187      Y20.0433      R1.0685    
   X19.5478      Y20.0789      R1.0685    
   X19.2953      Y20.1835      R1.0685    
   X19.0784      Y20.3499      R1.0685    
   X18.9121      Y20.5667      R1.0685    
   X18.8075      Y20.8192      R1.0685    
   X18.7718      Y21.0902      R1.0685    
   X18.8075      Y21.3612      R1.0685    
   X18.9121      Y21.6136      R1.0685    
   X19.0784      Y21.8305      R1.0685    
   X19.2953      Y21.9969      R1.0685    
   X19.5478      Y22.1014      R1.0685    
(Pass: 22)
G1   Z-2.200     F400 
G17 G2   X19.8187      Y22.1371      R1.0685     F600 
   X20.0897      Y22.1014      R1.0685    
   X20.3422      Y21.9969      R1.0685    
   X20.5590      Y21.8305      R1.0685    
   X20.7254      Y21.6136      R1.0685    
   X20.8300      Y21.3612      R1.0685    
   X20.8657      Y21.0902      R1.0685    
   X20.8300      Y20.8192      R1.0685    
   X20.7254      Y20.5667      R1.0685    
   X20.5590      Y20.3499      R1.0685    
   X20.3422      Y20.1835      R1.0685    
   X20.0897      Y20.0789      R1.0685    
   X19.8187      Y20.0433      R1.0685    
   X19.5478      Y20.0789      R1.0685    
   X19.2953      Y20.1835      R1.0685    
   X19.0784      Y20.3499      R1.0685    
   X18.9121      Y20.5667      R1.0685    
   X18.8075      Y20.8192      R1.0685    
   X18.7718      Y21.0902      R1.0685    
   X18.8075      Y21.3612      R1.0685    
   X18.9121      Y21.6136      R1.0685    
   X19.0784      Y21.8305      R1.0685    
   X19.2953      Y21.9969      R1.0685    
   X19.5478      Y22.1014      R1.0685    
(Pass: 23)
G1   Z-2.300     F400 
G17 G2   X19.8187      Y22.1371      R1.0685     F600 
   X20.0897      Y22.1014      R1.0685    
   X20.3422      Y21.9969      R1.0685    
   X20.5590      Y21.8305      R1.0685    
   X20.7254      Y21.6136      R1.0685    
   X20.8300      Y21.3612      R1.0685    
   X20.8657      Y21.0902      R1.0685    
   X20.8300      Y20.8192      R1.0685    
   X20.7254      Y20.5667      R1.0685    
   X20.5590      Y20.3499      R1.0685    
   X20.3422      Y20.1835      R1.0685    
   X20.0897      Y20.0789      R1.0685    
   X19.8187      Y20.0433      R1.0685    
   X19.5478      Y20.0789      R1.0685    
   X19.2953      Y20.1835      R1.0685    
   X19.0784      Y20.3499      R1.0685    
   X18.9121      Y20.5667      R1.0685    
   X18.8075      Y20.8192      R1.0685    
   X18.7718      Y21.0902      R1.0685    
   X18.8075      Y21.3612      R1.0685    
   X18.9121      Y21.6136      R1.0685    
   X19.0784      Y21.8305      R1.0685    
   X19.2953      Y21.9969      R1.0685    
   X19.5478      Y22.1014      R1.0685    
(Pass: 24)
G1   Z-2.400     F400 
G17 G2   X19.8187      Y22.1371      R1.0685     F600 
   X20.0897      Y22.1014      R1.0685    
   X20.3422      Y21.9969      R1.0685    
   X20.5590      Y21.8305      R1.0685    
   X20.7254      Y21.6136      R1.0685    
   X20.8300      Y21.3612      R1.0685    
   X20.8657      Y21.0902      R1.0685    
   X20.8300      Y20.8192      R1.0685    
   X20.7254      Y20.5667      R1.0685    
   X20.5590      Y20.3499      R1.0685    
   X20.3422      Y20.1835      R1.0685    
   X20.0897      Y20.0789      R1.0685    
   X19.8187      Y20.0433      R1.0685    
   X19.5478      Y20.0789      R1.0685    
   X19.2953      Y20.1835      R1.0685    
   X19.0784      Y20.3499      R1.0685    
   X18.9121      Y20.5667      R1.0685    
   X18.8075      Y20.8192      R1.0685    
   X18.7718      Y21.0902      R1.0685    
   X18.8075      Y21.3612      R1.0685    
   X18.9121      Y21.6136      R1.0685    
   X19.0784      Y21.8305      R1.0685    
   X19.2953      Y21.9969      R1.0685    
   X19.5478      Y22.1014      R1.0685    
(Pass: 25)
G1   Z-2.500     F400 
G17 G2   X19.8187      Y22.1371      R1.0685     F600 
   X20.0897      Y22.1014      R1.0685    
   X20.3422      Y21.9969      R1.0685    
   X20.5590      Y21.8305      R1.0685    
   X20.7254      Y21.6136      R1.0685    
   X20.8300      Y21.3612      R1.0685    
   X20.8657      Y21.0902      R1.0685    
   X20.8300      Y20.8192      R1.0685    
   X20.7254      Y20.5667      R1.0685    
   X20.5590      Y20.3499      R1.0685    
   X20.3422      Y20.1835      R1.0685    
   X20.0897      Y20.0789      R1.0685    
   X19.8187      Y20.0433      R1.0685    
   X19.5478      Y20.0789      R1.0685    
   X19.2953      Y20.1835      R1.0685    
   X19.0784      Y20.3499      R1.0685    
   X18.9121      Y20.5667      R1.0685    
   X18.8075      Y20.8192      R1.0685    
   X18.7718      Y21.0902      R1.0685    
   X18.8075      Y21.3612      R1.0685    
   X18.9121      Y21.6136      R1.0685    
   X19.0784      Y21.8305      R1.0685    
   X19.2953      Y21.9969      R1.0685    
   X19.5478      Y22.1014      R1.0685    
(Pass: 26)
G1   Z-2.600     F400 
G17 G2   X19.8187      Y22.1371      R1.0685     F600 
   X20.0897      Y22.1014      R1.0685    
   X20.3422      Y21.9969      R1.0685    
   X20.5590      Y21.8305      R1.0685    
   X20.7254      Y21.6136      R1.0685    
   X20.8300      Y21.3612      R1.0685    
   X20.8657      Y21.0902      R1.0685    
   X20.8300      Y20.8192      R1.0685    
   X20.7254      Y20.5667      R1.0685    
   X20.5590      Y20.3499      R1.0685    
   X20.3422      Y20.1835      R1.0685    
   X20.0897      Y20.0789      R1.0685    
   X19.8187      Y20.0433      R1.0685    
   X19.5478      Y20.0789      R1.0685    
   X19.2953      Y20.1835      R1.0685    
   X19.0784      Y20.3499      R1.0685    
   X18.9121      Y20.5667      R1.0685    
   X18.8075      Y20.8192      R1.0685    
   X18.7718      Y21.0902      R1.0685    
   X18.8075      Y21.3612      R1.0685    
   X18.9121      Y21.6136      R1.0685    
   X19.0784      Y21.8305      R1.0685    
   X19.2953      Y21.9969      R1.0685    
   X19.5478      Y22.1014      R1.0685    
(Pass: 27)
G1   Z-2.700     F400 
G17 G2   X19.8187      Y22.1371      R1.0685     F600 
   X20.0897      Y22.1014      R1.0685    
   X20.3422      Y21.9969      R1.0685    
   X20.5590      Y21.8305      R1.0685    
   X20.7254      Y21.6136      R1.0685    
   X20.8300      Y21.3612      R1.0685    
   X20.8657      Y21.0902      R1.0685    
   X20.8300      Y20.8192      R1.0685    
   X20.7254      Y20.5667      R1.0685    
   X20.5590      Y20.3499      R1.0685    
   X20.3422      Y20.1835      R1.0685    
   X20.0897      Y20.0789      R1.0685    
   X19.8187      Y20.0433      R1.0685    
   X19.5478      Y20.0789      R1.0685    
   X19.2953      Y20.1835      R1.0685    
   X19.0784      Y20.3499      R1.0685    
   X18.9121      Y20.5667      R1.0685    
   X18.8075      Y20.8192      R1.0685    
   X18.7718      Y21.0902      R1.0685    
   X18.8075      Y21.3612      R1.0685    
   X18.9121      Y21.6136      R1.0685    
   X19.0784      Y21.8305      R1.0685    
   X19.2953      Y21.9969      R1.0685    
   X19.5478      Y22.1014      R1.0685    
(Pass: 28)
G1   Z-2.800     F400 
G17 G2   X19.8187      Y22.1371      R1.0685     F600 
   X20.0897      Y22.1014      R1.0685    
   X20.3422      Y21.9969      R1.0685    
   X20.5590      Y21.8305      R1.0685    
   X20.7254      Y21.6136      R1.0685    
   X20.8300      Y21.3612      R1.0685    
   X20.8657      Y21.0902      R1.0685    
   X20.8300      Y20.8192      R1.0685    
   X20.7254      Y20.5667      R1.0685    
   X20.5590      Y20.3499      R1.0685    
   X20.3422      Y20.1835      R1.0685    
   X20.0897      Y20.0789      R1.0685    
   X19.8187      Y20.0433      R1.0685    
   X19.5478      Y20.0789      R1.0685    
   X19.2953      Y20.1835      R1.0685    
   X19.0784      Y20.3499      R1.0685    
   X18.9121      Y20.5667      R1.0685    
   X18.8075      Y20.8192      R1.0685    
   X18.7718      Y21.0902      R1.0685    
   X18.8075      Y21.3612      R1.0685    
   X18.9121      Y21.6136      R1.0685    
   X19.0784      Y21.8305      R1.0685    
   X19.2953      Y21.9969      R1.0685    
   X19.5478      Y22.1014      R1.0685    
(Pass: 29)
G1   Z-2.900     F400 
G17 G2   X19.8187      Y22.1371      R1.0685     F600 
   X20.0897      Y22.1014      R1.0685    
   X20.3422      Y21.9969      R1.0685    
   X20.5590      Y21.8305      R1.0685    
   X20.7254      Y21.6136      R1.0685    
   X20.8300      Y21.3612      R1.0685    
   X20.8657      Y21.0902      R1.0685    
   X20.8300      Y20.8192      R1.0685    
   X20.7254      Y20.5667      R1.0685    
   X20.5590      Y20.3499      R1.0685    
   X20.3422      Y20.1835      R1.0685    
   X20.0897      Y20.0789      R1.0685    
   X19.8187      Y20.0433      R1.0685    
   X19.5478      Y20.0789      R1.0685    
   X19.2953      Y20.1835      R1.0685    
   X19.0784      Y20.3499      R1.0685    
   X18.9121      Y20.5667      R1.0685    
   X18.8075      Y20.8192      R1.0685    
   X18.7718      Y21.0902      R1.0685    
   X18.8075      Y21.3612      R1.0685    
   X18.9121      Y21.6136      R1.0685    
   X19.0784      Y21.8305      R1.0685    
   X19.2953      Y21.9969      R1.0685    
   X19.5478      Y22.1014      R1.0685    
(Pass: 30)
G1   Z-3.000     F400 
G17 G2   X19.8187      Y22.1371      R1.0685     F600 
   X20.0897      Y22.1014      R1.0685    
   X20.3422      Y21.9969      R1.0685    
   X20.5590      Y21.8305      R1.0685    
   X20.7254      Y21.6136      R1.0685    
   X20.8300      Y21.3612      R1.0685    
   X20.8657      Y21.0902      R1.0685    
   X20.8300      Y20.8192      R1.0685    
   X20.7254      Y20.5667      R1.0685    
   X20.5590      Y20.3499      R1.0685    
   X20.3422      Y20.1835      R1.0685    
   X20.0897      Y20.0789      R1.0685    
   X19.8187      Y20.0433      R1.0685    
   X19.5478      Y20.0789      R1.0685    
   X19.2953      Y20.1835      R1.0685    
   X19.0784      Y20.3499      R1.0685    
   X18.9121      Y20.5667      R1.0685    
   X18.8075      Y20.8192      R1.0685    
   X18.7718      Y21.0902      R1.0685    
   X18.8075      Y21.3612      R1.0685    
   X18.9121      Y21.6136      R1.0685    
   X19.0784      Y21.8305      R1.0685    
   X19.2953      Y21.9969      R1.0685    
   X19.5478      Y22.1014      R1.0685    
(Pass: 31)
G1   Z-3.100     F400 
G17 G2   X19.8187      Y22.1371      R1.0685     F600 
   X20.0897      Y22.1014      R1.0685    
   X20.3422      Y21.9969      R1.0685    
   X20.5590      Y21.8305      R1.0685    
   X20.7254      Y21.6136      R1.0685    
   X20.8300      Y21.3612      R1.0685    
   X20.8657      Y21.0902      R1.0685    
   X20.8300      Y20.8192      R1.0685    
   X20.7254      Y20.5667      R1.0685    
   X20.5590      Y20.3499      R1.0685    
   X20.3422      Y20.1835      R1.0685    
   X20.0897      Y20.0789      R1.0685    
   X19.8187      Y20.0433      R1.0685    
   X19.5478      Y20.0789      R1.0685    
   X19.2953      Y20.1835      R1.0685    
   X19.0784      Y20.3499      R1.0685    
   X18.9121      Y20.5667      R1.0685    
   X18.8075      Y20.8192      R1.0685    
   X18.7718      Y21.0902      R1.0685    
   X18.8075      Y21.3612      R1.0685    
   X18.9121      Y21.6136      R1.0685    
   X19.0784      Y21.8305      R1.0685    
   X19.2953      Y21.9969      R1.0685    
   X19.5478      Y22.1014      R1.0685    
(Pass: 32)
G1   Z-3.200     F400 
G17 G2   X19.8187      Y22.1371      R1.0685     F600 
   X20.0897      Y22.1014      R1.0685    
   X20.3422      Y21.9969      R1.0685    
   X20.5590      Y21.8305      R1.0685    
   X20.7254      Y21.6136      R1.0685    
   X20.8300      Y21.3612      R1.0685    
   X20.8657      Y21.0902      R1.0685    
   X20.8300      Y20.8192      R1.0685    
   X20.7254      Y20.5667      R1.0685    
   X20.5590      Y20.3499      R1.0685    
   X20.3422      Y20.1835      R1.0685    
   X20.0897      Y20.0789      R1.0685    
   X19.8187      Y20.0433      R1.0685    
   X19.5478      Y20.0789      R1.0685    
   X19.2953      Y20.1835      R1.0685    
   X19.0784      Y20.3499      R1.0685    
   X18.9121      Y20.5667      R1.0685    
   X18.8075      Y20.8192      R1.0685    
   X18.7718      Y21.0902      R1.0685    
   X18.8075      Y21.3612      R1.0685    
   X18.9121      Y21.6136      R1.0685    
   X19.0784      Y21.8305      R1.0685    
   X19.2953      Y21.9969      R1.0685    
   X19.5478      Y22.1014      R1.0685    
(Pass: 33)
G1   Z-3.300     F400 
G17 G2   X19.8187      Y22.1371      R1.0685     F600 
   X20.0897      Y22.1014      R1.0685    
   X20.3422      Y21.9969      R1.0685    
   X20.5590      Y21.8305      R1.0685    
   X20.7254      Y21.6136      R1.0685    
   X20.8300      Y21.3612      R1.0685    
   X20.8657      Y21.0902      R1.0685    
   X20.8300      Y20.8192      R1.0685    
   X20.7254      Y20.5667      R1.0685    
   X20.5590      Y20.3499      R1.0685    
   X20.3422      Y20.1835      R1.0685    
   X20.0897      Y20.0789      R1.0685    
   X19.8187      Y20.0433      R1.0685    
   X19.5478      Y20.0789      R1.0685    
   X19.2953      Y20.1835      R1.0685    
   X19.0784      Y20.3499      R1.0685    
   X18.9121      Y20.5667      R1.0685    
   X18.8075      Y20.8192      R1.0685    
   X18.7718      Y21.0902      R1.0685    
   X18.8075      Y21.3612      R1.0685    
   X18.9121      Y21.6136      R1.0685    
   X19.0784      Y21.8305      R1.0685    
   X19.2953      Y21.9969      R1.0685    
   X19.5478      Y22.1014      R1.0685    
(Pass: 34)
G1   Z-3.400     F400 
G17 G2   X19.8187      Y22.1371      R1.0685     F600 
   X20.0897      Y22.1014      R1.0685    
   X20.3422      Y21.9969      R1.0685    
   X20.5590      Y21.8305      R1.0685    
   X20.7254      Y21.6136      R1.0685    
   X20.8300      Y21.3612      R1.0685    
   X20.8657      Y21.0902      R1.0685    
   X20.8300      Y20.8192      R1.0685    
   X20.7254      Y20.5667      R1.0685    
   X20.5590      Y20.3499      R1.0685    
   X20.3422      Y20.1835      R1.0685    
   X20.0897      Y20.0789      R1.0685    
   X19.8187      Y20.0433      R1.0685    
   X19.5478      Y20.0789      R1.0685    
   X19.2953      Y20.1835      R1.0685    
   X19.0784      Y20.3499      R1.0685    
   X18.9121      Y20.5667      R1.0685    
   X18.8075      Y20.8192      R1.0685    
   X18.7718      Y21.0902      R1.0685    
   X18.8075      Y21.3612      R1.0685    
   X18.9121      Y21.6136      R1.0685    
   X19.0784      Y21.8305      R1.0685    
   X19.2953      Y21.9969      R1.0685    
   X19.5478      Y22.1014      R1.0685    
(BREAK pass 34)
G0   Z5.000     
(Pass: 1)
   X32.919       Y16.435    
G1   Z-0.100     F400 
   X38.619     F600 
   Y16.335    
   X32.919    
   Y16.435    
(Pass: 2)
   Z-0.200     F400 
   X38.619     F600 
   Y16.335    
   X32.919    
   Y16.435    
(Pass: 3)
   Z-0.300     F400 
   X38.619     F600 
   Y16.335    
   X32.919    
   Y16.435    
(Pass: 4)
   Z-0.400     F400 
   X38.619     F600 
   Y16.335    
   X32.919    
   Y16.435    
(Pass: 5)
   Z-0.500     F400 
   X38.619     F600 
   Y16.335    
   X32.919    
   Y16.435    
(Pass: 6)
   Z-0.600     F400 
   X38.619     F600 
   Y16.335    
   X32.919    
   Y16.435    
(Pass: 7)
   Z-0.700     F400 
   X38.619     F600 
   Y16.335    
   X32.919    
   Y16.435    
(Pass: 8)
   Z-0.800     F400 
   X38.619     F600 
   Y16.335    
   X32.919    
   Y16.435    
(Pass: 9)
   Z-0.900     F400 
   X38.619     F600 
   Y16.335    
   X32.919    
   Y16.435    
(Pass: 10)
   Z-1.000     F400 
   X38.619     F600 
   Y16.335    
   X32.919    
   Y16.435    
(Pass: 11)
   Z-1.100     F400 
   X38.619     F600 
   Y16.335    
   X32.919    
   Y16.435    
(Pass: 12)
   Z-1.200     F400 
   X38.619     F600 
   Y16.335    
   X32.919    
   Y16.435    
(Pass: 13)
   Z-1.300     F400 
   X38.619     F600 
   Y16.335    
   X32.919    
   Y16.435    
(Pass: 14)
   Z-1.400     F400 
   X38.619     F600 
   Y16.335    
   X32.919    
   Y16.435    
(Pass: 15)
   Z-1.500     F400 
   X38.619     F600 
   Y16.335    
   X32.919    
   Y16.435    
(Pass: 16)
   Z-1.600     F400 
   X38.619     F600 
   Y16.335    
   X32.919    
   Y16.435    
(Pass: 17)
   Z-1.700     F400 
   X38.619     F600 
   Y16.335    
   X32.919    
   Y16.435    
(Pass: 18)
   Z-1.800     F400 
   X38.619     F600 
   Y16.335    
   X32.919    
   Y16.435    
(Pass: 19)
   Z-1.900     F400 
   X38.619     F600 
   Y16.335    
   X32.919    
   Y16.435    
(Pass: 20)
   Z-2.000     F400 
   X38.619     F600 
   Y16.335    
   X32.919    
   Y16.435    
(Pass: 21)
   Z-2.100     F400 
   X38.619     F600 
   Y16.335    
   X32.919    
   Y16.435    
(Pass: 22)
   Z-2.200     F400 
   X38.619     F600 
   Y16.335    
   X32.919    
   Y16.435    
(Pass: 23)
   Z-2.300     F400 
   X38.619     F600 
   Y16.335    
   X32.919    
   Y16.435    
(Pass: 24)
   Z-2.400     F400 
   X38.619     F600 
   Y16.335    
   X32.919    
   Y16.435    
(Pass: 25)
   Z-2.500     F400 
   X38.619     F600 
   Y16.335    
   X32.919    
   Y16.435    
(Pass: 26)
   Z-2.600     F400 
   X38.619     F600 
   Y16.335    
   X32.919    
   Y16.435    
(Pass: 27)
   Z-2.700     F400 
   X38.619     F600 
   Y16.335    
   X32.919    
   Y16.435    
(Pass: 28)
   Z-2.800     F400 
   X38.619     F600 
   Y16.335    
   X32.919    
   Y16.435    
(Pass: 29)
   Z-2.900     F400 
   X38.619     F600 
   Y16.335    
   X32.919    
   Y16.435    
(Pass: 30)
   Z-3.000     F400 
   X38.619     F600 
   Y16.335    
   X32.919    
   Y16.435    
(Pass: 31)
   Z-3.100     F400 
   X38.619     F600 
   Y16.335    
   X32.919    
   Y16.435    
(Pass: 32)
   Z-3.200     F400 
   X38.619     F600 
   Y16.335    
   X32.919    
   Y16.435    
(Pass: 33)
   Z-3.300     F400 
   X38.619     F600 
   Y16.335    
   X32.919    
   Y16.435    
(Pass: 34)
   Z-3.400     F400 
   X38.619     F600 
   Y16.335    
   X32.919    
   Y16.435    
(BREAK pass 34)
G0   Z5.000     
(Pass: 1)
   X50.826       Y20.679    
G1   Z-0.100     F400 
G17 G2   X50.7518      Y20.9371      R1.0500     F600 
   X50.7468      Y21.2055      R1.0500    
   X50.8115      Y21.4661      R1.0500    
   X50.9414      Y21.7010      R1.0500    
   X51.1276      Y21.8943      R1.0500    
   X51.3576      Y22.0329      R1.0500    
   X51.6156      Y22.1071      R1.0500    
   X51.8840      Y22.1121      R1.0500    
   X52.1446      Y22.0475      R1.0500    
   X52.3796      Y21.9176      R1.0500    
   X52.5729      Y21.7313      R1.0500    
   X52.7114      Y21.5013      R1.0500    
   X52.7857      Y21.2433      R1.0500    
   X52.7907      Y20.9749      R1.0500    
   X52.7260      Y20.7143      R1.0500    
   X52.5961      Y20.4794      R1.0500    
   X52.4098      Y20.2860      R1.0500    
   X52.1799      Y20.1475      R1.0500    
   X51.9219      Y20.0732      R1.0500    
   X51.6534      Y20.0682      R1.0500    
   X51.3929      Y20.1329      R1.0500    
   X51.1579      Y20.2628      R1.0500    
   X50.9646      Y20.4491      R1.0500    
   X50.8261      Y20.6791      R1.0500    
(Pass: 2)
G1   Z-0.200     F400 
G17 G2   X50.7518      Y20.9371      R1.0500     F600 
   X50.7468      Y21.2055      R1.0500    
   X50.8115      Y21.4661      R1.0500    
   X50.9414      Y21.7010      R1.0500    
   X51.1276      Y21.8943      R1.0500    
   X51.3576      Y22.0329      R1.0500    
   X51.6156      Y22.1071      R1.0500    
   X51.8840      Y22.1121      R1.0500    
   X52.1446      Y22.0475      R1.0500    
   X52.3796      Y21.9176      R1.0500    
   X52.5729      Y21.7313      R1.0500    
   X52.7114      Y21.5013      R1.0500    
   X52.7857      Y21.2433      R1.0500    
   X52.7907      Y20.9749      R1.0500    
   X52.7260      Y20.7143      R1.0500    
   X52.5961      Y20.4794      R1.0500    
   X52.4098      Y20.2860      R1.0500    
   X52.1799      Y20.1475      R1.0500    
   X51.9219      Y20.0732      R1.0500    
   X51.6534      Y20.0682      R1.0500    
   X51.3929      Y20.1329      R1.0500    
   X51.1579      Y20.2628      R1.0500    
   X50.9646      Y20.4491      R1.0500    
   X50.8261      Y20.6791      R1.0500    
(Pass: 3)
G1   Z-0.300     F400 
G17 G2   X50.7518      Y20.9371      R1.0500     F600 
   X50.7468      Y21.2055      R1.0500    
   X50.8115      Y21.4661      R1.0500    
   X50.9414      Y21.7010      R1.0500    
   X51.1276      Y21.8943      R1.0500    
   X51.3576      Y22.0329      R1.0500    
   X51.6156      Y22.1071      R1.0500    
   X51.8840      Y22.1121      R1.0500    
   X52.1446      Y22.0475      R1.0500    
   X52.3796      Y21.9176      R1.0500    
   X52.5729      Y21.7313      R1.0500    
   X52.7114      Y21.5013      R1.0500    
   X52.7857      Y21.2433      R1.0500    
   X52.7907      Y20.9749      R1.0500    
   X52.7260      Y20.7143      R1.0500    
   X52.5961      Y20.4794      R1.0500    
   X52.4098      Y20.2860      R1.0500    
   X52.1799      Y20.1475      R1.0500    
   X51.9219      Y20.0732      R1.0500    
   X51.6534      Y20.0682      R1.0500    
   X51.3929      Y20.1329      R1.0500    
   X51.1579      Y20.2628      R1.0500    
   X50.9646      Y20.4491      R1.0500    
   X50.8261      Y20.6791      R1.0500    
(Pass: 4)
G1   Z-0.400     F400 
G17 G2   X50.7518      Y20.9371      R1.0500     F600 
   X50.7468      Y21.2055      R1.0500    
   X50.8115      Y21.4661      R1.0500    
   X50.9414      Y21.7010      R1.0500    
   X51.1276      Y21.8943      R1.0500    
   X51.3576      Y22.0329      R1.0500    
   X51.6156      Y22.1071      R1.0500    
   X51.8840      Y22.1121      R1.0500    
   X52.1446      Y22.0475      R1.0500    
   X52.3796      Y21.9176      R1.0500    
   X52.5729      Y21.7313      R1.0500    
   X52.7114      Y21.5013      R1.0500    
   X52.7857      Y21.2433      R1.0500    
   X52.7907      Y20.9749      R1.0500    
   X52.7260      Y20.7143      R1.0500    
   X52.5961      Y20.4794      R1.0500    
   X52.4098      Y20.2860      R1.0500    
   X52.1799      Y20.1475      R1.0500    
   X51.9219      Y20.0732      R1.0500    
   X51.6534      Y20.0682      R1.0500    
   X51.3929      Y20.1329      R1.0500    
   X51.1579      Y20.2628      R1.0500    
   X50.9646      Y20.4491      R1.0500    
   X50.8261      Y20.6791      R1.0500    
(Pass: 5)
G1   Z-0.500     F400 
G17 G2   X50.7518      Y20.9371      R1.0500     F600 
   X50.7468      Y21.2055      R1.0500    
   X50.8115      Y21.4661      R1.0500    
   X50.9414      Y21.7010      R1.0500    
   X51.1276      Y21.8943      R1.0500    
   X51.3576      Y22.0329      R1.0500    
   X51.6156      Y22.1071      R1.0500    
   X51.8840      Y22.1121      R1.0500    
   X52.1446      Y22.0475      R1.0500    
   X52.3796      Y21.9176      R1.0500    
   X52.5729      Y21.7313      R1.0500    
   X52.7114      Y21.5013      R1.0500    
   X52.7857      Y21.2433      R1.0500    
   X52.7907      Y20.9749      R1.0500    
   X52.7260      Y20.7143      R1.0500    
   X52.5961      Y20.4794      R1.0500    
   X52.4098      Y20.2860      R1.0500    
   X52.1799      Y20.1475      R1.0500    
   X51.9219      Y20.0732      R1.0500    
   X51.6534      Y20.0682      R1.0500    
   X51.3929      Y20.1329      R1.0500    
   X51.1579      Y20.2628      R1.0500    
   X50.9646      Y20.4491      R1.0500    
   X50.8261      Y20.6791      R1.0500    
(Pass: 6)
G1   Z-0.600     F400 
G17 G2   X50.7518      Y20.9371      R1.0500     F600 
   X50.7468      Y21.2055      R1.0500    
   X50.8115      Y21.4661      R1.0500    
   X50.9414      Y21.7010      R1.0500    
   X51.1276      Y21.8943      R1.0500    
   X51.3576      Y22.0329      R1.0500    
   X51.6156      Y22.1071      R1.0500    
   X51.8840      Y22.1121      R1.0500    
   X52.1446      Y22.0475      R1.0500    
   X52.3796      Y21.9176      R1.0500    
   X52.5729      Y21.7313      R1.0500    
   X52.7114      Y21.5013      R1.0500    
   X52.7857      Y21.2433      R1.0500    
   X52.7907      Y20.9749      R1.0500    
   X52.7260      Y20.7143      R1.0500    
   X52.5961      Y20.4794      R1.0500    
   X52.4098      Y20.2860      R1.0500    
   X52.1799      Y20.1475      R1.0500    
   X51.9219      Y20.0732      R1.0500    
   X51.6534      Y20.0682      R1.0500    
   X51.3929      Y20.1329      R1.0500    
   X51.1579      Y20.2628      R1.0500    
   X50.9646      Y20.4491      R1.0500    
   X50.8261      Y20.6791      R1.0500    
(Pass: 7)
G1   Z-0.700     F400 
G17 G2   X50.7518      Y20.9371      R1.0500     F600 
   X50.7468      Y21.2055      R1.0500    
   X50.8115      Y21.4661      R1.0500    
   X50.9414      Y21.7010      R1.0500    
   X51.1276      Y21.8943      R1.0500    
   X51.3576      Y22.0329      R1.0500    
   X51.6156      Y22.1071      R1.0500    
   X51.8840      Y22.1121      R1.0500    
   X52.1446      Y22.0475      R1.0500    
   X52.3796      Y21.9176      R1.0500    
   X52.5729      Y21.7313      R1.0500    
   X52.7114      Y21.5013      R1.0500    
   X52.7857      Y21.2433      R1.0500    
   X52.7907      Y20.9749      R1.0500    
   X52.7260      Y20.7143      R1.0500    
   X52.5961      Y20.4794      R1.0500    
   X52.4098      Y20.2860      R1.0500    
   X52.1799      Y20.1475      R1.0500    
   X51.9219      Y20.0732      R1.0500    
   X51.6534      Y20.0682      R1.0500    
   X51.3929      Y20.1329      R1.0500    
   X51.1579      Y20.2628      R1.0500    
   X50.9646      Y20.4491      R1.0500    
   X50.8261      Y20.6791      R1.0500    
(Pass: 8)
G1   Z-0.800     F400 
G17 G2   X50.7518      Y20.9371      R1.0500     F600 
   X50.7468      Y21.2055      R1.0500    
   X50.8115      Y21.4661      R1.0500    
   X50.9414      Y21.7010      R1.0500    
   X51.1276      Y21.8943      R1.0500    
   X51.3576      Y22.0329      R1.0500    
   X51.6156      Y22.1071      R1.0500    
   X51.8840      Y22.1121      R1.0500    
   X52.1446      Y22.0475      R1.0500    
   X52.3796      Y21.9176      R1.0500    
   X52.5729      Y21.7313      R1.0500    
   X52.7114      Y21.5013      R1.0500    
   X52.7857      Y21.2433      R1.0500    
   X52.7907      Y20.9749      R1.0500    
   X52.7260      Y20.7143      R1.0500    
   X52.5961      Y20.4794      R1.0500    
   X52.4098      Y20.2860      R1.0500    
   X52.1799      Y20.1475      R1.0500    
   X51.9219      Y20.0732      R1.0500    
   X51.6534      Y20.0682      R1.0500    
   X51.3929      Y20.1329      R1.0500    
   X51.1579      Y20.2628      R1.0500    
   X50.9646      Y20.4491      R1.0500    
   X50.8261      Y20.6791      R1.0500    
(Pass: 9)
G1   Z-0.900     F400 
G17 G2   X50.7518      Y20.9371      R1.0500     F600 
   X50.7468      Y21.2055      R1.0500    
   X50.8115      Y21.4661      R1.0500    
   X50.9414      Y21.7010      R1.0500    
   X51.1276      Y21.8943      R1.0500    
   X51.3576      Y22.0329      R1.0500    
   X51.6156      Y22.1071      R1.0500    
   X51.8840      Y22.1121      R1.0500    
   X52.1446      Y22.0475      R1.0500    
   X52.3796      Y21.9176      R1.0500    
   X52.5729      Y21.7313      R1.0500    
   X52.7114      Y21.5013      R1.0500    
   X52.7857      Y21.2433      R1.0500    
   X52.7907      Y20.9749      R1.0500    
   X52.7260      Y20.7143      R1.0500    
   X52.5961      Y20.4794      R1.0500    
   X52.4098      Y20.2860      R1.0500    
   X52.1799      Y20.1475      R1.0500    
   X51.9219      Y20.0732      R1.0500    
   X51.6534      Y20.0682      R1.0500    
   X51.3929      Y20.1329      R1.0500    
   X51.1579      Y20.2628      R1.0500    
   X50.9646      Y20.4491      R1.0500    
   X50.8261      Y20.6791      R1.0500    
(Pass: 10)
G1   Z-1.000     F400 
G17 G2   X50.7518      Y20.9371      R1.0500     F600 
   X50.7468      Y21.2055      R1.0500    
   X50.8115      Y21.4661      R1.0500    
   X50.9414      Y21.7010      R1.0500    
   X51.1276      Y21.8943      R1.0500    
   X51.3576      Y22.0329      R1.0500    
   X51.6156      Y22.1071      R1.0500    
   X51.8840      Y22.1121      R1.0500    
   X52.1446      Y22.0475      R1.0500    
   X52.3796      Y21.9176      R1.0500    
   X52.5729      Y21.7313      R1.0500    
   X52.7114      Y21.5013      R1.0500    
   X52.7857      Y21.2433      R1.0500    
   X52.7907      Y20.9749      R1.0500    
   X52.7260      Y20.7143      R1.0500    
   X52.5961      Y20.4794      R1.0500    
   X52.4098      Y20.2860      R1.0500    
   X52.1799      Y20.1475      R1.0500    
   X51.9219      Y20.0732      R1.0500    
   X51.6534      Y20.0682      R1.0500    
   X51.3929      Y20.1329      R1.0500    
   X51.1579      Y20.2628      R1.0500    
   X50.9646      Y20.4491      R1.0500    
   X50.8261      Y20.6791      R1.0500    
(Pass: 11)
G1   Z-1.100     F400 
G17 G2   X50.7518      Y20.9371      R1.0500     F600 
   X50.7468      Y21.2055      R1.0500    
   X50.8115      Y21.4661      R1.0500    
   X50.9414      Y21.7010      R1.0500    
   X51.1276      Y21.8943      R1.0500    
   X51.3576      Y22.0329      R1.0500    
   X51.6156      Y22.1071      R1.0500    
   X51.8840      Y22.1121      R1.0500    
   X52.1446      Y22.0475      R1.0500    
   X52.3796      Y21.9176      R1.0500    
   X52.5729      Y21.7313      R1.0500    
   X52.7114      Y21.5013      R1.0500    
   X52.7857      Y21.2433      R1.0500    
   X52.7907      Y20.9749      R1.0500    
   X52.7260      Y20.7143      R1.0500    
   X52.5961      Y20.4794      R1.0500    
   X52.4098      Y20.2860      R1.0500    
   X52.1799      Y20.1475      R1.0500    
   X51.9219      Y20.0732      R1.0500    
   X51.6534      Y20.0682      R1.0500    
   X51.3929      Y20.1329      R1.0500    
   X51.1579      Y20.2628      R1.0500    
   X50.9646      Y20.4491      R1.0500    
   X50.8261      Y20.6791      R1.0500    
(Pass: 12)
G1   Z-1.200     F400 
G17 G2   X50.7518      Y20.9371      R1.0500     F600 
   X50.7468      Y21.2055      R1.0500    
   X50.8115      Y21.4661      R1.0500    
   X50.9414      Y21.7010      R1.0500    
   X51.1276      Y21.8943      R1.0500    
   X51.3576      Y22.0329      R1.0500    
   X51.6156      Y22.1071      R1.0500    
   X51.8840      Y22.1121      R1.0500    
   X52.1446      Y22.0475      R1.0500    
   X52.3796      Y21.9176      R1.0500    
   X52.5729      Y21.7313      R1.0500    
   X52.7114      Y21.5013      R1.0500    
   X52.7857      Y21.2433      R1.0500    
   X52.7907      Y20.9749      R1.0500    
   X52.7260      Y20.7143      R1.0500    
   X52.5961      Y20.4794      R1.0500    
   X52.4098      Y20.2860      R1.0500    
   X52.1799      Y20.1475      R1.0500    
   X51.9219      Y20.0732      R1.0500    
   X51.6534      Y20.0682      R1.0500    
   X51.3929      Y20.1329      R1.0500    
   X51.1579      Y20.2628      R1.0500    
   X50.9646      Y20.4491      R1.0500    
   X50.8261      Y20.6791      R1.0500    
(Pass: 13)
G1   Z-1.300     F400 
G17 G2   X50.7518      Y20.9371      R1.0500     F600 
   X50.7468      Y21.2055      R1.0500    
   X50.8115      Y21.4661      R1.0500    
   X50.9414      Y21.7010      R1.0500    
   X51.1276      Y21.8943      R1.0500    
   X51.3576      Y22.0329      R1.0500    
   X51.6156      Y22.1071      R1.0500    
   X51.8840      Y22.1121      R1.0500    
   X52.1446      Y22.0475      R1.0500    
   X52.3796      Y21.9176      R1.0500    
   X52.5729      Y21.7313      R1.0500    
   X52.7114      Y21.5013      R1.0500    
   X52.7857      Y21.2433      R1.0500    
   X52.7907      Y20.9749      R1.0500    
   X52.7260      Y20.7143      R1.0500    
   X52.5961      Y20.4794      R1.0500    
   X52.4098      Y20.2860      R1.0500    
   X52.1799      Y20.1475      R1.0500    
   X51.9219      Y20.0732      R1.0500    
   X51.6534      Y20.0682      R1.0500    
   X51.3929      Y20.1329      R1.0500    
   X51.1579      Y20.2628      R1.0500    
   X50.9646      Y20.4491      R1.0500    
   X50.8261      Y20.6791      R1.0500    
(Pass: 14)
G1   Z-1.400     F400 
G17 G2   X50.7518      Y20.9371      R1.0500     F600 
   X50.7468      Y21.2055      R1.0500    
   X50.8115      Y21.4661      R1.0500    
   X50.9414      Y21.7010      R1.0500    
   X51.1276      Y21.8943      R1.0500    
   X51.3576      Y22.0329      R1.0500    
   X51.6156      Y22.1071      R1.0500    
   X51.8840      Y22.1121      R1.0500    
   X52.1446      Y22.0475      R1.0500    
   X52.3796      Y21.9176      R1.0500    
   X52.5729      Y21.7313      R1.0500    
   X52.7114      Y21.5013      R1.0500    
   X52.7857      Y21.2433      R1.0500    
   X52.7907      Y20.9749      R1.0500    
   X52.7260      Y20.7143      R1.0500    
   X52.5961      Y20.4794      R1.0500    
   X52.4098      Y20.2860      R1.0500    
   X52.1799      Y20.1475      R1.0500    
   X51.9219      Y20.0732      R1.0500    
   X51.6534      Y20.0682      R1.0500    
   X51.3929      Y20.1329      R1.0500    
   X51.1579      Y20.2628      R1.0500    
   X50.9646      Y20.4491      R1.0500    
   X50.8261      Y20.6791      R1.0500    
(Pass: 15)
G1   Z-1.500     F400 
G17 G2   X50.7518      Y20.9371      R1.0500     F600 
   X50.7468      Y21.2055      R1.0500    
   X50.8115      Y21.4661      R1.0500    
   X50.9414      Y21.7010      R1.0500    
   X51.1276      Y21.8943      R1.0500    
   X51.3576      Y22.0329      R1.0500    
   X51.6156      Y22.1071      R1.0500    
   X51.8840      Y22.1121      R1.0500    
   X52.1446      Y22.0475      R1.0500    
   X52.3796      Y21.9176      R1.0500    
   X52.5729      Y21.7313      R1.0500    
   X52.7114      Y21.5013      R1.0500    
   X52.7857      Y21.2433      R1.0500    
   X52.7907      Y20.9749      R1.0500    
   X52.7260      Y20.7143      R1.0500    
   X52.5961      Y20.4794      R1.0500    
   X52.4098      Y20.2860      R1.0500    
   X52.1799      Y20.1475      R1.0500    
   X51.9219      Y20.0732      R1.0500    
   X51.6534      Y20.0682      R1.0500    
   X51.3929      Y20.1329      R1.0500    
   X51.1579      Y20.2628      R1.0500    
   X50.9646      Y20.4491      R1.0500    
   X50.8261      Y20.6791      R1.0500    
(Pass: 16)
G1   Z-1.600     F400 
G17 G2   X50.7518      Y20.9371      R1.0500     F600 
   X50.7468      Y21.2055      R1.0500    
   X50.8115      Y21.4661      R1.0500    
   X50.9414      Y21.7010      R1.0500    
   X51.1276      Y21.8943      R1.0500    
   X51.3576      Y22.0329      R1.0500    
   X51.6156      Y22.1071      R1.0500    
   X51.8840      Y22.1121      R1.0500    
   X52.1446      Y22.0475      R1.0500    
   X52.3796      Y21.9176      R1.0500    
   X52.5729      Y21.7313      R1.0500    
   X52.7114      Y21.5013      R1.0500    
   X52.7857      Y21.2433      R1.0500    
   X52.7907      Y20.9749      R1.0500    
   X52.7260      Y20.7143      R1.0500    
   X52.5961      Y20.4794      R1.0500    
   X52.4098      Y20.2860      R1.0500    
   X52.1799      Y20.1475      R1.0500    
   X51.9219      Y20.0732      R1.0500    
   X51.6534      Y20.0682      R1.0500    
   X51.3929      Y20.1329      R1.0500    
   X51.1579      Y20.2628      R1.0500    
   X50.9646      Y20.4491      R1.0500    
   X50.8261      Y20.6791      R1.0500    
(Pass: 17)
G1   Z-1.700     F400 
G17 G2   X50.7518      Y20.9371      R1.0500     F600 
   X50.7468      Y21.2055      R1.0500    
   X50.8115      Y21.4661      R1.0500    
   X50.9414      Y21.7010      R1.0500    
   X51.1276      Y21.8943      R1.0500    
   X51.3576      Y22.0329      R1.0500    
   X51.6156      Y22.1071      R1.0500    
   X51.8840      Y22.1121      R1.0500    
   X52.1446      Y22.0475      R1.0500    
   X52.3796      Y21.9176      R1.0500    
   X52.5729      Y21.7313      R1.0500    
   X52.7114      Y21.5013      R1.0500    
   X52.7857      Y21.2433      R1.0500    
   X52.7907      Y20.9749      R1.0500    
   X52.7260      Y20.7143      R1.0500    
   X52.5961      Y20.4794      R1.0500    
   X52.4098      Y20.2860      R1.0500    
   X52.1799      Y20.1475      R1.0500    
   X51.9219      Y20.0732      R1.0500    
   X51.6534      Y20.0682      R1.0500    
   X51.3929      Y20.1329      R1.0500    
   X51.1579      Y20.2628      R1.0500    
   X50.9646      Y20.4491      R1.0500    
   X50.8261      Y20.6791      R1.0500    
(Pass: 18)
G1   Z-1.800     F400 
G17 G2   X50.7518      Y20.9371      R1.0500     F600 
   X50.7468      Y21.2055      R1.0500    
   X50.8115      Y21.4661      R1.0500    
   X50.9414      Y21.7010      R1.0500    
   X51.1276      Y21.8943      R1.0500    
   X51.3576      Y22.0329      R1.0500    
   X51.6156      Y22.1071      R1.0500    
   X51.8840      Y22.1121      R1.0500    
   X52.1446      Y22.0475      R1.0500    
   X52.3796      Y21.9176      R1.0500    
   X52.5729      Y21.7313      R1.0500    
   X52.7114      Y21.5013      R1.0500    
   X52.7857      Y21.2433      R1.0500    
   X52.7907      Y20.9749      R1.0500    
   X52.7260      Y20.7143      R1.0500    
   X52.5961      Y20.4794      R1.0500    
   X52.4098      Y20.2860      R1.0500    
   X52.1799      Y20.1475      R1.0500    
   X51.9219      Y20.0732      R1.0500    
   X51.6534      Y20.0682      R1.0500    
   X51.3929      Y20.1329      R1.0500    
   X51.1579      Y20.2628      R1.0500    
   X50.9646      Y20.4491      R1.0500    
   X50.8261      Y20.6791      R1.0500    
(Pass: 19)
G1   Z-1.900     F400 
G17 G2   X50.7518      Y20.9371      R1.0500     F600 
   X50.7468      Y21.2055      R1.0500    
   X50.8115      Y21.4661      R1.0500    
   X50.9414      Y21.7010      R1.0500    
   X51.1276      Y21.8943      R1.0500    
   X51.3576      Y22.0329      R1.0500    
   X51.6156      Y22.1071      R1.0500    
   X51.8840      Y22.1121      R1.0500    
   X52.1446      Y22.0475      R1.0500    
   X52.3796      Y21.9176      R1.0500    
   X52.5729      Y21.7313      R1.0500    
   X52.7114      Y21.5013      R1.0500    
   X52.7857      Y21.2433      R1.0500    
   X52.7907      Y20.9749      R1.0500    
   X52.7260      Y20.7143      R1.0500    
   X52.5961      Y20.4794      R1.0500    
   X52.4098      Y20.2860      R1.0500    
   X52.1799      Y20.1475      R1.0500    
   X51.9219      Y20.0732      R1.0500    
   X51.6534      Y20.0682      R1.0500    
   X51.3929      Y20.1329      R1.0500    
   X51.1579      Y20.2628      R1.0500    
   X50.9646      Y20.4491      R1.0500    
   X50.8261      Y20.6791      R1.0500    
(Pass: 20)
G1   Z-2.000     F400 
G17 G2   X50.7518      Y20.9371      R1.0500     F600 
   X50.7468      Y21.2055      R1.0500    
   X50.8115      Y21.4661      R1.0500    
   X50.9414      Y21.7010      R1.0500    
   X51.1276      Y21.8943      R1.0500    
   X51.3576      Y22.0329      R1.0500    
   X51.6156      Y22.1071      R1.0500    
   X51.8840      Y22.1121      R1.0500    
   X52.1446      Y22.0475      R1.0500    
   X52.3796      Y21.9176      R1.0500    
   X52.5729      Y21.7313      R1.0500    
   X52.7114      Y21.5013      R1.0500    
   X52.7857      Y21.2433      R1.0500    
   X52.7907      Y20.9749      R1.0500    
   X52.7260      Y20.7143      R1.0500    
   X52.5961      Y20.4794      R1.0500    
   X52.4098      Y20.2860      R1.0500    
   X52.1799      Y20.1475      R1.0500    
   X51.9219      Y20.0732      R1.0500    
   X51.6534      Y20.0682      R1.0500    
   X51.3929      Y20.1329      R1.0500    
   X51.1579      Y20.2628      R1.0500    
   X50.9646      Y20.4491      R1.0500    
   X50.8261      Y20.6791      R1.0500    
(Pass: 21)
G1   Z-2.100     F400 
G17 G2   X50.7518      Y20.9371      R1.0500     F600 
   X50.7468      Y21.2055      R1.0500    
   X50.8115      Y21.4661      R1.0500    
   X50.9414      Y21.7010      R1.0500    
   X51.1276      Y21.8943      R1.0500    
   X51.3576      Y22.0329      R1.0500    
   X51.6156      Y22.1071      R1.0500    
   X51.8840      Y22.1121      R1.0500    
   X52.1446      Y22.0475      R1.0500    
   X52.3796      Y21.9176      R1.0500    
   X52.5729      Y21.7313      R1.0500    
   X52.7114      Y21.5013      R1.0500    
   X52.7857      Y21.2433      R1.0500    
   X52.7907      Y20.9749      R1.0500    
   X52.7260      Y20.7143      R1.0500    
   X52.5961      Y20.4794      R1.0500    
   X52.4098      Y20.2860      R1.0500    
   X52.1799      Y20.1475      R1.0500    
   X51.9219      Y20.0732      R1.0500    
   X51.6534      Y20.0682      R1.0500    
   X51.3929      Y20.1329      R1.0500    
   X51.1579      Y20.2628      R1.0500    
   X50.9646      Y20.4491      R1.0500    
   X50.8261      Y20.6791      R1.0500    
(Pass: 22)
G1   Z-2.200     F400 
G17 G2   X50.7518      Y20.9371      R1.0500     F600 
   X50.7468      Y21.2055      R1.0500    
   X50.8115      Y21.4661      R1.0500    
   X50.9414      Y21.7010      R1.0500    
   X51.1276      Y21.8943      R1.0500    
   X51.3576      Y22.0329      R1.0500    
   X51.6156      Y22.1071      R1.0500    
   X51.8840      Y22.1121      R1.0500    
   X52.1446      Y22.0475      R1.0500    
   X52.3796      Y21.9176      R1.0500    
   X52.5729      Y21.7313      R1.0500    
   X52.7114      Y21.5013      R1.0500    
   X52.7857      Y21.2433      R1.0500    
   X52.7907      Y20.9749      R1.0500    
   X52.7260      Y20.7143      R1.0500    
   X52.5961      Y20.4794      R1.0500    
   X52.4098      Y20.2860      R1.0500    
   X52.1799      Y20.1475      R1.0500    
   X51.9219      Y20.0732      R1.0500    
   X51.6534      Y20.0682      R1.0500    
   X51.3929      Y20.1329      R1.0500    
   X51.1579      Y20.2628      R1.0500    
   X50.9646      Y20.4491      R1.0500    
   X50.8261      Y20.6791      R1.0500    
(Pass: 23)
G1   Z-2.300     F400 
G17 G2   X50.7518      Y20.9371      R1.0500     F600 
   X50.7468      Y21.2055      R1.0500    
   X50.8115      Y21.4661      R1.0500    
   X50.9414      Y21.7010      R1.0500    
   X51.1276      Y21.8943      R1.0500    
   X51.3576      Y22.0329      R1.0500    
   X51.6156      Y22.1071      R1.0500    
   X51.8840      Y22.1121      R1.0500    
   X52.1446      Y22.0475      R1.0500    
   X52.3796      Y21.9176      R1.0500    
   X52.5729      Y21.7313      R1.0500    
   X52.7114      Y21.5013      R1.0500    
   X52.7857      Y21.2433      R1.0500    
   X52.7907      Y20.9749      R1.0500    
   X52.7260      Y20.7143      R1.0500    
   X52.5961      Y20.4794      R1.0500    
   X52.4098      Y20.2860      R1.0500    
   X52.1799      Y20.1475      R1.0500    
   X51.9219      Y20.0732      R1.0500    
   X51.6534      Y20.0682      R1.0500    
   X51.3929      Y20.1329      R1.0500    
   X51.1579      Y20.2628      R1.0500    
   X50.9646      Y20.4491      R1.0500    
   X50.8261      Y20.6791      R1.0500    
(Pass: 24)
G1   Z-2.400     F400 
G17 G2   X50.7518      Y20.9371      R1.0500     F600 
   X50.7468      Y21.2055      R1.0500    
   X50.8115      Y21.4661      R1.0500    
   X50.9414      Y21.7010      R1.0500    
   X51.1276      Y21.8943      R1.0500    
   X51.3576      Y22.0329      R1.0500    
   X51.6156      Y22.1071      R1.0500    
   X51.8840      Y22.1121      R1.0500    
   X52.1446      Y22.0475      R1.0500    
   X52.3796      Y21.9176      R1.0500    
   X52.5729      Y21.7313      R1.0500    
   X52.7114      Y21.5013      R1.0500    
   X52.7857      Y21.2433      R1.0500    
   X52.7907      Y20.9749      R1.0500    
   X52.7260      Y20.7143      R1.0500    
   X52.5961      Y20.4794      R1.0500    
   X52.4098      Y20.2860      R1.0500    
   X52.1799      Y20.1475      R1.0500    
   X51.9219      Y20.0732      R1.0500    
   X51.6534      Y20.0682      R1.0500    
   X51.3929      Y20.1329      R1.0500    
   X51.1579      Y20.2628      R1.0500    
   X50.9646      Y20.4491      R1.0500    
   X50.8261      Y20.6791      R1.0500    
(Pass: 25)
G1   Z-2.500     F400 
G17 G2   X50.7518      Y20.9371      R1.0500     F600 
   X50.7468      Y21.2055      R1.0500    
   X50.8115      Y21.4661      R1.0500    
   X50.9414      Y21.7010      R1.0500    
   X51.1276      Y21.8943      R1.0500    
   X51.3576      Y22.0329      R1.0500    
   X51.6156      Y22.1071      R1.0500    
   X51.8840      Y22.1121      R1.0500    
   X52.1446      Y22.0475      R1.0500    
   X52.3796      Y21.9176      R1.0500    
   X52.5729      Y21.7313      R1.0500    
   X52.7114      Y21.5013      R1.0500    
   X52.7857      Y21.2433      R1.0500    
   X52.7907      Y20.9749      R1.0500    
   X52.7260      Y20.7143      R1.0500    
   X52.5961      Y20.4794      R1.0500    
   X52.4098      Y20.2860      R1.0500    
   X52.1799      Y20.1475      R1.0500    
   X51.9219      Y20.0732      R1.0500    
   X51.6534      Y20.0682      R1.0500    
   X51.3929      Y20.1329      R1.0500    
   X51.1579      Y20.2628      R1.0500    
   X50.9646      Y20.4491      R1.0500    
   X50.8261      Y20.6791      R1.0500    
(Pass: 26)
G1   Z-2.600     F400 
G17 G2   X50.7518      Y20.9371      R1.0500     F600 
   X50.7468      Y21.2055      R1.0500    
   X50.8115      Y21.4661      R1.0500    
   X50.9414      Y21.7010      R1.0500    
   X51.1276      Y21.8943      R1.0500    
   X51.3576      Y22.0329      R1.0500    
   X51.6156      Y22.1071      R1.0500    
   X51.8840      Y22.1121      R1.0500    
   X52.1446      Y22.0475      R1.0500    
   X52.3796      Y21.9176      R1.0500    
   X52.5729      Y21.7313      R1.0500    
   X52.7114      Y21.5013      R1.0500    
   X52.7857      Y21.2433      R1.0500    
   X52.7907      Y20.9749      R1.0500    
   X52.7260      Y20.7143      R1.0500    
   X52.5961      Y20.4794      R1.0500    
   X52.4098      Y20.2860      R1.0500    
   X52.1799      Y20.1475      R1.0500    
   X51.9219      Y20.0732      R1.0500    
   X51.6534      Y20.0682      R1.0500    
   X51.3929      Y20.1329      R1.0500    
   X51.1579      Y20.2628      R1.0500    
   X50.9646      Y20.4491      R1.0500    
   X50.8261      Y20.6791      R1.0500    
(Pass: 27)
G1   Z-2.700     F400 
G17 G2   X50.7518      Y20.9371      R1.0500     F600 
   X50.7468      Y21.2055      R1.0500    
   X50.8115      Y21.4661      R1.0500    
   X50.9414      Y21.7010      R1.0500    
   X51.1276      Y21.8943      R1.0500    
   X51.3576      Y22.0329      R1.0500    
   X51.6156      Y22.1071      R1.0500    
   X51.8840      Y22.1121      R1.0500    
   X52.1446      Y22.0475      R1.0500    
   X52.3796      Y21.9176      R1.0500    
   X52.5729      Y21.7313      R1.0500    
   X52.7114      Y21.5013      R1.0500    
   X52.7857      Y21.2433      R1.0500    
   X52.7907      Y20.9749      R1.0500    
   X52.7260      Y20.7143      R1.0500    
   X52.5961      Y20.4794      R1.0500    
   X52.4098      Y20.2860      R1.0500    
   X52.1799      Y20.1475      R1.0500    
   X51.9219      Y20.0732      R1.0500    
   X51.6534      Y20.0682      R1.0500    
   X51.3929      Y20.1329      R1.0500    
   X51.1579      Y20.2628      R1.0500    
   X50.9646      Y20.4491      R1.0500    
   X50.8261      Y20.6791      R1.0500    
(Pass: 28)
G1   Z-2.800     F400 
G17 G2   X50.7518      Y20.9371      R1.0500     F600 
   X50.7468      Y21.2055      R1.0500    
   X50.8115      Y21.4661      R1.0500    
   X50.9414      Y21.7010      R1.0500    
   X51.1276      Y21.8943      R1.0500    
   X51.3576      Y22.0329      R1.0500    
   X51.6156      Y22.1071      R1.0500    
   X51.8840      Y22.1121      R1.0500    
   X52.1446      Y22.0475      R1.0500    
   X52.3796      Y21.9176      R1.0500    
   X52.5729      Y21.7313      R1.0500    
   X52.7114      Y21.5013      R1.0500    
   X52.7857      Y21.2433      R1.0500    
   X52.7907      Y20.9749      R1.0500    
   X52.7260      Y20.7143      R1.0500    
   X52.5961      Y20.4794      R1.0500    
   X52.4098      Y20.2860      R1.0500    
   X52.1799      Y20.1475      R1.0500    
   X51.9219      Y20.0732      R1.0500    
   X51.6534      Y20.0682      R1.0500    
   X51.3929      Y20.1329      R1.0500    
   X51.1579      Y20.2628      R1.0500    
   X50.9646      Y20.4491      R1.0500    
   X50.8261      Y20.6791      R1.0500    
(Pass: 29)
G1   Z-2.900     F400 
G17 G2   X50.7518      Y20.9371      R1.0500     F600 
   X50.7468      Y21.2055      R1.0500    
   X50.8115      Y21.4661      R1.0500    
   X50.9414      Y21.7010      R1.0500    
   X51.1276      Y21.8943      R1.0500    
   X51.3576      Y22.0329      R1.0500    
   X51.6156      Y22.1071      R1.0500    
   X51.8840      Y22.1121      R1.0500    
   X52.1446      Y22.0475      R1.0500    
   X52.3796      Y21.9176      R1.0500    
   X52.5729      Y21.7313      R1.0500    
   X52.7114      Y21.5013      R1.0500    
   X52.7857      Y21.2433      R1.0500    
   X52.7907      Y20.9749      R1.0500    
   X52.7260      Y20.7143      R1.0500    
   X52.5961      Y20.4794      R1.0500    
   X52.4098      Y20.2860      R1.0500    
   X52.1799      Y20.1475      R1.0500    
   X51.9219      Y20.0732      R1.0500    
   X51.6534      Y20.0682      R1.0500    
   X51.3929      Y20.1329      R1.0500    
   X51.1579      Y20.2628      R1.0500    
   X50.9646      Y20.4491      R1.0500    
   X50.8261      Y20.6791      R1.0500    
(Pass: 30)
G1   Z-3.000     F400 
G17 G2   X50.7518      Y20.9371      R1.0500     F600 
   X50.7468      Y21.2055      R1.0500    
   X50.8115      Y21.4661      R1.0500    
   X50.9414      Y21.7010      R1.0500    
   X51.1276      Y21.8943      R1.0500    
   X51.3576      Y22.0329      R1.0500    
   X51.6156      Y22.1071      R1.0500    
   X51.8840      Y22.1121      R1.0500    
   X52.1446      Y22.0475      R1.0500    
   X52.3796      Y21.9176      R1.0500    
   X52.5729      Y21.7313      R1.0500    
   X52.7114      Y21.5013      R1.0500    
   X52.7857      Y21.2433      R1.0500    
   X52.7907      Y20.9749      R1.0500    
   X52.7260      Y20.7143      R1.0500    
   X52.5961      Y20.4794      R1.0500    
   X52.4098      Y20.2860      R1.0500    
   X52.1799      Y20.1475      R1.0500    
   X51.9219      Y20.0732      R1.0500    
   X51.6534      Y20.0682      R1.0500    
   X51.3929      Y20.1329      R1.0500    
   X51.1579      Y20.2628      R1.0500    
   X50.9646      Y20.4491      R1.0500    
   X50.8261      Y20.6791      R1.0500    
(Pass: 31)
G1   Z-3.100     F400 
G17 G2   X50.7518      Y20.9371      R1.0500     F600 
   X50.7468      Y21.2055      R1.0500    
   X50.8115      Y21.4661      R1.0500    
   X50.9414      Y21.7010      R1.0500    
   X51.1276      Y21.8943      R1.0500    
   X51.3576      Y22.0329      R1.0500    
   X51.6156      Y22.1071      R1.0500    
   X51.8840      Y22.1121      R1.0500    
   X52.1446      Y22.0475      R1.0500    
   X52.3796      Y21.9176      R1.0500    
   X52.5729      Y21.7313      R1.0500    
   X52.7114      Y21.5013      R1.0500    
   X52.7857      Y21.2433      R1.0500    
   X52.7907      Y20.9749      R1.0500    
   X52.7260      Y20.7143      R1.0500    
   X52.5961      Y20.4794      R1.0500    
   X52.4098      Y20.2860      R1.0500    
   X52.1799      Y20.1475      R1.0500    
   X51.9219      Y20.0732      R1.0500    
   X51.6534      Y20.0682      R1.0500    
   X51.3929      Y20.1329      R1.0500    
   X51.1579      Y20.2628      R1.0500    
   X50.9646      Y20.4491      R1.0500    
   X50.8261      Y20.6791      R1.0500    
(Pass: 32)
G1   Z-3.200     F400 
G17 G2   X50.7518      Y20.9371      R1.0500     F600 
   X50.7468      Y21.2055      R1.0500    
   X50.8115      Y21.4661      R1.0500    
   X50.9414      Y21.7010      R1.0500    
   X51.1276      Y21.8943      R1.0500    
   X51.3576      Y22.0329      R1.0500    
   X51.6156      Y22.1071      R1.0500    
   X51.8840      Y22.1121      R1.0500    
   X52.1446      Y22.0475      R1.0500    
   X52.3796      Y21.9176      R1.0500    
   X52.5729      Y21.7313      R1.0500    
   X52.7114      Y21.5013      R1.0500    
   X52.7857      Y21.2433      R1.0500    
   X52.7907      Y20.9749      R1.0500    
   X52.7260      Y20.7143      R1.0500    
   X52.5961      Y20.4794      R1.0500    
   X52.4098      Y20.2860      R1.0500    
   X52.1799      Y20.1475      R1.0500    
   X51.9219      Y20.0732      R1.0500    
   X51.6534      Y20.0682      R1.0500    
   X51.3929      Y20.1329      R1.0500    
   X51.1579      Y20.2628      R1.0500    
   X50.9646      Y20.4491      R1.0500    
   X50.8261      Y20.6791      R1.0500    
(Pass: 33)
G1   Z-3.300     F400 
G17 G2   X50.7518      Y20.9371      R1.0500     F600 
   X50.7468      Y21.2055      R1.0500    
   X50.8115      Y21.4661      R1.0500    
   X50.9414      Y21.7010      R1.0500    
   X51.1276      Y21.8943      R1.0500    
   X51.3576      Y22.0329      R1.0500    
   X51.6156      Y22.1071      R1.0500    
   X51.8840      Y22.1121      R1.0500    
   X52.1446      Y22.0475      R1.0500    
   X52.3796      Y21.9176      R1.0500    
   X52.5729      Y21.7313      R1.0500    
   X52.7114      Y21.5013      R1.0500    
   X52.7857      Y21.2433      R1.0500    
   X52.7907      Y20.9749      R1.0500    
   X52.7260      Y20.7143      R1.0500    
   X52.5961      Y20.4794      R1.0500    
   X52.4098      Y20.2860      R1.0500    
   X52.1799      Y20.1475      R1.0500    
   X51.9219      Y20.0732      R1.0500    
   X51.6534      Y20.0682      R1.0500    
   X51.3929      Y20.1329      R1.0500    
   X51.1579      Y20.2628      R1.0500    
   X50.9646      Y20.4491      R1.0500    
   X50.8261      Y20.6791      R1.0500    
(Pass: 34)
G1   Z-3.400     F400 
G17 G2   X50.7518      Y20.9371      R1.0500     F600 
   X50.7468      Y21.2055      R1.0500    
   X50.8115      Y21.4661      R1.0500    
   X50.9414      Y21.7010      R1.0500    
   X51.1276      Y21.8943      R1.0500    
   X51.3576      Y22.0329      R1.0500    
   X51.6156      Y22.1071      R1.0500    
   X51.8840      Y22.1121      R1.0500    
   X52.1446      Y22.0475      R1.0500    
   X52.3796      Y21.9176      R1.0500    
   X52.5729      Y21.7313      R1.0500    
   X52.7114      Y21.5013      R1.0500    
   X52.7857      Y21.2433      R1.0500    
   X52.7907      Y20.9749      R1.0500    
   X52.7260      Y20.7143      R1.0500    
   X52.5961      Y20.4794      R1.0500    
   X52.4098      Y20.2860      R1.0500    
   X52.1799      Y20.1475      R1.0500    
   X51.9219      Y20.0732      R1.0500    
   X51.6534      Y20.0682      R1.0500    
   X51.3929      Y20.1329      R1.0500    
   X51.1579      Y20.2628      R1.0500    
   X50.9646      Y20.4491      R1.0500    
   X50.8261      Y20.6791      R1.0500    
(BREAK pass 34)
G0   Z5.000     
(Pass: 1)
   X51.808       Y50.113    
G1   Z-0.100     F400 
G17 G2   X51.5540      Y50.1356      R1.0000     F600 
   X51.3143      Y50.2237      R1.0000    
   X51.1055      Y50.3709      R1.0000    
   X50.9419      Y50.5670      R1.0000    
   X50.8347      Y50.7989      R1.0000    
   X50.7911      Y51.0506      R1.0000    
   X50.8142      Y51.3049      R1.0000    
   X50.9023      Y51.5447      R1.0000    
   X51.0494      Y51.7534      R1.0000    
   X51.2456      Y51.9170      R1.0000    
   X51.4774      Y52.0242      R1.0000    
   X51.7291      Y52.0678      R1.0000    
   X51.9835      Y52.0448      R1.0000    
   X52.2232      Y51.9566      R1.0000    
   X52.4320      Y51.8095      R1.0000    
   X52.5956      Y51.6133      R1.0000    
   X52.7028      Y51.3815      R1.0000    
   X52.7464      Y51.1298      R1.0000    
   X52.7233      Y50.8754      R1.0000    
   X52.6352      Y50.6357      R1.0000    
   X52.4880      Y50.4269      R1.0000    
   X52.2919      Y50.2634      R1.0000    
   X52.0600      Y50.1561      R1.0000    
   X51.8084      Y50.1126      R1.0000    
(Pass: 2)
G1   Z-0.200     F400 
G17 G2   X51.5540      Y50.1356      R1.0000     F600 
   X51.3143      Y50.2237      R1.0000    
   X51.1055      Y50.3709      R1.0000    
   X50.9419      Y50.5670      R1.0000    
   X50.8347      Y50.7989      R1.0000    
   X50.7911      Y51.0506      R1.0000    
   X50.8142      Y51.3049      R1.0000    
   X50.9023      Y51.5447      R1.0000    
   X51.0494      Y51.7534      R1.0000    
   X51.2456      Y51.9170      R1.0000    
   X51.4774      Y52.0242      R1.0000    
   X51.7291      Y52.0678      R1.0000    
   X51.9835      Y52.0448      R1.0000    
   X52.2232      Y51.9566      R1.0000    
   X52.4320      Y51.8095      R1.0000    
   X52.5956      Y51.6133      R1.0000    
   X52.7028      Y51.3815      R1.0000    
   X52.7464      Y51.1298      R1.0000    
   X52.7233      Y50.8754      R1.0000    
   X52.6352      Y50.6357      R1.0000    
   X52.4880      Y50.4269      R1.0000    
   X52.2919      Y50.2634      R1.0000    
   X52.0600      Y50.1561      R1.0000    
   X51.8084      Y50.1126      R1.0000    
(Pass: 3)
G1   Z-0.300     F400 
G17 G2   X51.5540      Y50.1356      R1.0000     F600 
   X51.3143      Y50.2237      R1.0000    
   X51.1055      Y50.3709      R1.0000    
   X50.9419      Y50.5670      R1.0000    
   X50.8347      Y50.7989      R1.0000    
   X50.7911      Y51.0506      R1.0000    
   X50.8142      Y51.3049      R1.0000    
   X50.9023      Y51.5447      R1.0000    
   X51.0494      Y51.7534      R1.0000    
   X51.2456      Y51.9170      R1.0000    
   X51.4774      Y52.0242      R1.0000    
   X51.7291      Y52.0678      R1.0000    
   X51.9835      Y52.0448      R1.0000    
   X52.2232      Y51.9566      R1.0000    
   X52.4320      Y51.8095      R1.0000    
   X52.5956      Y51.6133      R1.0000    
   X52.7028      Y51.3815      R1.0000    
   X52.7464      Y51.1298      R1.0000    
   X52.7233      Y50.8754      R1.0000    
   X52.6352      Y50.6357      R1.0000    
   X52.4880      Y50.4269      R1.0000    
   X52.2919      Y50.2634      R1.0000    
   X52.0600      Y50.1561      R1.0000    
   X51.8084      Y50.1126      R1.0000    
(Pass: 4)
G1   Z-0.400     F400 
G17 G2   X51.5540      Y50.1356      R1.0000     F600 
   X51.3143      Y50.2237      R1.0000    
   X51.1055      Y50.3709      R1.0000    
   X50.9419      Y50.5670      R1.0000    
   X50.8347      Y50.7989      R1.0000    
   X50.7911      Y51.0506      R1.0000    
   X50.8142      Y51.3049      R1.0000    
   X50.9023      Y51.5447      R1.0000    
   X51.0494      Y51.7534      R1.0000    
   X51.2456      Y51.9170      R1.0000    
   X51.4774      Y52.0242      R1.0000    
   X51.7291      Y52.0678      R1.0000    
   X51.9835      Y52.0448      R1.0000    
   X52.2232      Y51.9566      R1.0000    
   X52.4320      Y51.8095      R1.0000    
   X52.5956      Y51.6133      R1.0000    
   X52.7028      Y51.3815      R1.0000    
   X52.7464      Y51.1298      R1.0000    
   X52.7233      Y50.8754      R1.0000    
   X52.6352      Y50.6357      R1.0000    
   X52.4880      Y50.4269      R1.0000    
   X52.2919      Y50.2634      R1.0000    
   X52.0600      Y50.1561      R1.0000    
   X51.8084      Y50.1126      R1.0000    
(Pass: 5)
G1   Z-0.500     F400 
G17 G2   X51.5540      Y50.1356      R1.0000     F600 
   X51.3143      Y50.2237      R1.0000    
   X51.1055      Y50.3709      R1.0000    
   X50.9419      Y50.5670      R1.0000    
   X50.8347      Y50.7989      R1.0000    
   X50.7911      Y51.0506      R1.0000    
   X50.8142      Y51.3049      R1.0000    
   X50.9023      Y51.5447      R1.0000    
   X51.0494      Y51.7534      R1.0000    
   X51.2456      Y51.9170      R1.0000    
   X51.4774      Y52.0242      R1.0000    
   X51.7291      Y52.0678      R1.0000    
   X51.9835      Y52.0448      R1.0000    
   X52.2232      Y51.9566      R1.0000    
   X52.4320      Y51.8095      R1.0000    
   X52.5956      Y51.6133      R1.0000    
   X52.7028      Y51.3815      R1.0000    
   X52.7464      Y51.1298      R1.0000    
   X52.7233      Y50.8754      R1.0000    
   X52.6352      Y50.6357      R1.0000    
   X52.4880      Y50.4269      R1.0000    
   X52.2919      Y50.2634      R1.0000    
   X52.0600      Y50.1561      R1.0000    
   X51.8084      Y50.1126      R1.0000    
(Pass: 6)
G1   Z-0.600     F400 
G17 G2   X51.5540      Y50.1356      R1.0000     F600 
   X51.3143      Y50.2237      R1.0000    
   X51.1055      Y50.3709      R1.0000    
   X50.9419      Y50.5670      R1.0000    
   X50.8347      Y50.7989      R1.0000    
   X50.7911      Y51.0506      R1.0000    
   X50.8142      Y51.3049      R1.0000    
   X50.9023      Y51.5447      R1.0000    
   X51.0494      Y51.7534      R1.0000    
   X51.2456      Y51.9170      R1.0000    
   X51.4774      Y52.0242      R1.0000    
   X51.7291      Y52.0678      R1.0000    
   X51.9835      Y52.0448      R1.0000    
   X52.2232      Y51.9566      R1.0000    
   X52.4320      Y51.8095      R1.0000    
   X52.5956      Y51.6133      R1.0000    
   X52.7028      Y51.3815      R1.0000    
   X52.7464      Y51.1298      R1.0000    
   X52.7233      Y50.8754      R1.0000    
   X52.6352      Y50.6357      R1.0000    
   X52.4880      Y50.4269      R1.0000    
   X52.2919      Y50.2634      R1.0000    
   X52.0600      Y50.1561      R1.0000    
   X51.8084      Y50.1126      R1.0000    
(Pass: 7)
G1   Z-0.700     F400 
G17 G2   X51.5540      Y50.1356      R1.0000     F600 
   X51.3143      Y50.2237      R1.0000    
   X51.1055      Y50.3709      R1.0000    
   X50.9419      Y50.5670      R1.0000    
   X50.8347      Y50.7989      R1.0000    
   X50.7911      Y51.0506      R1.0000    
   X50.8142      Y51.3049      R1.0000    
   X50.9023      Y51.5447      R1.0000    
   X51.0494      Y51.7534      R1.0000    
   X51.2456      Y51.9170      R1.0000    
   X51.4774      Y52.0242      R1.0000    
   X51.7291      Y52.0678      R1.0000    
   X51.9835      Y52.0448      R1.0000    
   X52.2232      Y51.9566      R1.0000    
   X52.4320      Y51.8095      R1.0000    
   X52.5956      Y51.6133      R1.0000    
   X52.7028      Y51.3815      R1.0000    
   X52.7464      Y51.1298      R1.0000    
   X52.7233      Y50.8754      R1.0000    
   X52.6352      Y50.6357      R1.0000    
   X52.4880      Y50.4269      R1.0000    
   X52.2919      Y50.2634      R1.0000    
   X52.0600      Y50.1561      R1.0000    
   X51.8084      Y50.1126      R1.0000    
(Pass: 8)
G1   Z-0.800     F400 
G17 G2   X51.5540      Y50.1356      R1.0000     F600 
   X51.3143      Y50.2237      R1.0000    
   X51.1055      Y50.3709      R1.0000    
   X50.9419      Y50.5670      R1.0000    
   X50.8347      Y50.7989      R1.0000    
   X50.7911      Y51.0506      R1.0000    
   X50.8142      Y51.3049      R1.0000    
   X50.9023      Y51.5447      R1.0000    
   X51.0494      Y51.7534      R1.0000    
   X51.2456      Y51.9170      R1.0000    
   X51.4774      Y52.0242      R1.0000    
   X51.7291      Y52.0678      R1.0000    
   X51.9835      Y52.0448      R1.0000    
   X52.2232      Y51.9566      R1.0000    
   X52.4320      Y51.8095      R1.0000    
   X52.5956      Y51.6133      R1.0000    
   X52.7028      Y51.3815      R1.0000    
   X52.7464      Y51.1298      R1.0000    
   X52.7233      Y50.8754      R1.0000    
   X52.6352      Y50.6357      R1.0000    
   X52.4880      Y50.4269      R1.0000    
   X52.2919      Y50.2634      R1.0000    
   X52.0600      Y50.1561      R1.0000    
   X51.8084      Y50.1126      R1.0000    
(Pass: 9)
G1   Z-0.900     F400 
G17 G2   X51.5540      Y50.1356      R1.0000     F600 
   X51.3143      Y50.2237      R1.0000    
   X51.1055      Y50.3709      R1.0000    
   X50.9419      Y50.5670      R1.0000    
   X50.8347      Y50.7989      R1.0000    
   X50.7911      Y51.0506      R1.0000    
   X50.8142      Y51.3049      R1.0000    
   X50.9023      Y51.5447      R1.0000    
   X51.0494      Y51.7534      R1.0000    
   X51.2456      Y51.9170      R1.0000    
   X51.4774      Y52.0242      R1.0000    
   X51.7291      Y52.0678      R1.0000    
   X51.9835      Y52.0448      R1.0000    
   X52.2232      Y51.9566      R1.0000    
