%
(Generated by SketchUcam {1.2b1})
(File: laser.skp)
(Bit diameter: 5.0mm)
(Feed rate: 600.0mm/min)
(Plunge Feed rate: 400.0mm/min)
(Material Thickness: 3.2mm)
(Material length: 600.0mm X width: 300.0mm)
(Overhead Gantry: true)
(Retract feed rate NOT limited to plunge feed rate)
(Multipass enabled, Depth = 0.1mm)
(Optimization is ON)
(www.PhlatBoyz.com)
(Loaded profile 5mmaluminum)
G90 G21 G49 
M3 S11000
(Group: Roof Side RailRoof Side Rail)
(Group complete: Roof Side RailRoof Side Rail)
(Group: Roof Side RailRoof Side Rail)
(Group complete: Roof Side RailRoof Side Rail)
(Group: Outside Panels)
(Group: Mechanical Panels)
(Group: Rear Panels)
(Group complete: Rear Panels)
(Group complete: Mechanical Panels)
(Group: SIde Panels)
(Group complete: SIde Panels)
(Group: Lid Front Panels)
(Group complete: Lid Front Panels)
(Group: Front Panels)
(Group complete: Front Panels)
(Group: Lid Top Panels)
(Group complete: Lid Top Panels)
(Group complete: Outside Panels)
(Group: Power Supplies)
(Group complete: Power Supplies)
(Group: Computers)
(Group complete: Computers)
(Group: Fans)
(Group complete: Fans)
(Group: _diam_7.1mm)
(Group complete: _diam_7.1mm)
(Group: _diam_7.1mm)
(Group complete: _diam_7.1mm)
(Group: _diam_7.1mm)
(Group complete: _diam_7.1mm)
(Group: _diam_7.1mm)
(Group complete: _diam_7.1mm)
G0   Z5.000     
(Pass: 1)
   X33.008       Y33.000    
(plungebore    depth=4.480         diam=5.000     )
G00   Z1.667     
G01   Z-0.100     F400 
G00   z1.667     
G01   Z-0.200    
G00   z1.667     
G01   Z-0.300    
G00   z1.667     
G01   Z-0.400    
G00   z1.667     
G01   Z-0.500    
G00   z1.667     
G01   Z-0.600    
G00   z1.667     
G01   Z-0.700    
G00   z1.667     
G01   Z-0.800    
G00   z1.667     
G01   Z-0.900    
G00   z1.667     
G01   Z-1.000    
G00   z1.667     
G01   Z-1.100    
G00   z1.667     
G01   Z-1.200    
G00   z1.667     
G01   Z-1.300    
G00   z1.667     
G01   Z-1.400    
G00   z1.667     
G01   Z-1.500    
G00   z1.667     
G01   Z-1.600    
G00   z1.667     
G01   Z-1.700    
G00   z1.667     
G01   Z-1.800    
G00   z1.667     
G01   Z-1.900    
G00   z1.667     
G01   Z-2.000    
G00   z1.667     
G01   Z-2.100    
G00   z1.667     
G01   Z-2.200    
G00   z1.667     
G01   Z-2.300    
G00   z1.667     
G01   Z-2.400    
G00   z1.667     
G01   Z-2.500    
G00   z1.667     
G01   Z-2.600    
G00   z1.667     
G01   Z-2.700    
G00   z1.667     
G01   Z-2.800    
G00   z1.667     
G01   Z-2.900    
G00   z1.667     
G01   Z-3.000    
G00   z1.667     
G01   Z-3.100    
G00   z1.667     
G01   Z-3.200    
G00   z1.667     
G01   Z-3.300    
G00   z1.667     
G01   Z-3.400    
G00   z1.667     
G01   Z-3.500    
G00   z1.667     
G01   Z-3.600    
G00   z1.667     
G01   Z-3.700    
G00   z1.667     
G01   Z-3.800    
G00   z1.667     
G01   Z-3.900    
G00   z1.667     
G01   Z-4.000    
G00   z1.667     
G01   Z-4.100    
G00   z1.667     
G01   Z-4.200    
G00   z1.667     
G01   Z-4.300    
G00   z1.667     
G01   Z-4.400    
G00   z1.667     
G01   Z-4.480    
G00   z1.667     
G00   Y33.000        Z5.000     
(plungebore end)
(BREAK pass 34)
(Pass: 1)
G0   X42.998    
(plungebore    depth=4.480         diam=5.000     )
G00   Z1.667     
G01   Z-0.100     F400 
G00   z1.667     
G01   Z-0.200    
G00   z1.667     
G01   Z-0.300    
G00   z1.667     
G01   Z-0.400    
G00   z1.667     
G01   Z-0.500    
G00   z1.667     
G01   Z-0.600    
G00   z1.667     
G01   Z-0.700    
G00   z1.667     
G01   Z-0.800    
G00   z1.667     
G01   Z-0.900    
G00   z1.667     
G01   Z-1.000    
G00   z1.667     
G01   Z-1.100    
G00   z1.667     
G01   Z-1.200    
G00   z1.667     
G01   Z-1.300    
G00   z1.667     
G01   Z-1.400    
G00   z1.667     
G01   Z-1.500    
G00   z1.667     
G01   Z-1.600    
G00   z1.667     
G01   Z-1.700    
G00   z1.667     
G01   Z-1.800    
G00   z1.667     
G01   Z-1.900    
G00   z1.667     
G01   Z-2.000    
G00   z1.667     
G01   Z-2.100    
G00   z1.667     
G01   Z-2.200    
G00   z1.667     
G01   Z-2.300    
G00   z1.667     
G01   Z-2.400    
G00   z1.667     
G01   Z-2.500    
G00   z1.667     
G01   Z-2.600    
G00   z1.667     
G01   Z-2.700    
G00   z1.667     
G01   Z-2.800    
G00   z1.667     
G01   Z-2.900    
G00   z1.667     
G01   Z-3.000    
G00   z1.667     
G01   Z-3.100    
G00   z1.667     
G01   Z-3.200    
G00   z1.667     
G01   Z-3.300    
G00   z1.667     
G01   Z-3.400    
G00   z1.667     
G01   Z-3.500    
G00   z1.667     
G01   Z-3.600    
G00   z1.667     
G01   Z-3.700    
G00   z1.667     
G01   Z-3.800    
G00   z1.667     
G01   Z-3.900    
G00   z1.667     
G01   Z-4.000    
G00   z1.667     
G01   Z-4.100    
G00   z1.667     
G01   Z-4.200    
G00   z1.667     
G01   Z-4.300    
G00   z1.667     
G01   Z-4.400    
G00   z1.667     
G01   Z-4.480    
G00   z1.667     
G00   Y33.000        Z5.000     
(plungebore end)
(BREAK pass 34)
(Pass: 1)
G0   X53.008    
(plungebore    depth=4.480         diam=5.000     )
G00   Z1.667     
G01   Z-0.100     F400 
G00   z1.667     
G01   Z-0.200    
G00   z1.667     
G01   Z-0.300    
G00   z1.667     
G01   Z-0.400    
G00   z1.667     
G01   Z-0.500    
G00   z1.667     
G01   Z-0.600    
G00   z1.667     
G01   Z-0.700    
G00   z1.667     
G01   Z-0.800    
G00   z1.667     
G01   Z-0.900    
G00   z1.667     
G01   Z-1.000    
G00   z1.667     
G01   Z-1.100    
G00   z1.667     
G01   Z-1.200    
G00   z1.667     
G01   Z-1.300    
G00   z1.667     
G01   Z-1.400    
G00   z1.667     
G01   Z-1.500    
G00   z1.667     
G01   Z-1.600    
G00   z1.667     
G01   Z-1.700    
G00   z1.667     
G01   Z-1.800    
G00   z1.667     
G01   Z-1.900    
G00   z1.667     
G01   Z-2.000    
G00   z1.667     
G01   Z-2.100    
G00   z1.667     
G01   Z-2.200    
G00   z1.667     
G01   Z-2.300    
G00   z1.667     
G01   Z-2.400    
G00   z1.667     
G01   Z-2.500    
G00   z1.667     
G01   Z-2.600    
G00   z1.667     
G01   Z-2.700    
G00   z1.667     
G01   Z-2.800    
G00   z1.667     
G01   Z-2.900    
G00   z1.667     
G01   Z-3.000    
G00   z1.667     
G01   Z-3.100    
G00   z1.667     
G01   Z-3.200    
G00   z1.667     
G01   Z-3.300    
G00   z1.667     
G01   Z-3.400    
G00   z1.667     
G01   Z-3.500    
G00   z1.667     
G01   Z-3.600    
G00   z1.667     
G01   Z-3.700    
G00   z1.667     
G01   Z-3.800    
G00   z1.667     
G01   Z-3.900    
G00   z1.667     
G01   Z-4.000    
G00   z1.667     
G01   Z-4.100    
G00   z1.667     
G01   Z-4.200    
G00   z1.667     
G01   Z-4.300    
G00   z1.667     
G01   Z-4.400    
G00   z1.667     
G01   Z-4.480    
G00   z1.667     
G00   Y33.000        Z5.000     
(plungebore end)
(BREAK pass 34)
(Pass: 1)
G0   X33.008       Y43.000    
(plungebore    depth=4.480         diam=5.000     )
G00   Z1.667     
G01   Z-0.100     F400 
G00   z1.667     
G01   Z-0.200    
G00   z1.667     
G01   Z-0.300    
G00   z1.667     
G01   Z-0.400    
G00   z1.667     
G01   Z-0.500    
G00   z1.667     
G01   Z-0.600    
G00   z1.667     
G01   Z-0.700    
G00   z1.667     
G01   Z-0.800    
G00   z1.667     
G01   Z-0.900    
G00   z1.667     
G01   Z-1.000    
G00   z1.667     
G01   Z-1.100    
G00   z1.667     
G01   Z-1.200    
G00   z1.667     
G01   Z-1.300    
G00   z1.667     
G01   Z-1.400    
G00   z1.667     
G01   Z-1.500    
G00   z1.667     
G01   Z-1.600    
G00   z1.667     
G01   Z-1.700    
G00   z1.667     
G01   Z-1.800    
G00   z1.667     
G01   Z-1.900    
G00   z1.667     
G01   Z-2.000    
G00   z1.667     
G01   Z-2.100    
G00   z1.667     
G01   Z-2.200    
G00   z1.667     
G01   Z-2.300    
G00   z1.667     
G01   Z-2.400    
G00   z1.667     
G01   Z-2.500    
G00   z1.667     
G01   Z-2.600    
G00   z1.667     
G01   Z-2.700    
G00   z1.667     
G01   Z-2.800    
G00   z1.667     
G01   Z-2.900    
G00   z1.667     
G01   Z-3.000    
G00   z1.667     
G01   Z-3.100    
G00   z1.667     
G01   Z-3.200    
G00   z1.667     
G01   Z-3.300    
G00   z1.667     
G01   Z-3.400    
G00   z1.667     
G01   Z-3.500    
G00   z1.667     
G01   Z-3.600    
G00   z1.667     
G01   Z-3.700    
G00   z1.667     
G01   Z-3.800    
G00   z1.667     
G01   Z-3.900    
G00   z1.667     
G01   Z-4.000    
G00   z1.667     
G01   Z-4.100    
G00   z1.667     
G01   Z-4.200    
G00   z1.667     
G01   Z-4.300    
G00   z1.667     
G01   Z-4.400    
G00   z1.667     
G01   Z-4.480    
G00   z1.667     
G00   Y43.000        Z5.000     
(plungebore end)
(BREAK pass 34)
(Pass: 1)
G0   Y23.000    
(plungebore    depth=4.480         diam=5.000     )
G00   Z1.667     
G01   Z-0.100     F400 
G00   z1.667     
G01   Z-0.200    
G00   z1.667     
G01   Z-0.300    
G00   z1.667     
G01   Z-0.400    
G00   z1.667     
G01   Z-0.500    
G00   z1.667     
G01   Z-0.600    
G00   z1.667     
G01   Z-0.700    
G00   z1.667     
G01   Z-0.800    
G00   z1.667     
G01   Z-0.900    
G00   z1.667     
G01   Z-1.000    
G00   z1.667     
G01   Z-1.100    
G00   z1.667     
G01   Z-1.200    
G00   z1.667     
G01   Z-1.300    
G00   z1.667     
G01   Z-1.400    
G00   z1.667     
G01   Z-1.500    
G00   z1.667     
G01   Z-1.600    
G00   z1.667     
G01   Z-1.700    
G00   z1.667     
G01   Z-1.800    
G00   z1.667     
G01   Z-1.900    
G00   z1.667     
G01   Z-2.000    
G00   z1.667     
G01   Z-2.100    
G00   z1.667     
G01   Z-2.200    
G00   z1.667     
G01   Z-2.300    
G00   z1.667     
G01   Z-2.400    
G00   z1.667     
G01   Z-2.500    
G00   z1.667     
G01   Z-2.600    
G00   z1.667     
G01   Z-2.700    
G00   z1.667     
G01   Z-2.800    
G00   z1.667     
G01   Z-2.900    
G00   z1.667     
G01   Z-3.000    
G00   z1.667     
G01   Z-3.100    
G00   z1.667     
G01   Z-3.200    
G00   z1.667     
G01   Z-3.300    
G00   z1.667     
G01   Z-3.400    
G00   z1.667     
G01   Z-3.500    
G00   z1.667     
G01   Z-3.600    
G00   z1.667     
G01   Z-3.700    
G00   z1.667     
G01   Z-3.800    
G00   z1.667     
G01   Z-3.900    
G00   z1.667     
G01   Z-4.000    
G00   z1.667     
G01   Z-4.100    
G00   z1.667     
G01   Z-4.200    
G00   z1.667     
G01   Z-4.300    
G00   z1.667     
G01   Z-4.400    
G00   z1.667     
G01   Z-4.480    
G00   z1.667     
G00   Y23.000        Z5.000     
(plungebore end)
(BREAK pass 34)
(Pass: 1)
G0   X22.998       Y33.000    
(plungebore    depth=4.480         diam=5.000     )
G00   Z1.667     
G01   Z-0.100     F400 
G00   z1.667     
G01   Z-0.200    
G00   z1.667     
G01   Z-0.300    
G00   z1.667     
G01   Z-0.400    
G00   z1.667     
G01   Z-0.500    
G00   z1.667     
G01   Z-0.600    
G00   z1.667     
G01   Z-0.700    
G00   z1.667     
G01   Z-0.800    
G00   z1.667     
G01   Z-0.900    
G00   z1.667     
G01   Z-1.000    
G00   z1.667     
G01   Z-1.100    
G00   z1.667     
G01   Z-1.200    
G00   z1.667     
G01   Z-1.300    
G00   z1.667     
G01   Z-1.400    
G00   z1.667     
G01   Z-1.500    
G00   z1.667     
G01   Z-1.600    
G00   z1.667     
G01   Z-1.700    
G00   z1.667     
G01   Z-1.800    
G00   z1.667     
G01   Z-1.900    
G00   z1.667     
G01   Z-2.000    
G00   z1.667     
G01   Z-2.100    
G00   z1.667     
G01   Z-2.200    
G00   z1.667     
G01   Z-2.300    
G00   z1.667     
G01   Z-2.400    
G00   z1.667     
G01   Z-2.500    
G00   z1.667     
G01   Z-2.600    
G00   z1.667     
G01   Z-2.700    
G00   z1.667     
G01   Z-2.800    
G00   z1.667     
G01   Z-2.900    
G00   z1.667     
G01   Z-3.000    
G00   z1.667     
G01   Z-3.100    
G00   z1.667     
G01   Z-3.200    
G00   z1.667     
G01   Z-3.300    
G00   z1.667     
G01   Z-3.400    
G00   z1.667     
G01   Z-3.500    
G00   z1.667     
G01   Z-3.600    
G00   z1.667     
G01   Z-3.700    
G00   z1.667     
G01   Z-3.800    
G00   z1.667     
G01   Z-3.900    
G00   z1.667     
G01   Z-4.000    
G00   z1.667     
G01   Z-4.100    
G00   z1.667     
G01   Z-4.200    
G00   z1.667     
G01   Z-4.300    
G00   z1.667     
G01   Z-4.400    
G00   z1.667     
G01   Z-4.480    
G00   z1.667     
G00   Y33.000        Z5.000     
(plungebore end)
(BREAK pass 34)
(Pass: 1)
G0   X13.008    
(plungebore    depth=4.480         diam=5.000     )
G00   Z1.667     
G01   Z-0.100     F400 
G00   z1.667     
G01   Z-0.200    
G00   z1.667     
G01   Z-0.300    
G00   z1.667     
G01   Z-0.400    
G00   z1.667     
G01   Z-0.500    
G00   z1.667     
G01   Z-0.600    
G00   z1.667     
G01   Z-0.700    
G00   z1.667     
G01   Z-0.800    
G00   z1.667     
G01   Z-0.900    
G00   z1.667     
G01   Z-1.000    
G00   z1.667     
G01   Z-1.100    
G00   z1.667     
G01   Z-1.200    
G00   z1.667     
G01   Z-1.300    
G00   z1.667     
G01   Z-1.400    
G00   z1.667     
G01   Z-1.500    
G00   z1.667     
G01   Z-1.600    
G00   z1.667     
G01   Z-1.700    
G00   z1.667     
G01   Z-1.800    
G00   z1.667     
G01   Z-1.900    
G00   z1.667     
G01   Z-2.000    
G00   z1.667     
G01   Z-2.100    
G00   z1.667     
G01   Z-2.200    
G00   z1.667     
G01   Z-2.300    
G00   z1.667     
G01   Z-2.400    
G00   z1.667     
G01   Z-2.500    
G00   z1.667     
G01   Z-2.600    
G00   z1.667     
G01   Z-2.700    
G00   z1.667     
G01   Z-2.800    
G00   z1.667     
G01   Z-2.900    
G00   z1.667     
G01   Z-3.000    
G00   z1.667     
G01   Z-3.100    
G00   z1.667     
G01   Z-3.200    
G00   z1.667     
G01   Z-3.300    
G00   z1.667     
G01   Z-3.400    
G00   z1.667     
G01   Z-3.500    
G00   z1.667     
G01   Z-3.600    
G00   z1.667     
G01   Z-3.700    
G00   z1.667     
G01   Z-3.800    
G00   z1.667     
G01   Z-3.900    
G00   z1.667     
G01   Z-4.000    
G00   z1.667     
G01   Z-4.100    
G00   z1.667     
G01   Z-4.200    
G00   z1.667     
G01   Z-4.300    
G00   z1.667     
G01   Z-4.400    
G00   z1.667     
G01   Z-4.480    
G00   z1.667     
G00   Y33.000        Z5.000     
(plungebore end)
(BREAK pass 34)
(Pass: 1)
G0   X16.787       Y19.011    
G1   Z-0.100     F400 
G17 G2   X17.0576      Y19.0469      R1.0685     F600 
   X17.3286      Y19.0113      R1.0685    
   X17.5811      Y18.9067      R1.0685    
   X17.7979      Y18.7403      R1.0685    
   X17.9643      Y18.5235      R1.0685    
   X18.0689      Y18.2710      R1.0685    
   X18.1046      Y18.0000      R1.0685    
   X18.0689      Y17.7290      R1.0685    
   X17.9643      Y17.4765      R1.0685    
   X17.7979      Y17.2597      R1.0685    
   X17.5811      Y17.0933      R1.0685    
   X17.3286      Y16.9887      R1.0685    
   X17.0576      Y16.9531      R1.0685    
   X16.7867      Y16.9887      R1.0685    
   X16.5342      Y17.0933      R1.0685    
   X16.3174      Y17.2597      R1.0685    
   X16.1510      Y17.4765      R1.0685    
   X16.0464      Y17.7290      R1.0685    
   X16.0107      Y18.0000      R1.0685    
   X16.0464      Y18.2710      R1.0685    
   X16.1510      Y18.5235      R1.0685    
   X16.3174      Y18.7403      R1.0685    
   X16.5342      Y18.9067      R1.0685    
   X16.7867      Y19.0113      R1.0685    
(Pass: 2)
G1   Z-0.200     F400 
G17 G2   X17.0576      Y19.0469      R1.0685     F600 
   X17.3286      Y19.0113      R1.0685    
   X17.5811      Y18.9067      R1.0685    
   X17.7979      Y18.7403      R1.0685    
   X17.9643      Y18.5235      R1.0685    
   X18.0689      Y18.2710      R1.0685    
   X18.1046      Y18.0000      R1.0685    
   X18.0689      Y17.7290      R1.0685    
   X17.9643      Y17.4765      R1.0685    
   X17.7979      Y17.2597      R1.0685    
   X17.5811      Y17.0933      R1.0685    
   X17.3286      Y16.9887      R1.0685    
   X17.0576      Y16.9531      R1.0685    
   X16.7867      Y16.9887      R1.0685    
   X16.5342      Y17.0933      R1.0685    
   X16.3174      Y17.2597      R1.0685    
   X16.1510      Y17.4765      R1.0685    
   X16.0464      Y17.7290      R1.0685    
   X16.0107      Y18.0000      R1.0685    
   X16.0464      Y18.2710      R1.0685    
   X16.1510      Y18.5235      R1.0685    
   X16.3174      Y18.7403      R1.0685    
   X16.5342      Y18.9067      R1.0685    
   X16.7867      Y19.0113      R1.0685    
(Pass: 3)
G1   Z-0.300     F400 
G17 G2   X17.0576      Y19.0469      R1.0685     F600 
   X17.3286      Y19.0113      R1.0685    
   X17.5811      Y18.9067      R1.0685    
   X17.7979      Y18.7403      R1.0685    
   X17.9643      Y18.5235      R1.0685    
   X18.0689      Y18.2710      R1.0685    
   X18.1046      Y18.0000      R1.0685    
   X18.0689      Y17.7290      R1.0685    
   X17.9643      Y17.4765      R1.0685    
   X17.7979      Y17.2597      R1.0685    
   X17.5811      Y17.0933      R1.0685    
   X17.3286      Y16.9887      R1.0685    
   X17.0576      Y16.9531      R1.0685    
   X16.7867      Y16.9887      R1.0685    
   X16.5342      Y17.0933      R1.0685    
   X16.3174      Y17.2597      R1.0685    
   X16.1510      Y17.4765      R1.0685    
   X16.0464      Y17.7290      R1.0685    
   X16.0107      Y18.0000      R1.0685    
   X16.0464      Y18.2710      R1.0685    
   X16.1510      Y18.5235      R1.0685    
   X16.3174      Y18.7403      R1.0685    
   X16.5342      Y18.9067      R1.0685    
   X16.7867      Y19.0113      R1.0685    
(Pass: 4)
G1   Z-0.400     F400 
G17 G2   X17.0576      Y19.0469      R1.0685     F600 
   X17.3286      Y19.0113      R1.0685    
   X17.5811      Y18.9067      R1.0685    
   X17.7979      Y18.7403      R1.0685    
   X17.9643      Y18.5235      R1.0685    
   X18.0689      Y18.2710      R1.0685    
   X18.1046      Y18.0000      R1.0685    
   X18.0689      Y17.7290      R1.0685    
   X17.9643      Y17.4765      R1.0685    
   X17.7979      Y17.2597      R1.0685    
   X17.5811      Y17.0933      R1.0685    
   X17.3286      Y16.9887      R1.0685    
   X17.0576      Y16.9531      R1.0685    
   X16.7867      Y16.9887      R1.0685    
   X16.5342      Y17.0933      R1.0685    
   X16.3174      Y17.2597      R1.0685    
   X16.1510      Y17.4765      R1.0685    
   X16.0464      Y17.7290      R1.0685    
   X16.0107      Y18.0000      R1.0685    
   X16.0464      Y18.2710      R1.0685    
   X16.1510      Y18.5235      R1.0685    
   X16.3174      Y18.7403      R1.0685    
   X16.5342      Y18.9067      R1.0685    
   X16.7867      Y19.0113      R1.0685    
(Pass: 5)
G1   Z-0.500     F400 
G17 G2   X17.0576      Y19.0469      R1.0685     F600 
   X17.3286      Y19.0113      R1.0685    
   X17.5811      Y18.9067      R1.0685    
   X17.7979      Y18.7403      R1.0685    
   X17.9643      Y18.5235      R1.0685    
   X18.0689      Y18.2710      R1.0685    
   X18.1046      Y18.0000      R1.0685    
   X18.0689      Y17.7290      R1.0685    
   X17.9643      Y17.4765      R1.0685    
   X17.7979      Y17.2597      R1.0685    
   X17.5811      Y17.0933      R1.0685    
   X17.3286      Y16.9887      R1.0685    
   X17.0576      Y16.9531      R1.0685    
   X16.7867      Y16.9887      R1.0685    
   X16.5342      Y17.0933      R1.0685    
   X16.3174      Y17.2597      R1.0685    
   X16.1510      Y17.4765      R1.0685    
   X16.0464      Y17.7290      R1.0685    
   X16.0107      Y18.0000      R1.0685    
   X16.0464      Y18.2710      R1.0685    
   X16.1510      Y18.5235      R1.0685    
   X16.3174      Y18.7403      R1.0685    
   X16.5342      Y18.9067      R1.0685    
   X16.7867      Y19.0113      R1.0685    
(Pass: 6)
G1   Z-0.600     F400 
G17 G2   X17.0576      Y19.0469      R1.0685     F600 
   X17.3286      Y19.0113      R1.0685    
   X17.5811      Y18.9067      R1.0685    
   X17.7979      Y18.7403      R1.0685    
   X17.9643      Y18.5235      R1.0685    
   X18.0689      Y18.2710      R1.0685    
   X18.1046      Y18.0000      R1.0685    
   X18.0689      Y17.7290      R1.0685    
   X17.9643      Y17.4765      R1.0685    
   X17.7979      Y17.2597      R1.0685    
   X17.5811      Y17.0933      R1.0685    
   X17.3286      Y16.9887      R1.0685    
   X17.0576      Y16.9531      R1.0685    
   X16.7867      Y16.9887      R1.0685    
   X16.5342      Y17.0933      R1.0685    
   X16.3174      Y17.2597      R1.0685    
   X16.1510      Y17.4765      R1.0685    
   X16.0464      Y17.7290      R1.0685    
   X16.0107      Y18.0000      R1.0685    
   X16.0464      Y18.2710      R1.0685    
   X16.1510      Y18.5235      R1.0685    
   X16.3174      Y18.7403      R1.0685    
   X16.5342      Y18.9067      R1.0685    
   X16.7867      Y19.0113      R1.0685    
(Pass: 7)
G1   Z-0.700     F400 
G17 G2   X17.0576      Y19.0469      R1.0685     F600 
   X17.3286      Y19.0113      R1.0685    
   X17.5811      Y18.9067      R1.0685    
   X17.7979      Y18.7403      R1.0685    
   X17.9643      Y18.5235      R1.0685    
   X18.0689      Y18.2710      R1.0685    
   X18.1046      Y18.0000      R1.0685    
   X18.0689      Y17.7290      R1.0685    
   X17.9643      Y17.4765      R1.0685    
   X17.7979      Y17.2597      R1.0685    
   X17.5811      Y17.0933      R1.0685    
   X17.3286      Y16.9887      R1.0685    
   X17.0576      Y16.9531      R1.0685    
   X16.7867      Y16.9887      R1.0685    
   X16.5342      Y17.0933      R1.0685    
   X16.3174      Y17.2597      R1.0685    
   X16.1510      Y17.4765      R1.0685    
   X16.0464      Y17.7290      R1.0685    
   X16.0107      Y18.0000      R1.0685    
   X16.0464      Y18.2710      R1.0685    
   X16.1510      Y18.5235      R1.0685    
   X16.3174      Y18.7403      R1.0685    
   X16.5342      Y18.9067      R1.0685    
   X16.7867      Y19.0113      R1.0685    
(Pass: 8)
G1   Z-0.800     F400 
G17 G2   X17.0576      Y19.0469      R1.0685     F600 
   X17.3286      Y19.0113      R1.0685    
   X17.5811      Y18.9067      R1.0685    
   X17.7979      Y18.7403      R1.0685    
   X17.9643      Y18.5235      R1.0685    
   X18.0689      Y18.2710      R1.0685    
   X18.1046      Y18.0000      R1.0685    
   X18.0689      Y17.7290      R1.0685    
   X17.9643      Y17.4765      R1.0685    
   X17.7979      Y17.2597      R1.0685    
   X17.5811      Y17.0933      R1.0685    
   X17.3286      Y16.9887      R1.0685    
   X17.0576      Y16.9531      R1.0685    
   X16.7867      Y16.9887      R1.0685    
   X16.5342      Y17.0933      R1.0685    
   X16.3174      Y17.2597      R1.0685    
   X16.1510      Y17.4765      R1.0685    
   X16.0464      Y17.7290      R1.0685    
   X16.0107      Y18.0000      R1.0685    
   X16.0464      Y18.2710      R1.0685    
   X16.1510      Y18.5235      R1.0685    
   X16.3174      Y18.7403      R1.0685    
   X16.5342      Y18.9067      R1.0685    
   X16.7867      Y19.0113      R1.0685    
(Pass: 9)
G1   Z-0.900     F400 
G17 G2   X17.0576      Y19.0469      R1.0685     F600 
   X17.3286      Y19.0113      R1.0685    
   X17.5811      Y18.9067      R1.0685    
   X17.7979      Y18.7403      R1.0685    
   X17.9643      Y18.5235      R1.0685    
   X18.0689      Y18.2710      R1.0685    
   X18.1046      Y18.0000      R1.0685    
   X18.0689      Y17.7290      R1.0685    
   X17.9643      Y17.4765      R1.0685    
   X17.7979      Y17.2597      R1.0685    
   X17.5811      Y17.0933      R1.0685    
   X17.3286      Y16.9887      R1.0685    
   X17.0576      Y16.9531      R1.0685    
   X16.7867      Y16.9887      R1.0685    
   X16.5342      Y17.0933      R1.0685    
   X16.3174      Y17.2597      R1.0685    
   X16.1510      Y17.4765      R1.0685    
   X16.0464      Y17.7290      R1.0685    
   X16.0107      Y18.0000      R1.0685    
   X16.0464      Y18.2710      R1.0685    
   X16.1510      Y18.5235      R1.0685    
   X16.3174      Y18.7403      R1.0685    
   X16.5342      Y18.9067      R1.0685    
   X16.7867      Y19.0113      R1.0685    
(Pass: 10)
G1   Z-1.000     F400 
G17 G2   X17.0576      Y19.0469      R1.0685     F600 
   X17.3286      Y19.0113      R1.0685    
   X17.5811      Y18.9067      R1.0685    
   X17.7979      Y18.7403      R1.0685    
   X17.9643      Y18.5235      R1.0685    
   X18.0689      Y18.2710      R1.0685    
   X18.1046      Y18.0000      R1.0685    
   X18.0689      Y17.7290      R1.0685    
   X17.9643      Y17.4765      R1.0685    
   X17.7979      Y17.2597      R1.0685    
   X17.5811      Y17.0933      R1.0685    
   X17.3286      Y16.9887      R1.0685    
   X17.0576      Y16.9531      R1.0685    
   X16.7867      Y16.9887      R1.0685    
   X16.5342      Y17.0933      R1.0685    
   X16.3174      Y17.2597      R1.0685    
   X16.1510      Y17.4765      R1.0685    
   X16.0464      Y17.7290      R1.0685    
   X16.0107      Y18.0000      R1.0685    
   X16.0464      Y18.2710      R1.0685    
   X16.1510      Y18.5235      R1.0685    
   X16.3174      Y18.7403      R1.0685    
   X16.5342      Y18.9067      R1.0685    
   X16.7867      Y19.0113      R1.0685    
(Pass: 11)
G1   Z-1.100     F400 
G17 G2   X17.0576      Y19.0469      R1.0685     F600 
   X17.3286      Y19.0113      R1.0685    
   X17.5811      Y18.9067      R1.0685    
   X17.7979      Y18.7403      R1.0685    
   X17.9643      Y18.5235      R1.0685    
   X18.0689      Y18.2710      R1.0685    
   X18.1046      Y18.0000      R1.0685    
   X18.0689      Y17.7290      R1.0685    
   X17.9643      Y17.4765      R1.0685    
   X17.7979      Y17.2597      R1.0685    
   X17.5811      Y17.0933      R1.0685    
   X17.3286      Y16.9887      R1.0685    
   X17.0576      Y16.9531      R1.0685    
   X16.7867      Y16.9887      R1.0685    
   X16.5342      Y17.0933      R1.0685    
   X16.3174      Y17.2597      R1.0685    
   X16.1510      Y17.4765      R1.0685    
   X16.0464      Y17.7290      R1.0685    
   X16.0107      Y18.0000      R1.0685    
   X16.0464      Y18.2710      R1.0685    
   X16.1510      Y18.5235      R1.0685    
   X16.3174      Y18.7403      R1.0685    
   X16.5342      Y18.9067      R1.0685    
   X16.7867      Y19.0113      R1.0685    
(Pass: 12)
G1   Z-1.200     F400 
G17 G2   X17.0576      Y19.0469      R1.0685     F600 
   X17.3286      Y19.0113      R1.0685    
   X17.5811      Y18.9067      R1.0685    
   X17.7979      Y18.7403      R1.0685    
   X17.9643      Y18.5235      R1.0685    
   X18.0689      Y18.2710      R1.0685    
   X18.1046      Y18.0000      R1.0685    
   X18.0689      Y17.7290      R1.0685    
   X17.9643      Y17.4765      R1.0685    
   X17.7979      Y17.2597      R1.0685    
   X17.5811      Y17.0933      R1.0685    
   X17.3286      Y16.9887      R1.0685    
   X17.0576      Y16.9531      R1.0685    
   X16.7867      Y16.9887      R1.0685    
   X16.5342      Y17.0933      R1.0685    
   X16.3174      Y17.2597      R1.0685    
   X16.1510      Y17.4765      R1.0685    
   X16.0464      Y17.7290      R1.0685    
   X16.0107      Y18.0000      R1.0685    
   X16.0464      Y18.2710      R1.0685    
   X16.1510      Y18.5235      R1.0685    
   X16.3174      Y18.7403      R1.0685    
   X16.5342      Y18.9067      R1.0685    
   X16.7867      Y19.0113      R1.0685    
(Pass: 13)
G1   Z-1.300     F400 
G17 G2   X17.0576      Y19.0469      R1.0685     F600 
   X17.3286      Y19.0113      R1.0685    
   X17.5811      Y18.9067      R1.0685    
   X17.7979      Y18.7403      R1.0685    
   X17.9643      Y18.5235      R1.0685    
   X18.0689      Y18.2710      R1.0685    
   X18.1046      Y18.0000      R1.0685    
   X18.0689      Y17.7290      R1.0685    
   X17.9643      Y17.4765      R1.0685    
   X17.7979      Y17.2597      R1.0685    
   X17.5811      Y17.0933      R1.0685    
   X17.3286      Y16.9887      R1.0685    
   X17.0576      Y16.9531      R1.0685    
   X16.7867      Y16.9887      R1.0685    
   X16.5342      Y17.0933      R1.0685    
   X16.3174      Y17.2597      R1.0685    
   X16.1510      Y17.4765      R1.0685    
   X16.0464      Y17.7290      R1.0685    
   X16.0107      Y18.0000      R1.0685    
   X16.0464      Y18.2710      R1.0685    
   X16.1510      Y18.5235      R1.0685    
   X16.3174      Y18.7403      R1.0685    
   X16.5342      Y18.9067      R1.0685    
   X16.7867      Y19.0113      R1.0685    
(Pass: 14)
G1   Z-1.400     F400 
G17 G2   X17.0576      Y19.0469      R1.0685     F600 
   X17.3286      Y19.0113      R1.0685    
   X17.5811      Y18.9067      R1.0685    
   X17.7979      Y18.7403      R1.0685    
   X17.9643      Y18.5235      R1.0685    
   X18.0689      Y18.2710      R1.0685    
   X18.1046      Y18.0000      R1.0685    
   X18.0689      Y17.7290      R1.0685    
   X17.9643      Y17.4765      R1.0685    
   X17.7979      Y17.2597      R1.0685    
   X17.5811      Y17.0933      R1.0685    
   X17.3286      Y16.9887      R1.0685    
   X17.0576      Y16.9531      R1.0685    
   X16.7867      Y16.9887      R1.0685    
   X16.5342      Y17.0933      R1.0685    
   X16.3174      Y17.2597      R1.0685    
   X16.1510      Y17.4765      R1.0685    
   X16.0464      Y17.7290      R1.0685    
   X16.0107      Y18.0000      R1.0685    
   X16.0464      Y18.2710      R1.0685    
   X16.1510      Y18.5235      R1.0685    
   X16.3174      Y18.7403      R1.0685    
   X16.5342      Y18.9067      R1.0685    
   X16.7867      Y19.0113      R1.0685    
(Pass: 15)
G1   Z-1.500     F400 
G17 G2   X17.0576      Y19.0469      R1.0685     F600 
   X17.3286      Y19.0113      R1.0685    
   X17.5811      Y18.9067      R1.0685    
   X17.7979      Y18.7403      R1.0685    
   X17.9643      Y18.5235      R1.0685    
   X18.0689      Y18.2710      R1.0685    
   X18.1046      Y18.0000      R1.0685    
   X18.0689      Y17.7290      R1.0685    
   X17.9643      Y17.4765      R1.0685    
   X17.7979      Y17.2597      R1.0685    
   X17.5811      Y17.0933      R1.0685    
   X17.3286      Y16.9887      R1.0685    
   X17.0576      Y16.9531      R1.0685    
   X16.7867      Y16.9887      R1.0685    
   X16.5342      Y17.0933      R1.0685    
   X16.3174      Y17.2597      R1.0685    
   X16.1510      Y17.4765      R1.0685    
   X16.0464      Y17.7290      R1.0685    
   X16.0107      Y18.0000      R1.0685    
   X16.0464      Y18.2710      R1.0685    
   X16.1510      Y18.5235      R1.0685    
   X16.3174      Y18.7403      R1.0685    
   X16.5342      Y18.9067      R1.0685    
   X16.7867      Y19.0113      R1.0685    
(Pass: 16)
G1   Z-1.600     F400 
G17 G2   X17.0576      Y19.0469      R1.0685     F600 
   X17.3286      Y19.0113      R1.0685    
   X17.5811      Y18.9067      R1.0685    
   X17.7979      Y18.7403      R1.0685    
   X17.9643      Y18.5235      R1.0685    
   X18.0689      Y18.2710      R1.0685    
   X18.1046      Y18.0000      R1.0685    
   X18.0689      Y17.7290      R1.0685    
   X17.9643      Y17.4765      R1.0685    
   X17.7979      Y17.2597      R1.0685    
   X17.5811      Y17.0933      R1.0685    
   X17.3286      Y16.9887      R1.0685    
   X17.0576      Y16.9531      R1.0685    
   X16.7867      Y16.9887      R1.0685    
   X16.5342      Y17.0933      R1.0685    
   X16.3174      Y17.2597      R1.0685    
   X16.1510      Y17.4765      R1.0685    
   X16.0464      Y17.7290      R1.0685    
   X16.0107      Y18.0000      R1.0685    
   X16.0464      Y18.2710      R1.0685    
   X16.1510      Y18.5235      R1.0685    
   X16.3174      Y18.7403      R1.0685    
   X16.5342      Y18.9067      R1.0685    
   X16.7867      Y19.0113      R1.0685    
(Pass: 17)
G1   Z-1.700     F400 
G17 G2   X17.0576      Y19.0469      R1.0685     F600 
   X17.3286      Y19.0113      R1.0685    
   X17.5811      Y18.9067      R1.0685    
   X17.7979      Y18.7403      R1.0685    
   X17.9643      Y18.5235      R1.0685    
   X18.0689      Y18.2710      R1.0685    
   X18.1046      Y18.0000      R1.0685    
   X18.0689      Y17.7290      R1.0685    
   X17.9643      Y17.4765      R1.0685    
   X17.7979      Y17.2597      R1.0685    
   X17.5811      Y17.0933      R1.0685    
   X17.3286      Y16.9887      R1.0685    
   X17.0576      Y16.9531      R1.0685    
   X16.7867      Y16.9887      R1.0685    
   X16.5342      Y17.0933      R1.0685    
   X16.3174      Y17.2597      R1.0685    
   X16.1510      Y17.4765      R1.0685    
   X16.0464      Y17.7290      R1.0685    
   X16.0107      Y18.0000      R1.0685    
   X16.0464      Y18.2710      R1.0685    
   X16.1510      Y18.5235      R1.0685    
   X16.3174      Y18.7403      R1.0685    
   X16.5342      Y18.9067      R1.0685    
   X16.7867      Y19.0113      R1.0685    
(Pass: 18)
G1   Z-1.800     F400 
G17 G2   X17.0576      Y19.0469      R1.0685     F600 
   X17.3286      Y19.0113      R1.0685    
   X17.5811      Y18.9067      R1.0685    
   X17.7979      Y18.7403      R1.0685    
   X17.9643      Y18.5235      R1.0685    
   X18.0689      Y18.2710      R1.0685    
   X18.1046      Y18.0000      R1.0685    
   X18.0689      Y17.7290      R1.0685    
   X17.9643      Y17.4765      R1.0685    
   X17.7979      Y17.2597      R1.0685    
   X17.5811      Y17.0933      R1.0685    
   X17.3286      Y16.9887      R1.0685    
   X17.0576      Y16.9531      R1.0685    
   X16.7867      Y16.9887      R1.0685    
   X16.5342      Y17.0933      R1.0685    
   X16.3174      Y17.2597      R1.0685    
   X16.1510      Y17.4765      R1.0685    
   X16.0464      Y17.7290      R1.0685    
   X16.0107      Y18.0000      R1.0685    
   X16.0464      Y18.2710      R1.0685    
   X16.1510      Y18.5235      R1.0685    
   X16.3174      Y18.7403      R1.0685    
   X16.5342      Y18.9067      R1.0685    
   X16.7867      Y19.0113      R1.0685    
(Pass: 19)
G1   Z-1.900     F400 
G17 G2   X17.0576      Y19.0469      R1.0685     F600 
   X17.3286      Y19.0113      R1.0685    
   X17.5811      Y18.9067      R1.0685    
   X17.7979      Y18.7403      R1.0685    
   X17.9643      Y18.5235      R1.0685    
   X18.0689      Y18.2710      R1.0685    
   X18.1046      Y18.0000      R1.0685    
   X18.0689      Y17.7290      R1.0685    
   X17.9643      Y17.4765      R1.0685    
   X17.7979      Y17.2597      R1.0685    
   X17.5811      Y17.0933      R1.0685    
   X17.3286      Y16.9887      R1.0685    
   X17.0576      Y16.9531      R1.0685    
   X16.7867      Y16.9887      R1.0685    
   X16.5342      Y17.0933      R1.0685    
   X16.3174      Y17.2597      R1.0685    
   X16.1510      Y17.4765      R1.0685    
   X16.0464      Y17.7290      R1.0685    
   X16.0107      Y18.0000      R1.0685    
   X16.0464      Y18.2710      R1.0685    
   X16.1510      Y18.5235      R1.0685    
   X16.3174      Y18.7403      R1.0685    
   X16.5342      Y18.9067      R1.0685    
   X16.7867      Y19.0113      R1.0685    
(Pass: 20)
G1   Z-2.000     F400 
G17 G2   X17.0576      Y19.0469      R1.0685     F600 
   X17.3286      Y19.0113      R1.0685    
   X17.5811      Y18.9067      R1.0685    
   X17.7979      Y18.7403      R1.0685    
   X17.9643      Y18.5235      R1.0685    
   X18.0689      Y18.2710      R1.0685    
   X18.1046      Y18.0000      R1.0685    
   X18.0689      Y17.7290      R1.0685    
   X17.9643      Y17.4765      R1.0685    
   X17.7979      Y17.2597      R1.0685    
   X17.5811      Y17.0933      R1.0685    
   X17.3286      Y16.9887      R1.0685    
   X17.0576      Y16.9531      R1.0685    
   X16.7867      Y16.9887      R1.0685    
   X16.5342      Y17.0933      R1.0685    
   X16.3174      Y17.2597      R1.0685    
   X16.1510      Y17.4765      R1.0685    
   X16.0464      Y17.7290      R1.0685    
   X16.0107      Y18.0000      R1.0685    
   X16.0464      Y18.2710      R1.0685    
   X16.1510      Y18.5235      R1.0685    
   X16.3174      Y18.7403      R1.0685    
   X16.5342      Y18.9067      R1.0685    
   X16.7867      Y19.0113      R1.0685    
(Pass: 21)
G1   Z-2.100     F400 
G17 G2   X17.0576      Y19.0469      R1.0685     F600 
   X17.3286      Y19.0113      R1.0685    
   X17.5811      Y18.9067      R1.0685    
   X17.7979      Y18.7403      R1.0685    
   X17.9643      Y18.5235      R1.0685    
   X18.0689      Y18.2710      R1.0685    
   X18.1046      Y18.0000      R1.0685    
   X18.0689      Y17.7290      R1.0685    
   X17.9643      Y17.4765      R1.0685    
   X17.7979      Y17.2597      R1.0685    
   X17.5811      Y17.0933      R1.0685    
   X17.3286      Y16.9887      R1.0685    
   X17.0576      Y16.9531      R1.0685    
   X16.7867      Y16.9887      R1.0685    
   X16.5342      Y17.0933      R1.0685    
   X16.3174      Y17.2597      R1.0685    
   X16.1510      Y17.4765      R1.0685    
   X16.0464      Y17.7290      R1.0685    
   X16.0107      Y18.0000      R1.0685    
   X16.0464      Y18.2710      R1.0685    
   X16.1510      Y18.5235      R1.0685    
   X16.3174      Y18.7403      R1.0685    
   X16.5342      Y18.9067      R1.0685    
   X16.7867      Y19.0113      R1.0685    
(Pass: 22)
G1   Z-2.200     F400 
G17 G2   X17.0576      Y19.0469      R1.0685     F600 
   X17.3286      Y19.0113      R1.0685    
   X17.5811      Y18.9067      R1.0685    
   X17.7979      Y18.7403      R1.0685    
   X17.9643      Y18.5235      R1.0685    
   X18.0689      Y18.2710      R1.0685    
   X18.1046      Y18.0000      R1.0685    
   X18.0689      Y17.7290      R1.0685    
   X17.9643      Y17.4765      R1.0685    
   X17.7979      Y17.2597      R1.0685    
   X17.5811      Y17.0933      R1.0685    
   X17.3286      Y16.9887      R1.0685    
   X17.0576      Y16.9531      R1.0685    
   X16.7867      Y16.9887      R1.0685    
   X16.5342      Y17.0933      R1.0685    
   X16.3174      Y17.2597      R1.0685    
   X16.1510      Y17.4765      R1.0685    
   X16.0464      Y17.7290      R1.0685    
   X16.0107      Y18.0000      R1.0685    
   X16.0464      Y18.2710      R1.0685    
   X16.1510      Y18.5235      R1.0685    
   X16.3174      Y18.7403      R1.0685    
   X16.5342      Y18.9067      R1.0685    
   X16.7867      Y19.0113      R1.0685    
(Pass: 23)
G1   Z-2.300     F400 
G17 G2   X17.0576      Y19.0469      R1.0685     F600 
   X17.3286      Y19.0113      R1.0685    
   X17.5811      Y18.9067      R1.0685    
   X17.7979      Y18.7403      R1.0685    
   X17.9643      Y18.5235      R1.0685    
   X18.0689      Y18.2710      R1.0685    
   X18.1046      Y18.0000      R1.0685    
   X18.0689      Y17.7290      R1.0685    
   X17.9643      Y17.4765      R1.0685    
   X17.7979      Y17.2597      R1.0685    
   X17.5811      Y17.0933      R1.0685    
   X17.3286      Y16.9887      R1.0685    
   X17.0576      Y16.9531      R1.0685    
   X16.7867      Y16.9887      R1.0685    
   X16.5342      Y17.0933      R1.0685    
   X16.3174      Y17.2597      R1.0685    
   X16.1510      Y17.4765      R1.0685    
   X16.0464      Y17.7290      R1.0685    
   X16.0107      Y18.0000      R1.0685    
   X16.0464      Y18.2710      R1.0685    
   X16.1510      Y18.5235      R1.0685    
   X16.3174      Y18.7403      R1.0685    
   X16.5342      Y18.9067      R1.0685    
   X16.7867      Y19.0113      R1.0685    
(Pass: 24)
G1   Z-2.400     F400 
G17 G2   X17.0576      Y19.0469      R1.0685     F600 
   X17.3286      Y19.0113      R1.0685    
   X17.5811      Y18.9067      R1.0685    
   X17.7979      Y18.7403      R1.0685    
   X17.9643      Y18.5235      R1.0685    
   X18.0689      Y18.2710      R1.0685    
   X18.1046      Y18.0000      R1.0685    
   X18.0689      Y17.7290      R1.0685    
   X17.9643      Y17.4765      R1.0685    
   X17.7979      Y17.2597      R1.0685    
   X17.5811      Y17.0933      R1.0685    
   X17.3286      Y16.9887      R1.0685    
   X17.0576      Y16.9531      R1.0685    
   X16.7867      Y16.9887      R1.0685    
   X16.5342      Y17.0933      R1.0685    
   X16.3174      Y17.2597      R1.0685    
   X16.1510      Y17.4765      R1.0685    
   X16.0464      Y17.7290      R1.0685    
   X16.0107      Y18.0000      R1.0685    
   X16.0464      Y18.2710      R1.0685    
   X16.1510      Y18.5235      R1.0685    
   X16.3174      Y18.7403      R1.0685    
   X16.5342      Y18.9067      R1.0685    
   X16.7867      Y19.0113      R1.0685    
(Pass: 25)
G1   Z-2.500     F400 
G17 G2   X17.0576      Y19.0469      R1.0685     F600 
   X17.3286      Y19.0113      R1.0685    
   X17.5811      Y18.9067      R1.0685    
   X17.7979      Y18.7403      R1.0685    
   X17.9643      Y18.5235      R1.0685    
   X18.0689      Y18.2710      R1.0685    
   X18.1046      Y18.0000      R1.0685    
   X18.0689      Y17.7290      R1.0685    
   X17.9643      Y17.4765      R1.0685    
   X17.7979      Y17.2597      R1.0685    
   X17.5811      Y17.0933      R1.0685    
   X17.3286      Y16.9887      R1.0685    
   X17.0576      Y16.9531      R1.0685    
   X16.7867      Y16.9887      R1.0685    
   X16.5342      Y17.0933      R1.0685    
   X16.3174      Y17.2597      R1.0685    
   X16.1510      Y17.4765      R1.0685    
   X16.0464      Y17.7290      R1.0685    
   X16.0107      Y18.0000      R1.0685    
   X16.0464      Y18.2710      R1.0685    
   X16.1510      Y18.5235      R1.0685    
   X16.3174      Y18.7403      R1.0685    
   X16.5342      Y18.9067      R1.0685    
   X16.7867      Y19.0113      R1.0685    
(Pass: 26)
G1   Z-2.600     F400 
G17 G2   X17.0576      Y19.0469      R1.0685     F600 
   X17.3286      Y19.0113      R1.0685    
   X17.5811      Y18.9067      R1.0685    
   X17.7979      Y18.7403      R1.0685    
   X17.9643      Y18.5235      R1.0685    
   X18.0689      Y18.2710      R1.0685    
   X18.1046      Y18.0000      R1.0685    
   X18.0689      Y17.7290      R1.0685    
   X17.9643      Y17.4765      R1.0685    
   X17.7979      Y17.2597      R1.0685    
   X17.5811      Y17.0933      R1.0685    
   X17.3286      Y16.9887      R1.0685    
   X17.0576      Y16.9531      R1.0685    
   X16.7867      Y16.9887      R1.0685    
   X16.5342      Y17.0933      R1.0685    
   X16.3174      Y17.2597      R1.0685    
   X16.1510      Y17.4765      R1.0685    
   X16.0464      Y17.7290      R1.0685    
   X16.0107      Y18.0000      R1.0685    
   X16.0464      Y18.2710      R1.0685    
   X16.1510      Y18.5235      R1.0685    
   X16.3174      Y18.7403      R1.0685    
   X16.5342      Y18.9067      R1.0685    
   X16.7867      Y19.0113      R1.0685    
(Pass: 27)
G1   Z-2.700     F400 
G17 G2   X17.0576      Y19.0469      R1.0685     F600 
   X17.3286      Y19.0113      R1.0685    
   X17.5811      Y18.9067      R1.0685    
   X17.7979      Y18.7403      R1.0685    
   X17.9643      Y18.5235      R1.0685    
   X18.0689      Y18.2710      R1.0685    
   X18.1046      Y18.0000      R1.0685    
   X18.0689      Y17.7290      R1.0685    
   X17.9643      Y17.4765      R1.0685    
   X17.7979      Y17.2597      R1.0685    
   X17.5811      Y17.0933      R1.0685    
   X17.3286      Y16.9887      R1.0685    
   X17.0576      Y16.9531      R1.0685    
   X16.7867      Y16.9887      R1.0685    
   X16.5342      Y17.0933      R1.0685    
   X16.3174      Y17.2597      R1.0685    
   X16.1510      Y17.4765      R1.0685    
   X16.0464      Y17.7290      R1.0685    
   X16.0107      Y18.0000      R1.0685    
   X16.0464      Y18.2710      R1.0685    
   X16.1510      Y18.5235      R1.0685    
   X16.3174      Y18.7403      R1.0685    
   X16.5342      Y18.9067      R1.0685    
   X16.7867      Y19.0113      R1.0685    
(Pass: 28)
G1   Z-2.800     F400 
G17 G2   X17.0576      Y19.0469      R1.0685     F600 
   X17.3286      Y19.0113      R1.0685    
   X17.5811      Y18.9067      R1.0685    
   X17.7979      Y18.7403      R1.0685    
   X17.9643      Y18.5235      R1.0685    
   X18.0689      Y18.2710      R1.0685    
   X18.1046      Y18.0000      R1.0685    
   X18.0689      Y17.7290      R1.0685    
   X17.9643      Y17.4765      R1.0685    
   X17.7979      Y17.2597      R1.0685    
   X17.5811      Y17.0933      R1.0685    
   X17.3286      Y16.9887      R1.0685    
   X17.0576      Y16.9531      R1.0685    
   X16.7867      Y16.9887      R1.0685    
   X16.5342      Y17.0933      R1.0685    
   X16.3174      Y17.2597      R1.0685    
   X16.1510      Y17.4765      R1.0685    
   X16.0464      Y17.7290      R1.0685    
   X16.0107      Y18.0000      R1.0685    
   X16.0464      Y18.2710      R1.0685    
   X16.1510      Y18.5235      R1.0685    
   X16.3174      Y18.7403      R1.0685    
   X16.5342      Y18.9067      R1.0685    
   X16.7867      Y19.0113      R1.0685    
(Pass: 29)
G1   Z-2.900     F400 
G17 G2   X17.0576      Y19.0469      R1.0685     F600 
   X17.3286      Y19.0113      R1.0685    
   X17.5811      Y18.9067      R1.0685    
   X17.7979      Y18.7403      R1.0685    
   X17.9643      Y18.5235      R1.0685    
   X18.0689      Y18.2710      R1.0685    
   X18.1046      Y18.0000      R1.0685    
   X18.0689      Y17.7290      R1.0685    
   X17.9643      Y17.4765      R1.0685    
   X17.7979      Y17.2597      R1.0685    
   X17.5811      Y17.0933      R1.0685    
   X17.3286      Y16.9887      R1.0685    
   X17.0576      Y16.9531      R1.0685    
   X16.7867      Y16.9887      R1.0685    
   X16.5342      Y17.0933      R1.0685    
   X16.3174      Y17.2597      R1.0685    
   X16.1510      Y17.4765      R1.0685    
   X16.0464      Y17.7290      R1.0685    
   X16.0107      Y18.0000      R1.0685    
   X16.0464      Y18.2710      R1.0685    
   X16.1510      Y18.5235      R1.0685    
   X16.3174      Y18.7403      R1.0685    
   X16.5342      Y18.9067      R1.0685    
   X16.7867      Y19.0113      R1.0685    
(Pass: 30)
G1   Z-3.000     F400 
G17 G2   X17.0576      Y19.0469      R1.0685     F600 
   X17.3286      Y19.0113      R1.0685    
   X17.5811      Y18.9067      R1.0685    
   X17.7979      Y18.7403      R1.0685    
   X17.9643      Y18.5235      R1.0685    
   X18.0689      Y18.2710      R1.0685    
   X18.1046      Y18.0000      R1.0685    
   X18.0689      Y17.7290      R1.0685    
   X17.9643      Y17.4765      R1.0685    
   X17.7979      Y17.2597      R1.0685    
   X17.5811      Y17.0933      R1.0685    
   X17.3286      Y16.9887      R1.0685    
   X17.0576      Y16.9531      R1.0685    
   X16.7867      Y16.9887      R1.0685    
   X16.5342      Y17.0933      R1.0685    
   X16.3174      Y17.2597      R1.0685    
   X16.1510      Y17.4765      R1.0685    
   X16.0464      Y17.7290      R1.0685    
   X16.0107      Y18.0000      R1.0685    
   X16.0464      Y18.2710      R1.0685    
   X16.1510      Y18.5235      R1.0685    
   X16.3174      Y18.7403      R1.0685    
   X16.5342      Y18.9067      R1.0685    
   X16.7867      Y19.0113      R1.0685    
(Pass: 31)
G1   Z-3.100     F400 
G17 G2   X17.0576      Y19.0469      R1.0685     F600 
   X17.3286      Y19.0113      R1.0685    
   X17.5811      Y18.9067      R1.0685    
   X17.7979      Y18.7403      R1.0685    
   X17.9643      Y18.5235      R1.0685    
   X18.0689      Y18.2710      R1.0685    
   X18.1046      Y18.0000      R1.0685    
   X18.0689      Y17.7290      R1.0685    
   X17.9643      Y17.4765      R1.0685    
   X17.7979      Y17.2597      R1.0685    
   X17.5811      Y17.0933      R1.0685    
   X17.3286      Y16.9887      R1.0685    
   X17.0576      Y16.9531      R1.0685    
   X16.7867      Y16.9887      R1.0685    
   X16.5342      Y17.0933      R1.0685    
   X16.3174      Y17.2597      R1.0685    
   X16.1510      Y17.4765      R1.0685    
   X16.0464      Y17.7290      R1.0685    
   X16.0107      Y18.0000      R1.0685    
   X16.0464      Y18.2710      R1.0685    
   X16.1510      Y18.5235      R1.0685    
   X16.3174      Y18.7403      R1.0685    
   X16.5342      Y18.9067      R1.0685    
   X16.7867      Y19.0113      R1.0685    
(Pass: 32)
G1   Z-3.200     F400 
G17 G2   X17.0576      Y19.0469      R1.0685     F600 
   X17.3286      Y19.0113      R1.0685    
   X17.5811      Y18.9067      R1.0685    
   X17.7979      Y18.7403      R1.0685    
   X17.9643      Y18.5235      R1.0685    
   X18.0689      Y18.2710      R1.0685    
   X18.1046      Y18.0000      R1.0685    
   X18.0689      Y17.7290      R1.0685    
   X17.9643      Y17.4765      R1.0685    
   X17.7979      Y17.2597      R1.0685    
   X17.5811      Y17.0933      R1.0685    
   X17.3286      Y16.9887      R1.0685    
   X17.0576      Y16.9531      R1.0685    
   X16.7867      Y16.9887      R1.0685    
   X16.5342      Y17.0933      R1.0685    
   X16.3174      Y17.2597      R1.0685    
   X16.1510      Y17.4765      R1.0685    
   X16.0464      Y17.7290      R1.0685    
   X16.0107      Y18.0000      R1.0685    
   X16.0464      Y18.2710      R1.0685    
   X16.1510      Y18.5235      R1.0685    
   X16.3174      Y18.7403      R1.0685    
   X16.5342      Y18.9067      R1.0685    
   X16.7867      Y19.0113      R1.0685    
(Pass: 33)
G1   Z-3.300     F400 
G17 G2   X17.0576      Y19.0469      R1.0685     F600 
   X17.3286      Y19.0113      R1.0685    
   X17.5811      Y18.9067      R1.0685    
   X17.7979      Y18.7403      R1.0685    
   X17.9643      Y18.5235      R1.0685    
   X18.0689      Y18.2710      R1.0685    
   X18.1046      Y18.0000      R1.0685    
   X18.0689      Y17.7290      R1.0685    
   X17.9643      Y17.4765      R1.0685    
   X17.7979      Y17.2597      R1.0685    
   X17.5811      Y17.0933      R1.0685    
   X17.3286      Y16.9887      R1.0685    
   X17.0576      Y16.9531      R1.0685    
   X16.7867      Y16.9887      R1.0685    
   X16.5342      Y17.0933      R1.0685    
   X16.3174      Y17.2597      R1.0685    
   X16.1510      Y17.4765      R1.0685    
   X16.0464      Y17.7290      R1.0685    
   X16.0107      Y18.0000      R1.0685    
   X16.0464      Y18.2710      R1.0685    
   X16.1510      Y18.5235      R1.0685    
   X16.3174      Y18.7403      R1.0685    
   X16.5342      Y18.9067      R1.0685    
   X16.7867      Y19.0113      R1.0685    
(Pass: 34)
G1   Z-3.400     F400 
G17 G2   X17.0576      Y19.0469      R1.0685     F600 
   X17.3286      Y19.0113      R1.0685    
   X17.5811      Y18.9067      R1.0685    
   X17.7979      Y18.7403      R1.0685    
   X17.9643      Y18.5235      R1.0685    
   X18.0689      Y18.2710      R1.0685    
   X18.1046      Y18.0000      R1.0685    
   X18.0689      Y17.7290      R1.0685    
   X17.9643      Y17.4765      R1.0685    
   X17.7979      Y17.2597      R1.0685    
   X17.5811      Y17.0933      R1.0685    
   X17.3286      Y16.9887      R1.0685    
   X17.0576      Y16.9531      R1.0685    
   X16.7867      Y16.9887      R1.0685    
   X16.5342      Y17.0933      R1.0685    
   X16.3174      Y17.2597      R1.0685    
   X16.1510      Y17.4765      R1.0685    
   X16.0464      Y17.7290      R1.0685    
   X16.0107      Y18.0000      R1.0685    
   X16.0464      Y18.2710      R1.0685    
   X16.1510      Y18.5235      R1.0685    
   X16.3174      Y18.7403      R1.0685    
   X16.5342      Y18.9067      R1.0685    
   X16.7867      Y19.0113      R1.0685    
(BREAK pass 34)
G0   Z5.000     
(Pass: 1)
   X30.158       Y13.345    
G1   Z-0.100     F400 
   X35.858     F600 
   Y13.245    
   X30.158    
   Y13.345    
(Pass: 2)
   Z-0.200     F400 
   X35.858     F600 
   Y13.245    
   X30.158    
   Y13.345    
(Pass: 3)
   Z-0.300     F400 
   X35.858     F600 
   Y13.245    
   X30.158    
   Y13.345    
(Pass: 4)
   Z-0.400     F400 
   X35.858     F600 
   Y13.245    
   X30.158    
   Y13.345    
(Pass: 5)
   Z-0.500     F400 
   X35.858     F600 
   Y13.245    
   X30.158    
   Y13.345    
(Pass: 6)
   Z-0.600     F400 
   X35.858     F600 
   Y13.245    
   X30.158    
   Y13.345    
(Pass: 7)
   Z-0.700     F400 
   X35.858     F600 
   Y13.245    
   X30.158    
   Y13.345    
(Pass: 8)
   Z-0.800     F400 
   X35.858     F600 
   Y13.245    
   X30.158    
   Y13.345    
(Pass: 9)
   Z-0.900     F400 
   X35.858     F600 
   Y13.245    
   X30.158    
   Y13.345    
(Pass: 10)
   Z-1.000     F400 
   X35.858     F600 
   Y13.245    
   X30.158    
   Y13.345    
(Pass: 11)
   Z-1.100     F400 
   X35.858     F600 
   Y13.245    
   X30.158    
   Y13.345    
(Pass: 12)
   Z-1.200     F400 
   X35.858     F600 
   Y13.245    
   X30.158    
   Y13.345    
(Pass: 13)
   Z-1.300     F400 
   X35.858     F600 
   Y13.245    
   X30.158    
   Y13.345    
(Pass: 14)
   Z-1.400     F400 
   X35.858     F600 
   Y13.245    
   X30.158    
   Y13.345    
(Pass: 15)
   Z-1.500     F400 
   X35.858     F600 
   Y13.245    
   X30.158    
   Y13.345    
(Pass: 16)
   Z-1.600     F400 
   X35.858     F600 
   Y13.245    
   X30.158    
   Y13.345    
(Pass: 17)
   Z-1.700     F400 
   X35.858     F600 
   Y13.245    
   X30.158    
   Y13.345    
(Pass: 18)
   Z-1.800     F400 
   X35.858     F600 
   Y13.245    
   X30.158    
   Y13.345    
(Pass: 19)
   Z-1.900     F400 
   X35.858     F600 
   Y13.245    
   X30.158    
   Y13.345    
(Pass: 20)
   Z-2.000     F400 
   X35.858     F600 
   Y13.245    
   X30.158    
   Y13.345    
(Pass: 21)
   Z-2.100     F400 
   X35.858     F600 
   Y13.245    
   X30.158    
   Y13.345    
(Pass: 22)
   Z-2.200     F400 
   X35.858     F600 
   Y13.245    
   X30.158    
   Y13.345    
(Pass: 23)
   Z-2.300     F400 
   X35.858     F600 
   Y13.245    
   X30.158    
   Y13.345    
(Pass: 24)
   Z-2.400     F400 
   X35.858     F600 
   Y13.245    
   X30.158    
   Y13.345    
(Pass: 25)
   Z-2.500     F400 
   X35.858     F600 
   Y13.245    
   X30.158    
   Y13.345    
(Pass: 26)
   Z-2.600     F400 
   X35.858     F600 
   Y13.245    
   X30.158    
   Y13.345    
(Pass: 27)
   Z-2.700     F400 
   X35.858     F600 
   Y13.245    
   X30.158    
   Y13.345    
(Pass: 28)
   Z-2.800     F400 
   X35.858     F600 
   Y13.245    
   X30.158    
   Y13.345    
(Pass: 29)
   Z-2.900     F400 
   X35.858     F600 
   Y13.245    
   X30.158    
   Y13.345    
(Pass: 30)
   Z-3.000     F400 
   X35.858     F600 
   Y13.245    
   X30.158    
   Y13.345    
(Pass: 31)
   Z-3.100     F400 
   X35.858     F600 
   Y13.245    
   X30.158    
   Y13.345    
(Pass: 32)
   Z-3.200     F400 
   X35.858     F600 
   Y13.245    
   X30.158    
   Y13.345    
(Pass: 33)
   Z-3.300     F400 
   X35.858     F600 
   Y13.245    
   X30.158    
   Y13.345    
(Pass: 34)
   Z-3.400     F400 
   X35.858     F600 
   Y13.245    
   X30.158    
   Y13.345    
(BREAK pass 34)
G0   Z5.000     
(Pass: 1)
   X48.065       Y17.589    
G1   Z-0.100     F400 
G17 G2   X47.9907      Y17.8469      R1.0500     F600 
   X47.9857      Y18.1153      R1.0500    
   X48.0504      Y18.3759      R1.0500    
   X48.1803      Y18.6108      R1.0500    
   X48.3666      Y18.8042      R1.0500    
   X48.5965      Y18.9427      R1.0500    
   X48.8545      Y19.0170      R1.0500    
   X49.1229      Y19.0219      R1.0500    
   X49.3835      Y18.9573      R1.0500    
   X49.6185      Y18.8274      R1.0500    
   X49.8118      Y18.6411      R1.0500    
   X49.9503      Y18.4111      R1.0500    
   X50.0246      Y18.1531      R1.0500    
   X50.0296      Y17.8847      R1.0500    
   X49.9649      Y17.6241      R1.0500    
   X49.8350      Y17.3892      R1.0500    
   X49.6487      Y17.1958      R1.0500    
   X49.4188      Y17.0573      R1.0500    
   X49.1608      Y16.9830      R1.0500    
   X48.8923      Y16.9781      R1.0500    
   X48.6318      Y17.0427      R1.0500    
   X48.3968      Y17.1726      R1.0500    
   X48.2035      Y17.3589      R1.0500    
   X48.0650      Y17.5889      R1.0500    
(Pass: 2)
G1   Z-0.200     F400 
G17 G2   X47.9907      Y17.8469      R1.0500     F600 
   X47.9857      Y18.1153      R1.0500    
   X48.0504      Y18.3759      R1.0500    
   X48.1803      Y18.6108      R1.0500    
   X48.3666      Y18.8042      R1.0500    
   X48.5965      Y18.9427      R1.0500    
   X48.8545      Y19.0170      R1.0500    
   X49.1229      Y19.0219      R1.0500    
   X49.3835      Y18.9573      R1.0500    
   X49.6185      Y18.8274      R1.0500    
   X49.8118      Y18.6411      R1.0500    
   X49.9503      Y18.4111      R1.0500    
   X50.0246      Y18.1531      R1.0500    
   X50.0296      Y17.8847      R1.0500    
   X49.9649      Y17.6241      R1.0500    
   X49.8350      Y17.3892      R1.0500    
   X49.6487      Y17.1958      R1.0500    
   X49.4188      Y17.0573      R1.0500    
   X49.1608      Y16.9830      R1.0500    
   X48.8923      Y16.9781      R1.0500    
   X48.6318      Y17.0427      R1.0500    
   X48.3968      Y17.1726      R1.0500    
   X48.2035      Y17.3589      R1.0500    
   X48.0650      Y17.5889      R1.0500    
(Pass: 3)
G1   Z-0.300     F400 
G17 G2   X47.9907      Y17.8469      R1.0500     F600 
   X47.9857      Y18.1153      R1.0500    
   X48.0504      Y18.3759      R1.0500    
   X48.1803      Y18.6108      R1.0500    
   X48.3666      Y18.8042      R1.0500    
   X48.5965      Y18.9427      R1.0500    
   X48.8545      Y19.0170      R1.0500    
   X49.1229      Y19.0219      R1.0500    
   X49.3835      Y18.9573      R1.0500    
   X49.6185      Y18.8274      R1.0500    
   X49.8118      Y18.6411      R1.0500    
   X49.9503      Y18.4111      R1.0500    
   X50.0246      Y18.1531      R1.0500    
   X50.0296      Y17.8847      R1.0500    
   X49.9649      Y17.6241      R1.0500    
   X49.8350      Y17.3892      R1.0500    
   X49.6487      Y17.1958      R1.0500    
   X49.4188      Y17.0573      R1.0500    
   X49.1608      Y16.9830      R1.0500    
   X48.8923      Y16.9781      R1.0500    
   X48.6318      Y17.0427      R1.0500    
   X48.3968      Y17.1726      R1.0500    
   X48.2035      Y17.3589      R1.0500    
   X48.0650      Y17.5889      R1.0500    
(Pass: 4)
G1   Z-0.400     F400 
G17 G2   X47.9907      Y17.8469      R1.0500     F600 
   X47.9857      Y18.1153      R1.0500    
   X48.0504      Y18.3759      R1.0500    
   X48.1803      Y18.6108      R1.0500    
   X48.3666      Y18.8042      R1.0500    
   X48.5965      Y18.9427      R1.0500    
   X48.8545      Y19.0170      R1.0500    
   X49.1229      Y19.0219      R1.0500    
   X49.3835      Y18.9573      R1.0500    
   X49.6185      Y18.8274      R1.0500    
   X49.8118      Y18.6411      R1.0500    
   X49.9503      Y18.4111      R1.0500    
   X50.0246      Y18.1531      R1.0500    
   X50.0296      Y17.8847      R1.0500    
   X49.9649      Y17.6241      R1.0500    
   X49.8350      Y17.3892      R1.0500    
   X49.6487      Y17.1958      R1.0500    
   X49.4188      Y17.0573      R1.0500    
   X49.1608      Y16.9830      R1.0500    
   X48.8923      Y16.9781      R1.0500    
   X48.6318      Y17.0427      R1.0500    
   X48.3968      Y17.1726      R1.0500    
   X48.2035      Y17.3589      R1.0500    
   X48.0650      Y17.5889      R1.0500    
(Pass: 5)
G1   Z-0.500     F400 
G17 G2   X47.9907      Y17.8469      R1.0500     F600 
   X47.9857      Y18.1153      R1.0500    
   X48.0504      Y18.3759      R1.0500    
   X48.1803      Y18.6108      R1.0500    
   X48.3666      Y18.8042      R1.0500    
   X48.5965      Y18.9427      R1.0500    
   X48.8545      Y19.0170      R1.0500    
   X49.1229      Y19.0219      R1.0500    
   X49.3835      Y18.9573      R1.0500    
   X49.6185      Y18.8274      R1.0500    
   X49.8118      Y18.6411      R1.0500    
   X49.9503      Y18.4111      R1.0500    
   X50.0246      Y18.1531      R1.0500    
   X50.0296      Y17.8847      R1.0500    
   X49.9649      Y17.6241      R1.0500    
   X49.8350      Y17.3892      R1.0500    
   X49.6487      Y17.1958      R1.0500    
   X49.4188      Y17.0573      R1.0500    
   X49.1608      Y16.9830      R1.0500    
   X48.8923      Y16.9781      R1.0500    
   X48.6318      Y17.0427      R1.0500    
   X48.3968      Y17.1726      R1.0500    
   X48.2035      Y17.3589      R1.0500    
   X48.0650      Y17.5889      R1.0500    
(Pass: 6)
G1   Z-0.600     F400 
G17 G2   X47.9907      Y17.8469      R1.0500     F600 
   X47.9857      Y18.1153      R1.0500    
   X48.0504      Y18.3759      R1.0500    
   X48.1803      Y18.6108      R1.0500    
   X48.3666      Y18.8042      R1.0500    
   X48.5965      Y18.9427      R1.0500    
   X48.8545      Y19.0170      R1.0500    
   X49.1229      Y19.0219      R1.0500    
   X49.3835      Y18.9573      R1.0500    
   X49.6185      Y18.8274      R1.0500    
   X49.8118      Y18.6411      R1.0500    
   X49.9503      Y18.4111      R1.0500    
   X50.0246      Y18.1531      R1.0500    
   X50.0296      Y17.8847      R1.0500    
   X49.9649      Y17.6241      R1.0500    
   X49.8350      Y17.3892      R1.0500    
   X49.6487      Y17.1958      R1.0500    
   X49.4188      Y17.0573      R1.0500    
   X49.1608      Y16.9830      R1.0500    
   X48.8923      Y16.9781      R1.0500    
   X48.6318      Y17.0427      R1.0500    
   X48.3968      Y17.1726      R1.0500    
   X48.2035      Y17.3589      R1.0500    
   X48.0650      Y17.5889      R1.0500    
(Pass: 7)
G1   Z-0.700     F400 
G17 G2   X47.9907      Y17.8469      R1.0500     F600 
   X47.9857      Y18.1153      R1.0500    
   X48.0504      Y18.3759      R1.0500    
   X48.1803      Y18.6108      R1.0500    
   X48.3666      Y18.8042      R1.0500    
   X48.5965      Y18.9427      R1.0500    
   X48.8545      Y19.0170      R1.0500    
   X49.1229      Y19.0219      R1.0500    
   X49.3835      Y18.9573      R1.0500    
   X49.6185      Y18.8274      R1.0500    
   X49.8118      Y18.6411      R1.0500    
   X49.9503      Y18.4111      R1.0500    
   X50.0246      Y18.1531      R1.0500    
   X50.0296      Y17.8847      R1.0500    
   X49.9649      Y17.6241      R1.0500    
   X49.8350      Y17.3892      R1.0500    
   X49.6487      Y17.1958      R1.0500    
   X49.4188      Y17.0573      R1.0500    
   X49.1608      Y16.9830      R1.0500    
   X48.8923      Y16.9781      R1.0500    
   X48.6318      Y17.0427      R1.0500    
   X48.3968      Y17.1726      R1.0500    
   X48.2035      Y17.3589      R1.0500    
   X48.0650      Y17.5889      R1.0500    
(Pass: 8)
G1   Z-0.800     F400 
G17 G2   X47.9907      Y17.8469      R1.0500     F600 
   X47.9857      Y18.1153      R1.0500    
   X48.0504      Y18.3759      R1.0500    
   X48.1803      Y18.6108      R1.0500    
   X48.3666      Y18.8042      R1.0500    
   X48.5965      Y18.9427      R1.0500    
   X48.8545      Y19.0170      R1.0500    
   X49.1229      Y19.0219      R1.0500    
   X49.3835      Y18.9573      R1.0500    
   X49.6185      Y18.8274      R1.0500    
   X49.8118      Y18.6411      R1.0500    
   X49.9503      Y18.4111      R1.0500    
   X50.0246      Y18.1531      R1.0500    
   X50.0296      Y17.8847      R1.0500    
   X49.9649      Y17.6241      R1.0500    
   X49.8350      Y17.3892      R1.0500    
   X49.6487      Y17.1958      R1.0500    
   X49.4188      Y17.0573      R1.0500    
   X49.1608      Y16.9830      R1.0500    
   X48.8923      Y16.9781      R1.0500    
   X48.6318      Y17.0427      R1.0500    
   X48.3968      Y17.1726      R1.0500    
   X48.2035      Y17.3589      R1.0500    
   X48.0650      Y17.5889      R1.0500    
(Pass: 9)
G1   Z-0.900     F400 
G17 G2   X47.9907      Y17.8469      R1.0500     F600 
   X47.9857      Y18.1153      R1.0500    
   X48.0504      Y18.3759      R1.0500    
   X48.1803      Y18.6108      R1.0500    
   X48.3666      Y18.8042      R1.0500    
   X48.5965      Y18.9427      R1.0500    
   X48.8545      Y19.0170      R1.0500    
   X49.1229      Y19.0219      R1.0500    
   X49.3835      Y18.9573      R1.0500    
   X49.6185      Y18.8274      R1.0500    
   X49.8118      Y18.6411      R1.0500    
   X49.9503      Y18.4111      R1.0500    
   X50.0246      Y18.1531      R1.0500    
   X50.0296      Y17.8847      R1.0500    
   X49.9649      Y17.6241      R1.0500    
   X49.8350      Y17.3892      R1.0500    
   X49.6487      Y17.1958      R1.0500    
   X49.4188      Y17.0573      R1.0500    
   X49.1608      Y16.9830      R1.0500    
   X48.8923      Y16.9781      R1.0500    
   X48.6318      Y17.0427      R1.0500    
   X48.3968      Y17.1726      R1.0500    
   X48.2035      Y17.3589      R1.0500    
   X48.0650      Y17.5889      R1.0500    
(Pass: 10)
G1   Z-1.000     F400 
G17 G2   X47.9907      Y17.8469      R1.0500     F600 
   X47.9857      Y18.1153      R1.0500    
   X48.0504      Y18.3759      R1.0500    
   X48.1803      Y18.6108      R1.0500    
   X48.3666      Y18.8042      R1.0500    
   X48.5965      Y18.9427      R1.0500    
   X48.8545      Y19.0170      R1.0500    
   X49.1229      Y19.0219      R1.0500    
   X49.3835      Y18.9573      R1.0500    
   X49.6185      Y18.8274      R1.0500    
   X49.8118      Y18.6411      R1.0500    
   X49.9503      Y18.4111      R1.0500    
   X50.0246      Y18.1531      R1.0500    
   X50.0296      Y17.8847      R1.0500    
   X49.9649      Y17.6241      R1.0500    
   X49.8350      Y17.3892      R1.0500    
   X49.6487      Y17.1958      R1.0500    
   X49.4188      Y17.0573      R1.0500    
   X49.1608      Y16.9830      R1.0500    
   X48.8923      Y16.9781      R1.0500    
   X48.6318      Y17.0427      R1.0500    
   X48.3968      Y17.1726      R1.0500    
   X48.2035      Y17.3589      R1.0500    
   X48.0650      Y17.5889      R1.0500    
(Pass: 11)
G1   Z-1.100     F400 
G17 G2   X47.9907      Y17.8469      R1.0500     F600 
   X47.9857      Y18.1153      R1.0500    
   X48.0504      Y18.3759      R1.0500    
   X48.1803      Y18.6108      R1.0500    
   X48.3666      Y18.8042      R1.0500    
   X48.5965      Y18.9427      R1.0500    
   X48.8545      Y19.0170      R1.0500    
   X49.1229      Y19.0219      R1.0500    
   X49.3835      Y18.9573      R1.0500    
   X49.6185      Y18.8274      R1.0500    
   X49.8118      Y18.6411      R1.0500    
   X49.9503      Y18.4111      R1.0500    
   X50.0246      Y18.1531      R1.0500    
   X50.0296      Y17.8847      R1.0500    
   X49.9649      Y17.6241      R1.0500    
   X49.8350      Y17.3892      R1.0500    
   X49.6487      Y17.1958      R1.0500    
   X49.4188      Y17.0573      R1.0500    
   X49.1608      Y16.9830      R1.0500    
   X48.8923      Y16.9781      R1.0500    
   X48.6318      Y17.0427      R1.0500    
   X48.3968      Y17.1726      R1.0500    
   X48.2035      Y17.3589      R1.0500    
   X48.0650      Y17.5889      R1.0500    
(Pass: 12)
G1   Z-1.200     F400 
G17 G2   X47.9907      Y17.8469      R1.0500     F600 
   X47.9857      Y18.1153      R1.0500    
   X48.0504      Y18.3759      R1.0500    
   X48.1803      Y18.6108      R1.0500    
   X48.3666      Y18.8042      R1.0500    
   X48.5965      Y18.9427      R1.0500    
   X48.8545      Y19.0170      R1.0500    
   X49.1229      Y19.0219      R1.0500    
   X49.3835      Y18.9573      R1.0500    
   X49.6185      Y18.8274      R1.0500    
   X49.8118      Y18.6411      R1.0500    
   X49.9503      Y18.4111      R1.0500    
   X50.0246      Y18.1531      R1.0500    
   X50.0296      Y17.8847      R1.0500    
   X49.9649      Y17.6241      R1.0500    
   X49.8350      Y17.3892      R1.0500    
   X49.6487      Y17.1958      R1.0500    
   X49.4188      Y17.0573      R1.0500    
   X49.1608      Y16.9830      R1.0500    
   X48.8923      Y16.9781      R1.0500    
   X48.6318      Y17.0427      R1.0500    
   X48.3968      Y17.1726      R1.0500    
   X48.2035      Y17.3589      R1.0500    
   X48.0650      Y17.5889      R1.0500    
(Pass: 13)
G1   Z-1.300     F400 
G17 G2   X47.9907      Y17.8469      R1.0500     F600 
   X47.9857      Y18.1153      R1.0500    
   X48.0504      Y18.3759      R1.0500    
   X48.1803      Y18.6108      R1.0500    
   X48.3666      Y18.8042      R1.0500    
   X48.5965      Y18.9427      R1.0500    
   X48.8545      Y19.0170      R1.0500    
   X49.1229      Y19.0219      R1.0500    
   X49.3835      Y18.9573      R1.0500    
   X49.6185      Y18.8274      R1.0500    
   X49.8118      Y18.6411      R1.0500    
   X49.9503      Y18.4111      R1.0500    
   X50.0246      Y18.1531      R1.0500    
   X50.0296      Y17.8847      R1.0500    
   X49.9649      Y17.6241      R1.0500    
   X49.8350      Y17.3892      R1.0500    
   X49.6487      Y17.1958      R1.0500    
   X49.4188      Y17.0573      R1.0500    
   X49.1608      Y16.9830      R1.0500    
   X48.8923      Y16.9781      R1.0500    
   X48.6318      Y17.0427      R1.0500    
   X48.3968      Y17.1726      R1.0500    
   X48.2035      Y17.3589      R1.0500    
   X48.0650      Y17.5889      R1.0500    
(Pass: 14)
G1   Z-1.400     F400 
G17 G2   X47.9907      Y17.8469      R1.0500     F600 
   X47.9857      Y18.1153      R1.0500    
   X48.0504      Y18.3759      R1.0500    
   X48.1803      Y18.6108      R1.0500    
   X48.3666      Y18.8042      R1.0500    
   X48.5965      Y18.9427      R1.0500    
   X48.8545      Y19.0170      R1.0500    
   X49.1229      Y19.0219      R1.0500    
   X49.3835      Y18.9573      R1.0500    
   X49.6185      Y18.8274      R1.0500    
   X49.8118      Y18.6411      R1.0500    
   X49.9503      Y18.4111      R1.0500    
   X50.0246      Y18.1531      R1.0500    
   X50.0296      Y17.8847      R1.0500    
   X49.9649      Y17.6241      R1.0500    
   X49.8350      Y17.3892      R1.0500    
   X49.6487      Y17.1958      R1.0500    
   X49.4188      Y17.0573      R1.0500    
   X49.1608      Y16.9830      R1.0500    
   X48.8923      Y16.9781      R1.0500    
   X48.6318      Y17.0427      R1.0500    
   X48.3968      Y17.1726      R1.0500    
   X48.2035      Y17.3589      R1.0500    
   X48.0650      Y17.5889      R1.0500    
(Pass: 15)
G1   Z-1.500     F400 
G17 G2   X47.9907      Y17.8469      R1.0500     F600 
   X47.9857      Y18.1153      R1.0500    
   X48.0504      Y18.3759      R1.0500    
   X48.1803      Y18.6108      R1.0500    
   X48.3666      Y18.8042      R1.0500    
   X48.5965      Y18.9427      R1.0500    
   X48.8545      Y19.0170      R1.0500    
   X49.1229      Y19.0219      R1.0500    
   X49.3835      Y18.9573      R1.0500    
   X49.6185      Y18.8274      R1.0500    
   X49.8118      Y18.6411      R1.0500    
   X49.9503      Y18.4111      R1.0500    
   X50.0246      Y18.1531      R1.0500    
   X50.0296      Y17.8847      R1.0500    
   X49.9649      Y17.6241      R1.0500    
   X49.8350      Y17.3892      R1.0500    
   X49.6487      Y17.1958      R1.0500    
   X49.4188      Y17.0573      R1.0500    
   X49.1608      Y16.9830      R1.0500    
   X48.8923      Y16.9781      R1.0500    
   X48.6318      Y17.0427      R1.0500    
   X48.3968      Y17.1726      R1.0500    
   X48.2035      Y17.3589      R1.0500    
   X48.0650      Y17.5889      R1.0500    
(Pass: 16)
G1   Z-1.600     F400 
G17 G2   X47.9907      Y17.8469      R1.0500     F600 
   X47.9857      Y18.1153      R1.0500    
   X48.0504      Y18.3759      R1.0500    
   X48.1803      Y18.6108      R1.0500    
   X48.3666      Y18.8042      R1.0500    
   X48.5965      Y18.9427      R1.0500    
   X48.8545      Y19.0170      R1.0500    
   X49.1229      Y19.0219      R1.0500    
   X49.3835      Y18.9573      R1.0500    
   X49.6185      Y18.8274      R1.0500    
   X49.8118      Y18.6411      R1.0500    
   X49.9503      Y18.4111      R1.0500    
   X50.0246      Y18.1531      R1.0500    
   X50.0296      Y17.8847      R1.0500    
   X49.9649      Y17.6241      R1.0500    
   X49.8350      Y17.3892      R1.0500    
   X49.6487      Y17.1958      R1.0500    
   X49.4188      Y17.0573      R1.0500    
   X49.1608      Y16.9830      R1.0500    
   X48.8923      Y16.9781      R1.0500    
   X48.6318      Y17.0427      R1.0500    
   X48.3968      Y17.1726      R1.0500    
   X48.2035      Y17.3589      R1.0500    
   X48.0650      Y17.5889      R1.0500    
(Pass: 17)
G1   Z-1.700     F400 
G17 G2   X47.9907      Y17.8469      R1.0500     F600 
   X47.9857      Y18.1153      R1.0500    
   X48.0504      Y18.3759      R1.0500    
   X48.1803      Y18.6108      R1.0500    
   X48.3666      Y18.8042      R1.0500    
   X48.5965      Y18.9427      R1.0500    
   X48.8545      Y19.0170      R1.0500    
   X49.1229      Y19.0219      R1.0500    
   X49.3835      Y18.9573      R1.0500    
   X49.6185      Y18.8274      R1.0500    
   X49.8118      Y18.6411      R1.0500    
   X49.9503      Y18.4111      R1.0500    
   X50.0246      Y18.1531      R1.0500    
   X50.0296      Y17.8847      R1.0500    
   X49.9649      Y17.6241      R1.0500    
   X49.8350      Y17.3892      R1.0500    
   X49.6487      Y17.1958      R1.0500    
   X49.4188      Y17.0573      R1.0500    
   X49.1608      Y16.9830      R1.0500    
   X48.8923      Y16.9781      R1.0500    
   X48.6318      Y17.0427      R1.0500    
   X48.3968      Y17.1726      R1.0500    
   X48.2035      Y17.3589      R1.0500    
   X48.0650      Y17.5889      R1.0500    
(Pass: 18)
G1   Z-1.800     F400 
G17 G2   X47.9907      Y17.8469      R1.0500     F600 
   X47.9857      Y18.1153      R1.0500    
   X48.0504      Y18.3759      R1.0500    
   X48.1803      Y18.6108      R1.0500    
   X48.3666      Y18.8042      R1.0500    
   X48.5965      Y18.9427      R1.0500    
   X48.8545      Y19.0170      R1.0500    
   X49.1229      Y19.0219      R1.0500    
   X49.3835      Y18.9573      R1.0500    
   X49.6185      Y18.8274      R1.0500    
   X49.8118      Y18.6411      R1.0500    
   X49.9503      Y18.4111      R1.0500    
   X50.0246      Y18.1531      R1.0500    
   X50.0296      Y17.8847      R1.0500    
   X49.9649      Y17.6241      R1.0500    
   X49.8350      Y17.3892      R1.0500    
   X49.6487      Y17.1958      R1.0500    
   X49.4188      Y17.0573      R1.0500    
   X49.1608      Y16.9830      R1.0500    
   X48.8923      Y16.9781      R1.0500    
   X48.6318      Y17.0427      R1.0500    
   X48.3968      Y17.1726      R1.0500    
   X48.2035      Y17.3589      R1.0500    
   X48.0650      Y17.5889      R1.0500    
(Pass: 19)
G1   Z-1.900     F400 
G17 G2   X47.9907      Y17.8469      R1.0500     F600 
   X47.9857      Y18.1153      R1.0500    
   X48.0504      Y18.3759      R1.0500    
   X48.1803      Y18.6108      R1.0500    
   X48.3666      Y18.8042      R1.0500    
   X48.5965      Y18.9427      R1.0500    
   X48.8545      Y19.0170      R1.0500    
   X49.1229      Y19.0219      R1.0500    
   X49.3835      Y18.9573      R1.0500    
   X49.6185      Y18.8274      R1.0500    
   X49.8118      Y18.6411      R1.0500    
   X49.9503      Y18.4111      R1.0500    
   X50.0246      Y18.1531      R1.0500    
   X50.0296      Y17.8847      R1.0500    
   X49.9649      Y17.6241      R1.0500    
   X49.8350      Y17.3892      R1.0500    
   X49.6487      Y17.1958      R1.0500    
   X49.4188      Y17.0573      R1.0500    
   X49.1608      Y16.9830      R1.0500    
   X48.8923      Y16.9781      R1.0500    
   X48.6318      Y17.0427      R1.0500    
   X48.3968      Y17.1726      R1.0500    
   X48.2035      Y17.3589      R1.0500    
   X48.0650      Y17.5889      R1.0500    
(Pass: 20)
G1   Z-2.000     F400 
G17 G2   X47.9907      Y17.8469      R1.0500     F600 
   X47.9857      Y18.1153      R1.0500    
   X48.0504      Y18.3759      R1.0500    
   X48.1803      Y18.6108      R1.0500    
   X48.3666      Y18.8042      R1.0500    
   X48.5965      Y18.9427      R1.0500    
   X48.8545      Y19.0170      R1.0500    
   X49.1229      Y19.0219      R1.0500    
   X49.3835      Y18.9573      R1.0500    
   X49.6185      Y18.8274      R1.0500    
   X49.8118      Y18.6411      R1.0500    
   X49.9503      Y18.4111      R1.0500    
   X50.0246      Y18.1531      R1.0500    
   X50.0296      Y17.8847      R1.0500    
   X49.9649      Y17.6241      R1.0500    
   X49.8350      Y17.3892      R1.0500    
   X49.6487      Y17.1958      R1.0500    
   X49.4188      Y17.0573      R1.0500    
   X49.1608      Y16.9830      R1.0500    
   X48.8923      Y16.9781      R1.0500    
   X48.6318      Y17.0427      R1.0500    
   X48.3968      Y17.1726      R1.0500    
   X48.2035      Y17.3589      R1.0500    
   X48.0650      Y17.5889      R1.0500    
(Pass: 21)
G1   Z-2.100     F400 
G17 G2   X47.9907      Y17.8469      R1.0500     F600 
   X47.9857      Y18.1153      R1.0500    
   X48.0504      Y18.3759      R1.0500    
   X48.1803      Y18.6108      R1.0500    
   X48.3666      Y18.8042      R1.0500    
   X48.5965      Y18.9427      R1.0500    
   X48.8545      Y19.0170      R1.0500    
   X49.1229      Y19.0219      R1.0500    
   X49.3835      Y18.9573      R1.0500    
   X49.6185      Y18.8274      R1.0500    
   X49.8118      Y18.6411      R1.0500    
   X49.9503      Y18.4111      R1.0500    
   X50.0246      Y18.1531      R1.0500    
   X50.0296      Y17.8847      R1.0500    
   X49.9649      Y17.6241      R1.0500    
   X49.8350      Y17.3892      R1.0500    
   X49.6487      Y17.1958      R1.0500    
   X49.4188      Y17.0573      R1.0500    
   X49.1608      Y16.9830      R1.0500    
   X48.8923      Y16.9781      R1.0500    
   X48.6318      Y17.0427      R1.0500    
   X48.3968      Y17.1726      R1.0500    
   X48.2035      Y17.3589      R1.0500    
   X48.0650      Y17.5889      R1.0500    
(Pass: 22)
G1   Z-2.200     F400 
G17 G2   X47.9907      Y17.8469      R1.0500     F600 
   X47.9857      Y18.1153      R1.0500    
   X48.0504      Y18.3759      R1.0500    
   X48.1803      Y18.6108      R1.0500    
   X48.3666      Y18.8042      R1.0500    
   X48.5965      Y18.9427      R1.0500    
   X48.8545      Y19.0170      R1.0500    
   X49.1229      Y19.0219      R1.0500    
   X49.3835      Y18.9573      R1.0500    
   X49.6185      Y18.8274      R1.0500    
   X49.8118      Y18.6411      R1.0500    
   X49.9503      Y18.4111      R1.0500    
   X50.0246      Y18.1531      R1.0500    
   X50.0296      Y17.8847      R1.0500    
   X49.9649      Y17.6241      R1.0500    
   X49.8350      Y17.3892      R1.0500    
   X49.6487      Y17.1958      R1.0500    
   X49.4188      Y17.0573      R1.0500    
   X49.1608      Y16.9830      R1.0500    
   X48.8923      Y16.9781      R1.0500    
   X48.6318      Y17.0427      R1.0500    
   X48.3968      Y17.1726      R1.0500    
   X48.2035      Y17.3589      R1.0500    
   X48.0650      Y17.5889      R1.0500    
(Pass: 23)
G1   Z-2.300     F400 
G17 G2   X47.9907      Y17.8469      R1.0500     F600 
   X47.9857      Y18.1153      R1.0500    
   X48.0504      Y18.3759      R1.0500    
   X48.1803      Y18.6108      R1.0500    
   X48.3666      Y18.8042      R1.0500    
   X48.5965      Y18.9427      R1.0500    
   X48.8545      Y19.0170      R1.0500    
   X49.1229      Y19.0219      R1.0500    
   X49.3835      Y18.9573      R1.0500    
   X49.6185      Y18.8274      R1.0500    
   X49.8118      Y18.6411      R1.0500    
   X49.9503      Y18.4111      R1.0500    
   X50.0246      Y18.1531      R1.0500    
   X50.0296      Y17.8847      R1.0500    
   X49.9649      Y17.6241      R1.0500    
   X49.8350      Y17.3892      R1.0500    
   X49.6487      Y17.1958      R1.0500    
   X49.4188      Y17.0573      R1.0500    
   X49.1608      Y16.9830      R1.0500    
   X48.8923      Y16.9781      R1.0500    
   X48.6318      Y17.0427      R1.0500    
   X48.3968      Y17.1726      R1.0500    
   X48.2035      Y17.3589      R1.0500    
   X48.0650      Y17.5889      R1.0500    
(Pass: 24)
G1   Z-2.400     F400 
G17 G2   X47.9907      Y17.8469      R1.0500     F600 
   X47.9857      Y18.1153      R1.0500    
   X48.0504      Y18.3759      R1.0500    
   X48.1803      Y18.6108      R1.0500    
   X48.3666      Y18.8042      R1.0500    
   X48.5965      Y18.9427      R1.0500    
   X48.8545      Y19.0170      R1.0500    
   X49.1229      Y19.0219      R1.0500    
   X49.3835      Y18.9573      R1.0500    
   X49.6185      Y18.8274      R1.0500    
   X49.8118      Y18.6411      R1.0500    
   X49.9503      Y18.4111      R1.0500    
   X50.0246      Y18.1531      R1.0500    
   X50.0296      Y17.8847      R1.0500    
   X49.9649      Y17.6241      R1.0500    
   X49.8350      Y17.3892      R1.0500    
   X49.6487      Y17.1958      R1.0500    
   X49.4188      Y17.0573      R1.0500    
   X49.1608      Y16.9830      R1.0500    
   X48.8923      Y16.9781      R1.0500    
   X48.6318      Y17.0427      R1.0500    
   X48.3968      Y17.1726      R1.0500    
   X48.2035      Y17.3589      R1.0500    
   X48.0650      Y17.5889      R1.0500    
(Pass: 25)
G1   Z-2.500     F400 
G17 G2   X47.9907      Y17.8469      R1.0500     F600 
   X47.9857      Y18.1153      R1.0500    
   X48.0504      Y18.3759      R1.0500    
   X48.1803      Y18.6108      R1.0500    
   X48.3666      Y18.8042      R1.0500    
   X48.5965      Y18.9427      R1.0500    
   X48.8545      Y19.0170      R1.0500    
   X49.1229      Y19.0219      R1.0500    
   X49.3835      Y18.9573      R1.0500    
   X49.6185      Y18.8274      R1.0500    
   X49.8118      Y18.6411      R1.0500    
   X49.9503      Y18.4111      R1.0500    
   X50.0246      Y18.1531      R1.0500    
   X50.0296      Y17.8847      R1.0500    
   X49.9649      Y17.6241      R1.0500    
   X49.8350      Y17.3892      R1.0500    
   X49.6487      Y17.1958      R1.0500    
   X49.4188      Y17.0573      R1.0500    
   X49.1608      Y16.9830      R1.0500    
   X48.8923      Y16.9781      R1.0500    
   X48.6318      Y17.0427      R1.0500    
   X48.3968      Y17.1726      R1.0500    
   X48.2035      Y17.3589      R1.0500    
   X48.0650      Y17.5889      R1.0500    
(Pass: 26)
G1   Z-2.600     F400 
G17 G2   X47.9907      Y17.8469      R1.0500     F600 
   X47.9857      Y18.1153      R1.0500    
   X48.0504      Y18.3759      R1.0500    
   X48.1803      Y18.6108      R1.0500    
   X48.3666      Y18.8042      R1.0500    
   X48.5965      Y18.9427      R1.0500    
   X48.8545      Y19.0170      R1.0500    
   X49.1229      Y19.0219      R1.0500    
   X49.3835      Y18.9573      R1.0500    
   X49.6185      Y18.8274      R1.0500    
   X49.8118      Y18.6411      R1.0500    
   X49.9503      Y18.4111      R1.0500    
   X50.0246      Y18.1531      R1.0500    
   X50.0296      Y17.8847      R1.0500    
   X49.9649      Y17.6241      R1.0500    
   X49.8350      Y17.3892      R1.0500    
   X49.6487      Y17.1958      R1.0500    
   X49.4188      Y17.0573      R1.0500    
   X49.1608      Y16.9830      R1.0500    
   X48.8923      Y16.9781      R1.0500    
   X48.6318      Y17.0427      R1.0500    
   X48.3968      Y17.1726      R1.0500    
   X48.2035      Y17.3589      R1.0500    
   X48.0650      Y17.5889      R1.0500    
(Pass: 27)
G1   Z-2.700     F400 
G17 G2   X47.9907      Y17.8469      R1.0500     F600 
   X47.9857      Y18.1153      R1.0500    
   X48.0504      Y18.3759      R1.0500    
   X48.1803      Y18.6108      R1.0500    
   X48.3666      Y18.8042      R1.0500    
   X48.5965      Y18.9427      R1.0500    
   X48.8545      Y19.0170      R1.0500    
   X49.1229      Y19.0219      R1.0500    
   X49.3835      Y18.9573      R1.0500    
   X49.6185      Y18.8274      R1.0500    
   X49.8118      Y18.6411      R1.0500    
   X49.9503      Y18.4111      R1.0500    
   X50.0246      Y18.1531      R1.0500    
   X50.0296      Y17.8847      R1.0500    
   X49.9649      Y17.6241      R1.0500    
   X49.8350      Y17.3892      R1.0500    
   X49.6487      Y17.1958      R1.0500    
   X49.4188      Y17.0573      R1.0500    
   X49.1608      Y16.9830      R1.0500    
   X48.8923      Y16.9781      R1.0500    
   X48.6318      Y17.0427      R1.0500    
   X48.3968      Y17.1726      R1.0500    
   X48.2035      Y17.3589      R1.0500    
   X48.0650      Y17.5889      R1.0500    
(Pass: 28)
G1   Z-2.800     F400 
G17 G2   X47.9907      Y17.8469      R1.0500     F600 
   X47.9857      Y18.1153      R1.0500    
   X48.0504      Y18.3759      R1.0500    
   X48.1803      Y18.6108      R1.0500    
   X48.3666      Y18.8042      R1.0500    
   X48.5965      Y18.9427      R1.0500    
   X48.8545      Y19.0170      R1.0500    
   X49.1229      Y19.0219      R1.0500    
   X49.3835      Y18.9573      R1.0500    
   X49.6185      Y18.8274      R1.0500    
   X49.8118      Y18.6411      R1.0500    
   X49.9503      Y18.4111      R1.0500    
   X50.0246      Y18.1531      R1.0500    
   X50.0296      Y17.8847      R1.0500    
   X49.9649      Y17.6241      R1.0500    
   X49.8350      Y17.3892      R1.0500    
   X49.6487      Y17.1958      R1.0500    
   X49.4188      Y17.0573      R1.0500    
   X49.1608      Y16.9830      R1.0500    
   X48.8923      Y16.9781      R1.0500    
   X48.6318      Y17.0427      R1.0500    
   X48.3968      Y17.1726      R1.0500    
   X48.2035      Y17.3589      R1.0500    
   X48.0650      Y17.5889      R1.0500    
(Pass: 29)
G1   Z-2.900     F400 
G17 G2   X47.9907      Y17.8469      R1.0500     F600 
   X47.9857      Y18.1153      R1.0500    
   X48.0504      Y18.3759      R1.0500    
   X48.1803      Y18.6108      R1.0500    
   X48.3666      Y18.8042      R1.0500    
   X48.5965      Y18.9427      R1.0500    
   X48.8545      Y19.0170      R1.0500    
   X49.1229      Y19.0219      R1.0500    
   X49.3835      Y18.9573      R1.0500    
   X49.6185      Y18.8274      R1.0500    
   X49.8118      Y18.6411      R1.0500    
   X49.9503      Y18.4111      R1.0500    
   X50.0246      Y18.1531      R1.0500    
   X50.0296      Y17.8847      R1.0500    
   X49.9649      Y17.6241      R1.0500    
   X49.8350      Y17.3892      R1.0500    
   X49.6487      Y17.1958      R1.0500    
   X49.4188      Y17.0573      R1.0500    
   X49.1608      Y16.9830      R1.0500    
   X48.8923      Y16.9781      R1.0500    
   X48.6318      Y17.0427      R1.0500    
   X48.3968      Y17.1726      R1.0500    
   X48.2035      Y17.3589      R1.0500    
   X48.0650      Y17.5889      R1.0500    
(Pass: 30)
G1   Z-3.000     F400 
G17 G2   X47.9907      Y17.8469      R1.0500     F600 
   X47.9857      Y18.1153      R1.0500    
   X48.0504      Y18.3759      R1.0500    
   X48.1803      Y18.6108      R1.0500    
   X48.3666      Y18.8042      R1.0500    
   X48.5965      Y18.9427      R1.0500    
   X48.8545      Y19.0170      R1.0500    
   X49.1229      Y19.0219      R1.0500    
   X49.3835      Y18.9573      R1.0500    
   X49.6185      Y18.8274      R1.0500    
   X49.8118      Y18.6411      R1.0500    
   X49.9503      Y18.4111      R1.0500    
   X50.0246      Y18.1531      R1.0500    
   X50.0296      Y17.8847      R1.0500    
   X49.9649      Y17.6241      R1.0500    
   X49.8350      Y17.3892      R1.0500    
   X49.6487      Y17.1958      R1.0500    
   X49.4188      Y17.0573      R1.0500    
   X49.1608      Y16.9830      R1.0500    
   X48.8923      Y16.9781      R1.0500    
   X48.6318      Y17.0427      R1.0500    
   X48.3968      Y17.1726      R1.0500    
   X48.2035      Y17.3589      R1.0500    
   X48.0650      Y17.5889      R1.0500    
(Pass: 31)
G1   Z-3.100     F400 
G17 G2   X47.9907      Y17.8469      R1.0500     F600 
   X47.9857      Y18.1153      R1.0500    
   X48.0504      Y18.3759      R1.0500    
   X48.1803      Y18.6108      R1.0500    
   X48.3666      Y18.8042      R1.0500    
   X48.5965      Y18.9427      R1.0500    
   X48.8545      Y19.0170      R1.0500    
   X49.1229      Y19.0219      R1.0500    
   X49.3835      Y18.9573      R1.0500    
   X49.6185      Y18.8274      R1.0500    
   X49.8118      Y18.6411      R1.0500    
   X49.9503      Y18.4111      R1.0500    
   X50.0246      Y18.1531      R1.0500    
   X50.0296      Y17.8847      R1.0500    
   X49.9649      Y17.6241      R1.0500    
   X49.8350      Y17.3892      R1.0500    
   X49.6487      Y17.1958      R1.0500    
   X49.4188      Y17.0573      R1.0500    
   X49.1608      Y16.9830      R1.0500    
   X48.8923      Y16.9781      R1.0500    
   X48.6318      Y17.0427      R1.0500    
   X48.3968      Y17.1726      R1.0500    
   X48.2035      Y17.3589      R1.0500    
   X48.0650      Y17.5889      R1.0500    
(Pass: 32)
G1   Z-3.200     F400 
G17 G2   X47.9907      Y17.8469      R1.0500     F600 
   X47.9857      Y18.1153      R1.0500    
   X48.0504      Y18.3759      R1.0500    
   X48.1803      Y18.6108      R1.0500    
   X48.3666      Y18.8042      R1.0500    
   X48.5965      Y18.9427      R1.0500    
   X48.8545      Y19.0170      R1.0500    
   X49.1229      Y19.0219      R1.0500    
   X49.3835      Y18.9573      R1.0500    
   X49.6185      Y18.8274      R1.0500    
   X49.8118      Y18.6411      R1.0500    
   X49.9503      Y18.4111      R1.0500    
   X50.0246      Y18.1531      R1.0500    
   X50.0296      Y17.8847      R1.0500    
   X49.9649      Y17.6241      R1.0500    
   X49.8350      Y17.3892      R1.0500    
   X49.6487      Y17.1958      R1.0500    
   X49.4188      Y17.0573      R1.0500    
   X49.1608      Y16.9830      R1.0500    
   X48.8923      Y16.9781      R1.0500    
   X48.6318      Y17.0427      R1.0500    
   X48.3968      Y17.1726      R1.0500    
   X48.2035      Y17.3589      R1.0500    
   X48.0650      Y17.5889      R1.0500    
(Pass: 33)
G1   Z-3.300     F400 
G17 G2   X47.9907      Y17.8469      R1.0500     F600 
   X47.9857      Y18.1153      R1.0500    
   X48.0504      Y18.3759      R1.0500    
   X48.1803      Y18.6108      R1.0500    
   X48.3666      Y18.8042      R1.0500    
   X48.5965      Y18.9427      R1.0500    
   X48.8545      Y19.0170      R1.0500    
   X49.1229      Y19.0219      R1.0500    
   X49.3835      Y18.9573      R1.0500    
   X49.6185      Y18.8274      R1.0500    
   X49.8118      Y18.6411      R1.0500    
   X49.9503      Y18.4111      R1.0500    
   X50.0246      Y18.1531      R1.0500    
   X50.0296      Y17.8847      R1.0500    
   X49.9649      Y17.6241      R1.0500    
   X49.8350      Y17.3892      R1.0500    
   X49.6487      Y17.1958      R1.0500    
   X49.4188      Y17.0573      R1.0500    
   X49.1608      Y16.9830      R1.0500    
   X48.8923      Y16.9781      R1.0500    
   X48.6318      Y17.0427      R1.0500    
   X48.3968      Y17.1726      R1.0500    
   X48.2035      Y17.3589      R1.0500    
   X48.0650      Y17.5889      R1.0500    
(Pass: 34)
G1   Z-3.400     F400 
G17 G2   X47.9907      Y17.8469      R1.0500     F600 
   X47.9857      Y18.1153      R1.0500    
   X48.0504      Y18.3759      R1.0500    
   X48.1803      Y18.6108      R1.0500    
   X48.3666      Y18.8042      R1.0500    
   X48.5965      Y18.9427      R1.0500    
   X48.8545      Y19.0170      R1.0500    
   X49.1229      Y19.0219      R1.0500    
   X49.3835      Y18.9573      R1.0500    
   X49.6185      Y18.8274      R1.0500    
   X49.8118      Y18.6411      R1.0500    
   X49.9503      Y18.4111      R1.0500    
   X50.0246      Y18.1531      R1.0500    
   X50.0296      Y17.8847      R1.0500    
   X49.9649      Y17.6241      R1.0500    
   X49.8350      Y17.3892      R1.0500    
   X49.6487      Y17.1958      R1.0500    
   X49.4188      Y17.0573      R1.0500    
   X49.1608      Y16.9830      R1.0500    
   X48.8923      Y16.9781      R1.0500    
   X48.6318      Y17.0427      R1.0500    
   X48.3968      Y17.1726      R1.0500    
   X48.2035      Y17.3589      R1.0500    
   X48.0650      Y17.5889      R1.0500    
(BREAK pass 34)
G0   Z5.000     
(Pass: 1)
   X49.047       Y47.022    
G1   Z-0.100     F400 
G17 G2   X48.7929      Y47.0454      R1.0000     F600 
   X48.5532      Y47.1335      R1.0000    
   X48.3444      Y47.2807      R1.0000    
   X48.1808      Y47.4769      R1.0000    
   X48.0736      Y47.7087      R1.0000    
   X48.0300      Y47.9604      R1.0000    
   X48.0531      Y48.2147      R1.0000    
   X48.1412      Y48.4545      R1.0000    
   X48.2883      Y48.6633      R1.0000    
   X48.4845      Y48.8268      R1.0000    
   X48.7163      Y48.9341      R1.0000    
   X48.9680      Y48.9776      R1.0000    
   X49.2224      Y48.9546      R1.0000    
   X49.4621      Y48.8665      R1.0000    
   X49.6709      Y48.7193      R1.0000    
   X49.8345      Y48.5231      R1.0000    
   X49.9417      Y48.2913      R1.0000    
   X49.9853      Y48.0396      R1.0000    
   X49.9622      Y47.7853      R1.0000    
   X49.8741      Y47.5455      R1.0000    
   X49.7270      Y47.3367      R1.0000    
   X49.5308      Y47.1732      R1.0000    
   X49.2990      Y47.0659      R1.0000    
   X49.0473      Y47.0224      R1.0000    
(Pass: 2)
G1   Z-0.200     F400 
G17 G2   X48.7929      Y47.0454      R1.0000     F600 
   X48.5532      Y47.1335      R1.0000    
   X48.3444      Y47.2807      R1.0000    
   X48.1808      Y47.4769      R1.0000    
   X48.0736      Y47.7087      R1.0000    
   X48.0300      Y47.9604      R1.0000    
   X48.0531      Y48.2147      R1.0000    
   X48.1412      Y48.4545      R1.0000    
   X48.2883      Y48.6633      R1.0000    
   X48.4845      Y48.8268      R1.0000    
   X48.7163      Y48.9341      R1.0000    
   X48.9680      Y48.9776      R1.0000    
   X49.2224      Y48.9546      R1.0000    
   X49.4621      Y48.8665      R1.0000    
   X49.6709      Y48.7193      R1.0000    
   X49.8345      Y48.5231      R1.0000    
   X49.9417      Y48.2913      R1.0000    
   X49.9853      Y48.0396      R1.0000    
   X49.9622      Y47.7853      R1.0000    
   X49.8741      Y47.5455      R1.0000    
   X49.7270      Y47.3367      R1.0000    
   X49.5308      Y47.1732      R1.0000    
   X49.2990      Y47.0659      R1.0000    
   X49.0473      Y47.0224      R1.0000    
(Pass: 3)
G1   Z-0.300     F400 
G17 G2   X48.7929      Y47.0454      R1.0000     F600 
   X48.5532      Y47.1335      R1.0000    
   X48.3444      Y47.2807      R1.0000    
   X48.1808      Y47.4769      R1.0000    
   X48.0736      Y47.7087      R1.0000    
   X48.0300      Y47.9604      R1.0000    
   X48.0531      Y48.2147      R1.0000    
   X48.1412      Y48.4545      R1.0000    
   X48.2883      Y48.6633      R1.0000    
   X48.4845      Y48.8268      R1.0000    
   X48.7163      Y48.9341      R1.0000    
   X48.9680      Y48.9776      R1.0000    
   X49.2224      Y48.9546      R1.0000    
   X49.4621      Y48.8665      R1.0000    
   X49.6709      Y48.7193      R1.0000    
   X49.8345      Y48.5231      R1.0000    
   X49.9417      Y48.2913      R1.0000    
   X49.9853      Y48.0396      R1.0000    
   X49.9622      Y47.7853      R1.0000    
   X49.8741      Y47.5455      R1.0000    
   X49.7270      Y47.3367      R1.0000    
   X49.5308      Y47.1732      R1.0000    
   X49.2990      Y47.0659      R1.0000    
   X49.0473      Y47.0224      R1.0000    
(Pass: 4)
G1   Z-0.400     F400 
G17 G2   X48.7929      Y47.0454      R1.0000     F600 
   X48.5532      Y47.1335      R1.0000    
   X48.3444      Y47.2807      R1.0000    
   X48.1808      Y47.4769      R1.0000    
   X48.0736      Y47.7087      R1.0000    
   X48.0300      Y47.9604      R1.0000    
   X48.0531      Y48.2147      R1.0000    
   X48.1412      Y48.4545      R1.0000    
   X48.2883      Y48.6633      R1.0000    
   X48.4845      Y48.8268      R1.0000    
   X48.7163      Y48.9341      R1.0000    
   X48.9680      Y48.9776      R1.0000    
   X49.2224      Y48.9546      R1.0000    
   X49.4621      Y48.8665      R1.0000    
   X49.6709      Y48.7193      R1.0000    
   X49.8345      Y48.5231      R1.0000    
   X49.9417      Y48.2913      R1.0000    
   X49.9853      Y48.0396      R1.0000    
   X49.9622      Y47.7853      R1.0000    
   X49.8741      Y47.5455      R1.0000    
   X49.7270      Y47.3367      R1.0000    
   X49.5308      Y47.1732      R1.0000    
   X49.2990      Y47.0659      R1.0000    
   X49.0473      Y47.0224      R1.0000    
(Pass: 5)
G1   Z-0.500     F400 
G17 G2   X48.7929      Y47.0454      R1.0000     F600 
   X48.5532      Y47.1335      R1.0000    
   X48.3444      Y47.2807      R1.0000    
   X48.1808      Y47.4769      R1.0000    
   X48.0736      Y47.7087      R1.0000    
   X48.0300      Y47.9604      R1.0000    
   X48.0531      Y48.2147      R1.0000    
   X48.1412      Y48.4545      R1.0000    
   X48.2883      Y48.6633      R1.0000    
   X48.4845      Y48.8268      R1.0000    
   X48.7163      Y48.9341      R1.0000    
   X48.9680      Y48.9776      R1.0000    
   X49.2224      Y48.9546      R1.0000    
   X49.4621      Y48.8665      R1.0000    
   X49.6709      Y48.7193      R1.0000    
   X49.8345      Y48.5231      R1.0000    
   X49.9417      Y48.2913      R1.0000    
   X49.9853      Y48.0396      R1.0000    
   X49.9622      Y47.7853      R1.0000    
   X49.8741      Y47.5455      R1.0000    
   X49.7270      Y47.3367      R1.0000    
   X49.5308      Y47.1732      R1.0000    
   X49.2990      Y47.0659      R1.0000    
   X49.0473      Y47.0224      R1.0000    
(Pass: 6)
G1   Z-0.600     F400 
G17 G2   X48.7929      Y47.0454      R1.0000     F600 
   X48.5532      Y47.1335      R1.0000    
   X48.3444      Y47.2807      R1.0000    
   X48.1808      Y47.4769      R1.0000    
   X48.0736      Y47.7087      R1.0000    
   X48.0300      Y47.9604      R1.0000    
   X48.0531      Y48.2147      R1.0000    
   X48.1412      Y48.4545      R1.0000    
   X48.2883      Y48.6633      R1.0000    
   X48.4845      Y48.8268      R1.0000    
   X48.7163      Y48.9341      R1.0000    
   X48.9680      Y48.9776      R1.0000    
   X49.2224      Y48.9546      R1.0000    
   X49.4621      Y48.8665      R1.0000    
   X49.6709      Y48.7193      R1.0000    
   X49.8345      Y48.5231      R1.0000    
   X49.9417      Y48.2913      R1.0000    
   X49.9853      Y48.0396      R1.0000    
   X49.9622      Y47.7853      R1.0000    
   X49.8741      Y47.5455      R1.0000    
   X49.7270      Y47.3367      R1.0000    
   X49.5308      Y47.1732      R1.0000    
   X49.2990      Y47.0659      R1.0000    
   X49.0473      Y47.0224      R1.0000    
(Pass: 7)
G1   Z-0.700     F400 
G17 G2   X48.7929      Y47.0454      R1.0000     F600 
   X48.5532      Y47.1335      R1.0000    
   X48.3444      Y47.2807      R1.0000    
   X48.1808      Y47.4769      R1.0000    
   X48.0736      Y47.7087      R1.0000    
   X48.0300      Y47.9604      R1.0000    
   X48.0531      Y48.2147      R1.0000    
   X48.1412      Y48.4545      R1.0000    
   X48.2883      Y48.6633      R1.0000    
   X48.4845      Y48.8268      R1.0000    
   X48.7163      Y48.9341      R1.0000    
   X48.9680      Y48.9776      R1.0000    
   X49.2224      Y48.9546      R1.0000    
   X49.4621      Y48.8665      R1.0000    
   X49.6709      Y48.7193      R1.0000    
   X49.8345      Y48.5231      R1.0000    
   X49.9417      Y48.2913      R1.0000    
   X49.9853      Y48.0396      R1.0000    
   X49.9622      Y47.7853      R1.0000    
   X49.8741      Y47.5455      R1.0000    
   X49.7270      Y47.3367      R1.0000    
   X49.5308      Y47.1732      R1.0000    
   X49.2990      Y47.0659      R1.0000    
   X49.0473      Y47.0224      R1.0000    
(Pass: 8)
G1   Z-0.800     F400 
G17 G2   X48.7929      Y47.0454      R1.0000     F600 
   X48.5532      Y47.1335      R1.0000    
   X48.3444      Y47.2807      R1.0000    
   X48.1808      Y47.4769      R1.0000    
   X48.0736      Y47.7087      R1.0000    
   X48.0300      Y47.9604      R1.0000    
   X48.0531      Y48.2147      R1.0000    
   X48.1412      Y48.4545      R1.0000    
   X48.2883      Y48.6633      R1.0000    
   X48.4845      Y48.8268      R1.0000    
   X48.7163      Y48.9341      R1.0000    
   X48.9680      Y48.9776      R1.0000    
   X49.2224      Y48.9546      R1.0000    
   X49.4621      Y48.8665      R1.0000    
   X49.6709      Y48.7193      R1.0000    
   X49.8345      Y48.5231      R1.0000    
   X49.9417      Y48.2913      R1.0000    
   X49.9853      Y48.0396      R1.0000    
   X49.9622      Y47.7853      R1.0000    
   X49.8741      Y47.5455      R1.0000    
   X49.7270      Y47.3367      R1.0000    
   X49.5308      Y47.1732      R1.0000    
   X49.2990      Y47.0659      R1.0000    
   X49.0473      Y47.0224      R1.0000    
(Pass: 9)
G1   Z-0.900     F400 
G17 G2   X48.7929      Y47.0454      R1.0000     F600 
   X48.5532      Y47.1335      R1.0000    
   X48.3444      Y47.2807      R1.0000    
   X48.1808      Y47.4769      R1.0000    
   X48.0736      Y47.7087      R1.0000    
   X48.0300      Y47.9604      R1.0000    
   X48.0531      Y48.2147      R1.0000    
   X48.1412      Y48.4545      R1.0000    
   X48.2883      Y48.6633      R1.0000    
   X48.4845      Y48.8268      R1.0000    
   X48.7163      Y48.9341      R1.0000    
   X48.9680      Y48.9776      R1.0000    
   X49.2224      Y48.9546      R1.0000    
   X49.4621      Y48.8665      R1.0000    
