%
(Generated by SketchUcam {1.2b1})
(File: laser.skp)
(Bit diameter: 4.9mm)
(Feed rate: 300.0mm/min)
(Material Thickness: 3.5mm)
(Material length: 600.0mm X width: 300.0mm)
(Overhead Gantry: true)
(Retract feed rate NOT limited to plunge feed rate)
(Multipass enabled, Depth = 0.1mm)
(Optimization is ON)
(www.PhlatBoyz.com)
G90 G21 G49
M3 S11000
G0   Z5.000     
(Pass: 1)
   X84.850       Y29.000
G1   Z-0.100     F300
   Y17.920
G17 G3   X84.7487      Y16.3743      R7.5500
   X84.4309      Y14.7763      R7.5500
   X83.9072      Y13.2336      R7.5500
   X83.1866      Y11.7724      R7.5500
   X82.2814      Y10.4177      R7.5500
   X81.2072      Y9.1928       R7.5500
   X79.9823      Y8.1186       R7.5500
   X78.6276      Y7.2134       R7.5500
   X77.1664      Y6.4928       R7.5500
   X75.6237      Y5.9691       R7.5500
   X74.0257      Y5.6513       R7.5500
   X72.4802      Y5.5500       R7.5500
G1   X46.378
   X38.378
   X17.920
G17 G3   X16.3743      Y5.6513       R7.5500
   X14.7763      Y5.9691       R7.5500
   X13.2336      Y6.4928       R7.5500
   X11.7724      Y7.2134       R7.5500
   X10.4177      Y8.1186       R7.5500
   X9.1928       Y9.1928       R7.5500
   X8.1186       Y10.4177      R7.5500
   X7.2134       Y11.7724      R7.5500
   X6.4928       Y13.2336      R7.5500
   X5.9691       Y14.7763      R7.5500
   X5.6513       Y16.3743      R7.5500
   X5.5500       Y17.9198      R7.5500
G1   Y29.000
   Y37.000
   Y48.080
G17 G3   X5.6513       Y49.6257      R7.5500
   X5.9691       Y51.2237      R7.5500
   X6.4928       Y52.7664      R7.5500
   X7.2134       Y54.2276      R7.5500
   X8.1186       Y55.5823      R7.5500
   X9.1928       Y56.8072      R7.5500
   X10.4177      Y57.8814      R7.5500
   X11.7724      Y58.7866      R7.5500
   X13.2336      Y59.5072      R7.5500
   X14.7763      Y60.0309      R7.5500
   X16.3743      Y60.3487      R7.5500
   X17.9198      Y60.4500      R7.5500
G1   X37.156
   X45.156
   X72.480
G17 G3   X74.0257      Y60.3487      R7.5500
   X75.6237      Y60.0309      R7.5500
   X77.1664      Y59.5072      R7.5500
   X78.6276      Y58.7866      R7.5500
   X79.9823      Y57.8814      R7.5500
   X81.2072      Y56.8072      R7.5500
   X82.2814      Y55.5823      R7.5500
   X83.1866      Y54.2276      R7.5500
   X83.9072      Y52.7664      R7.5500
   X84.4309      Y51.2237      R7.5500
   X84.7487      Y49.6257      R7.5500
   X84.8500      Y48.0802      R7.5500
G1   Y37.000
   Y29.000
(Pass: 2)
   Z-0.200
   Y17.920
G17 G3   X84.7487      Y16.3743      R7.5500
   X84.4309      Y14.7763      R7.5500
   X83.9072      Y13.2336      R7.5500
   X83.1866      Y11.7724      R7.5500
   X82.2814      Y10.4177      R7.5500
   X81.2072      Y9.1928       R7.5500
   X79.9823      Y8.1186       R7.5500
   X78.6276      Y7.2134       R7.5500
   X77.1664      Y6.4928       R7.5500
   X75.6237      Y5.9691       R7.5500
   X74.0257      Y5.6513       R7.5500
   X72.4802      Y5.5500       R7.5500
G1   X46.378
   X38.378
   X17.920
G17 G3   X16.3743      Y5.6513       R7.5500
   X14.7763      Y5.9691       R7.5500
   X13.2336      Y6.4928       R7.5500
   X11.7724      Y7.2134       R7.5500
   X10.4177      Y8.1186       R7.5500
   X9.1928       Y9.1928       R7.5500
   X8.1186       Y10.4177      R7.5500
   X7.2134       Y11.7724      R7.5500
   X6.4928       Y13.2336      R7.5500
   X5.9691       Y14.7763      R7.5500
   X5.6513       Y16.3743      R7.5500
   X5.5500       Y17.9198      R7.5500
G1   Y29.000
   Y37.000
   Y48.080
G17 G3   X5.6513       Y49.6257      R7.5500
   X5.9691       Y51.2237      R7.5500
   X6.4928       Y52.7664      R7.5500
   X7.2134       Y54.2276      R7.5500
   X8.1186       Y55.5823      R7.5500
   X9.1928       Y56.8072      R7.5500
   X10.4177      Y57.8814      R7.5500
   X11.7724      Y58.7866      R7.5500
   X13.2336      Y59.5072      R7.5500
   X14.7763      Y60.0309      R7.5500
   X16.3743      Y60.3487      R7.5500
   X17.9198      Y60.4500      R7.5500
G1   X37.156
   X45.156
   X72.480
G17 G3   X74.0257      Y60.3487      R7.5500
   X75.6237      Y60.0309      R7.5500
   X77.1664      Y59.5072      R7.5500
   X78.6276      Y58.7866      R7.5500
   X79.9823      Y57.8814      R7.5500
   X81.2072      Y56.8072      R7.5500
   X82.2814      Y55.5823      R7.5500
   X83.1866      Y54.2276      R7.5500
   X83.9072      Y52.7664      R7.5500
   X84.4309      Y51.2237      R7.5500
   X84.7487      Y49.6257      R7.5500
   X84.8500      Y48.0802      R7.5500
G1   Y37.000
   Y29.000
(Pass: 3)
   Z-0.300
   Y17.920
G17 G3   X84.7487      Y16.3743      R7.5500
   X84.4309      Y14.7763      R7.5500
   X83.9072      Y13.2336      R7.5500
   X83.1866      Y11.7724      R7.5500
   X82.2814      Y10.4177      R7.5500
   X81.2072      Y9.1928       R7.5500
   X79.9823      Y8.1186       R7.5500
   X78.6276      Y7.2134       R7.5500
   X77.1664      Y6.4928       R7.5500
   X75.6237      Y5.9691       R7.5500
   X74.0257      Y5.6513       R7.5500
   X72.4802      Y5.5500       R7.5500
G1   X46.378
   X38.378
   X17.920
G17 G3   X16.3743      Y5.6513       R7.5500
   X14.7763      Y5.9691       R7.5500
   X13.2336      Y6.4928       R7.5500
   X11.7724      Y7.2134       R7.5500
   X10.4177      Y8.1186       R7.5500
   X9.1928       Y9.1928       R7.5500
   X8.1186       Y10.4177      R7.5500
   X7.2134       Y11.7724      R7.5500
   X6.4928       Y13.2336      R7.5500
   X5.9691       Y14.7763      R7.5500
   X5.6513       Y16.3743      R7.5500
   X5.5500       Y17.9198      R7.5500
G1   Y29.000
   Y37.000
   Y48.080
G17 G3   X5.6513       Y49.6257      R7.5500
   X5.9691       Y51.2237      R7.5500
   X6.4928       Y52.7664      R7.5500
   X7.2134       Y54.2276      R7.5500
   X8.1186       Y55.5823      R7.5500
   X9.1928       Y56.8072      R7.5500
   X10.4177      Y57.8814      R7.5500
   X11.7724      Y58.7866      R7.5500
   X13.2336      Y59.5072      R7.5500
   X14.7763      Y60.0309      R7.5500
   X16.3743      Y60.3487      R7.5500
   X17.9198      Y60.4500      R7.5500
G1   X37.156
   X45.156
   X72.480
G17 G3   X74.0257      Y60.3487      R7.5500
   X75.6237      Y60.0309      R7.5500
   X77.1664      Y59.5072      R7.5500
   X78.6276      Y58.7866      R7.5500
   X79.9823      Y57.8814      R7.5500
   X81.2072      Y56.8072      R7.5500
   X82.2814      Y55.5823      R7.5500
   X83.1866      Y54.2276      R7.5500
   X83.9072      Y52.7664      R7.5500
   X84.4309      Y51.2237      R7.5500
   X84.7487      Y49.6257      R7.5500
   X84.8500      Y48.0802      R7.5500
G1   Y37.000
   Y29.000
(Pass: 4)
   Z-0.400
   Y17.920
G17 G3   X84.7487      Y16.3743      R7.5500
   X84.4309      Y14.7763      R7.5500
   X83.9072      Y13.2336      R7.5500
   X83.1866      Y11.7724      R7.5500
   X82.2814      Y10.4177      R7.5500
   X81.2072      Y9.1928       R7.5500
   X79.9823      Y8.1186       R7.5500
   X78.6276      Y7.2134       R7.5500
   X77.1664      Y6.4928       R7.5500
   X75.6237      Y5.9691       R7.5500
   X74.0257      Y5.6513       R7.5500
   X72.4802      Y5.5500       R7.5500
G1   X46.378
   X38.378
   X17.920
G17 G3   X16.3743      Y5.6513       R7.5500
   X14.7763      Y5.9691       R7.5500
   X13.2336      Y6.4928       R7.5500
   X11.7724      Y7.2134       R7.5500
   X10.4177      Y8.1186       R7.5500
   X9.1928       Y9.1928       R7.5500
   X8.1186       Y10.4177      R7.5500
   X7.2134       Y11.7724      R7.5500
   X6.4928       Y13.2336      R7.5500
   X5.9691       Y14.7763      R7.5500
   X5.6513       Y16.3743      R7.5500
   X5.5500       Y17.9198      R7.5500
G1   Y29.000
   Y37.000
   Y48.080
G17 G3   X5.6513       Y49.6257      R7.5500
   X5.9691       Y51.2237      R7.5500
   X6.4928       Y52.7664      R7.5500
   X7.2134       Y54.2276      R7.5500
   X8.1186       Y55.5823      R7.5500
   X9.1928       Y56.8072      R7.5500
   X10.4177      Y57.8814      R7.5500
   X11.7724      Y58.7866      R7.5500
   X13.2336      Y59.5072      R7.5500
   X14.7763      Y60.0309      R7.5500
   X16.3743      Y60.3487      R7.5500
   X17.9198      Y60.4500      R7.5500
G1   X37.156
   X45.156
   X72.480
G17 G3   X74.0257      Y60.3487      R7.5500
   X75.6237      Y60.0309      R7.5500
   X77.1664      Y59.5072      R7.5500
   X78.6276      Y58.7866      R7.5500
   X79.9823      Y57.8814      R7.5500
   X81.2072      Y56.8072      R7.5500
   X82.2814      Y55.5823      R7.5500
   X83.1866      Y54.2276      R7.5500
   X83.9072      Y52.7664      R7.5500
   X84.4309      Y51.2237      R7.5500
   X84.7487      Y49.6257      R7.5500
   X84.8500      Y48.0802      R7.5500
G1   Y37.000
   Y29.000
(Pass: 5)
   Z-0.500
   Y17.920
G17 G3   X84.7487      Y16.3743      R7.5500
   X84.4309      Y14.7763      R7.5500
   X83.9072      Y13.2336      R7.5500
   X83.1866      Y11.7724      R7.5500
   X82.2814      Y10.4177      R7.5500
   X81.2072      Y9.1928       R7.5500
   X79.9823      Y8.1186       R7.5500
   X78.6276      Y7.2134       R7.5500
   X77.1664      Y6.4928       R7.5500
   X75.6237      Y5.9691       R7.5500
   X74.0257      Y5.6513       R7.5500
   X72.4802      Y5.5500       R7.5500
G1   X46.378
   X38.378
   X17.920
G17 G3   X16.3743      Y5.6513       R7.5500
   X14.7763      Y5.9691       R7.5500
   X13.2336      Y6.4928       R7.5500
   X11.7724      Y7.2134       R7.5500
   X10.4177      Y8.1186       R7.5500
   X9.1928       Y9.1928       R7.5500
   X8.1186       Y10.4177      R7.5500
   X7.2134       Y11.7724      R7.5500
   X6.4928       Y13.2336      R7.5500
   X5.9691       Y14.7763      R7.5500
   X5.6513       Y16.3743      R7.5500
   X5.5500       Y17.9198      R7.5500
G1   Y29.000
   Y37.000
   Y48.080
G17 G3   X5.6513       Y49.6257      R7.5500
   X5.9691       Y51.2237      R7.5500
   X6.4928       Y52.7664      R7.5500
   X7.2134       Y54.2276      R7.5500
   X8.1186       Y55.5823      R7.5500
   X9.1928       Y56.8072      R7.5500
   X10.4177      Y57.8814      R7.5500
   X11.7724      Y58.7866      R7.5500
   X13.2336      Y59.5072      R7.5500
   X14.7763      Y60.0309      R7.5500
   X16.3743      Y60.3487      R7.5500
   X17.9198      Y60.4500      R7.5500
G1   X37.156
   X45.156
   X72.480
G17 G3   X74.0257      Y60.3487      R7.5500
   X75.6237      Y60.0309      R7.5500
   X77.1664      Y59.5072      R7.5500
   X78.6276      Y58.7866      R7.5500
   X79.9823      Y57.8814      R7.5500
   X81.2072      Y56.8072      R7.5500
   X82.2814      Y55.5823      R7.5500
   X83.1866      Y54.2276      R7.5500
   X83.9072      Y52.7664      R7.5500
   X84.4309      Y51.2237      R7.5500
   X84.7487      Y49.6257      R7.5500
   X84.8500      Y48.0802      R7.5500
G1   Y37.000
   Y29.000
(Pass: 6)
   Z-0.600
   Y17.920
G17 G3   X84.7487      Y16.3743      R7.5500
   X84.4309      Y14.7763      R7.5500
   X83.9072      Y13.2336      R7.5500
   X83.1866      Y11.7724      R7.5500
   X82.2814      Y10.4177      R7.5500
   X81.2072      Y9.1928       R7.5500
   X79.9823      Y8.1186       R7.5500
   X78.6276      Y7.2134       R7.5500
   X77.1664      Y6.4928       R7.5500
   X75.6237      Y5.9691       R7.5500
   X74.0257      Y5.6513       R7.5500
   X72.4802      Y5.5500       R7.5500
G1   X46.378
   X38.378
   X17.920
G17 G3   X16.3743      Y5.6513       R7.5500
   X14.7763      Y5.9691       R7.5500
   X13.2336      Y6.4928       R7.5500
   X11.7724      Y7.2134       R7.5500
   X10.4177      Y8.1186       R7.5500
   X9.1928       Y9.1928       R7.5500
   X8.1186       Y10.4177      R7.5500
   X7.2134       Y11.7724      R7.5500
   X6.4928       Y13.2336      R7.5500
   X5.9691       Y14.7763      R7.5500
   X5.6513       Y16.3743      R7.5500
   X5.5500       Y17.9198      R7.5500
G1   Y29.000
   Y37.000
   Y48.080
G17 G3   X5.6513       Y49.6257      R7.5500
   X5.9691       Y51.2237      R7.5500
   X6.4928       Y52.7664      R7.5500
   X7.2134       Y54.2276      R7.5500
   X8.1186       Y55.5823      R7.5500
   X9.1928       Y56.8072      R7.5500
   X10.4177      Y57.8814      R7.5500
   X11.7724      Y58.7866      R7.5500
   X13.2336      Y59.5072      R7.5500
   X14.7763      Y60.0309      R7.5500
   X16.3743      Y60.3487      R7.5500
   X17.9198      Y60.4500      R7.5500
G1   X37.156
   X45.156
   X72.480
G17 G3   X74.0257      Y60.3487      R7.5500
   X75.6237      Y60.0309      R7.5500
   X77.1664      Y59.5072      R7.5500
   X78.6276      Y58.7866      R7.5500
   X79.9823      Y57.8814      R7.5500
   X81.2072      Y56.8072      R7.5500
   X82.2814      Y55.5823      R7.5500
   X83.1866      Y54.2276      R7.5500
   X83.9072      Y52.7664      R7.5500
   X84.4309      Y51.2237      R7.5500
   X84.7487      Y49.6257      R7.5500
   X84.8500      Y48.0802      R7.5500
G1   Y37.000
   Y29.000
(Pass: 7)
   Z-0.700
   Y17.920
G17 G3   X84.7487      Y16.3743      R7.5500
   X84.4309      Y14.7763      R7.5500
   X83.9072      Y13.2336      R7.5500
   X83.1866      Y11.7724      R7.5500
   X82.2814      Y10.4177      R7.5500
   X81.2072      Y9.1928       R7.5500
   X79.9823      Y8.1186       R7.5500
   X78.6276      Y7.2134       R7.5500
   X77.1664      Y6.4928       R7.5500
   X75.6237      Y5.9691       R7.5500
   X74.0257      Y5.6513       R7.5500
   X72.4802      Y5.5500       R7.5500
G1   X46.378
   X38.378
   X17.920
G17 G3   X16.3743      Y5.6513       R7.5500
   X14.7763      Y5.9691       R7.5500
   X13.2336      Y6.4928       R7.5500
   X11.7724      Y7.2134       R7.5500
   X10.4177      Y8.1186       R7.5500
   X9.1928       Y9.1928       R7.5500
   X8.1186       Y10.4177      R7.5500
   X7.2134       Y11.7724      R7.5500
   X6.4928       Y13.2336      R7.5500
   X5.9691       Y14.7763      R7.5500
   X5.6513       Y16.3743      R7.5500
   X5.5500       Y17.9198      R7.5500
G1   Y29.000
   Y37.000
   Y48.080
G17 G3   X5.6513       Y49.6257      R7.5500
   X5.9691       Y51.2237      R7.5500
   X6.4928       Y52.7664      R7.5500
   X7.2134       Y54.2276      R7.5500
   X8.1186       Y55.5823      R7.5500
   X9.1928       Y56.8072      R7.5500
   X10.4177      Y57.8814      R7.5500
   X11.7724      Y58.7866      R7.5500
   X13.2336      Y59.5072      R7.5500
   X14.7763      Y60.0309      R7.5500
   X16.3743      Y60.3487      R7.5500
   X17.9198      Y60.4500      R7.5500
G1   X37.156
   X45.156
   X72.480
G17 G3   X74.0257      Y60.3487      R7.5500
   X75.6237      Y60.0309      R7.5500
   X77.1664      Y59.5072      R7.5500
   X78.6276      Y58.7866      R7.5500
   X79.9823      Y57.8814      R7.5500
   X81.2072      Y56.8072      R7.5500
   X82.2814      Y55.5823      R7.5500
   X83.1866      Y54.2276      R7.5500
   X83.9072      Y52.7664      R7.5500
   X84.4309      Y51.2237      R7.5500
   X84.7487      Y49.6257      R7.5500
   X84.8500      Y48.0802      R7.5500
G1   Y37.000
   Y29.000
(Pass: 8)
   Z-0.800
   Y17.920
G17 G3   X84.7487      Y16.3743      R7.5500
   X84.4309      Y14.7763      R7.5500
   X83.9072      Y13.2336      R7.5500
   X83.1866      Y11.7724      R7.5500
   X82.2814      Y10.4177      R7.5500
   X81.2072      Y9.1928       R7.5500
   X79.9823      Y8.1186       R7.5500
   X78.6276      Y7.2134       R7.5500
   X77.1664      Y6.4928       R7.5500
   X75.6237      Y5.9691       R7.5500
   X74.0257      Y5.6513       R7.5500
   X72.4802      Y5.5500       R7.5500
G1   X46.378
   X38.378
   X17.920
G17 G3   X16.3743      Y5.6513       R7.5500
   X14.7763      Y5.9691       R7.5500
   X13.2336      Y6.4928       R7.5500
   X11.7724      Y7.2134       R7.5500
   X10.4177      Y8.1186       R7.5500
   X9.1928       Y9.1928       R7.5500
   X8.1186       Y10.4177      R7.5500
   X7.2134       Y11.7724      R7.5500
   X6.4928       Y13.2336      R7.5500
   X5.9691       Y14.7763      R7.5500
   X5.6513       Y16.3743      R7.5500
   X5.5500       Y17.9198      R7.5500
G1   Y29.000
   Y37.000
   Y48.080
G17 G3   X5.6513       Y49.6257      R7.5500
   X5.9691       Y51.2237      R7.5500
   X6.4928       Y52.7664      R7.5500
   X7.2134       Y54.2276      R7.5500
   X8.1186       Y55.5823      R7.5500
   X9.1928       Y56.8072      R7.5500
   X10.4177      Y57.8814      R7.5500
   X11.7724      Y58.7866      R7.5500
   X13.2336      Y59.5072      R7.5500
   X14.7763      Y60.0309      R7.5500
   X16.3743      Y60.3487      R7.5500
   X17.9198      Y60.4500      R7.5500
G1   X37.156
   X45.156
   X72.480
G17 G3   X74.0257      Y60.3487      R7.5500
   X75.6237      Y60.0309      R7.5500
   X77.1664      Y59.5072      R7.5500
   X78.6276      Y58.7866      R7.5500
   X79.9823      Y57.8814      R7.5500
   X81.2072      Y56.8072      R7.5500
   X82.2814      Y55.5823      R7.5500
   X83.1866      Y54.2276      R7.5500
   X83.9072      Y52.7664      R7.5500
   X84.4309      Y51.2237      R7.5500
   X84.7487      Y49.6257      R7.5500
   X84.8500      Y48.0802      R7.5500
G1   Y37.000
   Y29.000
(Pass: 9)
   Z-0.900
   Y17.920
G17 G3   X84.7487      Y16.3743      R7.5500
   X84.4309      Y14.7763      R7.5500
   X83.9072      Y13.2336      R7.5500
   X83.1866      Y11.7724      R7.5500
   X82.2814      Y10.4177      R7.5500
   X81.2072      Y9.1928       R7.5500
   X79.9823      Y8.1186       R7.5500
   X78.6276      Y7.2134       R7.5500
   X77.1664      Y6.4928       R7.5500
   X75.6237      Y5.9691       R7.5500
   X74.0257      Y5.6513       R7.5500
   X72.4802      Y5.5500       R7.5500
G1   X46.378
   X38.378
   X17.920
G17 G3   X16.3743      Y5.6513       R7.5500
   X14.7763      Y5.9691       R7.5500
   X13.2336      Y6.4928       R7.5500
   X11.7724      Y7.2134       R7.5500
   X10.4177      Y8.1186       R7.5500
   X9.1928       Y9.1928       R7.5500
   X8.1186       Y10.4177      R7.5500
   X7.2134       Y11.7724      R7.5500
   X6.4928       Y13.2336      R7.5500
   X5.9691       Y14.7763      R7.5500
   X5.6513       Y16.3743      R7.5500
   X5.5500       Y17.9198      R7.5500
G1   Y29.000
   Y37.000
   Y48.080
G17 G3   X5.6513       Y49.6257      R7.5500
   X5.9691       Y51.2237      R7.5500
   X6.4928       Y52.7664      R7.5500
   X7.2134       Y54.2276      R7.5500
   X8.1186       Y55.5823      R7.5500
   X9.1928       Y56.8072      R7.5500
   X10.4177      Y57.8814      R7.5500
   X11.7724      Y58.7866      R7.5500
   X13.2336      Y59.5072      R7.5500
   X14.7763      Y60.0309      R7.5500
   X16.3743      Y60.3487      R7.5500
   X17.9198      Y60.4500      R7.5500
G1   X37.156
   X45.156
   X72.480
G17 G3   X74.0257      Y60.3487      R7.5500
   X75.6237      Y60.0309      R7.5500
   X77.1664      Y59.5072      R7.5500
   X78.6276      Y58.7866      R7.5500
   X79.9823      Y57.8814      R7.5500
   X81.2072      Y56.8072      R7.5500
   X82.2814      Y55.5823      R7.5500
   X83.1866      Y54.2276      R7.5500
   X83.9072      Y52.7664      R7.5500
   X84.4309      Y51.2237      R7.5500
   X84.7487      Y49.6257      R7.5500
   X84.8500      Y48.0802      R7.5500
G1   Y37.000
   Y29.000
(Pass: 10)
   Z-1.000
   Y17.920
G17 G3   X84.7487      Y16.3743      R7.5500
   X84.4309      Y14.7763      R7.5500
   X83.9072      Y13.2336      R7.5500
   X83.1866      Y11.7724      R7.5500
   X82.2814      Y10.4177      R7.5500
   X81.2072      Y9.1928       R7.5500
   X79.9823      Y8.1186       R7.5500
   X78.6276      Y7.2134       R7.5500
   X77.1664      Y6.4928       R7.5500
   X75.6237      Y5.9691       R7.5500
   X74.0257      Y5.6513       R7.5500
   X72.4802      Y5.5500       R7.5500
G1   X46.378
   X38.378
   X17.920
G17 G3   X16.3743      Y5.6513       R7.5500
   X14.7763      Y5.9691       R7.5500
   X13.2336      Y6.4928       R7.5500
   X11.7724      Y7.2134       R7.5500
   X10.4177      Y8.1186       R7.5500
   X9.1928       Y9.1928       R7.5500
   X8.1186       Y10.4177      R7.5500
   X7.2134       Y11.7724      R7.5500
   X6.4928       Y13.2336      R7.5500
   X5.9691       Y14.7763      R7.5500
   X5.6513       Y16.3743      R7.5500
   X5.5500       Y17.9198      R7.5500
G1   Y29.000
   Y37.000
   Y48.080
G17 G3   X5.6513       Y49.6257      R7.5500
   X5.9691       Y51.2237      R7.5500
   X6.4928       Y52.7664      R7.5500
   X7.2134       Y54.2276      R7.5500
   X8.1186       Y55.5823      R7.5500
   X9.1928       Y56.8072      R7.5500
   X10.4177      Y57.8814      R7.5500
   X11.7724      Y58.7866      R7.5500
   X13.2336      Y59.5072      R7.5500
   X14.7763      Y60.0309      R7.5500
   X16.3743      Y60.3487      R7.5500
   X17.9198      Y60.4500      R7.5500
G1   X37.156
   X45.156
   X72.480
G17 G3   X74.0257      Y60.3487      R7.5500
   X75.6237      Y60.0309      R7.5500
   X77.1664      Y59.5072      R7.5500
   X78.6276      Y58.7866      R7.5500
   X79.9823      Y57.8814      R7.5500
   X81.2072      Y56.8072      R7.5500
   X82.2814      Y55.5823      R7.5500
   X83.1866      Y54.2276      R7.5500
   X83.9072      Y52.7664      R7.5500
   X84.4309      Y51.2237      R7.5500
   X84.7487      Y49.6257      R7.5500
   X84.8500      Y48.0802      R7.5500
G1   Y37.000
   Y29.000
(Pass: 11)
   Z-1.100
   Y17.920
G17 G3   X84.7487      Y16.3743      R7.5500
   X84.4309      Y14.7763      R7.5500
   X83.9072      Y13.2336      R7.5500
   X83.1866      Y11.7724      R7.5500
   X82.2814      Y10.4177      R7.5500
   X81.2072      Y9.1928       R7.5500
   X79.9823      Y8.1186       R7.5500
   X78.6276      Y7.2134       R7.5500
   X77.1664      Y6.4928       R7.5500
   X75.6237      Y5.9691       R7.5500
   X74.0257      Y5.6513       R7.5500
   X72.4802      Y5.5500       R7.5500
G1   X46.378
   X38.378
   X17.920
G17 G3   X16.3743      Y5.6513       R7.5500
   X14.7763      Y5.9691       R7.5500
   X13.2336      Y6.4928       R7.5500
   X11.7724      Y7.2134       R7.5500
   X10.4177      Y8.1186       R7.5500
   X9.1928       Y9.1928       R7.5500
   X8.1186       Y10.4177      R7.5500
   X7.2134       Y11.7724      R7.5500
   X6.4928       Y13.2336      R7.5500
   X5.9691       Y14.7763      R7.5500
   X5.6513       Y16.3743      R7.5500
   X5.5500       Y17.9198      R7.5500
G1   Y29.000
   Y37.000
   Y48.080
G17 G3   X5.6513       Y49.6257      R7.5500
   X5.9691       Y51.2237      R7.5500
   X6.4928       Y52.7664      R7.5500
   X7.2134       Y54.2276      R7.5500
   X8.1186       Y55.5823      R7.5500
   X9.1928       Y56.8072      R7.5500
   X10.4177      Y57.8814      R7.5500
   X11.7724      Y58.7866      R7.5500
   X13.2336      Y59.5072      R7.5500
   X14.7763      Y60.0309      R7.5500
   X16.3743      Y60.3487      R7.5500
   X17.9198      Y60.4500      R7.5500
G1   X37.156
   X45.156
   X72.480
G17 G3   X74.0257      Y60.3487      R7.5500
   X75.6237      Y60.0309      R7.5500
   X77.1664      Y59.5072      R7.5500
   X78.6276      Y58.7866      R7.5500
   X79.9823      Y57.8814      R7.5500
   X81.2072      Y56.8072      R7.5500
   X82.2814      Y55.5823      R7.5500
   X83.1866      Y54.2276      R7.5500
   X83.9072      Y52.7664      R7.5500
   X84.4309      Y51.2237      R7.5500
   X84.7487      Y49.6257      R7.5500
   X84.8500      Y48.0802      R7.5500
G1   Y37.000
   Y29.000
(Pass: 12)
   Z-1.200
   Y17.920
G17 G3   X84.7487      Y16.3743      R7.5500
   X84.4309      Y14.7763      R7.5500
   X83.9072      Y13.2336      R7.5500
   X83.1866      Y11.7724      R7.5500
   X82.2814      Y10.4177      R7.5500
   X81.2072      Y9.1928       R7.5500
   X79.9823      Y8.1186       R7.5500
   X78.6276      Y7.2134       R7.5500
   X77.1664      Y6.4928       R7.5500
   X75.6237      Y5.9691       R7.5500
   X74.0257      Y5.6513       R7.5500
   X72.4802      Y5.5500       R7.5500
G1   X46.378
   X38.378
   X17.920
G17 G3   X16.3743      Y5.6513       R7.5500
   X14.7763      Y5.9691       R7.5500
   X13.2336      Y6.4928       R7.5500
   X11.7724      Y7.2134       R7.5500
   X10.4177      Y8.1186       R7.5500
   X9.1928       Y9.1928       R7.5500
   X8.1186       Y10.4177      R7.5500
   X7.2134       Y11.7724      R7.5500
   X6.4928       Y13.2336      R7.5500
   X5.9691       Y14.7763      R7.5500
   X5.6513       Y16.3743      R7.5500
   X5.5500       Y17.9198      R7.5500
G1   Y29.000
   Y37.000
   Y48.080
G17 G3   X5.6513       Y49.6257      R7.5500
   X5.9691       Y51.2237      R7.5500
   X6.4928       Y52.7664      R7.5500
   X7.2134       Y54.2276      R7.5500
   X8.1186       Y55.5823      R7.5500
   X9.1928       Y56.8072      R7.5500
   X10.4177      Y57.8814      R7.5500
   X11.7724      Y58.7866      R7.5500
   X13.2336      Y59.5072      R7.5500
   X14.7763      Y60.0309      R7.5500
   X16.3743      Y60.3487      R7.5500
   X17.9198      Y60.4500      R7.5500
G1   X37.156
   X45.156
   X72.480
G17 G3   X74.0257      Y60.3487      R7.5500
   X75.6237      Y60.0309      R7.5500
   X77.1664      Y59.5072      R7.5500
   X78.6276      Y58.7866      R7.5500
   X79.9823      Y57.8814      R7.5500
   X81.2072      Y56.8072      R7.5500
   X82.2814      Y55.5823      R7.5500
   X83.1866      Y54.2276      R7.5500
   X83.9072      Y52.7664      R7.5500
   X84.4309      Y51.2237      R7.5500
   X84.7487      Y49.6257      R7.5500
   X84.8500      Y48.0802      R7.5500
G1   Y37.000
   Y29.000
(Pass: 13)
   Z-1.300
   Y17.920
G17 G3   X84.7487      Y16.3743      R7.5500
   X84.4309      Y14.7763      R7.5500
   X83.9072      Y13.2336      R7.5500
   X83.1866      Y11.7724      R7.5500
   X82.2814      Y10.4177      R7.5500
   X81.2072      Y9.1928       R7.5500
   X79.9823      Y8.1186       R7.5500
   X78.6276      Y7.2134       R7.5500
   X77.1664      Y6.4928       R7.5500
   X75.6237      Y5.9691       R7.5500
   X74.0257      Y5.6513       R7.5500
   X72.4802      Y5.5500       R7.5500
G1   X46.378
   X38.378
   X17.920
G17 G3   X16.3743      Y5.6513       R7.5500
   X14.7763      Y5.9691       R7.5500
   X13.2336      Y6.4928       R7.5500
   X11.7724      Y7.2134       R7.5500
   X10.4177      Y8.1186       R7.5500
   X9.1928       Y9.1928       R7.5500
   X8.1186       Y10.4177      R7.5500
   X7.2134       Y11.7724      R7.5500
   X6.4928       Y13.2336      R7.5500
   X5.9691       Y14.7763      R7.5500
   X5.6513       Y16.3743      R7.5500
   X5.5500       Y17.9198      R7.5500
G1   Y29.000
   Y37.000
   Y48.080
G17 G3   X5.6513       Y49.6257      R7.5500
   X5.9691       Y51.2237      R7.5500
   X6.4928       Y52.7664      R7.5500
   X7.2134       Y54.2276      R7.5500
   X8.1186       Y55.5823      R7.5500
   X9.1928       Y56.8072      R7.5500
   X10.4177      Y57.8814      R7.5500
   X11.7724      Y58.7866      R7.5500
   X13.2336      Y59.5072      R7.5500
   X14.7763      Y60.0309      R7.5500
   X16.3743      Y60.3487      R7.5500
   X17.9198      Y60.4500      R7.5500
G1   X37.156
   X45.156
   X72.480
G17 G3   X74.0257      Y60.3487      R7.5500
   X75.6237      Y60.0309      R7.5500
   X77.1664      Y59.5072      R7.5500
   X78.6276      Y58.7866      R7.5500
   X79.9823      Y57.8814      R7.5500
   X81.2072      Y56.8072      R7.5500
   X82.2814      Y55.5823      R7.5500
   X83.1866      Y54.2276      R7.5500
   X83.9072      Y52.7664      R7.5500
   X84.4309      Y51.2237      R7.5500
   X84.7487      Y49.6257      R7.5500
   X84.8500      Y48.0802      R7.5500
G1   Y37.000
   Y29.000
(Pass: 14)
   Z-1.400
   Y17.920
G17 G3   X84.7487      Y16.3743      R7.5500
   X84.4309      Y14.7763      R7.5500
   X83.9072      Y13.2336      R7.5500
   X83.1866      Y11.7724      R7.5500
   X82.2814      Y10.4177      R7.5500
   X81.2072      Y9.1928       R7.5500
   X79.9823      Y8.1186       R7.5500
   X78.6276      Y7.2134       R7.5500
   X77.1664      Y6.4928       R7.5500
   X75.6237      Y5.9691       R7.5500
   X74.0257      Y5.6513       R7.5500
   X72.4802      Y5.5500       R7.5500
G1   X46.378
   X38.378
   X17.920
G17 G3   X16.3743      Y5.6513       R7.5500
   X14.7763      Y5.9691       R7.5500
   X13.2336      Y6.4928       R7.5500
   X11.7724      Y7.2134       R7.5500
   X10.4177      Y8.1186       R7.5500
   X9.1928       Y9.1928       R7.5500
   X8.1186       Y10.4177      R7.5500
   X7.2134       Y11.7724      R7.5500
   X6.4928       Y13.2336      R7.5500
   X5.9691       Y14.7763      R7.5500
   X5.6513       Y16.3743      R7.5500
   X5.5500       Y17.9198      R7.5500
G1   Y29.000
   Y37.000
   Y48.080
G17 G3   X5.6513       Y49.6257      R7.5500
   X5.9691       Y51.2237      R7.5500
   X6.4928       Y52.7664      R7.5500
   X7.2134       Y54.2276      R7.5500
   X8.1186       Y55.5823      R7.5500
   X9.1928       Y56.8072      R7.5500
   X10.4177      Y57.8814      R7.5500
   X11.7724      Y58.7866      R7.5500
   X13.2336      Y59.5072      R7.5500
   X14.7763      Y60.0309      R7.5500
   X16.3743      Y60.3487      R7.5500
   X17.9198      Y60.4500      R7.5500
G1   X37.156
   X45.156
   X72.480
G17 G3   X74.0257      Y60.3487      R7.5500
   X75.6237      Y60.0309      R7.5500
   X77.1664      Y59.5072      R7.5500
   X78.6276      Y58.7866      R7.5500
   X79.9823      Y57.8814      R7.5500
   X81.2072      Y56.8072      R7.5500
   X82.2814      Y55.5823      R7.5500
   X83.1866      Y54.2276      R7.5500
   X83.9072      Y52.7664      R7.5500
   X84.4309      Y51.2237      R7.5500
   X84.7487      Y49.6257      R7.5500
   X84.8500      Y48.0802      R7.5500
G1   Y37.000
   Y29.000
(Pass: 15)
   Z-1.500
   Y17.920
G17 G3   X84.7487      Y16.3743      R7.5500
   X84.4309      Y14.7763      R7.5500
   X83.9072      Y13.2336      R7.5500
   X83.1866      Y11.7724      R7.5500
   X82.2814      Y10.4177      R7.5500
   X81.2072      Y9.1928       R7.5500
   X79.9823      Y8.1186       R7.5500
   X78.6276      Y7.2134       R7.5500
   X77.1664      Y6.4928       R7.5500
   X75.6237      Y5.9691       R7.5500
   X74.0257      Y5.6513       R7.5500
   X72.4802      Y5.5500       R7.5500
G1   X46.378
   X38.378
   X17.920
G17 G3   X16.3743      Y5.6513       R7.5500
   X14.7763      Y5.9691       R7.5500
   X13.2336      Y6.4928       R7.5500
   X11.7724      Y7.2134       R7.5500
   X10.4177      Y8.1186       R7.5500
   X9.1928       Y9.1928       R7.5500
   X8.1186       Y10.4177      R7.5500
   X7.2134       Y11.7724      R7.5500
   X6.4928       Y13.2336      R7.5500
   X5.9691       Y14.7763      R7.5500
   X5.6513       Y16.3743      R7.5500
   X5.5500       Y17.9198      R7.5500
G1   Y29.000
   Y37.000
   Y48.080
G17 G3   X5.6513       Y49.6257      R7.5500
   X5.9691       Y51.2237      R7.5500
   X6.4928       Y52.7664      R7.5500
   X7.2134       Y54.2276      R7.5500
   X8.1186       Y55.5823      R7.5500
   X9.1928       Y56.8072      R7.5500
   X10.4177      Y57.8814      R7.5500
   X11.7724      Y58.7866      R7.5500
   X13.2336      Y59.5072      R7.5500
   X14.7763      Y60.0309      R7.5500
   X16.3743      Y60.3487      R7.5500
   X17.9198      Y60.4500      R7.5500
G1   X37.156
   X45.156
   X72.480
G17 G3   X74.0257      Y60.3487      R7.5500
   X75.6237      Y60.0309      R7.5500
   X77.1664      Y59.5072      R7.5500
   X78.6276      Y58.7866      R7.5500
   X79.9823      Y57.8814      R7.5500
   X81.2072      Y56.8072      R7.5500
   X82.2814      Y55.5823      R7.5500
   X83.1866      Y54.2276      R7.5500
   X83.9072      Y52.7664      R7.5500
   X84.4309      Y51.2237      R7.5500
   X84.7487      Y49.6257      R7.5500
   X84.8500      Y48.0802      R7.5500
G1   Y37.000
   Y29.000
(Pass: 16)
   Z-1.600
   Y17.920
G17 G3   X84.7487      Y16.3743      R7.5500
   X84.4309      Y14.7763      R7.5500
   X83.9072      Y13.2336      R7.5500
   X83.1866      Y11.7724      R7.5500
   X82.2814      Y10.4177      R7.5500
   X81.2072      Y9.1928       R7.5500
   X79.9823      Y8.1186       R7.5500
   X78.6276      Y7.2134       R7.5500
   X77.1664      Y6.4928       R7.5500
   X75.6237      Y5.9691       R7.5500
   X74.0257      Y5.6513       R7.5500
   X72.4802      Y5.5500       R7.5500
G1   X46.378
   X38.378
   X17.920
G17 G3   X16.3743      Y5.6513       R7.5500
   X14.7763      Y5.9691       R7.5500
   X13.2336      Y6.4928       R7.5500
   X11.7724      Y7.2134       R7.5500
   X10.4177      Y8.1186       R7.5500
   X9.1928       Y9.1928       R7.5500
   X8.1186       Y10.4177      R7.5500
   X7.2134       Y11.7724      R7.5500
   X6.4928       Y13.2336      R7.5500
   X5.9691       Y14.7763      R7.5500
   X5.6513       Y16.3743      R7.5500
   X5.5500       Y17.9198      R7.5500
G1   Y29.000
   Y37.000
   Y48.080
G17 G3   X5.6513       Y49.6257      R7.5500
   X5.9691       Y51.2237      R7.5500
   X6.4928       Y52.7664      R7.5500
   X7.2134       Y54.2276      R7.5500
   X8.1186       Y55.5823      R7.5500
   X9.1928       Y56.8072      R7.5500
   X10.4177      Y57.8814      R7.5500
   X11.7724      Y58.7866      R7.5500
   X13.2336      Y59.5072      R7.5500
   X14.7763      Y60.0309      R7.5500
   X16.3743      Y60.3487      R7.5500
   X17.9198      Y60.4500      R7.5500
G1   X37.156
   X45.156
   X72.480
G17 G3   X74.0257      Y60.3487      R7.5500
   X75.6237      Y60.0309      R7.5500
   X77.1664      Y59.5072      R7.5500
   X78.6276      Y58.7866      R7.5500
   X79.9823      Y57.8814      R7.5500
   X81.2072      Y56.8072      R7.5500
   X82.2814      Y55.5823      R7.5500
   X83.1866      Y54.2276      R7.5500
   X83.9072      Y52.7664      R7.5500
   X84.4309      Y51.2237      R7.5500
   X84.7487      Y49.6257      R7.5500
   X84.8500      Y48.0802      R7.5500
G1   Y37.000
   Y29.000
(Pass: 17)
   Z-1.700
   Y17.920
G17 G3   X84.7487      Y16.3743      R7.5500
   X84.4309      Y14.7763      R7.5500
   X83.9072      Y13.2336      R7.5500
   X83.1866      Y11.7724      R7.5500
   X82.2814      Y10.4177      R7.5500
   X81.2072      Y9.1928       R7.5500
   X79.9823      Y8.1186       R7.5500
   X78.6276      Y7.2134       R7.5500
   X77.1664      Y6.4928       R7.5500
   X75.6237      Y5.9691       R7.5500
   X74.0257      Y5.6513       R7.5500
   X72.4802      Y5.5500       R7.5500
G1   X46.378
   X38.378
   X17.920
G17 G3   X16.3743      Y5.6513       R7.5500
   X14.7763      Y5.9691       R7.5500
   X13.2336      Y6.4928       R7.5500
   X11.7724      Y7.2134       R7.5500
   X10.4177      Y8.1186       R7.5500
   X9.1928       Y9.1928       R7.5500
   X8.1186       Y10.4177      R7.5500
   X7.2134       Y11.7724      R7.5500
   X6.4928       Y13.2336      R7.5500
   X5.9691       Y14.7763      R7.5500
   X5.6513       Y16.3743      R7.5500
   X5.5500       Y17.9198      R7.5500
G1   Y29.000
   Y37.000
   Y48.080
G17 G3   X5.6513       Y49.6257      R7.5500
   X5.9691       Y51.2237      R7.5500
   X6.4928       Y52.7664      R7.5500
   X7.2134       Y54.2276      R7.5500
   X8.1186       Y55.5823      R7.5500
   X9.1928       Y56.8072      R7.5500
   X10.4177      Y57.8814      R7.5500
   X11.7724      Y58.7866      R7.5500
   X13.2336      Y59.5072      R7.5500
   X14.7763      Y60.0309      R7.5500
   X16.3743      Y60.3487      R7.5500
   X17.9198      Y60.4500      R7.5500
G1   X37.156
   X45.156
   X72.480
G17 G3   X74.0257      Y60.3487      R7.5500
   X75.6237      Y60.0309      R7.5500
   X77.1664      Y59.5072      R7.5500
   X78.6276      Y58.7866      R7.5500
   X79.9823      Y57.8814      R7.5500
   X81.2072      Y56.8072      R7.5500
   X82.2814      Y55.5823      R7.5500
   X83.1866      Y54.2276      R7.5500
   X83.9072      Y52.7664      R7.5500
   X84.4309      Y51.2237      R7.5500
   X84.7487      Y49.6257      R7.5500
   X84.8500      Y48.0802      R7.5500
G1   Y37.000
   Y29.000
(Pass: 18)
   Z-1.800
   Y17.920
G17 G3   X84.7487      Y16.3743      R7.5500
   X84.4309      Y14.7763      R7.5500
   X83.9072      Y13.2336      R7.5500
   X83.1866      Y11.7724      R7.5500
   X82.2814      Y10.4177      R7.5500
   X81.2072      Y9.1928       R7.5500
   X79.9823      Y8.1186       R7.5500
   X78.6276      Y7.2134       R7.5500
   X77.1664      Y6.4928       R7.5500
   X75.6237      Y5.9691       R7.5500
   X74.0257      Y5.6513       R7.5500
   X72.4802      Y5.5500       R7.5500
G1   X46.378
   Z-1.750
   X38.378
   Z-1.800
   X17.920
G17 G3   X16.3743      Y5.6513       R7.5500
   X14.7763      Y5.9691       R7.5500
   X13.2336      Y6.4928       R7.5500
   X11.7724      Y7.2134       R7.5500
   X10.4177      Y8.1186       R7.5500
   X9.1928       Y9.1928       R7.5500
   X8.1186       Y10.4177      R7.5500
   X7.2134       Y11.7724      R7.5500
   X6.4928       Y13.2336      R7.5500
   X5.9691       Y14.7763      R7.5500
   X5.6513       Y16.3743      R7.5500
   X5.5500       Y17.9198      R7.5500
G1   Y29.000
   Z-1.750
   Y37.000
   Z-1.800
   Y48.080
G17 G3   X5.6513       Y49.6257      R7.5500
   X5.9691       Y51.2237      R7.5500
   X6.4928       Y52.7664      R7.5500
   X7.2134       Y54.2276      R7.5500
   X8.1186       Y55.5823      R7.5500
   X9.1928       Y56.8072      R7.5500
   X10.4177      Y57.8814      R7.5500
   X11.7724      Y58.7866      R7.5500
   X13.2336      Y59.5072      R7.5500
   X14.7763      Y60.0309      R7.5500
   X16.3743      Y60.3487      R7.5500
   X17.9198      Y60.4500      R7.5500
G1   X37.156
   Z-1.750
   X45.156
   Z-1.800
   X72.480
G17 G3   X74.0257      Y60.3487      R7.5500
   X75.6237      Y60.0309      R7.5500
   X77.1664      Y59.5072      R7.5500
   X78.6276      Y58.7866      R7.5500
   X79.9823      Y57.8814      R7.5500
   X81.2072      Y56.8072      R7.5500
   X82.2814      Y55.5823      R7.5500
   X83.1866      Y54.2276      R7.5500
   X83.9072      Y52.7664      R7.5500
   X84.4309      Y51.2237      R7.5500
   X84.7487      Y49.6257      R7.5500
   X84.8500      Y48.0802      R7.5500
G1   Y37.000
   Z-1.750
   Y29.000
   Z-1.800
(Pass: 19)
   Z-1.900
   Y17.920
G17 G3   X84.7487      Y16.3743      R7.5500
   X84.4309      Y14.7763      R7.5500
   X83.9072      Y13.2336      R7.5500
   X83.1866      Y11.7724      R7.5500
   X82.2814      Y10.4177      R7.5500
   X81.2072      Y9.1928       R7.5500
   X79.9823      Y8.1186       R7.5500
   X78.6276      Y7.2134       R7.5500
   X77.1664      Y6.4928       R7.5500
   X75.6237      Y5.9691       R7.5500
   X74.0257      Y5.6513       R7.5500
   X72.4802      Y5.5500       R7.5500
G1   X46.378
   Z-1.750
   X38.378
   Z-1.900
   X17.920
G17 G3   X16.3743      Y5.6513       R7.5500
   X14.7763      Y5.9691       R7.5500
   X13.2336      Y6.4928       R7.5500
   X11.7724      Y7.2134       R7.5500
   X10.4177      Y8.1186       R7.5500
   X9.1928       Y9.1928       R7.5500
   X8.1186       Y10.4177      R7.5500
   X7.2134       Y11.7724      R7.5500
   X6.4928       Y13.2336      R7.5500
   X5.9691       Y14.7763      R7.5500
   X5.6513       Y16.3743      R7.5500
   X5.5500       Y17.9198      R7.5500
G1   Y29.000
   Z-1.750
   Y37.000
   Z-1.900
   Y48.080
G17 G3   X5.6513       Y49.6257      R7.5500
   X5.9691       Y51.2237      R7.5500
   X6.4928       Y52.7664      R7.5500
   X7.2134       Y54.2276      R7.5500
   X8.1186       Y55.5823      R7.5500
   X9.1928       Y56.8072      R7.5500
   X10.4177      Y57.8814      R7.5500
   X11.7724      Y58.7866      R7.5500
   X13.2336      Y59.5072      R7.5500
   X14.7763      Y60.0309      R7.5500
   X16.3743      Y60.3487      R7.5500
   X17.9198      Y60.4500      R7.5500
G1   X37.156
   Z-1.750
   X45.156
   Z-1.900
   X72.480
G17 G3   X74.0257      Y60.3487      R7.5500
   X75.6237      Y60.0309      R7.5500
   X77.1664      Y59.5072      R7.5500
   X78.6276      Y58.7866      R7.5500
   X79.9823      Y57.8814      R7.5500
   X81.2072      Y56.8072      R7.5500
   X82.2814      Y55.5823      R7.5500
   X83.1866      Y54.2276      R7.5500
   X83.9072      Y52.7664      R7.5500
   X84.4309      Y51.2237      R7.5500
   X84.7487      Y49.6257      R7.5500
   X84.8500      Y48.0802      R7.5500
G1   Y37.000
   Z-1.750
   Y29.000
   Z-1.900
(Pass: 20)
   Z-2.000
   Y17.920
G17 G3   X84.7487      Y16.3743      R7.5500
   X84.4309      Y14.7763      R7.5500
   X83.9072      Y13.2336      R7.5500
   X83.1866      Y11.7724      R7.5500
   X82.2814      Y10.4177      R7.5500
   X81.2072      Y9.1928       R7.5500
   X79.9823      Y8.1186       R7.5500
   X78.6276      Y7.2134       R7.5500
   X77.1664      Y6.4928       R7.5500
   X75.6237      Y5.9691       R7.5500
   X74.0257      Y5.6513       R7.5500
   X72.4802      Y5.5500       R7.5500
G1   X46.378
   Z-1.750
   X38.378
   Z-2.000
   X17.920
G17 G3   X16.3743      Y5.6513       R7.5500
   X14.7763      Y5.9691       R7.5500
   X13.2336      Y6.4928       R7.5500
   X11.7724      Y7.2134       R7.5500
   X10.4177      Y8.1186       R7.5500
   X9.1928       Y9.1928       R7.5500
   X8.1186       Y10.4177      R7.5500
   X7.2134       Y11.7724      R7.5500
   X6.4928       Y13.2336      R7.5500
   X5.9691       Y14.7763      R7.5500
   X5.6513       Y16.3743      R7.5500
   X5.5500       Y17.9198      R7.5500
G1   Y29.000
   Z-1.750
   Y37.000
   Z-2.000
   Y48.080
G17 G3   X5.6513       Y49.6257      R7.5500
   X5.9691       Y51.2237      R7.5500
   X6.4928       Y52.7664      R7.5500
   X7.2134       Y54.2276      R7.5500
   X8.1186       Y55.5823      R7.5500
   X9.1928       Y56.8072      R7.5500
   X10.4177      Y57.8814      R7.5500
   X11.7724      Y58.7866      R7.5500
   X13.2336      Y59.5072      R7.5500
   X14.7763      Y60.0309      R7.5500
   X16.3743      Y60.3487      R7.5500
   X17.9198      Y60.4500      R7.5500
G1   X37.156
   Z-1.750
   X45.156
   Z-2.000
   X72.480
G17 G3   X74.0257      Y60.3487      R7.5500
   X75.6237      Y60.0309      R7.5500
   X77.1664      Y59.5072      R7.5500
   X78.6276      Y58.7866      R7.5500
   X79.9823      Y57.8814      R7.5500
   X81.2072      Y56.8072      R7.5500
   X82.2814      Y55.5823      R7.5500
   X83.1866      Y54.2276      R7.5500
   X83.9072      Y52.7664      R7.5500
   X84.4309      Y51.2237      R7.5500
   X84.7487      Y49.6257      R7.5500
   X84.8500      Y48.0802      R7.5500
G1   Y37.000
   Z-1.750
   Y29.000
   Z-2.000
(Pass: 21)
   Z-2.100
   Y17.920
G17 G3   X84.7487      Y16.3743      R7.5500
   X84.4309      Y14.7763      R7.5500
   X83.9072      Y13.2336      R7.5500
   X83.1866      Y11.7724      R7.5500
   X82.2814      Y10.4177      R7.5500
   X81.2072      Y9.1928       R7.5500
   X79.9823      Y8.1186       R7.5500
   X78.6276      Y7.2134       R7.5500
   X77.1664      Y6.4928       R7.5500
   X75.6237      Y5.9691       R7.5500
   X74.0257      Y5.6513       R7.5500
   X72.4802      Y5.5500       R7.5500
G1   X46.378
   Z-1.750
   X38.378
   Z-2.100
   X17.920
G17 G3   X16.3743      Y5.6513       R7.5500
   X14.7763      Y5.9691       R7.5500
   X13.2336      Y6.4928       R7.5500
   X11.7724      Y7.2134       R7.5500
   X10.4177      Y8.1186       R7.5500
   X9.1928       Y9.1928       R7.5500
   X8.1186       Y10.4177      R7.5500
   X7.2134       Y11.7724      R7.5500
   X6.4928       Y13.2336      R7.5500
   X5.9691       Y14.7763      R7.5500
   X5.6513       Y16.3743      R7.5500
   X5.5500       Y17.9198      R7.5500
G1   Y29.000
   Z-1.750
   Y37.000
   Z-2.100
   Y48.080
G17 G3   X5.6513       Y49.6257      R7.5500
   X5.9691       Y51.2237      R7.5500
   X6.4928       Y52.7664      R7.5500
   X7.2134       Y54.2276      R7.5500
   X8.1186       Y55.5823      R7.5500
   X9.1928       Y56.8072      R7.5500
   X10.4177      Y57.8814      R7.5500
   X11.7724      Y58.7866      R7.5500
   X13.2336      Y59.5072      R7.5500
   X14.7763      Y60.0309      R7.5500
   X16.3743      Y60.3487      R7.5500
   X17.9198      Y60.4500      R7.5500
G1   X37.156
   Z-1.750
   X45.156
   Z-2.100
   X72.480
G17 G3   X74.0257      Y60.3487      R7.5500
   X75.6237      Y60.0309      R7.5500
   X77.1664      Y59.5072      R7.5500
   X78.6276      Y58.7866      R7.5500
   X79.9823      Y57.8814      R7.5500
   X81.2072      Y56.8072      R7.5500
   X82.2814      Y55.5823      R7.5500
   X83.1866      Y54.2276      R7.5500
   X83.9072      Y52.7664      R7.5500
   X84.4309      Y51.2237      R7.5500
   X84.7487      Y49.6257      R7.5500
   X84.8500      Y48.0802      R7.5500
G1   Y37.000
   Z-1.750
   Y29.000
   Z-2.100
(Pass: 22)
   Z-2.200
   Y17.920
G17 G3   X84.7487      Y16.3743      R7.5500
   X84.4309      Y14.7763      R7.5500
   X83.9072      Y13.2336      R7.5500
   X83.1866      Y11.7724      R7.5500
   X82.2814      Y10.4177      R7.5500
   X81.2072      Y9.1928       R7.5500
   X79.9823      Y8.1186       R7.5500
   X78.6276      Y7.2134       R7.5500
   X77.1664      Y6.4928       R7.5500
   X75.6237      Y5.9691       R7.5500
   X74.0257      Y5.6513       R7.5500
   X72.4802      Y5.5500       R7.5500
G1   X46.378
   Z-1.750
   X38.378
   Z-2.200
   X17.920
G17 G3   X16.3743      Y5.6513       R7.5500
   X14.7763      Y5.9691       R7.5500
   X13.2336      Y6.4928       R7.5500
   X11.7724      Y7.2134       R7.5500
   X10.4177      Y8.1186       R7.5500
   X9.1928       Y9.1928       R7.5500
   X8.1186       Y10.4177      R7.5500
   X7.2134       Y11.7724      R7.5500
   X6.4928       Y13.2336      R7.5500
   X5.9691       Y14.7763      R7.5500
   X5.6513       Y16.3743      R7.5500
   X5.5500       Y17.9198      R7.5500
G1   Y29.000
   Z-1.750
   Y37.000
   Z-2.200
   Y48.080
G17 G3   X5.6513       Y49.6257      R7.5500
   X5.9691       Y51.2237      R7.5500
   X6.4928       Y52.7664      R7.5500
   X7.2134       Y54.2276      R7.5500
   X8.1186       Y55.5823      R7.5500
   X9.1928       Y56.8072      R7.5500
   X10.4177      Y57.8814      R7.5500
   X11.7724      Y58.7866      R7.5500
   X13.2336      Y59.5072      R7.5500
   X14.7763      Y60.0309      R7.5500
   X16.3743      Y60.3487      R7.5500
   X17.9198      Y60.4500      R7.5500
G1   X37.156
   Z-1.750
   X45.156
   Z-2.200
   X72.480
G17 G3   X74.0257      Y60.3487      R7.5500
   X75.6237      Y60.0309      R7.5500
   X77.1664      Y59.5072      R7.5500
   X78.6276      Y58.7866      R7.5500
   X79.9823      Y57.8814      R7.5500
   X81.2072      Y56.8072      R7.5500
   X82.2814      Y55.5823      R7.5500
   X83.1866      Y54.2276      R7.5500
   X83.9072      Y52.7664      R7.5500
   X84.4309      Y51.2237      R7.5500
   X84.7487      Y49.6257      R7.5500
   X84.8500      Y48.0802      R7.5500
G1   Y37.000
   Z-1.750
   Y29.000
   Z-2.200
(Pass: 23)
   Z-2.300
   Y17.920
G17 G3   X84.7487      Y16.3743      R7.5500
   X84.4309      Y14.7763      R7.5500
   X83.9072      Y13.2336      R7.5500
   X83.1866      Y11.7724      R7.5500
   X82.2814      Y10.4177      R7.5500
   X81.2072      Y9.1928       R7.5500
   X79.9823      Y8.1186       R7.5500
   X78.6276      Y7.2134       R7.5500
   X77.1664      Y6.4928       R7.5500
   X75.6237      Y5.9691       R7.5500
   X74.0257      Y5.6513       R7.5500
   X72.4802      Y5.5500       R7.5500
G1   X46.378
   Z-1.750
   X38.378
   Z-2.300
   X17.920
G17 G3   X16.3743      Y5.6513       R7.5500
   X14.7763      Y5.9691       R7.5500
   X13.2336      Y6.4928       R7.5500
   X11.7724      Y7.2134       R7.5500
   X10.4177      Y8.1186       R7.5500
   X9.1928       Y9.1928       R7.5500
   X8.1186       Y10.4177      R7.5500
   X7.2134       Y11.7724      R7.5500
   X6.4928       Y13.2336      R7.5500
   X5.9691       Y14.7763      R7.5500
   X5.6513       Y16.3743      R7.5500
   X5.5500       Y17.9198      R7.5500
G1   Y29.000
   Z-1.750
   Y37.000
   Z-2.300
   Y48.080
G17 G3   X5.6513       Y49.6257      R7.5500
   X5.9691       Y51.2237      R7.5500
   X6.4928       Y52.7664      R7.5500
   X7.2134       Y54.2276      R7.5500
   X8.1186       Y55.5823      R7.5500
   X9.1928       Y56.8072      R7.5500
   X10.4177      Y57.8814      R7.5500
   X11.7724      Y58.7866      R7.5500
   X13.2336      Y59.5072      R7.5500
   X14.7763      Y60.0309      R7.5500
   X16.3743      Y60.3487      R7.5500
   X17.9198      Y60.4500      R7.5500
G1   X37.156
   Z-1.750
   X45.156
   Z-2.300
   X72.480
G17 G3   X74.0257      Y60.3487      R7.5500
   X75.6237      Y60.0309      R7.5500
   X77.1664      Y59.5072      R7.5500
   X78.6276      Y58.7866      R7.5500
   X79.9823      Y57.8814      R7.5500
   X81.2072      Y56.8072      R7.5500
   X82.2814      Y55.5823      R7.5500
   X83.1866      Y54.2276      R7.5500
   X83.9072      Y52.7664      R7.5500
   X84.4309      Y51.2237      R7.5500
   X84.7487      Y49.6257      R7.5500
   X84.8500      Y48.0802      R7.5500
G1   Y37.000
   Z-1.750
   Y29.000
   Z-2.300
(Pass: 24)
   Z-2.400
   Y17.920
G17 G3   X84.7487      Y16.3743      R7.5500
   X84.4309      Y14.7763      R7.5500
   X83.9072      Y13.2336      R7.5500
   X83.1866      Y11.7724      R7.5500
   X82.2814      Y10.4177      R7.5500
   X81.2072      Y9.1928       R7.5500
   X79.9823      Y8.1186       R7.5500
   X78.6276      Y7.2134       R7.5500
   X77.1664      Y6.4928       R7.5500
   X75.6237      Y5.9691       R7.5500
   X74.0257      Y5.6513       R7.5500
   X72.4802      Y5.5500       R7.5500
G1   X46.378
   Z-1.750
   X38.378
   Z-2.400
   X17.920
G17 G3   X16.3743      Y5.6513       R7.5500
   X14.7763      Y5.9691       R7.5500
   X13.2336      Y6.4928       R7.5500
   X11.7724      Y7.2134       R7.5500
   X10.4177      Y8.1186       R7.5500
   X9.1928       Y9.1928       R7.5500
   X8.1186       Y10.4177      R7.5500
   X7.2134       Y11.7724      R7.5500
   X6.4928       Y13.2336      R7.5500
   X5.9691       Y14.7763      R7.5500
   X5.6513       Y16.3743      R7.5500
   X5.5500       Y17.9198      R7.5500
G1   Y29.000
   Z-1.750
   Y37.000
   Z-2.400
   Y48.080
G17 G3   X5.6513       Y49.6257      R7.5500
   X5.9691       Y51.2237      R7.5500
   X6.4928       Y52.7664      R7.5500
   X7.2134       Y54.2276      R7.5500
   X8.1186       Y55.5823      R7.5500
   X9.1928       Y56.8072      R7.5500
   X10.4177      Y57.8814      R7.5500
   X11.7724      Y58.7866      R7.5500
   X13.2336      Y59.5072      R7.5500
   X14.7763      Y60.0309      R7.5500
   X16.3743      Y60.3487      R7.5500
   X17.9198      Y60.4500      R7.5500
G1   X37.156
   Z-1.750
   X45.156
   Z-2.400
   X72.480
G17 G3   X74.0257      Y60.3487      R7.5500
   X75.6237      Y60.0309      R7.5500
   X77.1664      Y59.5072      R7.5500
   X78.6276      Y58.7866      R7.5500
   X79.9823      Y57.8814      R7.5500
   X81.2072      Y56.8072      R7.5500
   X82.2814      Y55.5823      R7.5500
   X83.1866      Y54.2276      R7.5500
   X83.9072      Y52.7664      R7.5500
   X84.4309      Y51.2237      R7.5500
   X84.7487      Y49.6257      R7.5500
   X84.8500      Y48.0802      R7.5500
G1   Y37.000
   Z-1.750
   Y29.000
   Z-2.400
(Pass: 25)
   Z-2.500
   Y17.920
G17 G3   X84.7487      Y16.3743      R7.5500
   X84.4309      Y14.7763      R7.5500
   X83.9072      Y13.2336      R7.5500
   X83.1866      Y11.7724      R7.5500
   X82.2814      Y10.4177      R7.5500
   X81.2072      Y9.1928       R7.5500
   X79.9823      Y8.1186       R7.5500
   X78.6276      Y7.2134       R7.5500
   X77.1664      Y6.4928       R7.5500
   X75.6237      Y5.9691       R7.5500
   X74.0257      Y5.6513       R7.5500
   X72.4802      Y5.5500       R7.5500
G1   X46.378
   Z-1.750
   X38.378
   Z-2.500
   X17.920
G17 G3   X16.3743      Y5.6513       R7.5500
   X14.7763      Y5.9691       R7.5500
   X13.2336      Y6.4928       R7.5500
   X11.7724      Y7.2134       R7.5500
   X10.4177      Y8.1186       R7.5500
   X9.1928       Y9.1928       R7.5500
   X8.1186       Y10.4177      R7.5500
   X7.2134       Y11.7724      R7.5500
   X6.4928       Y13.2336      R7.5500
   X5.9691       Y14.7763      R7.5500
   X5.6513       Y16.3743      R7.5500
   X5.5500       Y17.9198      R7.5500
G1   Y29.000
   Z-1.750
   Y37.000
   Z-2.500
   Y48.080
G17 G3   X5.6513       Y49.6257      R7.5500
   X5.9691       Y51.2237      R7.5500
   X6.4928       Y52.7664      R7.5500
   X7.2134       Y54.2276      R7.5500
   X8.1186       Y55.5823      R7.5500
   X9.1928       Y56.8072      R7.5500
   X10.4177      Y57.8814      R7.5500
   X11.7724      Y58.7866      R7.5500
   X13.2336      Y59.5072      R7.5500
   X14.7763      Y60.0309      R7.5500
   X16.3743      Y60.3487      R7.5500
   X17.9198      Y60.4500      R7.5500
G1   X37.156
   Z-1.750
   X45.156
   Z-2.500
   X72.480
G17 G3   X74.0257      Y60.3487      R7.5500
   X75.6237      Y60.0309      R7.5500
   X77.1664      Y59.5072      R7.5500
   X78.6276      Y58.7866      R7.5500
   X79.9823      Y57.8814      R7.5500
   X81.2072      Y56.8072      R7.5500
   X82.2814      Y55.5823      R7.5500
   X83.1866      Y54.2276      R7.5500
   X83.9072      Y52.7664      R7.5500
   X84.4309      Y51.2237      R7.5500
   X84.7487      Y49.6257      R7.5500
   X84.8500      Y48.0802      R7.5500
G1   Y37.000
   Z-1.750
   Y29.000
   Z-2.500
(Pass: 26)
   Z-2.600
   Y17.920
G17 G3   X84.7487      Y16.3743      R7.5500
   X84.4309      Y14.7763      R7.5500
   X83.9072      Y13.2336      R7.5500
   X83.1866      Y11.7724      R7.5500
   X82.2814      Y10.4177      R7.5500
   X81.2072      Y9.1928       R7.5500
   X79.9823      Y8.1186       R7.5500
   X78.6276      Y7.2134       R7.5500
   X77.1664      Y6.4928       R7.5500
   X75.6237      Y5.9691       R7.5500
   X74.0257      Y5.6513       R7.5500
   X72.4802      Y5.5500       R7.5500
G1   X46.378
   Z-1.750
   X38.378
   Z-2.600
   X17.920
G17 G3   X16.3743      Y5.6513       R7.5500
   X14.7763      Y5.9691       R7.5500
   X13.2336      Y6.4928       R7.5500
   X11.7724      Y7.2134       R7.5500
   X10.4177      Y8.1186       R7.5500
   X9.1928       Y9.1928       R7.5500
   X8.1186       Y10.4177      R7.5500
   X7.2134       Y11.7724      R7.5500
   X6.4928       Y13.2336      R7.5500
   X5.9691       Y14.7763      R7.5500
   X5.6513       Y16.3743      R7.5500
   X5.5500       Y17.9198      R7.5500
G1   Y29.000
   Z-1.750
   Y37.000
   Z-2.600
   Y48.080
G17 G3   X5.6513       Y49.6257      R7.5500
   X5.9691       Y51.2237      R7.5500
   X6.4928       Y52.7664      R7.5500
   X7.2134       Y54.2276      R7.5500
   X8.1186       Y55.5823      R7.5500
   X9.1928       Y56.8072      R7.5500
   X10.4177      Y57.8814      R7.5500
   X11.7724      Y58.7866      R7.5500
   X13.2336      Y59.5072      R7.5500
   X14.7763      Y60.0309      R7.5500
   X16.3743      Y60.3487      R7.5500
   X17.9198      Y60.4500      R7.5500
G1   X37.156
   Z-1.750
   X45.156
   Z-2.600
   X72.480
G17 G3   X74.0257      Y60.3487      R7.5500
   X75.6237      Y60.0309      R7.5500
   X77.1664      Y59.5072      R7.5500
   X78.6276      Y58.7866      R7.5500
   X79.9823      Y57.8814      R7.5500
   X81.2072      Y56.8072      R7.5500
   X82.2814      Y55.5823      R7.5500
   X83.1866      Y54.2276      R7.5500
   X83.9072      Y52.7664      R7.5500
   X84.4309      Y51.2237      R7.5500
   X84.7487      Y49.6257      R7.5500
   X84.8500      Y48.0802      R7.5500
G1   Y37.000
   Z-1.750
   Y29.000
   Z-2.600
(Pass: 27)
   Z-2.700
   Y17.920
G17 G3   X84.7487      Y16.3743      R7.5500
   X84.4309      Y14.7763      R7.5500
   X83.9072      Y13.2336      R7.5500
   X83.1866      Y11.7724      R7.5500
   X82.2814      Y10.4177      R7.5500
   X81.2072      Y9.1928       R7.5500
   X79.9823      Y8.1186       R7.5500
   X78.6276      Y7.2134       R7.5500
   X77.1664      Y6.4928       R7.5500
   X75.6237      Y5.9691       R7.5500
   X74.0257      Y5.6513       R7.5500
   X72.4802      Y5.5500       R7.5500
G1   X46.378
   Z-1.750
   X38.378
   Z-2.700
   X17.920
G17 G3   X16.3743      Y5.6513       R7.5500
   X14.7763      Y5.9691       R7.5500
   X13.2336      Y6.4928       R7.5500
   X11.7724      Y7.2134       R7.5500
   X10.4177      Y8.1186       R7.5500
   X9.1928       Y9.1928       R7.5500
   X8.1186       Y10.4177      R7.5500
   X7.2134       Y11.7724      R7.5500
   X6.4928       Y13.2336      R7.5500
   X5.9691       Y14.7763      R7.5500
   X5.6513       Y16.3743      R7.5500
   X5.5500       Y17.9198      R7.5500
G1   Y29.000
   Z-1.750
   Y37.000
   Z-2.700
   Y48.080
G17 G3   X5.6513       Y49.6257      R7.5500
   X5.9691       Y51.2237      R7.5500
   X6.4928       Y52.7664      R7.5500
   X7.2134       Y54.2276      R7.5500
   X8.1186       Y55.5823      R7.5500
   X9.1928       Y56.8072      R7.5500
   X10.4177      Y57.8814      R7.5500
   X11.7724      Y58.7866      R7.5500
   X13.2336      Y59.5072      R7.5500
   X14.7763      Y60.0309      R7.5500
   X16.3743      Y60.3487      R7.5500
   X17.9198      Y60.4500      R7.5500
G1   X37.156
   Z-1.750
   X45.156
   Z-2.700
   X72.480
G17 G3   X74.0257      Y60.3487      R7.5500
   X75.6237      Y60.0309      R7.5500
   X77.1664      Y59.5072      R7.5500
   X78.6276      Y58.7866      R7.5500
   X79.9823      Y57.8814      R7.5500
   X81.2072      Y56.8072      R7.5500
   X82.2814      Y55.5823      R7.5500
   X83.1866      Y54.2276      R7.5500
   X83.9072      Y52.7664      R7.5500
   X84.4309      Y51.2237      R7.5500
   X84.7487      Y49.6257      R7.5500
   X84.8500      Y48.0802      R7.5500
G1   Y37.000
   Z-1.750
   Y29.000
   Z-2.700
(Pass: 28)
   Z-2.800
   Y17.920
G17 G3   X84.7487      Y16.3743      R7.5500
   X84.4309      Y14.7763      R7.5500
   X83.9072      Y13.2336      R7.5500
   X83.1866      Y11.7724      R7.5500
   X82.2814      Y10.4177      R7.5500
   X81.2072      Y9.1928       R7.5500
   X79.9823      Y8.1186       R7.5500
   X78.6276      Y7.2134       R7.5500
   X77.1664      Y6.4928       R7.5500
   X75.6237      Y5.9691       R7.5500
   X74.0257      Y5.6513       R7.5500
   X72.4802      Y5.5500       R7.5500
G1   X46.378
   Z-1.750
   X38.378
   Z-2.800
   X17.920
G17 G3   X16.3743      Y5.6513       R7.5500
   X14.7763      Y5.9691       R7.5500
   X13.2336      Y6.4928       R7.5500
   X11.7724      Y7.2134       R7.5500
   X10.4177      Y8.1186       R7.5500
   X9.1928       Y9.1928       R7.5500
   X8.1186       Y10.4177      R7.5500
   X7.2134       Y11.7724      R7.5500
   X6.4928       Y13.2336      R7.5500
   X5.9691       Y14.7763      R7.5500
   X5.6513       Y16.3743      R7.5500
   X5.5500       Y17.9198      R7.5500
G1   Y29.000
   Z-1.750
   Y37.000
   Z-2.800
   Y48.080
G17 G3   X5.6513       Y49.6257      R7.5500
   X5.9691       Y51.2237      R7.5500
   X6.4928       Y52.7664      R7.5500
   X7.2134       Y54.2276      R7.5500
   X8.1186       Y55.5823      R7.5500
   X9.1928       Y56.8072      R7.5500
   X10.4177      Y57.8814      R7.5500
   X11.7724      Y58.7866      R7.5500
   X13.2336      Y59.5072      R7.5500
   X14.7763      Y60.0309      R7.5500
   X16.3743      Y60.3487      R7.5500
   X17.9198      Y60.4500      R7.5500
G1   X37.156
   Z-1.750
   X45.156
   Z-2.800
   X72.480
G17 G3   X74.0257      Y60.3487      R7.5500
   X75.6237      Y60.0309      R7.5500
   X77.1664      Y59.5072      R7.5500
   X78.6276      Y58.7866      R7.5500
   X79.9823      Y57.8814      R7.5500
   X81.2072      Y56.8072      R7.5500
   X82.2814      Y55.5823      R7.5500
   X83.1866      Y54.2276      R7.5500
   X83.9072      Y52.7664      R7.5500
   X84.4309      Y51.2237      R7.5500
   X84.7487      Y49.6257      R7.5500
   X84.8500      Y48.0802      R7.5500
G1   Y37.000
   Z-1.750
   Y29.000
   Z-2.800
(Pass: 29)
   Z-2.900
   Y17.920
G17 G3   X84.7487      Y16.3743      R7.5500
   X84.4309      Y14.7763      R7.5500
   X83.9072      Y13.2336      R7.5500
   X83.1866      Y11.7724      R7.5500
   X82.2814      Y10.4177      R7.5500
   X81.2072      Y9.1928       R7.5500
   X79.9823      Y8.1186       R7.5500
   X78.6276      Y7.2134       R7.5500
   X77.1664      Y6.4928       R7.5500
   X75.6237      Y5.9691       R7.5500
   X74.0257      Y5.6513       R7.5500
   X72.4802      Y5.5500       R7.5500
G1   X46.378
   Z-1.750
   X38.378
   Z-2.900
   X17.920
G17 G3   X16.3743      Y5.6513       R7.5500
   X14.7763      Y5.9691       R7.5500
   X13.2336      Y6.4928       R7.5500
   X11.7724      Y7.2134       R7.5500
   X10.4177      Y8.1186       R7.5500
   X9.1928       Y9.1928       R7.5500
   X8.1186       Y10.4177      R7.5500
   X7.2134       Y11.7724      R7.5500
   X6.4928       Y13.2336      R7.5500
   X5.9691       Y14.7763      R7.5500
   X5.6513       Y16.3743      R7.5500
   X5.5500       Y17.9198      R7.5500
G1   Y29.000
   Z-1.750
   Y37.000
   Z-2.900
   Y48.080
G17 G3   X5.6513       Y49.6257      R7.5500
   X5.9691       Y51.2237      R7.5500
   X6.4928       Y52.7664      R7.5500
   X7.2134       Y54.2276      R7.5500
   X8.1186       Y55.5823      R7.5500
   X9.1928       Y56.8072      R7.5500
   X10.4177      Y57.8814      R7.5500
   X11.7724      Y58.7866      R7.5500
   X13.2336      Y59.5072      R7.5500
   X14.7763      Y60.0309      R7.5500
   X16.3743      Y60.3487      R7.5500
   X17.9198      Y60.4500      R7.5500
G1   X37.156
   Z-1.750
   X45.156
   Z-2.900
   X72.480
G17 G3   X74.0257      Y60.3487      R7.5500
   X75.6237      Y60.0309      R7.5500
   X77.1664      Y59.5072      R7.5500
   X78.6276      Y58.7866      R7.5500
   X79.9823      Y57.8814      R7.5500
   X81.2072      Y56.8072      R7.5500
   X82.2814      Y55.5823      R7.5500
   X83.1866      Y54.2276      R7.5500
   X83.9072      Y52.7664      R7.5500
   X84.4309      Y51.2237      R7.5500
   X84.7487      Y49.6257      R7.5500
   X84.8500      Y48.0802      R7.5500
G1   Y37.000
   Z-1.750
   Y29.000
   Z-2.900
(Pass: 30)
   Z-3.000
   Y17.920
G17 G3   X84.7487      Y16.3743      R7.5500
   X84.4309      Y14.7763      R7.5500
   X83.9072      Y13.2336      R7.5500
   X83.1866      Y11.7724      R7.5500
   X82.2814      Y10.4177      R7.5500
   X81.2072      Y9.1928       R7.5500
   X79.9823      Y8.1186       R7.5500
   X78.6276      Y7.2134       R7.5500
   X77.1664      Y6.4928       R7.5500
   X75.6237      Y5.9691       R7.5500
   X74.0257      Y5.6513       R7.5500
   X72.4802      Y5.5500       R7.5500
G1   X46.378
   Z-1.750
   X38.378
   Z-3.000
   X17.920
G17 G3   X16.3743      Y5.6513       R7.5500
   X14.7763      Y5.9691       R7.5500
   X13.2336      Y6.4928       R7.5500
   X11.7724      Y7.2134       R7.5500
   X10.4177      Y8.1186       R7.5500
   X9.1928       Y9.1928       R7.5500
   X8.1186       Y10.4177      R7.5500
   X7.2134       Y11.7724      R7.5500
   X6.4928       Y13.2336      R7.5500
   X5.9691       Y14.7763      R7.5500
   X5.6513       Y16.3743      R7.5500
   X5.5500       Y17.9198      R7.5500
G1   Y29.000
   Z-1.750
   Y37.000
   Z-3.000
   Y48.080
G17 G3   X5.6513       Y49.6257      R7.5500
   X5.9691       Y51.2237      R7.5500
   X6.4928       Y52.7664      R7.5500
   X7.2134       Y54.2276      R7.5500
   X8.1186       Y55.5823      R7.5500
   X9.1928       Y56.8072      R7.5500
   X10.4177      Y57.8814      R7.5500
   X11.7724      Y58.7866      R7.5500
   X13.2336      Y59.5072      R7.5500
   X14.7763      Y60.0309      R7.5500
   X16.3743      Y60.3487      R7.5500
   X17.9198      Y60.4500      R7.5500
G1   X37.156
   Z-1.750
   X45.156
   Z-3.000
   X72.480
G17 G3   X74.0257      Y60.3487      R7.5500
   X75.6237      Y60.0309      R7.5500
   X77.1664      Y59.5072      R7.5500
   X78.6276      Y58.7866      R7.5500
   X79.9823      Y57.8814      R7.5500
   X81.2072      Y56.8072      R7.5500
   X82.2814      Y55.5823      R7.5500
   X83.1866      Y54.2276      R7.5500
   X83.9072      Y52.7664      R7.5500
   X84.4309      Y51.2237      R7.5500
   X84.7487      Y49.6257      R7.5500
   X84.8500      Y48.0802      R7.5500
G1   Y37.000
   Z-1.750
   Y29.000
   Z-3.000
(Pass: 31)
   Z-3.100
   Y17.920
G17 G3   X84.7487      Y16.3743      R7.5500
   X84.4309      Y14.7763      R7.5500
   X83.9072      Y13.2336      R7.5500
   X83.1866      Y11.7724      R7.5500
   X82.2814      Y10.4177      R7.5500
   X81.2072      Y9.1928       R7.5500
   X79.9823      Y8.1186       R7.5500
   X78.6276      Y7.2134       R7.5500
   X77.1664      Y6.4928       R7.5500
   X75.6237      Y5.9691       R7.5500
   X74.0257      Y5.6513       R7.5500
   X72.4802      Y5.5500       R7.5500
G1   X46.378
   Z-1.750
   X38.378
   Z-3.100
   X17.920
G17 G3   X16.3743      Y5.6513       R7.5500
   X14.7763      Y5.9691       R7.5500
   X13.2336      Y6.4928       R7.5500
   X11.7724      Y7.2134       R7.5500
   X10.4177      Y8.1186       R7.5500
   X9.1928       Y9.1928       R7.5500
   X8.1186       Y10.4177      R7.5500
   X7.2134       Y11.7724      R7.5500
   X6.4928       Y13.2336      R7.5500
   X5.9691       Y14.7763      R7.5500
   X5.6513       Y16.3743      R7.5500
   X5.5500       Y17.9198      R7.5500
G1   Y29.000
   Z-1.750
   Y37.000
   Z-3.100
   Y48.080
G17 G3   X5.6513       Y49.6257      R7.5500
   X5.9691       Y51.2237      R7.5500
   X6.4928       Y52.7664      R7.5500
   X7.2134       Y54.2276      R7.5500
   X8.1186       Y55.5823      R7.5500
   X9.1928       Y56.8072      R7.5500
   X10.4177      Y57.8814      R7.5500
   X11.7724      Y58.7866      R7.5500
   X13.2336      Y59.5072      R7.5500
   X14.7763      Y60.0309      R7.5500
   X16.3743      Y60.3487      R7.5500
   X17.9198      Y60.4500      R7.5500
G1   X37.156
   Z-1.750
   X45.156
   Z-3.100
   X72.480
G17 G3   X74.0257      Y60.3487      R7.5500
   X75.6237      Y60.0309      R7.5500
   X77.1664      Y59.5072      R7.5500
   X78.6276      Y58.7866      R7.5500
   X79.9823      Y57.8814      R7.5500
   X81.2072      Y56.8072      R7.5500
   X82.2814      Y55.5823      R7.5500
   X83.1866      Y54.2276      R7.5500
   X83.9072      Y52.7664      R7.5500
   X84.4309      Y51.2237      R7.5500
   X84.7487      Y49.6257      R7.5500
   X84.8500      Y48.0802      R7.5500
G1   Y37.000
   Z-1.750
   Y29.000
   Z-3.100
(Pass: 32)
   Z-3.200
   Y17.920
G17 G3   X84.7487      Y16.3743      R7.5500
   X84.4309      Y14.7763      R7.5500
   X83.9072      Y13.2336      R7.5500
   X83.1866      Y11.7724      R7.5500
   X82.2814      Y10.4177      R7.5500
   X81.2072      Y9.1928       R7.5500
   X79.9823      Y8.1186       R7.5500
   X78.6276      Y7.2134       R7.5500
   X77.1664      Y6.4928       R7.5500
   X75.6237      Y5.9691       R7.5500
   X74.0257      Y5.6513       R7.5500
   X72.4802      Y5.5500       R7.5500
G1   X46.378
   Z-1.750
   X38.378
   Z-3.200
   X17.920
G17 G3   X16.3743      Y5.6513       R7.5500
   X14.7763      Y5.9691       R7.5500
   X13.2336      Y6.4928       R7.5500
   X11.7724      Y7.2134       R7.5500
   X10.4177      Y8.1186       R7.5500
   X9.1928       Y9.1928       R7.5500
   X8.1186       Y10.4177      R7.5500
   X7.2134       Y11.7724      R7.5500
   X6.4928       Y13.2336      R7.5500
   X5.9691       Y14.7763      R7.5500
   X5.6513       Y16.3743      R7.5500
   X5.5500       Y17.9198      R7.5500
G1   Y29.000
   Z-1.750
   Y37.000
   Z-3.200
   Y48.080
G17 G3   X5.6513       Y49.6257      R7.5500
   X5.9691       Y51.2237      R7.5500
   X6.4928       Y52.7664      R7.5500
   X7.2134       Y54.2276      R7.5500
   X8.1186       Y55.5823      R7.5500
   X9.1928       Y56.8072      R7.5500
   X10.4177      Y57.8814      R7.5500
   X11.7724      Y58.7866      R7.5500
   X13.2336      Y59.5072      R7.5500
   X14.7763      Y60.0309      R7.5500
   X16.3743      Y60.3487      R7.5500
   X17.9198      Y60.4500      R7.5500
G1   X37.156
   Z-1.750
   X45.156
   Z-3.200
   X72.480
G17 G3   X74.0257      Y60.3487      R7.5500
   X75.6237      Y60.0309      R7.5500
   X77.1664      Y59.5072      R7.5500
   X78.6276      Y58.7866      R7.5500
   X79.9823      Y57.8814      R7.5500
   X81.2072      Y56.8072      R7.5500
   X82.2814      Y55.5823      R7.5500
   X83.1866      Y54.2276      R7.5500
   X83.9072      Y52.7664      R7.5500
   X84.4309      Y51.2237      R7.5500
   X84.7487      Y49.6257      R7.5500
   X84.8500      Y48.0802      R7.5500
G1   Y37.000
   Z-1.750
   Y29.000
   Z-3.200
(Pass: 33)
   Z-3.300
   Y17.920
G17 G3   X84.7487      Y16.3743      R7.5500
   X84.4309      Y14.7763      R7.5500
   X83.9072      Y13.2336      R7.5500
   X83.1866      Y11.7724      R7.5500
   X82.2814      Y10.4177      R7.5500
   X81.2072      Y9.1928       R7.5500
   X79.9823      Y8.1186       R7.5500
   X78.6276      Y7.2134       R7.5500
   X77.1664      Y6.4928       R7.5500
   X75.6237      Y5.9691       R7.5500
   X74.0257      Y5.6513       R7.5500
   X72.4802      Y5.5500       R7.5500
G1   X46.378
   Z-1.750
   X38.378
   Z-3.300
   X17.920
G17 G3   X16.3743      Y5.6513       R7.5500
   X14.7763      Y5.9691       R7.5500
   X13.2336      Y6.4928       R7.5500
   X11.7724      Y7.2134       R7.5500
   X10.4177      Y8.1186       R7.5500
   X9.1928       Y9.1928       R7.5500
   X8.1186       Y10.4177      R7.5500
   X7.2134       Y11.7724      R7.5500
   X6.4928       Y13.2336      R7.5500
   X5.9691       Y14.7763      R7.5500
   X5.6513       Y16.3743      R7.5500
   X5.5500       Y17.9198      R7.5500
G1   Y29.000
   Z-1.750
   Y37.000
   Z-3.300
   Y48.080
G17 G3   X5.6513       Y49.6257      R7.5500
   X5.9691       Y51.2237      R7.5500
   X6.4928       Y52.7664      R7.5500
   X7.2134       Y54.2276      R7.5500
   X8.1186       Y55.5823      R7.5500
   X9.1928       Y56.8072      R7.5500
   X10.4177      Y57.8814      R7.5500
   X11.7724      Y58.7866      R7.5500
   X13.2336      Y59.5072      R7.5500
   X14.7763      Y60.0309      R7.5500
   X16.3743      Y60.3487      R7.5500
   X17.9198      Y60.4500      R7.5500
G1   X37.156
   Z-1.750
   X45.156
   Z-3.300
   X72.480
G17 G3   X74.0257      Y60.3487      R7.5500
   X75.6237      Y60.0309      R7.5500
   X77.1664      Y59.5072      R7.5500
   X78.6276      Y58.7866      R7.5500
   X79.9823      Y57.8814      R7.5500
   X81.2072      Y56.8072      R7.5500
   X82.2814      Y55.5823      R7.5500
   X83.1866      Y54.2276      R7.5500
   X83.9072      Y52.7664      R7.5500
   X84.4309      Y51.2237      R7.5500
   X84.7487      Y49.6257      R7.5500
   X84.8500      Y48.0802      R7.5500
G1   Y37.000
   Z-1.750
   Y29.000
   Z-3.300
(Pass: 34)
   Z-3.400
   Y17.920
G17 G3   X84.7487      Y16.3743      R7.5500
   X84.4309      Y14.7763      R7.5500
   X83.9072      Y13.2336      R7.5500
   X83.1866      Y11.7724      R7.5500
   X82.2814      Y10.4177      R7.5500
   X81.2072      Y9.1928       R7.5500
   X79.9823      Y8.1186       R7.5500
   X78.6276      Y7.2134       R7.5500
   X77.1664      Y6.4928       R7.5500
   X75.6237      Y5.9691       R7.5500
   X74.0257      Y5.6513       R7.5500
   X72.4802      Y5.5500       R7.5500
G1   X46.378
   Z-1.750
   X38.378
   Z-3.400
   X17.920
G17 G3   X16.3743      Y5.6513       R7.5500
   X14.7763      Y5.9691       R7.5500
   X13.2336      Y6.4928       R7.5500
   X11.7724      Y7.2134       R7.5500
   X10.4177      Y8.1186       R7.5500
   X9.1928       Y9.1928       R7.5500
   X8.1186       Y10.4177      R7.5500
   X7.2134       Y11.7724      R7.5500
   X6.4928       Y13.2336      R7.5500
   X5.9691       Y14.7763      R7.5500
   X5.6513       Y16.3743      R7.5500
   X5.5500       Y17.9198      R7.5500
G1   Y29.000
   Z-1.750
   Y37.000
   Z-3.400
   Y48.080
G17 G3   X5.6513       Y49.6257      R7.5500
   X5.9691       Y51.2237      R7.5500
   X6.4928       Y52.7664      R7.5500
   X7.2134       Y54.2276      R7.5500
   X8.1186       Y55.5823      R7.5500
   X9.1928       Y56.8072      R7.5500
   X10.4177      Y57.8814      R7.5500
   X11.7724      Y58.7866      R7.5500
   X13.2336      Y59.5072      R7.5500
   X14.7763      Y60.0309      R7.5500
   X16.3743      Y60.3487      R7.5500
   X17.9198      Y60.4500      R7.5500
G1   X37.156
   Z-1.750
   X45.156
   Z-3.400
   X72.480
G17 G3   X74.0257      Y60.3487      R7.5500
   X75.6237      Y60.0309      R7.5500
   X77.1664      Y59.5072      R7.5500
   X78.6276      Y58.7866      R7.5500
   X79.9823      Y57.8814      R7.5500
   X81.2072      Y56.8072      R7.5500
   X82.2814      Y55.5823      R7.5500
   X83.1866      Y54.2276      R7.5500
   X83.9072      Y52.7664      R7.5500
   X84.4309      Y51.2237      R7.5500
   X84.7487      Y49.6257      R7.5500
   X84.8500      Y48.0802      R7.5500
G1   Y37.000
   Z-1.750
   Y29.000
   Z-3.400
(Pass: 35)
   Z-3.500
   Y17.920
G17 G3   X84.7487      Y16.3743      R7.5500
   X84.4309      Y14.7763      R7.5500
   X83.9072      Y13.2336      R7.5500
   X83.1866      Y11.7724      R7.5500
   X82.2814      Y10.4177      R7.5500
   X81.2072      Y9.1928       R7.5500
   X79.9823      Y8.1186       R7.5500
   X78.6276      Y7.2134       R7.5500
   X77.1664      Y6.4928       R7.5500
   X75.6237      Y5.9691       R7.5500
   X74.0257      Y5.6513       R7.5500
   X72.4802      Y5.5500       R7.5500
G1   X46.378
   Z-1.750
   X38.378
   Z-3.500
   X17.920
G17 G3   X16.3743      Y5.6513       R7.5500
   X14.7763      Y5.9691       R7.5500
   X13.2336      Y6.4928       R7.5500
   X11.7724      Y7.2134       R7.5500
   X10.4177      Y8.1186       R7.5500
   X9.1928       Y9.1928       R7.5500
   X8.1186       Y10.4177      R7.5500
   X7.2134       Y11.7724      R7.5500
   X6.4928       Y13.2336      R7.5500
   X5.9691       Y14.7763      R7.5500
   X5.6513       Y16.3743      R7.5500
   X5.5500       Y17.9198      R7.5500
G1   Y29.000
   Z-1.750
   Y37.000
   Z-3.500
   Y48.080
G17 G3   X5.6513       Y49.6257      R7.5500
   X5.9691       Y51.2237      R7.5500
   X6.4928       Y52.7664      R7.5500
   X7.2134       Y54.2276      R7.5500
   X8.1186       Y55.5823      R7.5500
   X9.1928       Y56.8072      R7.5500
   X10.4177      Y57.8814      R7.5500
   X11.7724      Y58.7866      R7.5500
   X13.2336      Y59.5072      R7.5500
   X14.7763      Y60.0309      R7.5500
   X16.3743      Y60.3487      R7.5500
   X17.9198      Y60.4500      R7.5500
G1   X37.156
   Z-1.750
   X45.156
   Z-3.500
   X72.480
G17 G3   X74.0257      Y60.3487      R7.5500
   X75.6237      Y60.0309      R7.5500
   X77.1664      Y59.5072      R7.5500
   X78.6276      Y58.7866      R7.5500
   X79.9823      Y57.8814      R7.5500
   X81.2072      Y56.8072      R7.5500
   X82.2814      Y55.5823      R7.5500
   X83.1866      Y54.2276      R7.5500
   X83.9072      Y52.7664      R7.5500
   X84.4309      Y51.2237      R7.5500
   X84.7487      Y49.6257      R7.5500
   X84.8500      Y48.0802      R7.5500
G1   Y37.000
   Z-1.750
   Y29.000
   Z-3.500
(Pass: 36)
   Z-3.600
   Y17.920
G17 G3   X84.7487      Y16.3743      R7.5500
   X84.4309      Y14.7763      R7.5500
   X83.9072      Y13.2336      R7.5500
   X83.1866      Y11.7724      R7.5500
   X82.2814      Y10.4177      R7.5500
   X81.2072      Y9.1928       R7.5500
   X79.9823      Y8.1186       R7.5500
   X78.6276      Y7.2134       R7.5500
   X77.1664      Y6.4928       R7.5500
   X75.6237      Y5.9691       R7.5500
   X74.0257      Y5.6513       R7.5500
   X72.4802      Y5.5500       R7.5500
G1   X46.378
   Z-1.750
   X38.378
   Z-3.600
   X17.920
G17 G3   X16.3743      Y5.6513       R7.5500
   X14.7763      Y5.9691       R7.5500
   X13.2336      Y6.4928       R7.5500
   X11.7724      Y7.2134       R7.5500
   X10.4177      Y8.1186       R7.5500
   X9.1928       Y9.1928       R7.5500
   X8.1186       Y10.4177      R7.5500
   X7.2134       Y11.7724      R7.5500
   X6.4928       Y13.2336      R7.5500
   X5.9691       Y14.7763      R7.5500
   X5.6513       Y16.3743      R7.5500
   X5.5500       Y17.9198      R7.5500
G1   Y29.000
   Z-1.750
   Y37.000
   Z-3.600
   Y48.080
G17 G3   X5.6513       Y49.6257      R7.5500
   X5.9691       Y51.2237      R7.5500
   X6.4928       Y52.7664      R7.5500
   X7.2134       Y54.2276      R7.5500
   X8.1186       Y55.5823      R7.5500
   X9.1928       Y56.8072      R7.5500
   X10.4177      Y57.8814      R7.5500
   X11.7724      Y58.7866      R7.5500
   X13.2336      Y59.5072      R7.5500
   X14.7763      Y60.0309      R7.5500
   X16.3743      Y60.3487      R7.5500
   X17.9198      Y60.4500      R7.5500
G1   X37.156
   Z-1.750
   X45.156
   Z-3.600
   X72.480
G17 G3   X74.0257      Y60.3487      R7.5500
   X75.6237      Y60.0309      R7.5500
   X77.1664      Y59.5072      R7.5500
   X78.6276      Y58.7866      R7.5500
   X79.9823      Y57.8814      R7.5500
   X81.2072      Y56.8072      R7.5500
   X82.2814      Y55.5823      R7.5500
   X83.1866      Y54.2276      R7.5500
   X83.9072      Y52.7664      R7.5500
   X84.4309      Y51.2237      R7.5500
   X84.7487      Y49.6257      R7.5500
   X84.8500      Y48.0802      R7.5500
G1   Y37.000
   Z-1.750
   Y29.000
   Z-3.600
(BREAK pass 36)
G0   Z5.000
G0 X0 Y0 (home)
M05
M30
%
