%
(Generated by SketchUcam {1.2b1})
(File: laser.skp)
(Bit diameter: 4.9mm)
(Feed rate: 300.0mm/min)
(Material Thickness: 3.5mm)
(Material length: 600.0mm X width: 300.0mm)
(Overhead Gantry: true)
(Retract feed rate NOT limited to plunge feed rate)
(Multipass enabled, Depth = 0.1mm)
(Optimization is ON)
(www.PhlatBoyz.com)
G90 G21 G49 
M3 S11000
(Group: Outside Panels)
(Group: Mechanical Panels)
(Group complete: Mechanical Panels)
(Group: SIde Panels)
(Group complete: SIde Panels)
(Group: Front Panels)
(Group complete: Front Panels)
(Group: Rear Panels)
(Group complete: Rear Panels)
(Group complete: Outside Panels)
(Group: Power Supplies)
(Group complete: Power Supplies)
(Group: Computers)
(Group complete: Computers)
(Group: Fans)
(Group complete: Fans)
(Group: Lid)
(Group: Lid Front Panels)
(Group complete: Lid Front Panels)
(Group: Lid Top Panels)
(Group complete: Lid Top Panels)
(Group complete: Lid)
(Group: Laser Assembly)
(Group complete: Laser Assembly)
(Group: X Axis Mirror)
(Group complete: X Axis Mirror)
G0   Z5.000     
(Pass: 1)
   X43.121       Y49.800    
(plungebore    depth=4.200         diam=4.900     )
G00   Z1.667     
G01   Z-0.100     F300 
G00   z1.667     
G01   Z-0.200    
G00   z1.667     
G01   Z-0.300    
G00   z1.667     
G01   Z-0.400    
G00   z1.667     
G01   Z-0.500    
G00   z1.667     
G01   Z-0.600    
G00   z1.667     
G01   Z-0.700    
G00   z1.667     
G01   Z-0.800    
G00   z1.667     
G01   Z-0.900    
G00   z1.667     
G01   Z-1.000    
G00   z1.667     
G01   Z-1.100    
G00   z1.667     
G01   Z-1.200    
G00   z1.667     
G01   Z-1.300    
G00   z1.667     
G01   Z-1.400    
G00   z1.667     
G01   Z-1.500    
G00   z1.667     
G01   Z-1.600    
G00   z1.667     
G01   Z-1.700    
G00   z1.667     
G01   Z-1.800    
G00   z1.667     
G01   Z-1.900    
G00   z1.667     
G01   Z-2.000    
G00   z1.667     
G01   Z-2.100    
G00   z1.667     
G01   Z-2.200    
G00   z1.667     
G01   Z-2.300    
G00   z1.667     
G01   Z-2.400    
G00   z1.667     
G01   Z-2.500    
G00   z1.667     
G01   Z-2.600    
G00   z1.667     
G01   Z-2.700    
G00   z1.667     
G01   Z-2.800    
G00   z1.667     
G01   Z-2.900    
G00   z1.667     
G01   Z-3.000    
G00   z1.667     
G01   Z-3.100    
G00   z1.667     
G01   Z-3.200    
G00   z1.667     
G01   Z-3.300    
G00   z1.667     
G01   Z-3.400    
G00   z1.667     
G01   Z-3.500    
G00   z1.667     
G01   Z-3.600    
G00   z1.667     
G01   Z-3.700    
G00   z1.667     
G01   Z-3.800    
G00   z1.667     
G01   Z-3.900    
G00   z1.667     
G01   Z-4.000    
G00   z1.667     
G01   Z-4.100    
G00   z1.667     
G01   Z-4.200    
G00   z1.667     
G00   Y49.800        Z5.000     
(plungebore end)
(BREAK pass 36)
(Pass: 1)
G0   X63.121    
(plungebore    depth=4.200         diam=4.900     )
G00   Z1.667     
G01   Z-0.100     F300 
G00   z1.667     
G01   Z-0.200    
G00   z1.667     
G01   Z-0.300    
G00   z1.667     
G01   Z-0.400    
G00   z1.667     
G01   Z-0.500    
G00   z1.667     
G01   Z-0.600    
G00   z1.667     
G01   Z-0.700    
G00   z1.667     
G01   Z-0.800    
G00   z1.667     
G01   Z-0.900    
G00   z1.667     
G01   Z-1.000    
G00   z1.667     
G01   Z-1.100    
G00   z1.667     
G01   Z-1.200    
G00   z1.667     
G01   Z-1.300    
G00   z1.667     
G01   Z-1.400    
G00   z1.667     
G01   Z-1.500    
G00   z1.667     
G01   Z-1.600    
G00   z1.667     
G01   Z-1.700    
G00   z1.667     
G01   Z-1.800    
G00   z1.667     
G01   Z-1.900    
G00   z1.667     
G01   Z-2.000    
G00   z1.667     
G01   Z-2.100    
G00   z1.667     
G01   Z-2.200    
G00   z1.667     
G01   Z-2.300    
G00   z1.667     
G01   Z-2.400    
G00   z1.667     
G01   Z-2.500    
G00   z1.667     
G01   Z-2.600    
G00   z1.667     
G01   Z-2.700    
G00   z1.667     
G01   Z-2.800    
G00   z1.667     
G01   Z-2.900    
G00   z1.667     
G01   Z-3.000    
G00   z1.667     
G01   Z-3.100    
G00   z1.667     
G01   Z-3.200    
G00   z1.667     
G01   Z-3.300    
G00   z1.667     
G01   Z-3.400    
G00   z1.667     
G01   Z-3.500    
G00   z1.667     
G01   Z-3.600    
G00   z1.667     
G01   Z-3.700    
G00   z1.667     
G01   Z-3.800    
G00   z1.667     
G01   Z-3.900    
G00   z1.667     
G01   Z-4.000    
G00   z1.667     
G01   Z-4.100    
G00   z1.667     
G01   Z-4.200    
G00   z1.667     
G00   Y49.800        Z5.000     
(plungebore end)
(BREAK pass 36)
(Pass: 1)
G0   X89.061       Y18.000    
(plungebore    depth=4.200         diam=4.900     )
G00   Z1.667     
G01   Z-0.100     F300 
G00   z1.667     
G01   Z-0.200    
G00   z1.667     
G01   Z-0.300    
G00   z1.667     
G01   Z-0.400    
G00   z1.667     
G01   Z-0.500    
G00   z1.667     
G01   Z-0.600    
G00   z1.667     
G01   Z-0.700    
G00   z1.667     
G01   Z-0.800    
G00   z1.667     
G01   Z-0.900    
G00   z1.667     
G01   Z-1.000    
G00   z1.667     
G01   Z-1.100    
G00   z1.667     
G01   Z-1.200    
G00   z1.667     
G01   Z-1.300    
G00   z1.667     
G01   Z-1.400    
G00   z1.667     
G01   Z-1.500    
G00   z1.667     
G01   Z-1.600    
G00   z1.667     
G01   Z-1.700    
G00   z1.667     
G01   Z-1.800    
G00   z1.667     
G01   Z-1.900    
G00   z1.667     
G01   Z-2.000    
G00   z1.667     
G01   Z-2.100    
G00   z1.667     
G01   Z-2.200    
G00   z1.667     
G01   Z-2.300    
G00   z1.667     
G01   Z-2.400    
G00   z1.667     
G01   Z-2.500    
G00   z1.667     
G01   Z-2.600    
G00   z1.667     
G01   Z-2.700    
G00   z1.667     
G01   Z-2.800    
G00   z1.667     
G01   Z-2.900    
G00   z1.667     
G01   Z-3.000    
G00   z1.667     
G01   Z-3.100    
G00   z1.667     
G01   Z-3.200    
G00   z1.667     
G01   Z-3.300    
G00   z1.667     
G01   Z-3.400    
G00   z1.667     
G01   Z-3.500    
G00   z1.667     
G01   Z-3.600    
G00   z1.667     
G01   Z-3.700    
G00   z1.667     
G01   Z-3.800    
G00   z1.667     
G01   Z-3.900    
G00   z1.667     
G01   Z-4.000    
G00   z1.667     
G01   Z-4.100    
G00   z1.667     
G01   Z-4.200    
G00   z1.667     
G00   Y18.000        Z5.000     
(plungebore end)
(BREAK pass 36)
(Pass: 1)
G0   X17.111    
(plungebore    depth=4.200         diam=4.900     )
G00   Z1.667     
G01   Z-0.100     F300 
G00   z1.667     
G01   Z-0.200    
G00   z1.667     
G01   Z-0.300    
G00   z1.667     
G01   Z-0.400    
G00   z1.667     
G01   Z-0.500    
G00   z1.667     
G01   Z-0.600    
G00   z1.667     
G01   Z-0.700    
G00   z1.667     
G01   Z-0.800    
G00   z1.667     
G01   Z-0.900    
G00   z1.667     
G01   Z-1.000    
G00   z1.667     
G01   Z-1.100    
G00   z1.667     
G01   Z-1.200    
G00   z1.667     
G01   Z-1.300    
G00   z1.667     
G01   Z-1.400    
G00   z1.667     
G01   Z-1.500    
G00   z1.667     
G01   Z-1.600    
G00   z1.667     
G01   Z-1.700    
G00   z1.667     
G01   Z-1.800    
G00   z1.667     
G01   Z-1.900    
G00   z1.667     
G01   Z-2.000    
G00   z1.667     
G01   Z-2.100    
G00   z1.667     
G01   Z-2.200    
G00   z1.667     
G01   Z-2.300    
G00   z1.667     
G01   Z-2.400    
G00   z1.667     
G01   Z-2.500    
G00   z1.667     
G01   Z-2.600    
G00   z1.667     
G01   Z-2.700    
G00   z1.667     
G01   Z-2.800    
G00   z1.667     
G01   Z-2.900    
G00   z1.667     
G01   Z-3.000    
G00   z1.667     
G01   Z-3.100    
G00   z1.667     
G01   Z-3.200    
G00   z1.667     
G01   Z-3.300    
G00   z1.667     
G01   Z-3.400    
G00   z1.667     
G01   Z-3.500    
G00   z1.667     
G01   Z-3.600    
G00   z1.667     
G01   Z-3.700    
G00   z1.667     
G01   Z-3.800    
G00   z1.667     
G01   Z-3.900    
G00   z1.667     
G01   Z-4.000    
G00   z1.667     
G01   Z-4.100    
G00   z1.667     
G01   Z-4.200    
G00   z1.667     
G00   Y18.000        Z5.000     
(plungebore end)
(BREAK pass 36)
(Group: _diam_7.1mm)
(Pass: 1)
G0   X69.061       Y68.000    
(plungebore    depth=4.200         diam=7.100     )
G00   Z1.667     
G01   Z-0.100     F300 
G00   z1.667     
G01   Z-0.200    
G00   z1.667     
G01   Z-0.300    
G00   z1.667     
G01   Z-0.400    
G00   z1.667     
G01   Z-0.500    
G00   z1.667     
G01   Z-0.600    
G00   z1.667     
G01   Z-0.700    
G00   z1.667     
G01   Z-0.800    
G00   z1.667     
G01   Z-0.900    
G00   z1.667     
G01   Z-1.000    
G00   z1.667     
G01   Z-1.100    
G00   z1.667     
G01   Z-1.200    
G00   z1.667     
G01   Z-1.300    
G00   z1.667     
G01   Z-1.400    
G00   z1.667     
G01   Z-1.500    
G00   z1.667     
G01   Z-1.600    
G00   z1.667     
G01   Z-1.700    
G00   z1.667     
G01   Z-1.800    
G00   z1.667     
G01   Z-1.900    
G00   z1.667     
G01   Z-2.000    
G00   z1.667     
G01   Z-2.100    
G00   z1.667     
G01   Z-2.200    
G00   z1.667     
G01   Z-2.300    
G00   z1.667     
G01   Z-2.400    
G00   z1.667     
G01   Z-2.500    
G00   z1.667     
G01   Z-2.600    
G00   z1.667     
G01   Z-2.700    
G00   z1.667     
G01   Z-2.800    
G00   z1.667     
G01   Z-2.900    
G00   z1.667     
G01   Z-3.000    
G00   z1.667     
G01   Z-3.100    
G00   z1.667     
G01   Z-3.200    
G00   z1.667     
G01   Z-3.300    
G00   z1.667     
G01   Z-3.400    
G00   z1.667     
G01   Z-3.500    
G00   z1.667     
G01   Z-3.600    
G00   z1.667     
G01   Z-3.700    
G00   z1.667     
G01   Z-3.800    
G00   z1.667     
G01   Z-3.900    
G00   z1.667     
G01   Z-4.000    
G00   z1.667     
G01   Z-4.100    
G00   z1.667     
G01   Z-4.200    
G00   z1.667     
G00   Y66.9000   
G01    Z0.0000    
G02     X69.0609       Y66.9000       Z-0.1000    I0    J1.1000    
G02     X69.0609       Y66.9000       Z-0.2000    I0    J1.1000    
G02     X69.0609       Y66.9000       Z-0.3000    I0    J1.1000    
G02     X69.0609       Y66.9000       Z-0.4000    I0    J1.1000    
G02     X69.0609       Y66.9000       Z-0.5000    I0    J1.1000    
G02     X69.0609       Y66.9000       Z-0.6000    I0    J1.1000    
G02     X69.0609       Y66.9000       Z-0.7000    I0    J1.1000    
G02     X69.0609       Y66.9000       Z-0.8000    I0    J1.1000    
G02     X69.0609       Y66.9000       Z-0.9000    I0    J1.1000    
G02     X69.0609       Y66.9000       Z-1.0000    I0    J1.1000    
G02     X69.0609       Y66.9000       Z-1.1000    I0    J1.1000    
G02     X69.0609       Y66.9000       Z-1.2000    I0    J1.1000    
G02     X69.0609       Y66.9000       Z-1.3000    I0    J1.1000    
G02     X69.0609       Y66.9000       Z-1.4000    I0    J1.1000    
G02     X69.0609       Y66.9000       Z-1.5000    I0    J1.1000    
G02     X69.0609       Y66.9000       Z-1.6000    I0    J1.1000    
G02     X69.0609       Y66.9000       Z-1.7000    I0    J1.1000    
G02     X69.0609       Y66.9000       Z-1.8000    I0    J1.1000    
G02     X69.0609       Y66.9000       Z-1.9000    I0    J1.1000    
G02     X69.0609       Y66.9000       Z-2.0000    I0    J1.1000    
G02     X69.0609       Y66.9000       Z-2.1000    I0    J1.1000    
G02     X69.0609       Y66.9000       Z-2.2000    I0    J1.1000    
G02     X69.0609       Y66.9000       Z-2.3000    I0    J1.1000    
G02     X69.0609       Y66.9000       Z-2.4000    I0    J1.1000    
G02     X69.0609       Y66.9000       Z-2.5000    I0    J1.1000    
G02     X69.0609       Y66.9000       Z-2.6000    I0    J1.1000    
G02     X69.0609       Y66.9000       Z-2.7000    I0    J1.1000    
G02     X69.0609       Y66.9000       Z-2.8000    I0    J1.1000    
G02     X69.0609       Y66.9000       Z-2.9000    I0    J1.1000    
G02     X69.0609       Y66.9000       Z-3.0000    I0    J1.1000    
G02     X69.0609       Y66.9000       Z-3.1000    I0    J1.1000    
G02     X69.0609       Y66.9000       Z-3.2000    I0    J1.1000    
G02     X69.0609       Y66.9000       Z-3.3000    I0    J1.1000    
G02     X69.0609       Y66.9000       Z-3.4000    I0    J1.1000    
G02     X69.0609       Y66.9000       Z-3.5000    I0    J1.1000    
G02     X69.0609       Y66.9000       Z-4.2000    I0    J1.1000    
G02     X69.0609       Y66.9000    I0.0    J1.1000    
G00   Y68.000        Z5.000     
(plungebore end)
(BREAK pass 36)
(Group complete: _diam_7.1mm)
(Group: _diam_7.1mm)
(Pass: 1)
G0   X37.111    
(plungebore    depth=4.200         diam=7.100     )
G00   Z1.667     
G01   Z-0.100     F300 
G00   z1.667     
G01   Z-0.200    
G00   z1.667     
G01   Z-0.300    
G00   z1.667     
G01   Z-0.400    
G00   z1.667     
G01   Z-0.500    
G00   z1.667     
G01   Z-0.600    
G00   z1.667     
G01   Z-0.700    
G00   z1.667     
G01   Z-0.800    
G00   z1.667     
G01   Z-0.900    
G00   z1.667     
G01   Z-1.000    
G00   z1.667     
G01   Z-1.100    
G00   z1.667     
G01   Z-1.200    
G00   z1.667     
G01   Z-1.300    
G00   z1.667     
G01   Z-1.400    
G00   z1.667     
G01   Z-1.500    
G00   z1.667     
G01   Z-1.600    
G00   z1.667     
G01   Z-1.700    
G00   z1.667     
G01   Z-1.800    
G00   z1.667     
G01   Z-1.900    
G00   z1.667     
G01   Z-2.000    
G00   z1.667     
G01   Z-2.100    
G00   z1.667     
G01   Z-2.200    
G00   z1.667     
G01   Z-2.300    
G00   z1.667     
G01   Z-2.400    
G00   z1.667     
G01   Z-2.500    
G00   z1.667     
G01   Z-2.600    
G00   z1.667     
G01   Z-2.700    
G00   z1.667     
G01   Z-2.800    
G00   z1.667     
G01   Z-2.900    
G00   z1.667     
G01   Z-3.000    
G00   z1.667     
G01   Z-3.100    
G00   z1.667     
G01   Z-3.200    
G00   z1.667     
G01   Z-3.300    
G00   z1.667     
G01   Z-3.400    
G00   z1.667     
G01   Z-3.500    
G00   z1.667     
G01   Z-3.600    
G00   z1.667     
G01   Z-3.700    
G00   z1.667     
G01   Z-3.800    
G00   z1.667     
G01   Z-3.900    
G00   z1.667     
G01   Z-4.000    
G00   z1.667     
G01   Z-4.100    
G00   z1.667     
G01   Z-4.200    
G00   z1.667     
G00   Y66.9000   
G01    Z0.0000    
G02     X37.1109       Y66.9000       Z-0.1000    I0    J1.1000    
G02     X37.1109       Y66.9000       Z-0.2000    I0    J1.1000    
G02     X37.1109       Y66.9000       Z-0.3000    I0    J1.1000    
G02     X37.1109       Y66.9000       Z-0.4000    I0    J1.1000    
G02     X37.1109       Y66.9000       Z-0.5000    I0    J1.1000    
G02     X37.1109       Y66.9000       Z-0.6000    I0    J1.1000    
G02     X37.1109       Y66.9000       Z-0.7000    I0    J1.1000    
G02     X37.1109       Y66.9000       Z-0.8000    I0    J1.1000    
G02     X37.1109       Y66.9000       Z-0.9000    I0    J1.1000    
G02     X37.1109       Y66.9000       Z-1.0000    I0    J1.1000    
G02     X37.1109       Y66.9000       Z-1.1000    I0    J1.1000    
G02     X37.1109       Y66.9000       Z-1.2000    I0    J1.1000    
G02     X37.1109       Y66.9000       Z-1.3000    I0    J1.1000    
G02     X37.1109       Y66.9000       Z-1.4000    I0    J1.1000    
G02     X37.1109       Y66.9000       Z-1.5000    I0    J1.1000    
G02     X37.1109       Y66.9000       Z-1.6000    I0    J1.1000    
G02     X37.1109       Y66.9000       Z-1.7000    I0    J1.1000    
G02     X37.1109       Y66.9000       Z-1.8000    I0    J1.1000    
G02     X37.1109       Y66.9000       Z-1.9000    I0    J1.1000    
G02     X37.1109       Y66.9000       Z-2.0000    I0    J1.1000    
G02     X37.1109       Y66.9000       Z-2.1000    I0    J1.1000    
G02     X37.1109       Y66.9000       Z-2.2000    I0    J1.1000    
G02     X37.1109       Y66.9000       Z-2.3000    I0    J1.1000    
G02     X37.1109       Y66.9000       Z-2.4000    I0    J1.1000    
G02     X37.1109       Y66.9000       Z-2.5000    I0    J1.1000    
G02     X37.1109       Y66.9000       Z-2.6000    I0    J1.1000    
G02     X37.1109       Y66.9000       Z-2.7000    I0    J1.1000    
G02     X37.1109       Y66.9000       Z-2.8000    I0    J1.1000    
G02     X37.1109       Y66.9000       Z-2.9000    I0    J1.1000    
G02     X37.1109       Y66.9000       Z-3.0000    I0    J1.1000    
G02     X37.1109       Y66.9000       Z-3.1000    I0    J1.1000    
G02     X37.1109       Y66.9000       Z-3.2000    I0    J1.1000    
G02     X37.1109       Y66.9000       Z-3.3000    I0    J1.1000    
G02     X37.1109       Y66.9000       Z-3.4000    I0    J1.1000    
G02     X37.1109       Y66.9000       Z-3.5000    I0    J1.1000    
G02     X37.1109       Y66.9000       Z-4.2000    I0    J1.1000    
G02     X37.1109       Y66.9000    I0.0    J1.1000    
G00   Y68.000        Z5.000     
(plungebore end)
(BREAK pass 36)
(Group complete: _diam_7.1mm)
(Pass: 1)
G0   Y18.000    
(plungebore    depth=4.200         diam=4.900     )
G00   Z1.667     
G01   Z-0.100     F300 
G00   z1.667     
G01   Z-0.200    
G00   z1.667     
G01   Z-0.300    
G00   z1.667     
G01   Z-0.400    
G00   z1.667     
G01   Z-0.500    
G00   z1.667     
G01   Z-0.600    
G00   z1.667     
G01   Z-0.700    
G00   z1.667     
G01   Z-0.800    
G00   z1.667     
G01   Z-0.900    
G00   z1.667     
G01   Z-1.000    
G00   z1.667     
G01   Z-1.100    
G00   z1.667     
G01   Z-1.200    
G00   z1.667     
G01   Z-1.300    
G00   z1.667     
G01   Z-1.400    
G00   z1.667     
G01   Z-1.500    
G00   z1.667     
G01   Z-1.600    
G00   z1.667     
G01   Z-1.700    
G00   z1.667     
G01   Z-1.800    
G00   z1.667     
G01   Z-1.900    
G00   z1.667     
G01   Z-2.000    
G00   z1.667     
G01   Z-2.100    
G00   z1.667     
G01   Z-2.200    
G00   z1.667     
G01   Z-2.300    
G00   z1.667     
G01   Z-2.400    
G00   z1.667     
G01   Z-2.500    
G00   z1.667     
G01   Z-2.600    
G00   z1.667     
G01   Z-2.700    
G00   z1.667     
G01   Z-2.800    
G00   z1.667     
G01   Z-2.900    
G00   z1.667     
G01   Z-3.000    
G00   z1.667     
G01   Z-3.100    
G00   z1.667     
G01   Z-3.200    
G00   z1.667     
G01   Z-3.300    
G00   z1.667     
G01   Z-3.400    
G00   z1.667     
G01   Z-3.500    
G00   z1.667     
G01   Z-3.600    
G00   z1.667     
G01   Z-3.700    
G00   z1.667     
G01   Z-3.800    
G00   z1.667     
G01   Z-3.900    
G00   z1.667     
G01   Z-4.000    
G00   z1.667     
G01   Z-4.100    
G00   z1.667     
G01   Z-4.200    
G00   z1.667     
G00   Y18.000        Z5.000     
(plungebore end)
(BREAK pass 36)
(Pass: 1)
G0   X69.061    
(plungebore    depth=4.200         diam=4.900     )
G00   Z1.667     
G01   Z-0.100     F300 
G00   z1.667     
G01   Z-0.200    
G00   z1.667     
G01   Z-0.300    
G00   z1.667     
G01   Z-0.400    
G00   z1.667     
G01   Z-0.500    
G00   z1.667     
G01   Z-0.600    
G00   z1.667     
G01   Z-0.700    
G00   z1.667     
G01   Z-0.800    
G00   z1.667     
G01   Z-0.900    
G00   z1.667     
G01   Z-1.000    
G00   z1.667     
G01   Z-1.100    
G00   z1.667     
G01   Z-1.200    
G00   z1.667     
G01   Z-1.300    
G00   z1.667     
G01   Z-1.400    
G00   z1.667     
G01   Z-1.500    
G00   z1.667     
G01   Z-1.600    
G00   z1.667     
G01   Z-1.700    
G00   z1.667     
G01   Z-1.800    
G00   z1.667     
G01   Z-1.900    
G00   z1.667     
G01   Z-2.000    
G00   z1.667     
G01   Z-2.100    
G00   z1.667     
G01   Z-2.200    
G00   z1.667     
G01   Z-2.300    
G00   z1.667     
G01   Z-2.400    
G00   z1.667     
G01   Z-2.500    
G00   z1.667     
G01   Z-2.600    
G00   z1.667     
G01   Z-2.700    
G00   z1.667     
G01   Z-2.800    
G00   z1.667     
G01   Z-2.900    
G00   z1.667     
G01   Z-3.000    
G00   z1.667     
G01   Z-3.100    
G00   z1.667     
G01   Z-3.200    
G00   z1.667     
G01   Z-3.300    
G00   z1.667     
G01   Z-3.400    
G00   z1.667     
G01   Z-3.500    
G00   z1.667     
G01   Z-3.600    
G00   z1.667     
G01   Z-3.700    
G00   z1.667     
G01   Z-3.800    
G00   z1.667     
G01   Z-3.900    
G00   z1.667     
G01   Z-4.000    
G00   z1.667     
G01   Z-4.100    
G00   z1.667     
G01   Z-4.200    
G00   z1.667     
G00   Y18.000        Z5.000     
(plungebore end)
(BREAK pass 36)
(Pass: 1)
G0   X54.608       Y5.550     
G1   Z-0.100     F300 
   X88.191    
G17 G3   X89.7366      Y5.6513       R12.4500   
   X91.3346      Y5.9691       R12.4500   
   X92.8773      Y6.4928       R12.4500   
   X94.3385      Y7.2134       R12.4500   
   X95.6932      Y8.1186       R12.4500   
   X96.9181      Y9.1928       R12.4500   
   X97.9923      Y10.4177      R12.4500   
   X98.8975      Y11.7724      R12.4500   
   X99.6181      Y13.2336      R12.4500   
   X100.1418     Y14.7763      R12.4500   
   X100.4596     Y16.3743      R12.4500   
   X100.5609     Y17.9198      R12.4500   
G1   Y35.106    
   Y43.106    
   Y49.883    
G17 G3   X100.2828     Y53.9653      R30.7040   
   X99.4367      Y58.0535      R30.7040   
   X98.0439      Y61.9893      R30.7040   
   X96.1301      Y65.6997      R30.7040   
   X93.7308      Y69.1163      R30.7040   
   X90.8903      Y72.1759      R30.7040   
   X87.6610      Y74.8220      R30.7040   
   X84.1026      Y77.0056      R30.7040   
   X80.2810      Y78.6864      R30.7040   
   X76.2667      Y79.8333      R30.7040   
   X72.1340      Y80.4251      R30.7040   
   X68.1185      Y80.4500      R30.7040   
G1   X56.272    
   X48.272    
   X38.103    
G17 G3   X34.0878      Y80.4251      R30.7040   
   X29.9551      Y79.8333      R30.7040   
   X25.9408      Y78.6864      R30.7040   
   X22.1192      Y77.0056      R30.7040   
   X18.5608      Y74.8220      R30.7040   
   X15.3315      Y72.1759      R30.7040   
   X12.4910      Y69.1163      R30.7040   
   X10.0917      Y65.6997      R30.7040   
   X8.1779       Y61.9893      R30.7040   
   X6.7851       Y58.0535      R30.7040   
   X5.9390       Y53.9653      R30.7040   
   X5.6609       Y49.8834      R30.7040   
G1   Y43.631    
   Y35.631    
   Y17.920    
G17 G3   X5.7622       Y16.3743      R12.4500   
   X6.0800       Y14.7763      R12.4500   
   X6.6037       Y13.2336      R12.4500   
   X7.3243       Y11.7724      R12.4500   
   X8.2295       Y10.4177      R12.4500   
   X9.3037       Y9.1928       R12.4500   
   X10.5286      Y8.1186       R12.4500   
   X11.8833      Y7.2134       R12.4500   
   X13.3445      Y6.4928       R12.4500   
   X14.8872      Y5.9691       R12.4500   
   X16.4852      Y5.6513       R12.4500   
   X18.0307      Y5.5500       R12.4500   
G1   X46.608    
   X54.608    
(Pass: 2)
   Z-0.200    
   X88.191    
G17 G3   X89.7366      Y5.6513       R12.4500   
   X91.3346      Y5.9691       R12.4500   
   X92.8773      Y6.4928       R12.4500   
   X94.3385      Y7.2134       R12.4500   
   X95.6932      Y8.1186       R12.4500   
   X96.9181      Y9.1928       R12.4500   
   X97.9923      Y10.4177      R12.4500   
   X98.8975      Y11.7724      R12.4500   
   X99.6181      Y13.2336      R12.4500   
   X100.1418     Y14.7763      R12.4500   
   X100.4596     Y16.3743      R12.4500   
   X100.5609     Y17.9198      R12.4500   
G1   Y35.106    
   Y43.106    
   Y49.883    
G17 G3   X100.2828     Y53.9653      R30.7040   
   X99.4367      Y58.0535      R30.7040   
   X98.0439      Y61.9893      R30.7040   
   X96.1301      Y65.6997      R30.7040   
   X93.7308      Y69.1163      R30.7040   
   X90.8903      Y72.1759      R30.7040   
   X87.6610      Y74.8220      R30.7040   
   X84.1026      Y77.0056      R30.7040   
   X80.2810      Y78.6864      R30.7040   
   X76.2667      Y79.8333      R30.7040   
   X72.1340      Y80.4251      R30.7040   
   X68.1185      Y80.4500      R30.7040   
G1   X56.272    
   X48.272    
   X38.103    
G17 G3   X34.0878      Y80.4251      R30.7040   
   X29.9551      Y79.8333      R30.7040   
   X25.9408      Y78.6864      R30.7040   
   X22.1192      Y77.0056      R30.7040   
   X18.5608      Y74.8220      R30.7040   
   X15.3315      Y72.1759      R30.7040   
   X12.4910      Y69.1163      R30.7040   
   X10.0917      Y65.6997      R30.7040   
   X8.1779       Y61.9893      R30.7040   
   X6.7851       Y58.0535      R30.7040   
   X5.9390       Y53.9653      R30.7040   
   X5.6609       Y49.8834      R30.7040   
G1   Y43.631    
   Y35.631    
   Y17.920    
G17 G3   X5.7622       Y16.3743      R12.4500   
   X6.0800       Y14.7763      R12.4500   
   X6.6037       Y13.2336      R12.4500   
   X7.3243       Y11.7724      R12.4500   
   X8.2295       Y10.4177      R12.4500   
   X9.3037       Y9.1928       R12.4500   
   X10.5286      Y8.1186       R12.4500   
   X11.8833      Y7.2134       R12.4500   
   X13.3445      Y6.4928       R12.4500   
   X14.8872      Y5.9691       R12.4500   
   X16.4852      Y5.6513       R12.4500   
   X18.0307      Y5.5500       R12.4500   
G1   X46.608    
   X54.608    
(Pass: 3)
   Z-0.300    
   X88.191    
G17 G3   X89.7366      Y5.6513       R12.4500   
   X91.3346      Y5.9691       R12.4500   
   X92.8773      Y6.4928       R12.4500   
   X94.3385      Y7.2134       R12.4500   
   X95.6932      Y8.1186       R12.4500   
   X96.9181      Y9.1928       R12.4500   
   X97.9923      Y10.4177      R12.4500   
   X98.8975      Y11.7724      R12.4500   
   X99.6181      Y13.2336      R12.4500   
   X100.1418     Y14.7763      R12.4500   
   X100.4596     Y16.3743      R12.4500   
   X100.5609     Y17.9198      R12.4500   
G1   Y35.106    
   Y43.106    
   Y49.883    
G17 G3   X100.2828     Y53.9653      R30.7040   
   X99.4367      Y58.0535      R30.7040   
   X98.0439      Y61.9893      R30.7040   
   X96.1301      Y65.6997      R30.7040   
   X93.7308      Y69.1163      R30.7040   
   X90.8903      Y72.1759      R30.7040   
   X87.6610      Y74.8220      R30.7040   
   X84.1026      Y77.0056      R30.7040   
   X80.2810      Y78.6864      R30.7040   
   X76.2667      Y79.8333      R30.7040   
   X72.1340      Y80.4251      R30.7040   
   X68.1185      Y80.4500      R30.7040   
G1   X56.272    
   X48.272    
   X38.103    
G17 G3   X34.0878      Y80.4251      R30.7040   
   X29.9551      Y79.8333      R30.7040   
   X25.9408      Y78.6864      R30.7040   
   X22.1192      Y77.0056      R30.7040   
   X18.5608      Y74.8220      R30.7040   
   X15.3315      Y72.1759      R30.7040   
   X12.4910      Y69.1163      R30.7040   
   X10.0917      Y65.6997      R30.7040   
   X8.1779       Y61.9893      R30.7040   
   X6.7851       Y58.0535      R30.7040   
   X5.9390       Y53.9653      R30.7040   
   X5.6609       Y49.8834      R30.7040   
G1   Y43.631    
   Y35.631    
   Y17.920    
G17 G3   X5.7622       Y16.3743      R12.4500   
   X6.0800       Y14.7763      R12.4500   
   X6.6037       Y13.2336      R12.4500   
   X7.3243       Y11.7724      R12.4500   
   X8.2295       Y10.4177      R12.4500   
   X9.3037       Y9.1928       R12.4500   
   X10.5286      Y8.1186       R12.4500   
   X11.8833      Y7.2134       R12.4500   
   X13.3445      Y6.4928       R12.4500   
   X14.8872      Y5.9691       R12.4500   
   X16.4852      Y5.6513       R12.4500   
   X18.0307      Y5.5500       R12.4500   
G1   X46.608    
   X54.608    
(Pass: 4)
   Z-0.400    
   X88.191    
G17 G3   X89.7366      Y5.6513       R12.4500   
   X91.3346      Y5.9691       R12.4500   
   X92.8773      Y6.4928       R12.4500   
   X94.3385      Y7.2134       R12.4500   
   X95.6932      Y8.1186       R12.4500   
   X96.9181      Y9.1928       R12.4500   
   X97.9923      Y10.4177      R12.4500   
   X98.8975      Y11.7724      R12.4500   
   X99.6181      Y13.2336      R12.4500   
   X100.1418     Y14.7763      R12.4500   
   X100.4596     Y16.3743      R12.4500   
   X100.5609     Y17.9198      R12.4500   
G1   Y35.106    
   Y43.106    
   Y49.883    
G17 G3   X100.2828     Y53.9653      R30.7040   
   X99.4367      Y58.0535      R30.7040   
   X98.0439      Y61.9893      R30.7040   
   X96.1301      Y65.6997      R30.7040   
   X93.7308      Y69.1163      R30.7040   
   X90.8903      Y72.1759      R30.7040   
   X87.6610      Y74.8220      R30.7040   
   X84.1026      Y77.0056      R30.7040   
   X80.2810      Y78.6864      R30.7040   
   X76.2667      Y79.8333      R30.7040   
   X72.1340      Y80.4251      R30.7040   
   X68.1185      Y80.4500      R30.7040   
G1   X56.272    
   X48.272    
   X38.103    
G17 G3   X34.0878      Y80.4251      R30.7040   
   X29.9551      Y79.8333      R30.7040   
   X25.9408      Y78.6864      R30.7040   
   X22.1192      Y77.0056      R30.7040   
   X18.5608      Y74.8220      R30.7040   
   X15.3315      Y72.1759      R30.7040   
   X12.4910      Y69.1163      R30.7040   
   X10.0917      Y65.6997      R30.7040   
   X8.1779       Y61.9893      R30.7040   
   X6.7851       Y58.0535      R30.7040   
   X5.9390       Y53.9653      R30.7040   
   X5.6609       Y49.8834      R30.7040   
G1   Y43.631    
   Y35.631    
   Y17.920    
G17 G3   X5.7622       Y16.3743      R12.4500   
   X6.0800       Y14.7763      R12.4500   
   X6.6037       Y13.2336      R12.4500   
   X7.3243       Y11.7724      R12.4500   
   X8.2295       Y10.4177      R12.4500   
   X9.3037       Y9.1928       R12.4500   
   X10.5286      Y8.1186       R12.4500   
   X11.8833      Y7.2134       R12.4500   
   X13.3445      Y6.4928       R12.4500   
   X14.8872      Y5.9691       R12.4500   
   X16.4852      Y5.6513       R12.4500   
   X18.0307      Y5.5500       R12.4500   
G1   X46.608    
   X54.608    
(Pass: 5)
   Z-0.500    
   X88.191    
G17 G3   X89.7366      Y5.6513       R12.4500   
   X91.3346      Y5.9691       R12.4500   
   X92.8773      Y6.4928       R12.4500   
   X94.3385      Y7.2134       R12.4500   
   X95.6932      Y8.1186       R12.4500   
   X96.9181      Y9.1928       R12.4500   
   X97.9923      Y10.4177      R12.4500   
   X98.8975      Y11.7724      R12.4500   
   X99.6181      Y13.2336      R12.4500   
   X100.1418     Y14.7763      R12.4500   
   X100.4596     Y16.3743      R12.4500   
   X100.5609     Y17.9198      R12.4500   
G1   Y35.106    
   Y43.106    
   Y49.883    
G17 G3   X100.2828     Y53.9653      R30.7040   
   X99.4367      Y58.0535      R30.7040   
   X98.0439      Y61.9893      R30.7040   
   X96.1301      Y65.6997      R30.7040   
   X93.7308      Y69.1163      R30.7040   
   X90.8903      Y72.1759      R30.7040   
   X87.6610      Y74.8220      R30.7040   
   X84.1026      Y77.0056      R30.7040   
   X80.2810      Y78.6864      R30.7040   
   X76.2667      Y79.8333      R30.7040   
   X72.1340      Y80.4251      R30.7040   
   X68.1185      Y80.4500      R30.7040   
G1   X56.272    
   X48.272    
   X38.103    
G17 G3   X34.0878      Y80.4251      R30.7040   
   X29.9551      Y79.8333      R30.7040   
   X25.9408      Y78.6864      R30.7040   
   X22.1192      Y77.0056      R30.7040   
   X18.5608      Y74.8220      R30.7040   
   X15.3315      Y72.1759      R30.7040   
   X12.4910      Y69.1163      R30.7040   
   X10.0917      Y65.6997      R30.7040   
   X8.1779       Y61.9893      R30.7040   
   X6.7851       Y58.0535      R30.7040   
   X5.9390       Y53.9653      R30.7040   
   X5.6609       Y49.8834      R30.7040   
G1   Y43.631    
   Y35.631    
   Y17.920    
G17 G3   X5.7622       Y16.3743      R12.4500   
   X6.0800       Y14.7763      R12.4500   
   X6.6037       Y13.2336      R12.4500   
   X7.3243       Y11.7724      R12.4500   
   X8.2295       Y10.4177      R12.4500   
   X9.3037       Y9.1928       R12.4500   
   X10.5286      Y8.1186       R12.4500   
   X11.8833      Y7.2134       R12.4500   
   X13.3445      Y6.4928       R12.4500   
   X14.8872      Y5.9691       R12.4500   
   X16.4852      Y5.6513       R12.4500   
   X18.0307      Y5.5500       R12.4500   
G1   X46.608    
   X54.608    
(Pass: 6)
   Z-0.600    
   X88.191    
G17 G3   X89.7366      Y5.6513       R12.4500   
   X91.3346      Y5.9691       R12.4500   
   X92.8773      Y6.4928       R12.4500   
   X94.3385      Y7.2134       R12.4500   
   X95.6932      Y8.1186       R12.4500   
   X96.9181      Y9.1928       R12.4500   
   X97.9923      Y10.4177      R12.4500   
   X98.8975      Y11.7724      R12.4500   
   X99.6181      Y13.2336      R12.4500   
   X100.1418     Y14.7763      R12.4500   
   X100.4596     Y16.3743      R12.4500   
   X100.5609     Y17.9198      R12.4500   
G1   Y35.106    
   Y43.106    
   Y49.883    
G17 G3   X100.2828     Y53.9653      R30.7040   
   X99.4367      Y58.0535      R30.7040   
   X98.0439      Y61.9893      R30.7040   
   X96.1301      Y65.6997      R30.7040   
   X93.7308      Y69.1163      R30.7040   
   X90.8903      Y72.1759      R30.7040   
   X87.6610      Y74.8220      R30.7040   
   X84.1026      Y77.0056      R30.7040   
   X80.2810      Y78.6864      R30.7040   
   X76.2667      Y79.8333      R30.7040   
   X72.1340      Y80.4251      R30.7040   
   X68.1185      Y80.4500      R30.7040   
G1   X56.272    
   X48.272    
   X38.103    
G17 G3   X34.0878      Y80.4251      R30.7040   
   X29.9551      Y79.8333      R30.7040   
   X25.9408      Y78.6864      R30.7040   
   X22.1192      Y77.0056      R30.7040   
   X18.5608      Y74.8220      R30.7040   
   X15.3315      Y72.1759      R30.7040   
   X12.4910      Y69.1163      R30.7040   
   X10.0917      Y65.6997      R30.7040   
   X8.1779       Y61.9893      R30.7040   
   X6.7851       Y58.0535      R30.7040   
   X5.9390       Y53.9653      R30.7040   
   X5.6609       Y49.8834      R30.7040   
G1   Y43.631    
   Y35.631    
   Y17.920    
G17 G3   X5.7622       Y16.3743      R12.4500   
   X6.0800       Y14.7763      R12.4500   
   X6.6037       Y13.2336      R12.4500   
   X7.3243       Y11.7724      R12.4500   
   X8.2295       Y10.4177      R12.4500   
   X9.3037       Y9.1928       R12.4500   
   X10.5286      Y8.1186       R12.4500   
   X11.8833      Y7.2134       R12.4500   
   X13.3445      Y6.4928       R12.4500   
   X14.8872      Y5.9691       R12.4500   
   X16.4852      Y5.6513       R12.4500   
   X18.0307      Y5.5500       R12.4500   
G1   X46.608    
   X54.608    
(Pass: 7)
   Z-0.700    
   X88.191    
G17 G3   X89.7366      Y5.6513       R12.4500   
   X91.3346      Y5.9691       R12.4500   
   X92.8773      Y6.4928       R12.4500   
   X94.3385      Y7.2134       R12.4500   
   X95.6932      Y8.1186       R12.4500   
   X96.9181      Y9.1928       R12.4500   
   X97.9923      Y10.4177      R12.4500   
   X98.8975      Y11.7724      R12.4500   
   X99.6181      Y13.2336      R12.4500   
   X100.1418     Y14.7763      R12.4500   
   X100.4596     Y16.3743      R12.4500   
   X100.5609     Y17.9198      R12.4500   
G1   Y35.106    
   Y43.106    
   Y49.883    
G17 G3   X100.2828     Y53.9653      R30.7040   
   X99.4367      Y58.0535      R30.7040   
   X98.0439      Y61.9893      R30.7040   
   X96.1301      Y65.6997      R30.7040   
   X93.7308      Y69.1163      R30.7040   
   X90.8903      Y72.1759      R30.7040   
   X87.6610      Y74.8220      R30.7040   
   X84.1026      Y77.0056      R30.7040   
   X80.2810      Y78.6864      R30.7040   
   X76.2667      Y79.8333      R30.7040   
   X72.1340      Y80.4251      R30.7040   
   X68.1185      Y80.4500      R30.7040   
G1   X56.272    
   X48.272    
   X38.103    
G17 G3   X34.0878      Y80.4251      R30.7040   
   X29.9551      Y79.8333      R30.7040   
   X25.9408      Y78.6864      R30.7040   
   X22.1192      Y77.0056      R30.7040   
   X18.5608      Y74.8220      R30.7040   
   X15.3315      Y72.1759      R30.7040   
   X12.4910      Y69.1163      R30.7040   
   X10.0917      Y65.6997      R30.7040   
   X8.1779       Y61.9893      R30.7040   
   X6.7851       Y58.0535      R30.7040   
   X5.9390       Y53.9653      R30.7040   
   X5.6609       Y49.8834      R30.7040   
G1   Y43.631    
   Y35.631    
   Y17.920    
G17 G3   X5.7622       Y16.3743      R12.4500   
   X6.0800       Y14.7763      R12.4500   
   X6.6037       Y13.2336      R12.4500   
   X7.3243       Y11.7724      R12.4500   
   X8.2295       Y10.4177      R12.4500   
   X9.3037       Y9.1928       R12.4500   
   X10.5286      Y8.1186       R12.4500   
   X11.8833      Y7.2134       R12.4500   
   X13.3445      Y6.4928       R12.4500   
   X14.8872      Y5.9691       R12.4500   
   X16.4852      Y5.6513       R12.4500   
   X18.0307      Y5.5500       R12.4500   
G1   X46.608    
   X54.608    
(Pass: 8)
   Z-0.800    
   X88.191    
G17 G3   X89.7366      Y5.6513       R12.4500   
   X91.3346      Y5.9691       R12.4500   
   X92.8773      Y6.4928       R12.4500   
   X94.3385      Y7.2134       R12.4500   
   X95.6932      Y8.1186       R12.4500   
   X96.9181      Y9.1928       R12.4500   
   X97.9923      Y10.4177      R12.4500   
   X98.8975      Y11.7724      R12.4500   
   X99.6181      Y13.2336      R12.4500   
   X100.1418     Y14.7763      R12.4500   
   X100.4596     Y16.3743      R12.4500   
   X100.5609     Y17.9198      R12.4500   
G1   Y35.106    
   Y43.106    
   Y49.883    
G17 G3   X100.2828     Y53.9653      R30.7040   
   X99.4367      Y58.0535      R30.7040   
   X98.0439      Y61.9893      R30.7040   
   X96.1301      Y65.6997      R30.7040   
   X93.7308      Y69.1163      R30.7040   
   X90.8903      Y72.1759      R30.7040   
   X87.6610      Y74.8220      R30.7040   
   X84.1026      Y77.0056      R30.7040   
   X80.2810      Y78.6864      R30.7040   
   X76.2667      Y79.8333      R30.7040   
   X72.1340      Y80.4251      R30.7040   
   X68.1185      Y80.4500      R30.7040   
G1   X56.272    
   X48.272    
   X38.103    
G17 G3   X34.0878      Y80.4251      R30.7040   
   X29.9551      Y79.8333      R30.7040   
   X25.9408      Y78.6864      R30.7040   
   X22.1192      Y77.0056      R30.7040   
   X18.5608      Y74.8220      R30.7040   
   X15.3315      Y72.1759      R30.7040   
   X12.4910      Y69.1163      R30.7040   
   X10.0917      Y65.6997      R30.7040   
   X8.1779       Y61.9893      R30.7040   
   X6.7851       Y58.0535      R30.7040   
   X5.9390       Y53.9653      R30.7040   
   X5.6609       Y49.8834      R30.7040   
G1   Y43.631    
   Y35.631    
   Y17.920    
G17 G3   X5.7622       Y16.3743      R12.4500   
   X6.0800       Y14.7763      R12.4500   
   X6.6037       Y13.2336      R12.4500   
   X7.3243       Y11.7724      R12.4500   
   X8.2295       Y10.4177      R12.4500   
   X9.3037       Y9.1928       R12.4500   
   X10.5286      Y8.1186       R12.4500   
   X11.8833      Y7.2134       R12.4500   
   X13.3445      Y6.4928       R12.4500   
   X14.8872      Y5.9691       R12.4500   
   X16.4852      Y5.6513       R12.4500   
   X18.0307      Y5.5500       R12.4500   
G1   X46.608    
   X54.608    
(Pass: 9)
   Z-0.900    
   X88.191    
G17 G3   X89.7366      Y5.6513       R12.4500   
   X91.3346      Y5.9691       R12.4500   
   X92.8773      Y6.4928       R12.4500   
   X94.3385      Y7.2134       R12.4500   
   X95.6932      Y8.1186       R12.4500   
   X96.9181      Y9.1928       R12.4500   
   X97.9923      Y10.4177      R12.4500   
   X98.8975      Y11.7724      R12.4500   
   X99.6181      Y13.2336      R12.4500   
   X100.1418     Y14.7763      R12.4500   
   X100.4596     Y16.3743      R12.4500   
   X100.5609     Y17.9198      R12.4500   
G1   Y35.106    
   Y43.106    
   Y49.883    
G17 G3   X100.2828     Y53.9653      R30.7040   
   X99.4367      Y58.0535      R30.7040   
   X98.0439      Y61.9893      R30.7040   
   X96.1301      Y65.6997      R30.7040   
   X93.7308      Y69.1163      R30.7040   
   X90.8903      Y72.1759      R30.7040   
   X87.6610      Y74.8220      R30.7040   
   X84.1026      Y77.0056      R30.7040   
   X80.2810      Y78.6864      R30.7040   
   X76.2667      Y79.8333      R30.7040   
   X72.1340      Y80.4251      R30.7040   
   X68.1185      Y80.4500      R30.7040   
G1   X56.272    
   X48.272    
   X38.103    
G17 G3   X34.0878      Y80.4251      R30.7040   
   X29.9551      Y79.8333      R30.7040   
   X25.9408      Y78.6864      R30.7040   
   X22.1192      Y77.0056      R30.7040   
   X18.5608      Y74.8220      R30.7040   
   X15.3315      Y72.1759      R30.7040   
   X12.4910      Y69.1163      R30.7040   
   X10.0917      Y65.6997      R30.7040   
   X8.1779       Y61.9893      R30.7040   
   X6.7851       Y58.0535      R30.7040   
   X5.9390       Y53.9653      R30.7040   
   X5.6609       Y49.8834      R30.7040   
G1   Y43.631    
   Y35.631    
   Y17.920    
G17 G3   X5.7622       Y16.3743      R12.4500   
   X6.0800       Y14.7763      R12.4500   
   X6.6037       Y13.2336      R12.4500   
   X7.3243       Y11.7724      R12.4500   
   X8.2295       Y10.4177      R12.4500   
   X9.3037       Y9.1928       R12.4500   
   X10.5286      Y8.1186       R12.4500   
   X11.8833      Y7.2134       R12.4500   
   X13.3445      Y6.4928       R12.4500   
   X14.8872      Y5.9691       R12.4500   
   X16.4852      Y5.6513       R12.4500   
   X18.0307      Y5.5500       R12.4500   
G1   X46.608    
   X54.608    
(Pass: 10)
   Z-1.000    
   X88.191    
G17 G3   X89.7366      Y5.6513       R12.4500   
   X91.3346      Y5.9691       R12.4500   
   X92.8773      Y6.4928       R12.4500   
   X94.3385      Y7.2134       R12.4500   
   X95.6932      Y8.1186       R12.4500   
   X96.9181      Y9.1928       R12.4500   
   X97.9923      Y10.4177      R12.4500   
   X98.8975      Y11.7724      R12.4500   
   X99.6181      Y13.2336      R12.4500   
   X100.1418     Y14.7763      R12.4500   
   X100.4596     Y16.3743      R12.4500   
   X100.5609     Y17.9198      R12.4500   
G1   Y35.106    
   Y43.106    
   Y49.883    
G17 G3   X100.2828     Y53.9653      R30.7040   
   X99.4367      Y58.0535      R30.7040   
   X98.0439      Y61.9893      R30.7040   
   X96.1301      Y65.6997      R30.7040   
   X93.7308      Y69.1163      R30.7040   
   X90.8903      Y72.1759      R30.7040   
   X87.6610      Y74.8220      R30.7040   
   X84.1026      Y77.0056      R30.7040   
   X80.2810      Y78.6864      R30.7040   
   X76.2667      Y79.8333      R30.7040   
   X72.1340      Y80.4251      R30.7040   
   X68.1185      Y80.4500      R30.7040   
G1   X56.272    
   X48.272    
   X38.103    
G17 G3   X34.0878      Y80.4251      R30.7040   
   X29.9551      Y79.8333      R30.7040   
   X25.9408      Y78.6864      R30.7040   
   X22.1192      Y77.0056      R30.7040   
   X18.5608      Y74.8220      R30.7040   
   X15.3315      Y72.1759      R30.7040   
   X12.4910      Y69.1163      R30.7040   
   X10.0917      Y65.6997      R30.7040   
   X8.1779       Y61.9893      R30.7040   
   X6.7851       Y58.0535      R30.7040   
   X5.9390       Y53.9653      R30.7040   
   X5.6609       Y49.8834      R30.7040   
G1   Y43.631    
   Y35.631    
   Y17.920    
G17 G3   X5.7622       Y16.3743      R12.4500   
   X6.0800       Y14.7763      R12.4500   
   X6.6037       Y13.2336      R12.4500   
   X7.3243       Y11.7724      R12.4500   
   X8.2295       Y10.4177      R12.4500   
   X9.3037       Y9.1928       R12.4500   
   X10.5286      Y8.1186       R12.4500   
   X11.8833      Y7.2134       R12.4500   
   X13.3445      Y6.4928       R12.4500   
   X14.8872      Y5.9691       R12.4500   
   X16.4852      Y5.6513       R12.4500   
   X18.0307      Y5.5500       R12.4500   
G1   X46.608    
   X54.608    
(Pass: 11)
   Z-1.100    
   X88.191    
G17 G3   X89.7366      Y5.6513       R12.4500   
   X91.3346      Y5.9691       R12.4500   
   X92.8773      Y6.4928       R12.4500   
   X94.3385      Y7.2134       R12.4500   
   X95.6932      Y8.1186       R12.4500   
   X96.9181      Y9.1928       R12.4500   
   X97.9923      Y10.4177      R12.4500   
   X98.8975      Y11.7724      R12.4500   
   X99.6181      Y13.2336      R12.4500   
   X100.1418     Y14.7763      R12.4500   
   X100.4596     Y16.3743      R12.4500   
   X100.5609     Y17.9198      R12.4500   
G1   Y35.106    
   Y43.106    
   Y49.883    
G17 G3   X100.2828     Y53.9653      R30.7040   
   X99.4367      Y58.0535      R30.7040   
   X98.0439      Y61.9893      R30.7040   
   X96.1301      Y65.6997      R30.7040   
   X93.7308      Y69.1163      R30.7040   
   X90.8903      Y72.1759      R30.7040   
   X87.6610      Y74.8220      R30.7040   
   X84.1026      Y77.0056      R30.7040   
   X80.2810      Y78.6864      R30.7040   
   X76.2667      Y79.8333      R30.7040   
   X72.1340      Y80.4251      R30.7040   
   X68.1185      Y80.4500      R30.7040   
G1   X56.272    
   X48.272    
   X38.103    
G17 G3   X34.0878      Y80.4251      R30.7040   
   X29.9551      Y79.8333      R30.7040   
   X25.9408      Y78.6864      R30.7040   
   X22.1192      Y77.0056      R30.7040   
   X18.5608      Y74.8220      R30.7040   
   X15.3315      Y72.1759      R30.7040   
   X12.4910      Y69.1163      R30.7040   
   X10.0917      Y65.6997      R30.7040   
   X8.1779       Y61.9893      R30.7040   
   X6.7851       Y58.0535      R30.7040   
   X5.9390       Y53.9653      R30.7040   
   X5.6609       Y49.8834      R30.7040   
G1   Y43.631    
   Y35.631    
   Y17.920    
G17 G3   X5.7622       Y16.3743      R12.4500   
   X6.0800       Y14.7763      R12.4500   
   X6.6037       Y13.2336      R12.4500   
   X7.3243       Y11.7724      R12.4500   
   X8.2295       Y10.4177      R12.4500   
   X9.3037       Y9.1928       R12.4500   
   X10.5286      Y8.1186       R12.4500   
   X11.8833      Y7.2134       R12.4500   
   X13.3445      Y6.4928       R12.4500   
   X14.8872      Y5.9691       R12.4500   
   X16.4852      Y5.6513       R12.4500   
   X18.0307      Y5.5500       R12.4500   
G1   X46.608    
   X54.608    
(Pass: 12)
   Z-1.200    
   X88.191    
G17 G3   X89.7366      Y5.6513       R12.4500   
   X91.3346      Y5.9691       R12.4500   
   X92.8773      Y6.4928       R12.4500   
   X94.3385      Y7.2134       R12.4500   
   X95.6932      Y8.1186       R12.4500   
   X96.9181      Y9.1928       R12.4500   
   X97.9923      Y10.4177      R12.4500   
   X98.8975      Y11.7724      R12.4500   
   X99.6181      Y13.2336      R12.4500   
   X100.1418     Y14.7763      R12.4500   
   X100.4596     Y16.3743      R12.4500   
   X100.5609     Y17.9198      R12.4500   
G1   Y35.106    
   Y43.106    
   Y49.883    
G17 G3   X100.2828     Y53.9653      R30.7040   
   X99.4367      Y58.0535      R30.7040   
   X98.0439      Y61.9893      R30.7040   
   X96.1301      Y65.6997      R30.7040   
   X93.7308      Y69.1163      R30.7040   
   X90.8903      Y72.1759      R30.7040   
   X87.6610      Y74.8220      R30.7040   
   X84.1026      Y77.0056      R30.7040   
   X80.2810      Y78.6864      R30.7040   
   X76.2667      Y79.8333      R30.7040   
   X72.1340      Y80.4251      R30.7040   
   X68.1185      Y80.4500      R30.7040   
G1   X56.272    
   X48.272    
   X38.103    
G17 G3   X34.0878      Y80.4251      R30.7040   
   X29.9551      Y79.8333      R30.7040   
   X25.9408      Y78.6864      R30.7040   
   X22.1192      Y77.0056      R30.7040   
   X18.5608      Y74.8220      R30.7040   
   X15.3315      Y72.1759      R30.7040   
   X12.4910      Y69.1163      R30.7040   
   X10.0917      Y65.6997      R30.7040   
   X8.1779       Y61.9893      R30.7040   
   X6.7851       Y58.0535      R30.7040   
   X5.9390       Y53.9653      R30.7040   
   X5.6609       Y49.8834      R30.7040   
G1   Y43.631    
   Y35.631    
   Y17.920    
G17 G3   X5.7622       Y16.3743      R12.4500   
   X6.0800       Y14.7763      R12.4500   
   X6.6037       Y13.2336      R12.4500   
   X7.3243       Y11.7724      R12.4500   
   X8.2295       Y10.4177      R12.4500   
   X9.3037       Y9.1928       R12.4500   
   X10.5286      Y8.1186       R12.4500   
   X11.8833      Y7.2134       R12.4500   
   X13.3445      Y6.4928       R12.4500   
   X14.8872      Y5.9691       R12.4500   
   X16.4852      Y5.6513       R12.4500   
   X18.0307      Y5.5500       R12.4500   
G1   X46.608    
   X54.608    
(Pass: 13)
   Z-1.300    
   X88.191    
G17 G3   X89.7366      Y5.6513       R12.4500   
   X91.3346      Y5.9691       R12.4500   
   X92.8773      Y6.4928       R12.4500   
   X94.3385      Y7.2134       R12.4500   
   X95.6932      Y8.1186       R12.4500   
   X96.9181      Y9.1928       R12.4500   
   X97.9923      Y10.4177      R12.4500   
   X98.8975      Y11.7724      R12.4500   
   X99.6181      Y13.2336      R12.4500   
   X100.1418     Y14.7763      R12.4500   
   X100.4596     Y16.3743      R12.4500   
   X100.5609     Y17.9198      R12.4500   
G1   Y35.106    
   Y43.106    
   Y49.883    
G17 G3   X100.2828     Y53.9653      R30.7040   
   X99.4367      Y58.0535      R30.7040   
   X98.0439      Y61.9893      R30.7040   
   X96.1301      Y65.6997      R30.7040   
   X93.7308      Y69.1163      R30.7040   
   X90.8903      Y72.1759      R30.7040   
   X87.6610      Y74.8220      R30.7040   
   X84.1026      Y77.0056      R30.7040   
   X80.2810      Y78.6864      R30.7040   
   X76.2667      Y79.8333      R30.7040   
   X72.1340      Y80.4251      R30.7040   
   X68.1185      Y80.4500      R30.7040   
G1   X56.272    
   X48.272    
   X38.103    
G17 G3   X34.0878      Y80.4251      R30.7040   
   X29.9551      Y79.8333      R30.7040   
   X25.9408      Y78.6864      R30.7040   
   X22.1192      Y77.0056      R30.7040   
   X18.5608      Y74.8220      R30.7040   
   X15.3315      Y72.1759      R30.7040   
   X12.4910      Y69.1163      R30.7040   
   X10.0917      Y65.6997      R30.7040   
   X8.1779       Y61.9893      R30.7040   
   X6.7851       Y58.0535      R30.7040   
   X5.9390       Y53.9653      R30.7040   
   X5.6609       Y49.8834      R30.7040   
G1   Y43.631    
   Y35.631    
   Y17.920    
G17 G3   X5.7622       Y16.3743      R12.4500   
   X6.0800       Y14.7763      R12.4500   
   X6.6037       Y13.2336      R12.4500   
   X7.3243       Y11.7724      R12.4500   
   X8.2295       Y10.4177      R12.4500   
   X9.3037       Y9.1928       R12.4500   
   X10.5286      Y8.1186       R12.4500   
   X11.8833      Y7.2134       R12.4500   
   X13.3445      Y6.4928       R12.4500   
   X14.8872      Y5.9691       R12.4500   
   X16.4852      Y5.6513       R12.4500   
   X18.0307      Y5.5500       R12.4500   
G1   X46.608    
   X54.608    
(Pass: 14)
   Z-1.400    
   X88.191    
G17 G3   X89.7366      Y5.6513       R12.4500   
   X91.3346      Y5.9691       R12.4500   
   X92.8773      Y6.4928       R12.4500   
   X94.3385      Y7.2134       R12.4500   
   X95.6932      Y8.1186       R12.4500   
   X96.9181      Y9.1928       R12.4500   
   X97.9923      Y10.4177      R12.4500   
   X98.8975      Y11.7724      R12.4500   
   X99.6181      Y13.2336      R12.4500   
   X100.1418     Y14.7763      R12.4500   
   X100.4596     Y16.3743      R12.4500   
   X100.5609     Y17.9198      R12.4500   
G1   Y35.106    
   Y43.106    
   Y49.883    
G17 G3   X100.2828     Y53.9653      R30.7040   
   X99.4367      Y58.0535      R30.7040   
   X98.0439      Y61.9893      R30.7040   
   X96.1301      Y65.6997      R30.7040   
   X93.7308      Y69.1163      R30.7040   
   X90.8903      Y72.1759      R30.7040   
   X87.6610      Y74.8220      R30.7040   
   X84.1026      Y77.0056      R30.7040   
   X80.2810      Y78.6864      R30.7040   
   X76.2667      Y79.8333      R30.7040   
   X72.1340      Y80.4251      R30.7040   
   X68.1185      Y80.4500      R30.7040   
G1   X56.272    
   X48.272    
   X38.103    
G17 G3   X34.0878      Y80.4251      R30.7040   
   X29.9551      Y79.8333      R30.7040   
   X25.9408      Y78.6864      R30.7040   
   X22.1192      Y77.0056      R30.7040   
   X18.5608      Y74.8220      R30.7040   
   X15.3315      Y72.1759      R30.7040   
   X12.4910      Y69.1163      R30.7040   
   X10.0917      Y65.6997      R30.7040   
   X8.1779       Y61.9893      R30.7040   
   X6.7851       Y58.0535      R30.7040   
   X5.9390       Y53.9653      R30.7040   
   X5.6609       Y49.8834      R30.7040   
G1   Y43.631    
   Y35.631    
   Y17.920    
G17 G3   X5.7622       Y16.3743      R12.4500   
   X6.0800       Y14.7763      R12.4500   
   X6.6037       Y13.2336      R12.4500   
   X7.3243       Y11.7724      R12.4500   
   X8.2295       Y10.4177      R12.4500   
   X9.3037       Y9.1928       R12.4500   
   X10.5286      Y8.1186       R12.4500   
   X11.8833      Y7.2134       R12.4500   
   X13.3445      Y6.4928       R12.4500   
   X14.8872      Y5.9691       R12.4500   
   X16.4852      Y5.6513       R12.4500   
   X18.0307      Y5.5500       R12.4500   
G1   X46.608    
   X54.608    
(Pass: 15)
   Z-1.500    
   X88.191    
G17 G3   X89.7366      Y5.6513       R12.4500   
   X91.3346      Y5.9691       R12.4500   
   X92.8773      Y6.4928       R12.4500   
   X94.3385      Y7.2134       R12.4500   
   X95.6932      Y8.1186       R12.4500   
   X96.9181      Y9.1928       R12.4500   
   X97.9923      Y10.4177      R12.4500   
   X98.8975      Y11.7724      R12.4500   
   X99.6181      Y13.2336      R12.4500   
   X100.1418     Y14.7763      R12.4500   
   X100.4596     Y16.3743      R12.4500   
   X100.5609     Y17.9198      R12.4500   
G1   Y35.106    
   Y43.106    
   Y49.883    
G17 G3   X100.2828     Y53.9653      R30.7040   
   X99.4367      Y58.0535      R30.7040   
   X98.0439      Y61.9893      R30.7040   
   X96.1301      Y65.6997      R30.7040   
   X93.7308      Y69.1163      R30.7040   
   X90.8903      Y72.1759      R30.7040   
   X87.6610      Y74.8220      R30.7040   
   X84.1026      Y77.0056      R30.7040   
   X80.2810      Y78.6864      R30.7040   
   X76.2667      Y79.8333      R30.7040   
   X72.1340      Y80.4251      R30.7040   
   X68.1185      Y80.4500      R30.7040   
G1   X56.272    
   X48.272    
   X38.103    
G17 G3   X34.0878      Y80.4251      R30.7040   
   X29.9551      Y79.8333      R30.7040   
   X25.9408      Y78.6864      R30.7040   
   X22.1192      Y77.0056      R30.7040   
   X18.5608      Y74.8220      R30.7040   
   X15.3315      Y72.1759      R30.7040   
   X12.4910      Y69.1163      R30.7040   
   X10.0917      Y65.6997      R30.7040   
   X8.1779       Y61.9893      R30.7040   
   X6.7851       Y58.0535      R30.7040   
   X5.9390       Y53.9653      R30.7040   
   X5.6609       Y49.8834      R30.7040   
G1   Y43.631    
   Y35.631    
   Y17.920    
G17 G3   X5.7622       Y16.3743      R12.4500   
   X6.0800       Y14.7763      R12.4500   
   X6.6037       Y13.2336      R12.4500   
   X7.3243       Y11.7724      R12.4500   
   X8.2295       Y10.4177      R12.4500   
   X9.3037       Y9.1928       R12.4500   
   X10.5286      Y8.1186       R12.4500   
   X11.8833      Y7.2134       R12.4500   
   X13.3445      Y6.4928       R12.4500   
   X14.8872      Y5.9691       R12.4500   
   X16.4852      Y5.6513       R12.4500   
   X18.0307      Y5.5500       R12.4500   
G1   X46.608    
   X54.608    
(Pass: 16)
   Z-1.600    
   X88.191    
G17 G3   X89.7366      Y5.6513       R12.4500   
   X91.3346      Y5.9691       R12.4500   
   X92.8773      Y6.4928       R12.4500   
   X94.3385      Y7.2134       R12.4500   
   X95.6932      Y8.1186       R12.4500   
   X96.9181      Y9.1928       R12.4500   
   X97.9923      Y10.4177      R12.4500   
   X98.8975      Y11.7724      R12.4500   
   X99.6181      Y13.2336      R12.4500   
   X100.1418     Y14.7763      R12.4500   
   X100.4596     Y16.3743      R12.4500   
   X100.5609     Y17.9198      R12.4500   
G1   Y35.106    
   Y43.106    
   Y49.883    
G17 G3   X100.2828     Y53.9653      R30.7040   
   X99.4367      Y58.0535      R30.7040   
   X98.0439      Y61.9893      R30.7040   
   X96.1301      Y65.6997      R30.7040   
   X93.7308      Y69.1163      R30.7040   
   X90.8903      Y72.1759      R30.7040   
   X87.6610      Y74.8220      R30.7040   
   X84.1026      Y77.0056      R30.7040   
   X80.2810      Y78.6864      R30.7040   
   X76.2667      Y79.8333      R30.7040   
   X72.1340      Y80.4251      R30.7040   
   X68.1185      Y80.4500      R30.7040   
G1   X56.272    
   X48.272    
   X38.103    
G17 G3   X34.0878      Y80.4251      R30.7040   
   X29.9551      Y79.8333      R30.7040   
   X25.9408      Y78.6864      R30.7040   
   X22.1192      Y77.0056      R30.7040   
   X18.5608      Y74.8220      R30.7040   
   X15.3315      Y72.1759      R30.7040   
   X12.4910      Y69.1163      R30.7040   
   X10.0917      Y65.6997      R30.7040   
   X8.1779       Y61.9893      R30.7040   
   X6.7851       Y58.0535      R30.7040   
   X5.9390       Y53.9653      R30.7040   
   X5.6609       Y49.8834      R30.7040   
G1   Y43.631    
   Y35.631    
   Y17.920    
G17 G3   X5.7622       Y16.3743      R12.4500   
   X6.0800       Y14.7763      R12.4500   
   X6.6037       Y13.2336      R12.4500   
   X7.3243       Y11.7724      R12.4500   
   X8.2295       Y10.4177      R12.4500   
   X9.3037       Y9.1928       R12.4500   
   X10.5286      Y8.1186       R12.4500   
   X11.8833      Y7.2134       R12.4500   
   X13.3445      Y6.4928       R12.4500   
   X14.8872      Y5.9691       R12.4500   
   X16.4852      Y5.6513       R12.4500   
   X18.0307      Y5.5500       R12.4500   
G1   X46.608    
   X54.608    
(Pass: 17)
   Z-1.700    
   X88.191    
G17 G3   X89.7366      Y5.6513       R12.4500   
   X91.3346      Y5.9691       R12.4500   
   X92.8773      Y6.4928       R12.4500   
   X94.3385      Y7.2134       R12.4500   
   X95.6932      Y8.1186       R12.4500   
   X96.9181      Y9.1928       R12.4500   
   X97.9923      Y10.4177      R12.4500   
   X98.8975      Y11.7724      R12.4500   
   X99.6181      Y13.2336      R12.4500   
   X100.1418     Y14.7763      R12.4500   
   X100.4596     Y16.3743      R12.4500   
   X100.5609     Y17.9198      R12.4500   
G1   Y35.106    
   Y43.106    
   Y49.883    
G17 G3   X100.2828     Y53.9653      R30.7040   
   X99.4367      Y58.0535      R30.7040   
   X98.0439      Y61.9893      R30.7040   
   X96.1301      Y65.6997      R30.7040   
   X93.7308      Y69.1163      R30.7040   
   X90.8903      Y72.1759      R30.7040   
   X87.6610      Y74.8220      R30.7040   
   X84.1026      Y77.0056      R30.7040   
   X80.2810      Y78.6864      R30.7040   
   X76.2667      Y79.8333      R30.7040   
   X72.1340      Y80.4251      R30.7040   
   X68.1185      Y80.4500      R30.7040   
G1   X56.272    
   X48.272    
   X38.103    
G17 G3   X34.0878      Y80.4251      R30.7040   
   X29.9551      Y79.8333      R30.7040   
   X25.9408      Y78.6864      R30.7040   
   X22.1192      Y77.0056      R30.7040   
   X18.5608      Y74.8220      R30.7040   
   X15.3315      Y72.1759      R30.7040   
   X12.4910      Y69.1163      R30.7040   
   X10.0917      Y65.6997      R30.7040   
   X8.1779       Y61.9893      R30.7040   
   X6.7851       Y58.0535      R30.7040   
   X5.9390       Y53.9653      R30.7040   
   X5.6609       Y49.8834      R30.7040   
G1   Y43.631    
   Y35.631    
   Y17.920    
G17 G3   X5.7622       Y16.3743      R12.4500   
   X6.0800       Y14.7763      R12.4500   
   X6.6037       Y13.2336      R12.4500   
   X7.3243       Y11.7724      R12.4500   
   X8.2295       Y10.4177      R12.4500   
   X9.3037       Y9.1928       R12.4500   
   X10.5286      Y8.1186       R12.4500   
   X11.8833      Y7.2134       R12.4500   
   X13.3445      Y6.4928       R12.4500   
   X14.8872      Y5.9691       R12.4500   
   X16.4852      Y5.6513       R12.4500   
   X18.0307      Y5.5500       R12.4500   
G1   X46.608    
   X54.608    
(Pass: 18)
   Z-1.800    
   X88.191    
G17 G3   X89.7366      Y5.6513       R12.4500   
   X91.3346      Y5.9691       R12.4500   
   X92.8773      Y6.4928       R12.4500   
   X94.3385      Y7.2134       R12.4500   
   X95.6932      Y8.1186       R12.4500   
   X96.9181      Y9.1928       R12.4500   
   X97.9923      Y10.4177      R12.4500   
   X98.8975      Y11.7724      R12.4500   
   X99.6181      Y13.2336      R12.4500   
   X100.1418     Y14.7763      R12.4500   
   X100.4596     Y16.3743      R12.4500   
   X100.5609     Y17.9198      R12.4500   
G1   Y35.106    
   Z-1.750    
   Y43.106    
   Z-1.800    
   Y49.883    
G17 G3   X100.2828     Y53.9653      R30.7040   
   X99.4367      Y58.0535      R30.7040   
   X98.0439      Y61.9893      R30.7040   
   X96.1301      Y65.6997      R30.7040   
   X93.7308      Y69.1163      R30.7040   
   X90.8903      Y72.1759      R30.7040   
   X87.6610      Y74.8220      R30.7040   
   X84.1026      Y77.0056      R30.7040   
   X80.2810      Y78.6864      R30.7040   
   X76.2667      Y79.8333      R30.7040   
   X72.1340      Y80.4251      R30.7040   
   X68.1185      Y80.4500      R30.7040   
G1   X56.272    
   Z-1.750    
   X48.272    
   Z-1.800    
   X38.103    
G17 G3   X34.0878      Y80.4251      R30.7040   
   X29.9551      Y79.8333      R30.7040   
   X25.9408      Y78.6864      R30.7040   
   X22.1192      Y77.0056      R30.7040   
   X18.5608      Y74.8220      R30.7040   
   X15.3315      Y72.1759      R30.7040   
   X12.4910      Y69.1163      R30.7040   
   X10.0917      Y65.6997      R30.7040   
   X8.1779       Y61.9893      R30.7040   
   X6.7851       Y58.0535      R30.7040   
   X5.9390       Y53.9653      R30.7040   
   X5.6609       Y49.8834      R30.7040   
G1   Y43.631    
   Z-1.750    
   Y35.631    
   Z-1.800    
   Y17.920    
G17 G3   X5.7622       Y16.3743      R12.4500   
   X6.0800       Y14.7763      R12.4500   
   X6.6037       Y13.2336      R12.4500   
   X7.3243       Y11.7724      R12.4500   
   X8.2295       Y10.4177      R12.4500   
   X9.3037       Y9.1928       R12.4500   
   X10.5286      Y8.1186       R12.4500   
   X11.8833      Y7.2134       R12.4500   
   X13.3445      Y6.4928       R12.4500   
   X14.8872      Y5.9691       R12.4500   
   X16.4852      Y5.6513       R12.4500   
   X18.0307      Y5.5500       R12.4500   
G1   X46.608    
   Z-1.750    
   X54.608    
   Z-1.800    
(Pass: 19)
   Z-1.900    
   X88.191    
G17 G3   X89.7366      Y5.6513       R12.4500   
   X91.3346      Y5.9691       R12.4500   
   X92.8773      Y6.4928       R12.4500   
   X94.3385      Y7.2134       R12.4500   
   X95.6932      Y8.1186       R12.4500   
   X96.9181      Y9.1928       R12.4500   
   X97.9923      Y10.4177      R12.4500   
   X98.8975      Y11.7724      R12.4500   
   X99.6181      Y13.2336      R12.4500   
   X100.1418     Y14.7763      R12.4500   
   X100.4596     Y16.3743      R12.4500   
   X100.5609     Y17.9198      R12.4500   
G1   Y35.106    
   Z-1.750    
   Y43.106    
   Z-1.900    
   Y49.883    
G17 G3   X100.2828     Y53.9653      R30.7040   
   X99.4367      Y58.0535      R30.7040   
   X98.0439      Y61.9893      R30.7040   
   X96.1301      Y65.6997      R30.7040   
   X93.7308      Y69.1163      R30.7040   
   X90.8903      Y72.1759      R30.7040   
   X87.6610      Y74.8220      R30.7040   
   X84.1026      Y77.0056      R30.7040   
   X80.2810      Y78.6864      R30.7040   
   X76.2667      Y79.8333      R30.7040   
   X72.1340      Y80.4251      R30.7040   
   X68.1185      Y80.4500      R30.7040   
G1   X56.272    
   Z-1.750    
   X48.272    
   Z-1.900    
   X38.103    
G17 G3   X34.0878      Y80.4251      R30.7040   
   X29.9551      Y79.8333      R30.7040   
   X25.9408      Y78.6864      R30.7040   
   X22.1192      Y77.0056      R30.7040   
   X18.5608      Y74.8220      R30.7040   
   X15.3315      Y72.1759      R30.7040   
   X12.4910      Y69.1163      R30.7040   
   X10.0917      Y65.6997      R30.7040   
   X8.1779       Y61.9893      R30.7040   
   X6.7851       Y58.0535      R30.7040   
   X5.9390       Y53.9653      R30.7040   
   X5.6609       Y49.8834      R30.7040   
G1   Y43.631    
   Z-1.750    
   Y35.631    
   Z-1.900    
   Y17.920    
G17 G3   X5.7622       Y16.3743      R12.4500   
   X6.0800       Y14.7763      R12.4500   
   X6.6037       Y13.2336      R12.4500   
   X7.3243       Y11.7724      R12.4500   
   X8.2295       Y10.4177      R12.4500   
   X9.3037       Y9.1928       R12.4500   
   X10.5286      Y8.1186       R12.4500   
   X11.8833      Y7.2134       R12.4500   
   X13.3445      Y6.4928       R12.4500   
   X14.8872      Y5.9691       R12.4500   
   X16.4852      Y5.6513       R12.4500   
   X18.0307      Y5.5500       R12.4500   
G1   X46.608    
   Z-1.750    
   X54.608    
   Z-1.900    
(Pass: 20)
   Z-2.000    
   X88.191    
G17 G3   X89.7366      Y5.6513       R12.4500   
   X91.3346      Y5.9691       R12.4500   
   X92.8773      Y6.4928       R12.4500   
   X94.3385      Y7.2134       R12.4500   
   X95.6932      Y8.1186       R12.4500   
   X96.9181      Y9.1928       R12.4500   
   X97.9923      Y10.4177      R12.4500   
   X98.8975      Y11.7724      R12.4500   
   X99.6181      Y13.2336      R12.4500   
   X100.1418     Y14.7763      R12.4500   
   X100.4596     Y16.3743      R12.4500   
   X100.5609     Y17.9198      R12.4500   
G1   Y35.106    
   Z-1.750    
   Y43.106    
   Z-2.000    
   Y49.883    
G17 G3   X100.2828     Y53.9653      R30.7040   
   X99.4367      Y58.0535      R30.7040   
   X98.0439      Y61.9893      R30.7040   
   X96.1301      Y65.6997      R30.7040   
   X93.7308      Y69.1163      R30.7040   
   X90.8903      Y72.1759      R30.7040   
   X87.6610      Y74.8220      R30.7040   
   X84.1026      Y77.0056      R30.7040   
   X80.2810      Y78.6864      R30.7040   
   X76.2667      Y79.8333      R30.7040   
   X72.1340      Y80.4251      R30.7040   
   X68.1185      Y80.4500      R30.7040   
G1   X56.272    
   Z-1.750    
   X48.272    
   Z-2.000    
   X38.103    
G17 G3   X34.0878      Y80.4251      R30.7040   
   X29.9551      Y79.8333      R30.7040   
   X25.9408      Y78.6864      R30.7040   
   X22.1192      Y77.0056      R30.7040   
   X18.5608      Y74.8220      R30.7040   
   X15.3315      Y72.1759      R30.7040   
   X12.4910      Y69.1163      R30.7040   
   X10.0917      Y65.6997      R30.7040   
   X8.1779       Y61.9893      R30.7040   
   X6.7851       Y58.0535      R30.7040   
   X5.9390       Y53.9653      R30.7040   
   X5.6609       Y49.8834      R30.7040   
G1   Y43.631    
   Z-1.750    
   Y35.631    
   Z-2.000    
   Y17.920    
G17 G3   X5.7622       Y16.3743      R12.4500   
   X6.0800       Y14.7763      R12.4500   
   X6.6037       Y13.2336      R12.4500   
   X7.3243       Y11.7724      R12.4500   
   X8.2295       Y10.4177      R12.4500   
   X9.3037       Y9.1928       R12.4500   
   X10.5286      Y8.1186       R12.4500   
   X11.8833      Y7.2134       R12.4500   
   X13.3445      Y6.4928       R12.4500   
   X14.8872      Y5.9691       R12.4500   
   X16.4852      Y5.6513       R12.4500   
   X18.0307      Y5.5500       R12.4500   
G1   X46.608    
   Z-1.750    
   X54.608    
   Z-2.000    
(Pass: 21)
   Z-2.100    
   X88.191    
G17 G3   X89.7366      Y5.6513       R12.4500   
   X91.3346      Y5.9691       R12.4500   
   X92.8773      Y6.4928       R12.4500   
   X94.3385      Y7.2134       R12.4500   
   X95.6932      Y8.1186       R12.4500   
   X96.9181      Y9.1928       R12.4500   
   X97.9923      Y10.4177      R12.4500   
   X98.8975      Y11.7724      R12.4500   
   X99.6181      Y13.2336      R12.4500   
   X100.1418     Y14.7763      R12.4500   
   X100.4596     Y16.3743      R12.4500   
   X100.5609     Y17.9198      R12.4500   
G1   Y35.106    
   Z-1.750    
   Y43.106    
   Z-2.100    
   Y49.883    
G17 G3   X100.2828     Y53.9653      R30.7040   
   X99.4367      Y58.0535      R30.7040   
   X98.0439      Y61.9893      R30.7040   
   X96.1301      Y65.6997      R30.7040   
   X93.7308      Y69.1163      R30.7040   
   X90.8903      Y72.1759      R30.7040   
   X87.6610      Y74.8220      R30.7040   
   X84.1026      Y77.0056      R30.7040   
   X80.2810      Y78.6864      R30.7040   
   X76.2667      Y79.8333      R30.7040   
   X72.1340      Y80.4251      R30.7040   
   X68.1185      Y80.4500      R30.7040   
G1   X56.272    
   Z-1.750    
   X48.272    
   Z-2.100    
   X38.103    
G17 G3   X34.0878      Y80.4251      R30.7040   
   X29.9551      Y79.8333      R30.7040   
   X25.9408      Y78.6864      R30.7040   
   X22.1192      Y77.0056      R30.7040   
   X18.5608      Y74.8220      R30.7040   
   X15.3315      Y72.1759      R30.7040   
   X12.4910      Y69.1163      R30.7040   
   X10.0917      Y65.6997      R30.7040   
   X8.1779       Y61.9893      R30.7040   
   X6.7851       Y58.0535      R30.7040   
   X5.9390       Y53.9653      R30.7040   
   X5.6609       Y49.8834      R30.7040   
G1   Y43.631    
   Z-1.750    
   Y35.631    
   Z-2.100    
   Y17.920    
G17 G3   X5.7622       Y16.3743      R12.4500   
   X6.0800       Y14.7763      R12.4500   
   X6.6037       Y13.2336      R12.4500   
   X7.3243       Y11.7724      R12.4500   
   X8.2295       Y10.4177      R12.4500   
   X9.3037       Y9.1928       R12.4500   
   X10.5286      Y8.1186       R12.4500   
   X11.8833      Y7.2134       R12.4500   
   X13.3445      Y6.4928       R12.4500   
   X14.8872      Y5.9691       R12.4500   
   X16.4852      Y5.6513       R12.4500   
   X18.0307      Y5.5500       R12.4500   
G1   X46.608    
   Z-1.750    
   X54.608    
   Z-2.100    
(Pass: 22)
   Z-2.200    
   X88.191    
G17 G3   X89.7366      Y5.6513       R12.4500   
   X91.3346      Y5.9691       R12.4500   
   X92.8773      Y6.4928       R12.4500   
   X94.3385      Y7.2134       R12.4500   
   X95.6932      Y8.1186       R12.4500   
   X96.9181      Y9.1928       R12.4500   
   X97.9923      Y10.4177      R12.4500   
   X98.8975      Y11.7724      R12.4500   
   X99.6181      Y13.2336      R12.4500   
   X100.1418     Y14.7763      R12.4500   
   X100.4596     Y16.3743      R12.4500   
   X100.5609     Y17.9198      R12.4500   
G1   Y35.106    
   Z-1.750    
   Y43.106    
   Z-2.200    
   Y49.883    
G17 G3   X100.2828     Y53.9653      R30.7040   
   X99.4367      Y58.0535      R30.7040   
   X98.0439      Y61.9893      R30.7040   
   X96.1301      Y65.6997      R30.7040   
   X93.7308      Y69.1163      R30.7040   
   X90.8903      Y72.1759      R30.7040   
   X87.6610      Y74.8220      R30.7040   
   X84.1026      Y77.0056      R30.7040   
   X80.2810      Y78.6864      R30.7040   
   X76.2667      Y79.8333      R30.7040   
   X72.1340      Y80.4251      R30.7040   
   X68.1185      Y80.4500      R30.7040   
G1   X56.272    
   Z-1.750    
   X48.272    
   Z-2.200    
   X38.103    
G17 G3   X34.0878      Y80.4251      R30.7040   
   X29.9551      Y79.8333      R30.7040   
   X25.9408      Y78.6864      R30.7040   
   X22.1192      Y77.0056      R30.7040   
   X18.5608      Y74.8220      R30.7040   
   X15.3315      Y72.1759      R30.7040   
   X12.4910      Y69.1163      R30.7040   
   X10.0917      Y65.6997      R30.7040   
   X8.1779       Y61.9893      R30.7040   
   X6.7851       Y58.0535      R30.7040   
   X5.9390       Y53.9653      R30.7040   
   X5.6609       Y49.8834      R30.7040   
G1   Y43.631    
   Z-1.750    
   Y35.631    
   Z-2.200    
   Y17.920    
G17 G3   X5.7622       Y16.3743      R12.4500   
   X6.0800       Y14.7763      R12.4500   
   X6.6037       Y13.2336      R12.4500   
   X7.3243       Y11.7724      R12.4500   
   X8.2295       Y10.4177      R12.4500   
   X9.3037       Y9.1928       R12.4500   
   X10.5286      Y8.1186       R12.4500   
   X11.8833      Y7.2134       R12.4500   
   X13.3445      Y6.4928       R12.4500   
   X14.8872      Y5.9691       R12.4500   
   X16.4852      Y5.6513       R12.4500   
   X18.0307      Y5.5500       R12.4500   
G1   X46.608    
   Z-1.750    
   X54.608    
   Z-2.200    
(Pass: 23)
   Z-2.300    
   X88.191    
G17 G3   X89.7366      Y5.6513       R12.4500   
   X91.3346      Y5.9691       R12.4500   
   X92.8773      Y6.4928       R12.4500   
   X94.3385      Y7.2134       R12.4500   
   X95.6932      Y8.1186       R12.4500   
   X96.9181      Y9.1928       R12.4500   
   X97.9923      Y10.4177      R12.4500   
   X98.8975      Y11.7724      R12.4500   
   X99.6181      Y13.2336      R12.4500   
   X100.1418     Y14.7763      R12.4500   
   X100.4596     Y16.3743      R12.4500   
   X100.5609     Y17.9198      R12.4500   
G1   Y35.106    
   Z-1.750    
   Y43.106    
   Z-2.300    
   Y49.883    
G17 G3   X100.2828     Y53.9653      R30.7040   
   X99.4367      Y58.0535      R30.7040   
   X98.0439      Y61.9893      R30.7040   
   X96.1301      Y65.6997      R30.7040   
   X93.7308      Y69.1163      R30.7040   
   X90.8903      Y72.1759      R30.7040   
   X87.6610      Y74.8220      R30.7040   
   X84.1026      Y77.0056      R30.7040   
   X80.2810      Y78.6864      R30.7040   
   X76.2667      Y79.8333      R30.7040   
   X72.1340      Y80.4251      R30.7040   
   X68.1185      Y80.4500      R30.7040   
G1   X56.272    
   Z-1.750    
   X48.272    
   Z-2.300    
   X38.103    
G17 G3   X34.0878      Y80.4251      R30.7040   
   X29.9551      Y79.8333      R30.7040   
   X25.9408      Y78.6864      R30.7040   
   X22.1192      Y77.0056      R30.7040   
   X18.5608      Y74.8220      R30.7040   
   X15.3315      Y72.1759      R30.7040   
   X12.4910      Y69.1163      R30.7040   
   X10.0917      Y65.6997      R30.7040   
   X8.1779       Y61.9893      R30.7040   
   X6.7851       Y58.0535      R30.7040   
   X5.9390       Y53.9653      R30.7040   
   X5.6609       Y49.8834      R30.7040   
G1   Y43.631    
   Z-1.750    
   Y35.631    
   Z-2.300    
   Y17.920    
G17 G3   X5.7622       Y16.3743      R12.4500   
   X6.0800       Y14.7763      R12.4500   
   X6.6037       Y13.2336      R12.4500   
   X7.3243       Y11.7724      R12.4500   
   X8.2295       Y10.4177      R12.4500   
   X9.3037       Y9.1928       R12.4500   
   X10.5286      Y8.1186       R12.4500   
   X11.8833      Y7.2134       R12.4500   
   X13.3445      Y6.4928       R12.4500   
   X14.8872      Y5.9691       R12.4500   
   X16.4852      Y5.6513       R12.4500   
   X18.0307      Y5.5500       R12.4500   
G1   X46.608    
   Z-1.750    
   X54.608    
   Z-2.300    
(Pass: 24)
   Z-2.400    
   X88.191    
G17 G3   X89.7366      Y5.6513       R12.4500   
   X91.3346      Y5.9691       R12.4500   
   X92.8773      Y6.4928       R12.4500   
   X94.3385      Y7.2134       R12.4500   
   X95.6932      Y8.1186       R12.4500   
   X96.9181      Y9.1928       R12.4500   
   X97.9923      Y10.4177      R12.4500   
   X98.8975      Y11.7724      R12.4500   
   X99.6181      Y13.2336      R12.4500   
   X100.1418     Y14.7763      R12.4500   
   X100.4596     Y16.3743      R12.4500   
   X100.5609     Y17.9198      R12.4500   
G1   Y35.106    
   Z-1.750    
   Y43.106    
   Z-2.400    
   Y49.883    
G17 G3   X100.2828     Y53.9653      R30.7040   
   X99.4367      Y58.0535      R30.7040   
   X98.0439      Y61.9893      R30.7040   
   X96.1301      Y65.6997      R30.7040   
   X93.7308      Y69.1163      R30.7040   
   X90.8903      Y72.1759      R30.7040   
   X87.6610      Y74.8220      R30.7040   
   X84.1026      Y77.0056      R30.7040   
   X80.2810      Y78.6864      R30.7040   
   X76.2667      Y79.8333      R30.7040   
   X72.1340      Y80.4251      R30.7040   
   X68.1185      Y80.4500      R30.7040   
G1   X56.272    
   Z-1.750    
   X48.272    
   Z-2.400    
   X38.103    
G17 G3   X34.0878      Y80.4251      R30.7040   
   X29.9551      Y79.8333      R30.7040   
   X25.9408      Y78.6864      R30.7040   
   X22.1192      Y77.0056      R30.7040   
   X18.5608      Y74.8220      R30.7040   
   X15.3315      Y72.1759      R30.7040   
   X12.4910      Y69.1163      R30.7040   
   X10.0917      Y65.6997      R30.7040   
   X8.1779       Y61.9893      R30.7040   
   X6.7851       Y58.0535      R30.7040   
   X5.9390       Y53.9653      R30.7040   
   X5.6609       Y49.8834      R30.7040   
G1   Y43.631    
   Z-1.750    
   Y35.631    
   Z-2.400    
   Y17.920    
G17 G3   X5.7622       Y16.3743      R12.4500   
   X6.0800       Y14.7763      R12.4500   
   X6.6037       Y13.2336      R12.4500   
   X7.3243       Y11.7724      R12.4500   
   X8.2295       Y10.4177      R12.4500   
   X9.3037       Y9.1928       R12.4500   
   X10.5286      Y8.1186       R12.4500   
   X11.8833      Y7.2134       R12.4500   
   X13.3445      Y6.4928       R12.4500   
   X14.8872      Y5.9691       R12.4500   
   X16.4852      Y5.6513       R12.4500   
   X18.0307      Y5.5500       R12.4500   
G1   X46.608    
   Z-1.750    
   X54.608    
   Z-2.400    
(Pass: 25)
   Z-2.500    
   X88.191    
G17 G3   X89.7366      Y5.6513       R12.4500   
   X91.3346      Y5.9691       R12.4500   
   X92.8773      Y6.4928       R12.4500   
   X94.3385      Y7.2134       R12.4500   
   X95.6932      Y8.1186       R12.4500   
   X96.9181      Y9.1928       R12.4500   
   X97.9923      Y10.4177      R12.4500   
   X98.8975      Y11.7724      R12.4500   
   X99.6181      Y13.2336      R12.4500   
   X100.1418     Y14.7763      R12.4500   
   X100.4596     Y16.3743      R12.4500   
   X100.5609     Y17.9198      R12.4500   
G1   Y35.106    
   Z-1.750    
   Y43.106    
   Z-2.500    
   Y49.883    
G17 G3   X100.2828     Y53.9653      R30.7040   
   X99.4367      Y58.0535      R30.7040   
   X98.0439      Y61.9893      R30.7040   
   X96.1301      Y65.6997      R30.7040   
   X93.7308      Y69.1163      R30.7040   
   X90.8903      Y72.1759      R30.7040   
   X87.6610      Y74.8220      R30.7040   
   X84.1026      Y77.0056      R30.7040   
   X80.2810      Y78.6864      R30.7040   
   X76.2667      Y79.8333      R30.7040   
   X72.1340      Y80.4251      R30.7040   
   X68.1185      Y80.4500      R30.7040   
G1   X56.272    
   Z-1.750    
   X48.272    
   Z-2.500    
   X38.103    
G17 G3   X34.0878      Y80.4251      R30.7040   
   X29.9551      Y79.8333      R30.7040   
   X25.9408      Y78.6864      R30.7040   
   X22.1192      Y77.0056      R30.7040   
   X18.5608      Y74.8220      R30.7040   
   X15.3315      Y72.1759      R30.7040   
   X12.4910      Y69.1163      R30.7040   
   X10.0917      Y65.6997      R30.7040   
   X8.1779       Y61.9893      R30.7040   
   X6.7851       Y58.0535      R30.7040   
   X5.9390       Y53.9653      R30.7040   
   X5.6609       Y49.8834      R30.7040   
G1   Y43.631    
   Z-1.750    
   Y35.631    
   Z-2.500    
   Y17.920    
G17 G3   X5.7622       Y16.3743      R12.4500   
   X6.0800       Y14.7763      R12.4500   
   X6.6037       Y13.2336      R12.4500   
   X7.3243       Y11.7724      R12.4500   
   X8.2295       Y10.4177      R12.4500   
   X9.3037       Y9.1928       R12.4500   
   X10.5286      Y8.1186       R12.4500   
   X11.8833      Y7.2134       R12.4500   
   X13.3445      Y6.4928       R12.4500   
   X14.8872      Y5.9691       R12.4500   
   X16.4852      Y5.6513       R12.4500   
   X18.0307      Y5.5500       R12.4500   
G1   X46.608    
   Z-1.750    
   X54.608    
   Z-2.500    
(Pass: 26)
   Z-2.600    
   X88.191    
G17 G3   X89.7366      Y5.6513       R12.4500   
   X91.3346      Y5.9691       R12.4500   
   X92.8773      Y6.4928       R12.4500   
   X94.3385      Y7.2134       R12.4500   
   X95.6932      Y8.1186       R12.4500   
   X96.9181      Y9.1928       R12.4500   
   X97.9923      Y10.4177      R12.4500   
   X98.8975      Y11.7724      R12.4500   
   X99.6181      Y13.2336      R12.4500   
   X100.1418     Y14.7763      R12.4500   
   X100.4596     Y16.3743      R12.4500   
   X100.5609     Y17.9198      R12.4500   
G1   Y35.106    
   Z-1.750    
   Y43.106    
   Z-2.600    
   Y49.883    
G17 G3   X100.2828     Y53.9653      R30.7040   
   X99.4367      Y58.0535      R30.7040   
   X98.0439      Y61.9893      R30.7040   
   X96.1301      Y65.6997      R30.7040   
   X93.7308      Y69.1163      R30.7040   
   X90.8903      Y72.1759      R30.7040   
   X87.6610      Y74.8220      R30.7040   
   X84.1026      Y77.0056      R30.7040   
   X80.2810      Y78.6864      R30.7040   
   X76.2667      Y79.8333      R30.7040   
   X72.1340      Y80.4251      R30.7040   
   X68.1185      Y80.4500      R30.7040   
G1   X56.272    
   Z-1.750    
   X48.272    
   Z-2.600    
   X38.103    
G17 G3   X34.0878      Y80.4251      R30.7040   
   X29.9551      Y79.8333      R30.7040   
   X25.9408      Y78.6864      R30.7040   
   X22.1192      Y77.0056      R30.7040   
   X18.5608      Y74.8220      R30.7040   
   X15.3315      Y72.1759      R30.7040   
   X12.4910      Y69.1163      R30.7040   
   X10.0917      Y65.6997      R30.7040   
   X8.1779       Y61.9893      R30.7040   
   X6.7851       Y58.0535      R30.7040   
   X5.9390       Y53.9653      R30.7040   
   X5.6609       Y49.8834      R30.7040   
G1   Y43.631    
   Z-1.750    
   Y35.631    
   Z-2.600    
   Y17.920    
G17 G3   X5.7622       Y16.3743      R12.4500   
   X6.0800       Y14.7763      R12.4500   
   X6.6037       Y13.2336      R12.4500   
   X7.3243       Y11.7724      R12.4500   
   X8.2295       Y10.4177      R12.4500   
   X9.3037       Y9.1928       R12.4500   
   X10.5286      Y8.1186       R12.4500   
   X11.8833      Y7.2134       R12.4500   
   X13.3445      Y6.4928       R12.4500   
   X14.8872      Y5.9691       R12.4500   
   X16.4852      Y5.6513       R12.4500   
   X18.0307      Y5.5500       R12.4500   
G1   X46.608    
   Z-1.750    
   X54.608    
   Z-2.600    
(Pass: 27)
   Z-2.700    
   X88.191    
G17 G3   X89.7366      Y5.6513       R12.4500   
   X91.3346      Y5.9691       R12.4500   
   X92.8773      Y6.4928       R12.4500   
   X94.3385      Y7.2134       R12.4500   
   X95.6932      Y8.1186       R12.4500   
   X96.9181      Y9.1928       R12.4500   
   X97.9923      Y10.4177      R12.4500   
   X98.8975      Y11.7724      R12.4500   
   X99.6181      Y13.2336      R12.4500   
   X100.1418     Y14.7763      R12.4500   
   X100.4596     Y16.3743      R12.4500   
   X100.5609     Y17.9198      R12.4500   
G1   Y35.106    
   Z-1.750    
   Y43.106    
   Z-2.700    
   Y49.883    
G17 G3   X100.2828     Y53.9653      R30.7040   
   X99.4367      Y58.0535      R30.7040   
   X98.0439      Y61.9893      R30.7040   
   X96.1301      Y65.6997      R30.7040   
   X93.7308      Y69.1163      R30.7040   
   X90.8903      Y72.1759      R30.7040   
   X87.6610      Y74.8220      R30.7040   
   X84.1026      Y77.0056      R30.7040   
   X80.2810      Y78.6864      R30.7040   
   X76.2667      Y79.8333      R30.7040   
   X72.1340      Y80.4251      R30.7040   
   X68.1185      Y80.4500      R30.7040   
G1   X56.272    
   Z-1.750    
   X48.272    
   Z-2.700    
   X38.103    
G17 G3   X34.0878      Y80.4251      R30.7040   
   X29.9551      Y79.8333      R30.7040   
   X25.9408      Y78.6864      R30.7040   
   X22.1192      Y77.0056      R30.7040   
   X18.5608      Y74.8220      R30.7040   
   X15.3315      Y72.1759      R30.7040   
   X12.4910      Y69.1163      R30.7040   
   X10.0917      Y65.6997      R30.7040   
   X8.1779       Y61.9893      R30.7040   
   X6.7851       Y58.0535      R30.7040   
   X5.9390       Y53.9653      R30.7040   
   X5.6609       Y49.8834      R30.7040   
G1   Y43.631    
   Z-1.750    
   Y35.631    
   Z-2.700    
   Y17.920    
G17 G3   X5.7622       Y16.3743      R12.4500   
   X6.0800       Y14.7763      R12.4500   
   X6.6037       Y13.2336      R12.4500   
   X7.3243       Y11.7724      R12.4500   
   X8.2295       Y10.4177      R12.4500   
   X9.3037       Y9.1928       R12.4500   
   X10.5286      Y8.1186       R12.4500   
   X11.8833      Y7.2134       R12.4500   
   X13.3445      Y6.4928       R12.4500   
   X14.8872      Y5.9691       R12.4500   
   X16.4852      Y5.6513       R12.4500   
   X18.0307      Y5.5500       R12.4500   
G1   X46.608    
   Z-1.750    
   X54.608    
   Z-2.700    
(Pass: 28)
   Z-2.800    
   X88.191    
G17 G3   X89.7366      Y5.6513       R12.4500   
   X91.3346      Y5.9691       R12.4500   
   X92.8773      Y6.4928       R12.4500   
   X94.3385      Y7.2134       R12.4500   
   X95.6932      Y8.1186       R12.4500   
   X96.9181      Y9.1928       R12.4500   
   X97.9923      Y10.4177      R12.4500   
   X98.8975      Y11.7724      R12.4500   
   X99.6181      Y13.2336      R12.4500   
   X100.1418     Y14.7763      R12.4500   
   X100.4596     Y16.3743      R12.4500   
   X100.5609     Y17.9198      R12.4500   
G1   Y35.106    
   Z-1.750    
   Y43.106    
   Z-2.800    
   Y49.883    
G17 G3   X100.2828     Y53.9653      R30.7040   
   X99.4367      Y58.0535      R30.7040   
   X98.0439      Y61.9893      R30.7040   
   X96.1301      Y65.6997      R30.7040   
   X93.7308      Y69.1163      R30.7040   
   X90.8903      Y72.1759      R30.7040   
   X87.6610      Y74.8220      R30.7040   
   X84.1026      Y77.0056      R30.7040   
   X80.2810      Y78.6864      R30.7040   
   X76.2667      Y79.8333      R30.7040   
   X72.1340      Y80.4251      R30.7040   
   X68.1185      Y80.4500      R30.7040   
G1   X56.272    
   Z-1.750    
   X48.272    
   Z-2.800    
   X38.103    
G17 G3   X34.0878      Y80.4251      R30.7040   
   X29.9551      Y79.8333      R30.7040   
   X25.9408      Y78.6864      R30.7040   
   X22.1192      Y77.0056      R30.7040   
   X18.5608      Y74.8220      R30.7040   
   X15.3315      Y72.1759      R30.7040   
   X12.4910      Y69.1163      R30.7040   
   X10.0917      Y65.6997      R30.7040   
   X8.1779       Y61.9893      R30.7040   
   X6.7851       Y58.0535      R30.7040   
   X5.9390       Y53.9653      R30.7040   
   X5.6609       Y49.8834      R30.7040   
G1   Y43.631    
   Z-1.750    
   Y35.631    
   Z-2.800    
   Y17.920    
G17 G3   X5.7622       Y16.3743      R12.4500   
   X6.0800       Y14.7763      R12.4500   
   X6.6037       Y13.2336      R12.4500   
   X7.3243       Y11.7724      R12.4500   
   X8.2295       Y10.4177      R12.4500   
   X9.3037       Y9.1928       R12.4500   
   X10.5286      Y8.1186       R12.4500   
   X11.8833      Y7.2134       R12.4500   
   X13.3445      Y6.4928       R12.4500   
   X14.8872      Y5.9691       R12.4500   
   X16.4852      Y5.6513       R12.4500   
   X18.0307      Y5.5500       R12.4500   
G1   X46.608    
   Z-1.750    
   X54.608    
   Z-2.800    
(Pass: 29)
   Z-2.900    
   X88.191    
G17 G3   X89.7366      Y5.6513       R12.4500   
   X91.3346      Y5.9691       R12.4500   
   X92.8773      Y6.4928       R12.4500   
   X94.3385      Y7.2134       R12.4500   
   X95.6932      Y8.1186       R12.4500   
   X96.9181      Y9.1928       R12.4500   
   X97.9923      Y10.4177      R12.4500   
   X98.8975      Y11.7724      R12.4500   
   X99.6181      Y13.2336      R12.4500   
   X100.1418     Y14.7763      R12.4500   
   X100.4596     Y16.3743      R12.4500   
   X100.5609     Y17.9198      R12.4500   
G1   Y35.106    
   Z-1.750    
   Y43.106    
   Z-2.900    
   Y49.883    
G17 G3   X100.2828     Y53.9653      R30.7040   
   X99.4367      Y58.0535      R30.7040   
   X98.0439      Y61.9893      R30.7040   
   X96.1301      Y65.6997      R30.7040   
   X93.7308      Y69.1163      R30.7040   
   X90.8903      Y72.1759      R30.7040   
   X87.6610      Y74.8220      R30.7040   
   X84.1026      Y77.0056      R30.7040   
   X80.2810      Y78.6864      R30.7040   
   X76.2667      Y79.8333      R30.7040   
   X72.1340      Y80.4251      R30.7040   
   X68.1185      Y80.4500      R30.7040   
G1   X56.272    
   Z-1.750    
   X48.272    
   Z-2.900    
   X38.103    
G17 G3   X34.0878      Y80.4251      R30.7040   
   X29.9551      Y79.8333      R30.7040   
   X25.9408      Y78.6864      R30.7040   
   X22.1192      Y77.0056      R30.7040   
   X18.5608      Y74.8220      R30.7040   
   X15.3315      Y72.1759      R30.7040   
   X12.4910      Y69.1163      R30.7040   
   X10.0917      Y65.6997      R30.7040   
   X8.1779       Y61.9893      R30.7040   
   X6.7851       Y58.0535      R30.7040   
   X5.9390       Y53.9653      R30.7040   
   X5.6609       Y49.8834      R30.7040   
G1   Y43.631    
   Z-1.750    
   Y35.631    
   Z-2.900    
   Y17.920    
G17 G3   X5.7622       Y16.3743      R12.4500   
   X6.0800       Y14.7763      R12.4500   
   X6.6037       Y13.2336      R12.4500   
   X7.3243       Y11.7724      R12.4500   
   X8.2295       Y10.4177      R12.4500   
   X9.3037       Y9.1928       R12.4500   
   X10.5286      Y8.1186       R12.4500   
   X11.8833      Y7.2134       R12.4500   
   X13.3445      Y6.4928       R12.4500   
   X14.8872      Y5.9691       R12.4500   
   X16.4852      Y5.6513       R12.4500   
   X18.0307      Y5.5500       R12.4500   
G1   X46.608    
   Z-1.750    
   X54.608    
   Z-2.900    
(Pass: 30)
   Z-3.000    
   X88.191    
G17 G3   X89.7366      Y5.6513       R12.4500   
   X91.3346      Y5.9691       R12.4500   
   X92.8773      Y6.4928       R12.4500   
   X94.3385      Y7.2134       R12.4500   
   X95.6932      Y8.1186       R12.4500   
   X96.9181      Y9.1928       R12.4500   
   X97.9923      Y10.4177      R12.4500   
   X98.8975      Y11.7724      R12.4500   
   X99.6181      Y13.2336      R12.4500   
   X100.1418     Y14.7763      R12.4500   
   X100.4596     Y16.3743      R12.4500   
   X100.5609     Y17.9198      R12.4500   
G1   Y35.106    
   Z-1.750    
   Y43.106    
   Z-3.000    
   Y49.883    
G17 G3   X100.2828     Y53.9653      R30.7040   
   X99.4367      Y58.0535      R30.7040   
   X98.0439      Y61.9893      R30.7040   
   X96.1301      Y65.6997      R30.7040   
   X93.7308      Y69.1163      R30.7040   
   X90.8903      Y72.1759      R30.7040   
   X87.6610      Y74.8220      R30.7040   
   X84.1026      Y77.0056      R30.7040   
   X80.2810      Y78.6864      R30.7040   
   X76.2667      Y79.8333      R30.7040   
   X72.1340      Y80.4251      R30.7040   
   X68.1185      Y80.4500      R30.7040   
G1   X56.272    
   Z-1.750    
   X48.272    
   Z-3.000    
   X38.103    
G17 G3   X34.0878      Y80.4251      R30.7040   
   X29.9551      Y79.8333      R30.7040   
   X25.9408      Y78.6864      R30.7040   
   X22.1192      Y77.0056      R30.7040   
   X18.5608      Y74.8220      R30.7040   
   X15.3315      Y72.1759      R30.7040   
   X12.4910      Y69.1163      R30.7040   
   X10.0917      Y65.6997      R30.7040   
   X8.1779       Y61.9893      R30.7040   
   X6.7851       Y58.0535      R30.7040   
   X5.9390       Y53.9653      R30.7040   
   X5.6609       Y49.8834      R30.7040   
G1   Y43.631    
   Z-1.750    
   Y35.631    
   Z-3.000    
   Y17.920    
G17 G3   X5.7622       Y16.3743      R12.4500   
   X6.0800       Y14.7763      R12.4500   
   X6.6037       Y13.2336      R12.4500   
   X7.3243       Y11.7724      R12.4500   
   X8.2295       Y10.4177      R12.4500   
   X9.3037       Y9.1928       R12.4500   
   X10.5286      Y8.1186       R12.4500   
   X11.8833      Y7.2134       R12.4500   
   X13.3445      Y6.4928       R12.4500   
   X14.8872      Y5.9691       R12.4500   
   X16.4852      Y5.6513       R12.4500   
   X18.0307      Y5.5500       R12.4500   
G1   X46.608    
   Z-1.750    
   X54.608    
   Z-3.000    
(Pass: 31)
   Z-3.100    
   X88.191    
G17 G3   X89.7366      Y5.6513       R12.4500   
   X91.3346      Y5.9691       R12.4500   
   X92.8773      Y6.4928       R12.4500   
   X94.3385      Y7.2134       R12.4500   
   X95.6932      Y8.1186       R12.4500   
   X96.9181      Y9.1928       R12.4500   
   X97.9923      Y10.4177      R12.4500   
   X98.8975      Y11.7724      R12.4500   
   X99.6181      Y13.2336      R12.4500   
   X100.1418     Y14.7763      R12.4500   
   X100.4596     Y16.3743      R12.4500   
   X100.5609     Y17.9198      R12.4500   
G1   Y35.106    
   Z-1.750    
   Y43.106    
   Z-3.100    
   Y49.883    
G17 G3   X100.2828     Y53.9653      R30.7040   
   X99.4367      Y58.0535      R30.7040   
   X98.0439      Y61.9893      R30.7040   
   X96.1301      Y65.6997      R30.7040   
   X93.7308      Y69.1163      R30.7040   
   X90.8903      Y72.1759      R30.7040   
   X87.6610      Y74.8220      R30.7040   
   X84.1026      Y77.0056      R30.7040   
   X80.2810      Y78.6864      R30.7040   
   X76.2667      Y79.8333      R30.7040   
   X72.1340      Y80.4251      R30.7040   
   X68.1185      Y80.4500      R30.7040   
G1   X56.272    
   Z-1.750    
   X48.272    
   Z-3.100    
   X38.103    
G17 G3   X34.0878      Y80.4251      R30.7040   
   X29.9551      Y79.8333      R30.7040   
   X25.9408      Y78.6864      R30.7040   
   X22.1192      Y77.0056      R30.7040   
   X18.5608      Y74.8220      R30.7040   
   X15.3315      Y72.1759      R30.7040   
   X12.4910      Y69.1163      R30.7040   
   X10.0917      Y65.6997      R30.7040   
   X8.1779       Y61.9893      R30.7040   
   X6.7851       Y58.0535      R30.7040   
   X5.9390       Y53.9653      R30.7040   
   X5.6609       Y49.8834      R30.7040   
G1   Y43.631    
   Z-1.750    
   Y35.631    
   Z-3.100    
   Y17.920    
G17 G3   X5.7622       Y16.3743      R12.4500   
   X6.0800       Y14.7763      R12.4500   
   X6.6037       Y13.2336      R12.4500   
   X7.3243       Y11.7724      R12.4500   
   X8.2295       Y10.4177      R12.4500   
   X9.3037       Y9.1928       R12.4500   
   X10.5286      Y8.1186       R12.4500   
   X11.8833      Y7.2134       R12.4500   
   X13.3445      Y6.4928       R12.4500   
   X14.8872      Y5.9691       R12.4500   
   X16.4852      Y5.6513       R12.4500   
   X18.0307      Y5.5500       R12.4500   
G1   X46.608    
   Z-1.750    
   X54.608    
   Z-3.100    
(Pass: 32)
   Z-3.200    
   X88.191    
G17 G3   X89.7366      Y5.6513       R12.4500   
   X91.3346      Y5.9691       R12.4500   
   X92.8773      Y6.4928       R12.4500   
   X94.3385      Y7.2134       R12.4500   
   X95.6932      Y8.1186       R12.4500   
   X96.9181      Y9.1928       R12.4500   
   X97.9923      Y10.4177      R12.4500   
   X98.8975      Y11.7724      R12.4500   
   X99.6181      Y13.2336      R12.4500   
   X100.1418     Y14.7763      R12.4500   
   X100.4596     Y16.3743      R12.4500   
   X100.5609     Y17.9198      R12.4500   
G1   Y35.106    
   Z-1.750    
   Y43.106    
   Z-3.200    
   Y49.883    
G17 G3   X100.2828     Y53.9653      R30.7040   
   X99.4367      Y58.0535      R30.7040   
   X98.0439      Y61.9893      R30.7040   
   X96.1301      Y65.6997      R30.7040   
   X93.7308      Y69.1163      R30.7040   
   X90.8903      Y72.1759      R30.7040   
   X87.6610      Y74.8220      R30.7040   
   X84.1026      Y77.0056      R30.7040   
   X80.2810      Y78.6864      R30.7040   
   X76.2667      Y79.8333      R30.7040   
   X72.1340      Y80.4251      R30.7040   
   X68.1185      Y80.4500      R30.7040   
G1   X56.272    
   Z-1.750    
   X48.272    
   Z-3.200    
   X38.103    
G17 G3   X34.0878      Y80.4251      R30.7040   
   X29.9551      Y79.8333      R30.7040   
   X25.9408      Y78.6864      R30.7040   
   X22.1192      Y77.0056      R30.7040   
   X18.5608      Y74.8220      R30.7040   
   X15.3315      Y72.1759      R30.7040   
   X12.4910      Y69.1163      R30.7040   
   X10.0917      Y65.6997      R30.7040   
   X8.1779       Y61.9893      R30.7040   
   X6.7851       Y58.0535      R30.7040   
   X5.9390       Y53.9653      R30.7040   
   X5.6609       Y49.8834      R30.7040   
G1   Y43.631    
   Z-1.750    
   Y35.631    
   Z-3.200    
   Y17.920    
G17 G3   X5.7622       Y16.3743      R12.4500   
   X6.0800       Y14.7763      R12.4500   
   X6.6037       Y13.2336      R12.4500   
   X7.3243       Y11.7724      R12.4500   
   X8.2295       Y10.4177      R12.4500   
   X9.3037       Y9.1928       R12.4500   
   X10.5286      Y8.1186       R12.4500   
   X11.8833      Y7.2134       R12.4500   
   X13.3445      Y6.4928       R12.4500   
   X14.8872      Y5.9691       R12.4500   
   X16.4852      Y5.6513       R12.4500   
   X18.0307      Y5.5500       R12.4500   
G1   X46.608    
   Z-1.750    
   X54.608    
   Z-3.200    
(Pass: 33)
   Z-3.300    
   X88.191    
G17 G3   X89.7366      Y5.6513       R12.4500   
   X91.3346      Y5.9691       R12.4500   
   X92.8773      Y6.4928       R12.4500   
   X94.3385      Y7.2134       R12.4500   
   X95.6932      Y8.1186       R12.4500   
   X96.9181      Y9.1928       R12.4500   
   X97.9923      Y10.4177      R12.4500   
   X98.8975      Y11.7724      R12.4500   
   X99.6181      Y13.2336      R12.4500   
   X100.1418     Y14.7763      R12.4500   
   X100.4596     Y16.3743      R12.4500   
   X100.5609     Y17.9198      R12.4500   
G1   Y35.106    
   Z-1.750    
   Y43.106    
   Z-3.300    
   Y49.883    
G17 G3   X100.2828     Y53.9653      R30.7040   
   X99.4367      Y58.0535      R30.7040   
   X98.0439      Y61.9893      R30.7040   
   X96.1301      Y65.6997      R30.7040   
   X93.7308      Y69.1163      R30.7040   
   X90.8903      Y72.1759      R30.7040   
   X87.6610      Y74.8220      R30.7040   
   X84.1026      Y77.0056      R30.7040   
   X80.2810      Y78.6864      R30.7040   
   X76.2667      Y79.8333      R30.7040   
   X72.1340      Y80.4251      R30.7040   
   X68.1185      Y80.4500      R30.7040   
G1   X56.272    
   Z-1.750    
   X48.272    
   Z-3.300    
   X38.103    
G17 G3   X34.0878      Y80.4251      R30.7040   
   X29.9551      Y79.8333      R30.7040   
   X25.9408      Y78.6864      R30.7040   
   X22.1192      Y77.0056      R30.7040   
   X18.5608      Y74.8220      R30.7040   
   X15.3315      Y72.1759      R30.7040   
   X12.4910      Y69.1163      R30.7040   
   X10.0917      Y65.6997      R30.7040   
   X8.1779       Y61.9893      R30.7040   
   X6.7851       Y58.0535      R30.7040   
   X5.9390       Y53.9653      R30.7040   
   X5.6609       Y49.8834      R30.7040   
G1   Y43.631    
   Z-1.750    
   Y35.631    
   Z-3.300    
   Y17.920    
G17 G3   X5.7622       Y16.3743      R12.4500   
   X6.0800       Y14.7763      R12.4500   
   X6.6037       Y13.2336      R12.4500   
   X7.3243       Y11.7724      R12.4500   
   X8.2295       Y10.4177      R12.4500   
   X9.3037       Y9.1928       R12.4500   
   X10.5286      Y8.1186       R12.4500   
   X11.8833      Y7.2134       R12.4500   
   X13.3445      Y6.4928       R12.4500   
   X14.8872      Y5.9691       R12.4500   
   X16.4852      Y5.6513       R12.4500   
   X18.0307      Y5.5500       R12.4500   
G1   X46.608    
   Z-1.750    
   X54.608    
   Z-3.300    
(Pass: 34)
   Z-3.400    
   X88.191    
G17 G3   X89.7366      Y5.6513       R12.4500   
   X91.3346      Y5.9691       R12.4500   
   X92.8773      Y6.4928       R12.4500   
   X94.3385      Y7.2134       R12.4500   
   X95.6932      Y8.1186       R12.4500   
   X96.9181      Y9.1928       R12.4500   
   X97.9923      Y10.4177      R12.4500   
   X98.8975      Y11.7724      R12.4500   
   X99.6181      Y13.2336      R12.4500   
   X100.1418     Y14.7763      R12.4500   
   X100.4596     Y16.3743      R12.4500   
   X100.5609     Y17.9198      R12.4500   
G1   Y35.106    
   Z-1.750    
   Y43.106    
   Z-3.400    
   Y49.883    
G17 G3   X100.2828     Y53.9653      R30.7040   
   X99.4367      Y58.0535      R30.7040   
   X98.0439      Y61.9893      R30.7040   
   X96.1301      Y65.6997      R30.7040   
   X93.7308      Y69.1163      R30.7040   
   X90.8903      Y72.1759      R30.7040   
   X87.6610      Y74.8220      R30.7040   
   X84.1026      Y77.0056      R30.7040   
   X80.2810      Y78.6864      R30.7040   
   X76.2667      Y79.8333      R30.7040   
   X72.1340      Y80.4251      R30.7040   
   X68.1185      Y80.4500      R30.7040   
G1   X56.272    
   Z-1.750    
   X48.272    
   Z-3.400    
   X38.103    
G17 G3   X34.0878      Y80.4251      R30.7040   
   X29.9551      Y79.8333      R30.7040   
   X25.9408      Y78.6864      R30.7040   
   X22.1192      Y77.0056      R30.7040   
   X18.5608      Y74.8220      R30.7040   
   X15.3315      Y72.1759      R30.7040   
   X12.4910      Y69.1163      R30.7040   
   X10.0917      Y65.6997      R30.7040   
   X8.1779       Y61.9893      R30.7040   
   X6.7851       Y58.0535      R30.7040   
   X5.9390       Y53.9653      R30.7040   
   X5.6609       Y49.8834      R30.7040   
G1   Y43.631    
   Z-1.750    
   Y35.631    
   Z-3.400    
   Y17.920    
G17 G3   X5.7622       Y16.3743      R12.4500   
   X6.0800       Y14.7763      R12.4500   
   X6.6037       Y13.2336      R12.4500   
   X7.3243       Y11.7724      R12.4500   
   X8.2295       Y10.4177      R12.4500   
   X9.3037       Y9.1928       R12.4500   
   X10.5286      Y8.1186       R12.4500   
   X11.8833      Y7.2134       R12.4500   
   X13.3445      Y6.4928       R12.4500   
   X14.8872      Y5.9691       R12.4500   
   X16.4852      Y5.6513       R12.4500   
   X18.0307      Y5.5500       R12.4500   
