%
(Generated by SketchUcam {1.2b1})
(File: laser.skp)
(Bit diameter: 5.0mm)
(Feed rate: 600.0mm/min)
(Plunge Feed rate: 400.0mm/min)
(Material Thickness: 3.2mm)
(Material length: 600.0mm X width: 300.0mm)
(Overhead Gantry: true)
(Retract feed rate NOT limited to plunge feed rate)
(Multipass enabled, Depth = 0.1mm)
(Optimization is ON)
(www.PhlatBoyz.com)
(Loaded profile 5mmaluminum)
G90 G21 G49 
M3 S11000
(Group: Roof Side RailRoof Side Rail)
(Group complete: Roof Side RailRoof Side Rail)
(Group: Roof Side RailRoof Side Rail)
(Group complete: Roof Side RailRoof Side Rail)
(Group: Outside Panels)
(Group: Mechanical Panels)
(Group: Rear Panels)
(Group complete: Rear Panels)
(Group complete: Mechanical Panels)
(Group: SIde Panels)
(Group complete: SIde Panels)
(Group: Lid Front Panels)
(Group complete: Lid Front Panels)
(Group: Front Panels)
(Group complete: Front Panels)
(Group: Lid Top Panels)
(Group complete: Lid Top Panels)
(Group complete: Outside Panels)
(Group: Power Supplies)
(Group complete: Power Supplies)
(Group: Computers)
(Group complete: Computers)
(Group: Fans)
(Group complete: Fans)
G0   Z5.000     
(Pass: 1)
   X25.471       Y52.479    
(plungebore    depth=4.480         diam=5.000     )
G00   Z1.667     
G01   Z-0.100     F400 
G00   z1.667     
G01   Z-0.200    
G00   z1.667     
G01   Z-0.300    
G00   z1.667     
G01   Z-0.400    
G00   z1.667     
G01   Z-0.500    
G00   z1.667     
G01   Z-0.600    
G00   z1.667     
G01   Z-0.700    
G00   z1.667     
G01   Z-0.800    
G00   z1.667     
G01   Z-0.900    
G00   z1.667     
G01   Z-1.000    
G00   z1.667     
G01   Z-1.100    
G00   z1.667     
G01   Z-1.200    
G00   z1.667     
G01   Z-1.300    
G00   z1.667     
G01   Z-1.400    
G00   z1.667     
G01   Z-1.500    
G00   z1.667     
G01   Z-1.600    
G00   z1.667     
G01   Z-1.700    
G00   z1.667     
G01   Z-1.800    
G00   z1.667     
G01   Z-1.900    
G00   z1.667     
G01   Z-2.000    
G00   z1.667     
G01   Z-2.100    
G00   z1.667     
G01   Z-2.200    
G00   z1.667     
G01   Z-2.300    
G00   z1.667     
G01   Z-2.400    
G00   z1.667     
G01   Z-2.500    
G00   z1.667     
G01   Z-2.600    
G00   z1.667     
G01   Z-2.700    
G00   z1.667     
G01   Z-2.800    
G00   z1.667     
G01   Z-2.900    
G00   z1.667     
G01   Z-3.000    
G00   z1.667     
G01   Z-3.100    
G00   z1.667     
G01   Z-3.200    
G00   z1.667     
G01   Z-3.300    
G00   z1.667     
G01   Z-3.400    
G00   z1.667     
G01   Z-3.500    
G00   z1.667     
G01   Z-3.600    
G00   z1.667     
G01   Z-3.700    
G00   z1.667     
G01   Z-3.800    
G00   z1.667     
G01   Z-3.900    
G00   z1.667     
G01   Z-4.000    
G00   z1.667     
G01   Z-4.100    
G00   z1.667     
G01   Z-4.200    
G00   z1.667     
G01   Z-4.300    
G00   z1.667     
G01   Z-4.400    
G00   z1.667     
G01   Z-4.480    
G00   z1.667     
G00   Y52.479        Z5.000     
(plungebore end)
(BREAK pass 34)
(Pass: 1)
G0   X45.454    
(plungebore    depth=4.480         diam=5.000     )
G00   Z1.667     
G01   Z-0.100     F400 
G00   z1.667     
G01   Z-0.200    
G00   z1.667     
G01   Z-0.300    
G00   z1.667     
G01   Z-0.400    
G00   z1.667     
G01   Z-0.500    
G00   z1.667     
G01   Z-0.600    
G00   z1.667     
G01   Z-0.700    
G00   z1.667     
G01   Z-0.800    
G00   z1.667     
G01   Z-0.900    
G00   z1.667     
G01   Z-1.000    
G00   z1.667     
G01   Z-1.100    
G00   z1.667     
G01   Z-1.200    
G00   z1.667     
G01   Z-1.300    
G00   z1.667     
G01   Z-1.400    
G00   z1.667     
G01   Z-1.500    
G00   z1.667     
G01   Z-1.600    
G00   z1.667     
G01   Z-1.700    
G00   z1.667     
G01   Z-1.800    
G00   z1.667     
G01   Z-1.900    
G00   z1.667     
G01   Z-2.000    
G00   z1.667     
G01   Z-2.100    
G00   z1.667     
G01   Z-2.200    
G00   z1.667     
G01   Z-2.300    
G00   z1.667     
G01   Z-2.400    
G00   z1.667     
G01   Z-2.500    
G00   z1.667     
G01   Z-2.600    
G00   z1.667     
G01   Z-2.700    
G00   z1.667     
G01   Z-2.800    
G00   z1.667     
G01   Z-2.900    
G00   z1.667     
G01   Z-3.000    
G00   z1.667     
G01   Z-3.100    
G00   z1.667     
G01   Z-3.200    
G00   z1.667     
G01   Z-3.300    
G00   z1.667     
G01   Z-3.400    
G00   z1.667     
G01   Z-3.500    
G00   z1.667     
G01   Z-3.600    
G00   z1.667     
G01   Z-3.700    
G00   z1.667     
G01   Z-3.800    
G00   z1.667     
G01   Z-3.900    
G00   z1.667     
G01   Z-4.000    
G00   z1.667     
G01   Z-4.100    
G00   z1.667     
G01   Z-4.200    
G00   z1.667     
G01   Z-4.300    
G00   z1.667     
G01   Z-4.400    
G00   z1.667     
G01   Z-4.480    
G00   z1.667     
G00   Y52.479        Z5.000     
(plungebore end)
(BREAK pass 34)
(Group: _diam_7.1mm)
(Pass: 1)
G0   X19.604       Y70.651    
(plungebore    depth=4.480         diam=7.100     )
G00   Z1.667     
G01   Z-0.100     F400 
G00   z1.667     
G01   Z-0.200    
G00   z1.667     
G01   Z-0.300    
G00   z1.667     
G01   Z-0.400    
G00   z1.667     
G01   Z-0.500    
G00   z1.667     
G01   Z-0.600    
G00   z1.667     
G01   Z-0.700    
G00   z1.667     
G01   Z-0.800    
G00   z1.667     
G01   Z-0.900    
G00   z1.667     
G01   Z-1.000    
G00   z1.667     
G01   Z-1.100    
G00   z1.667     
G01   Z-1.200    
G00   z1.667     
G01   Z-1.300    
G00   z1.667     
G01   Z-1.400    
G00   z1.667     
G01   Z-1.500    
G00   z1.667     
G01   Z-1.600    
G00   z1.667     
G01   Z-1.700    
G00   z1.667     
G01   Z-1.800    
G00   z1.667     
G01   Z-1.900    
G00   z1.667     
G01   Z-2.000    
G00   z1.667     
G01   Z-2.100    
G00   z1.667     
G01   Z-2.200    
G00   z1.667     
G01   Z-2.300    
G00   z1.667     
G01   Z-2.400    
G00   z1.667     
G01   Z-2.500    
G00   z1.667     
G01   Z-2.600    
G00   z1.667     
G01   Z-2.700    
G00   z1.667     
G01   Z-2.800    
G00   z1.667     
G01   Z-2.900    
G00   z1.667     
G01   Z-3.000    
G00   z1.667     
G01   Z-3.100    
G00   z1.667     
G01   Z-3.200    
G00   z1.667     
G01   Z-3.300    
G00   z1.667     
G01   Z-3.400    
G00   z1.667     
G01   Z-3.500    
G00   z1.667     
G01   Z-3.600    
G00   z1.667     
G01   Z-3.700    
G00   z1.667     
G01   Z-3.800    
G00   z1.667     
G01   Z-3.900    
G00   z1.667     
G01   Z-4.000    
G00   z1.667     
G01   Z-4.100    
G00   z1.667     
G01   Z-4.200    
G00   z1.667     
G01   Z-4.300    
G00   z1.667     
G01   Z-4.400    
G00   z1.667     
G01   Z-4.480    
G00   z1.667     
G00   Y69.6010   
G01    Z0.0000     F600 
G02     X19.6036       Y69.6010       Z-0.1000    I0    J1.0500    
G02     X19.6036       Y69.6010       Z-0.2000    I0    J1.0500    
G02     X19.6036       Y69.6010       Z-0.3000    I0    J1.0500    
G02     X19.6036       Y69.6010       Z-0.4000    I0    J1.0500    
G02     X19.6036       Y69.6010       Z-0.5000    I0    J1.0500    
G02     X19.6036       Y69.6010       Z-0.6000    I0    J1.0500    
G02     X19.6036       Y69.6010       Z-0.7000    I0    J1.0500    
G02     X19.6036       Y69.6010       Z-0.8000    I0    J1.0500    
G02     X19.6036       Y69.6010       Z-0.9000    I0    J1.0500    
G02     X19.6036       Y69.6010       Z-1.0000    I0    J1.0500    
G02     X19.6036       Y69.6010       Z-1.1000    I0    J1.0500    
G02     X19.6036       Y69.6010       Z-1.2000    I0    J1.0500    
G02     X19.6036       Y69.6010       Z-1.3000    I0    J1.0500    
G02     X19.6036       Y69.6010       Z-1.4000    I0    J1.0500    
G02     X19.6036       Y69.6010       Z-1.5000    I0    J1.0500    
G02     X19.6036       Y69.6010       Z-1.6000    I0    J1.0500    
G02     X19.6036       Y69.6010       Z-1.7000    I0    J1.0500    
G02     X19.6036       Y69.6010       Z-1.8000    I0    J1.0500    
G02     X19.6036       Y69.6010       Z-1.9000    I0    J1.0500    
G02     X19.6036       Y69.6010       Z-2.0000    I0    J1.0500    
G02     X19.6036       Y69.6010       Z-2.1000    I0    J1.0500    
G02     X19.6036       Y69.6010       Z-2.2000    I0    J1.0500    
G02     X19.6036       Y69.6010       Z-2.3000    I0    J1.0500    
G02     X19.6036       Y69.6010       Z-2.4000    I0    J1.0500    
G02     X19.6036       Y69.6010       Z-2.5000    I0    J1.0500    
G02     X19.6036       Y69.6010       Z-2.6000    I0    J1.0500    
G02     X19.6036       Y69.6010       Z-2.7000    I0    J1.0500    
G02     X19.6036       Y69.6010       Z-2.8000    I0    J1.0500    
G02     X19.6036       Y69.6010       Z-2.9000    I0    J1.0500    
G02     X19.6036       Y69.6010       Z-3.0000    I0    J1.0500    
G02     X19.6036       Y69.6010       Z-3.1000    I0    J1.0500    
G02     X19.6036       Y69.6010       Z-3.2000    I0    J1.0500    
G02     X19.6036       Y69.6010       Z-3.3000    I0    J1.0500    
G02     X19.6036       Y69.6010       Z-3.4000    I0    J1.0500    
G02     X19.6036       Y69.6010       Z-3.5000    I0    J1.0500    
G02     X19.6036       Y69.6010       Z-3.6000    I0    J1.0500    
G02     X19.6036       Y69.6010       Z-3.7000    I0    J1.0500    
G02     X19.6036       Y69.6010       Z-3.8000    I0    J1.0500    
G02     X19.6036       Y69.6010       Z-4.4800    I0    J1.0500    
G02     X19.6036       Y69.6010    I0.0    J1.0500    
G00   Y70.651        Z5.000     
(plungebore end)
(BREAK pass 34)
(Group complete: _diam_7.1mm)
(Group: _diam_7.1mm)
(Pass: 1)
G0   X51.526    
(plungebore    depth=4.480         diam=7.100     )
G00   Z1.667     
G01   Z-0.100     F400 
G00   z1.667     
G01   Z-0.200    
G00   z1.667     
G01   Z-0.300    
G00   z1.667     
G01   Z-0.400    
G00   z1.667     
G01   Z-0.500    
G00   z1.667     
G01   Z-0.600    
G00   z1.667     
G01   Z-0.700    
G00   z1.667     
G01   Z-0.800    
G00   z1.667     
G01   Z-0.900    
G00   z1.667     
G01   Z-1.000    
G00   z1.667     
G01   Z-1.100    
G00   z1.667     
G01   Z-1.200    
G00   z1.667     
G01   Z-1.300    
G00   z1.667     
G01   Z-1.400    
G00   z1.667     
G01   Z-1.500    
G00   z1.667     
G01   Z-1.600    
G00   z1.667     
G01   Z-1.700    
G00   z1.667     
G01   Z-1.800    
G00   z1.667     
G01   Z-1.900    
G00   z1.667     
G01   Z-2.000    
G00   z1.667     
G01   Z-2.100    
G00   z1.667     
G01   Z-2.200    
G00   z1.667     
G01   Z-2.300    
G00   z1.667     
G01   Z-2.400    
G00   z1.667     
G01   Z-2.500    
G00   z1.667     
G01   Z-2.600    
G00   z1.667     
G01   Z-2.700    
G00   z1.667     
G01   Z-2.800    
G00   z1.667     
G01   Z-2.900    
G00   z1.667     
G01   Z-3.000    
G00   z1.667     
G01   Z-3.100    
G00   z1.667     
G01   Z-3.200    
G00   z1.667     
G01   Z-3.300    
G00   z1.667     
G01   Z-3.400    
G00   z1.667     
G01   Z-3.500    
G00   z1.667     
G01   Z-3.600    
G00   z1.667     
G01   Z-3.700    
G00   z1.667     
G01   Z-3.800    
G00   z1.667     
G01   Z-3.900    
G00   z1.667     
G01   Z-4.000    
G00   z1.667     
G01   Z-4.100    
G00   z1.667     
G01   Z-4.200    
G00   z1.667     
G01   Z-4.300    
G00   z1.667     
G01   Z-4.400    
G00   z1.667     
G01   Z-4.480    
G00   z1.667     
G00   Y69.6010   
G01    Z0.0000     F600 
G02     X51.5261       Y69.6010       Z-0.1000    I0    J1.0500    
G02     X51.5261       Y69.6010       Z-0.2000    I0    J1.0500    
G02     X51.5261       Y69.6010       Z-0.3000    I0    J1.0500    
G02     X51.5261       Y69.6010       Z-0.4000    I0    J1.0500    
G02     X51.5261       Y69.6010       Z-0.5000    I0    J1.0500    
G02     X51.5261       Y69.6010       Z-0.6000    I0    J1.0500    
G02     X51.5261       Y69.6010       Z-0.7000    I0    J1.0500    
G02     X51.5261       Y69.6010       Z-0.8000    I0    J1.0500    
G02     X51.5261       Y69.6010       Z-0.9000    I0    J1.0500    
G02     X51.5261       Y69.6010       Z-1.0000    I0    J1.0500    
G02     X51.5261       Y69.6010       Z-1.1000    I0    J1.0500    
G02     X51.5261       Y69.6010       Z-1.2000    I0    J1.0500    
G02     X51.5261       Y69.6010       Z-1.3000    I0    J1.0500    
G02     X51.5261       Y69.6010       Z-1.4000    I0    J1.0500    
G02     X51.5261       Y69.6010       Z-1.5000    I0    J1.0500    
G02     X51.5261       Y69.6010       Z-1.6000    I0    J1.0500    
G02     X51.5261       Y69.6010       Z-1.7000    I0    J1.0500    
G02     X51.5261       Y69.6010       Z-1.8000    I0    J1.0500    
G02     X51.5261       Y69.6010       Z-1.9000    I0    J1.0500    
G02     X51.5261       Y69.6010       Z-2.0000    I0    J1.0500    
G02     X51.5261       Y69.6010       Z-2.1000    I0    J1.0500    
G02     X51.5261       Y69.6010       Z-2.2000    I0    J1.0500    
G02     X51.5261       Y69.6010       Z-2.3000    I0    J1.0500    
G02     X51.5261       Y69.6010       Z-2.4000    I0    J1.0500    
G02     X51.5261       Y69.6010       Z-2.5000    I0    J1.0500    
G02     X51.5261       Y69.6010       Z-2.6000    I0    J1.0500    
G02     X51.5261       Y69.6010       Z-2.7000    I0    J1.0500    
G02     X51.5261       Y69.6010       Z-2.8000    I0    J1.0500    
G02     X51.5261       Y69.6010       Z-2.9000    I0    J1.0500    
G02     X51.5261       Y69.6010       Z-3.0000    I0    J1.0500    
G02     X51.5261       Y69.6010       Z-3.1000    I0    J1.0500    
G02     X51.5261       Y69.6010       Z-3.2000    I0    J1.0500    
G02     X51.5261       Y69.6010       Z-3.3000    I0    J1.0500    
G02     X51.5261       Y69.6010       Z-3.4000    I0    J1.0500    
G02     X51.5261       Y69.6010       Z-3.5000    I0    J1.0500    
G02     X51.5261       Y69.6010       Z-3.6000    I0    J1.0500    
G02     X51.5261       Y69.6010       Z-3.7000    I0    J1.0500    
G02     X51.5261       Y69.6010       Z-3.8000    I0    J1.0500    
G02     X51.5261       Y69.6010       Z-4.4800    I0    J1.0500    
G02     X51.5261       Y69.6010    I0.0    J1.0500    
G00   Y70.651        Z5.000     
(plungebore end)
(BREAK pass 34)
(Group complete: _diam_7.1mm)
(Group: _diam_7.1mm)
(Pass: 1)
G0   Y20.729    
(plungebore    depth=4.480         diam=7.100     )
G00   Z1.667     
G01   Z-0.100     F400 
G00   z1.667     
G01   Z-0.200    
G00   z1.667     
G01   Z-0.300    
G00   z1.667     
G01   Z-0.400    
G00   z1.667     
G01   Z-0.500    
G00   z1.667     
G01   Z-0.600    
G00   z1.667     
G01   Z-0.700    
G00   z1.667     
G01   Z-0.800    
G00   z1.667     
G01   Z-0.900    
G00   z1.667     
G01   Z-1.000    
G00   z1.667     
G01   Z-1.100    
G00   z1.667     
G01   Z-1.200    
G00   z1.667     
G01   Z-1.300    
G00   z1.667     
G01   Z-1.400    
G00   z1.667     
G01   Z-1.500    
G00   z1.667     
G01   Z-1.600    
G00   z1.667     
G01   Z-1.700    
G00   z1.667     
G01   Z-1.800    
G00   z1.667     
G01   Z-1.900    
G00   z1.667     
G01   Z-2.000    
G00   z1.667     
G01   Z-2.100    
G00   z1.667     
G01   Z-2.200    
G00   z1.667     
G01   Z-2.300    
G00   z1.667     
G01   Z-2.400    
G00   z1.667     
G01   Z-2.500    
G00   z1.667     
G01   Z-2.600    
G00   z1.667     
G01   Z-2.700    
G00   z1.667     
G01   Z-2.800    
G00   z1.667     
G01   Z-2.900    
G00   z1.667     
G01   Z-3.000    
G00   z1.667     
G01   Z-3.100    
G00   z1.667     
G01   Z-3.200    
G00   z1.667     
G01   Z-3.300    
G00   z1.667     
G01   Z-3.400    
G00   z1.667     
G01   Z-3.500    
G00   z1.667     
G01   Z-3.600    
G00   z1.667     
G01   Z-3.700    
G00   z1.667     
G01   Z-3.800    
G00   z1.667     
G01   Z-3.900    
G00   z1.667     
G01   Z-4.000    
G00   z1.667     
G01   Z-4.100    
G00   z1.667     
G01   Z-4.200    
G00   z1.667     
G01   Z-4.300    
G00   z1.667     
G01   Z-4.400    
G00   z1.667     
G01   Z-4.480    
G00   z1.667     
G00   Y19.6794   
G01    Z0.0000     F600 
G02     X51.5252       Y19.6794       Z-0.1000    I0    J1.0500    
G02     X51.5252       Y19.6794       Z-0.2000    I0    J1.0500    
G02     X51.5252       Y19.6794       Z-0.3000    I0    J1.0500    
G02     X51.5252       Y19.6794       Z-0.4000    I0    J1.0500    
G02     X51.5252       Y19.6794       Z-0.5000    I0    J1.0500    
G02     X51.5252       Y19.6794       Z-0.6000    I0    J1.0500    
G02     X51.5252       Y19.6794       Z-0.7000    I0    J1.0500    
G02     X51.5252       Y19.6794       Z-0.8000    I0    J1.0500    
G02     X51.5252       Y19.6794       Z-0.9000    I0    J1.0500    
G02     X51.5252       Y19.6794       Z-1.0000    I0    J1.0500    
G02     X51.5252       Y19.6794       Z-1.1000    I0    J1.0500    
G02     X51.5252       Y19.6794       Z-1.2000    I0    J1.0500    
G02     X51.5252       Y19.6794       Z-1.3000    I0    J1.0500    
G02     X51.5252       Y19.6794       Z-1.4000    I0    J1.0500    
G02     X51.5252       Y19.6794       Z-1.5000    I0    J1.0500    
G02     X51.5252       Y19.6794       Z-1.6000    I0    J1.0500    
G02     X51.5252       Y19.6794       Z-1.7000    I0    J1.0500    
G02     X51.5252       Y19.6794       Z-1.8000    I0    J1.0500    
G02     X51.5252       Y19.6794       Z-1.9000    I0    J1.0500    
G02     X51.5252       Y19.6794       Z-2.0000    I0    J1.0500    
G02     X51.5252       Y19.6794       Z-2.1000    I0    J1.0500    
G02     X51.5252       Y19.6794       Z-2.2000    I0    J1.0500    
G02     X51.5252       Y19.6794       Z-2.3000    I0    J1.0500    
G02     X51.5252       Y19.6794       Z-2.4000    I0    J1.0500    
G02     X51.5252       Y19.6794       Z-2.5000    I0    J1.0500    
G02     X51.5252       Y19.6794       Z-2.6000    I0    J1.0500    
G02     X51.5252       Y19.6794       Z-2.7000    I0    J1.0500    
G02     X51.5252       Y19.6794       Z-2.8000    I0    J1.0500    
G02     X51.5252       Y19.6794       Z-2.9000    I0    J1.0500    
G02     X51.5252       Y19.6794       Z-3.0000    I0    J1.0500    
G02     X51.5252       Y19.6794       Z-3.1000    I0    J1.0500    
G02     X51.5252       Y19.6794       Z-3.2000    I0    J1.0500    
G02     X51.5252       Y19.6794       Z-3.3000    I0    J1.0500    
G02     X51.5252       Y19.6794       Z-3.4000    I0    J1.0500    
G02     X51.5252       Y19.6794       Z-3.5000    I0    J1.0500    
G02     X51.5252       Y19.6794       Z-3.6000    I0    J1.0500    
G02     X51.5252       Y19.6794       Z-3.7000    I0    J1.0500    
G02     X51.5252       Y19.6794       Z-3.8000    I0    J1.0500    
G02     X51.5252       Y19.6794       Z-4.4800    I0    J1.0500    
G02     X51.5252       Y19.6794    I0.0    J1.0500    
G00   Y20.729        Z5.000     
(plungebore end)
(BREAK pass 34)
(Group complete: _diam_7.1mm)
(Group: _diam_7.1mm)
(Pass: 1)
G0   X19.604       Y20.636    
(plungebore    depth=4.480         diam=7.100     )
G00   Z1.667     
G01   Z-0.100     F400 
G00   z1.667     
G01   Z-0.200    
G00   z1.667     
G01   Z-0.300    
G00   z1.667     
G01   Z-0.400    
G00   z1.667     
G01   Z-0.500    
G00   z1.667     
G01   Z-0.600    
G00   z1.667     
G01   Z-0.700    
G00   z1.667     
G01   Z-0.800    
G00   z1.667     
G01   Z-0.900    
G00   z1.667     
G01   Z-1.000    
G00   z1.667     
G01   Z-1.100    
G00   z1.667     
G01   Z-1.200    
G00   z1.667     
G01   Z-1.300    
G00   z1.667     
G01   Z-1.400    
G00   z1.667     
G01   Z-1.500    
G00   z1.667     
G01   Z-1.600    
G00   z1.667     
G01   Z-1.700    
G00   z1.667     
G01   Z-1.800    
G00   z1.667     
G01   Z-1.900    
G00   z1.667     
G01   Z-2.000    
G00   z1.667     
G01   Z-2.100    
G00   z1.667     
G01   Z-2.200    
G00   z1.667     
G01   Z-2.300    
G00   z1.667     
G01   Z-2.400    
G00   z1.667     
G01   Z-2.500    
G00   z1.667     
G01   Z-2.600    
G00   z1.667     
G01   Z-2.700    
G00   z1.667     
G01   Z-2.800    
G00   z1.667     
G01   Z-2.900    
G00   z1.667     
G01   Z-3.000    
G00   z1.667     
G01   Z-3.100    
G00   z1.667     
G01   Z-3.200    
G00   z1.667     
G01   Z-3.300    
G00   z1.667     
G01   Z-3.400    
G00   z1.667     
G01   Z-3.500    
G00   z1.667     
G01   Z-3.600    
G00   z1.667     
G01   Z-3.700    
G00   z1.667     
G01   Z-3.800    
G00   z1.667     
G01   Z-3.900    
G00   z1.667     
G01   Z-4.000    
G00   z1.667     
G01   Z-4.100    
G00   z1.667     
G01   Z-4.200    
G00   z1.667     
G01   Z-4.300    
G00   z1.667     
G01   Z-4.400    
G00   z1.667     
G01   Z-4.480    
G00   z1.667     
G00   Y19.5864   
G01    Z0.0000     F600 
G02     X19.6036       Y19.5864       Z-0.1000    I0    J1.0500    
G02     X19.6036       Y19.5864       Z-0.2000    I0    J1.0500    
G02     X19.6036       Y19.5864       Z-0.3000    I0    J1.0500    
G02     X19.6036       Y19.5864       Z-0.4000    I0    J1.0500    
G02     X19.6036       Y19.5864       Z-0.5000    I0    J1.0500    
G02     X19.6036       Y19.5864       Z-0.6000    I0    J1.0500    
G02     X19.6036       Y19.5864       Z-0.7000    I0    J1.0500    
G02     X19.6036       Y19.5864       Z-0.8000    I0    J1.0500    
G02     X19.6036       Y19.5864       Z-0.9000    I0    J1.0500    
G02     X19.6036       Y19.5864       Z-1.0000    I0    J1.0500    
G02     X19.6036       Y19.5864       Z-1.1000    I0    J1.0500    
G02     X19.6036       Y19.5864       Z-1.2000    I0    J1.0500    
G02     X19.6036       Y19.5864       Z-1.3000    I0    J1.0500    
G02     X19.6036       Y19.5864       Z-1.4000    I0    J1.0500    
G02     X19.6036       Y19.5864       Z-1.5000    I0    J1.0500    
G02     X19.6036       Y19.5864       Z-1.6000    I0    J1.0500    
G02     X19.6036       Y19.5864       Z-1.7000    I0    J1.0500    
G02     X19.6036       Y19.5864       Z-1.8000    I0    J1.0500    
G02     X19.6036       Y19.5864       Z-1.9000    I0    J1.0500    
G02     X19.6036       Y19.5864       Z-2.0000    I0    J1.0500    
G02     X19.6036       Y19.5864       Z-2.1000    I0    J1.0500    
G02     X19.6036       Y19.5864       Z-2.2000    I0    J1.0500    
G02     X19.6036       Y19.5864       Z-2.3000    I0    J1.0500    
G02     X19.6036       Y19.5864       Z-2.4000    I0    J1.0500    
G02     X19.6036       Y19.5864       Z-2.5000    I0    J1.0500    
G02     X19.6036       Y19.5864       Z-2.6000    I0    J1.0500    
G02     X19.6036       Y19.5864       Z-2.7000    I0    J1.0500    
G02     X19.6036       Y19.5864       Z-2.8000    I0    J1.0500    
G02     X19.6036       Y19.5864       Z-2.9000    I0    J1.0500    
G02     X19.6036       Y19.5864       Z-3.0000    I0    J1.0500    
G02     X19.6036       Y19.5864       Z-3.1000    I0    J1.0500    
G02     X19.6036       Y19.5864       Z-3.2000    I0    J1.0500    
G02     X19.6036       Y19.5864       Z-3.3000    I0    J1.0500    
G02     X19.6036       Y19.5864       Z-3.4000    I0    J1.0500    
G02     X19.6036       Y19.5864       Z-3.5000    I0    J1.0500    
G02     X19.6036       Y19.5864       Z-3.6000    I0    J1.0500    
G02     X19.6036       Y19.5864       Z-3.7000    I0    J1.0500    
G02     X19.6036       Y19.5864       Z-3.8000    I0    J1.0500    
G02     X19.6036       Y19.5864       Z-4.4800    I0    J1.0500    
G02     X19.6036       Y19.5864    I0.0    J1.0500    
G00   Y20.636        Z5.000     
(plungebore end)
(BREAK pass 34)
(Group complete: _diam_7.1mm)
(Pass: 1)
G0   X8.054        Y20.569    
G1   Z-0.100     F400 
G17 G3   X8.1553       Y19.0187      R12.5000    F600 
   X8.4744       Y17.4144      R12.5000   
   X9.0002       Y15.8654      R12.5000   
   X9.7237       Y14.3983      R12.5000   
   X10.6325      Y13.0382      R12.5000   
   X11.7110      Y11.8084      R12.5000   
   X12.9408      Y10.7298      R12.5000   
   X14.3010      Y9.8210       R12.5000   
   X15.7680      Y9.0976       R12.5000   
   X17.3170      Y8.5717       R12.5000   
   X18.9214      Y8.2526       R12.5000   
   X20.4718      Y8.1510       R12.5000   
G1   X32.595    
   X36.595    
   X50.635    
G17 G3   X52.1859      Y8.2526       R12.5000   
   X53.7903      Y8.5717       R12.5000   
   X55.3392      Y9.0976       R12.5000   
   X56.8063      Y9.8210       R12.5000   
   X58.1664      Y10.7298      R12.5000   
   X59.3963      Y11.8084      R12.5000   
   X60.4748      Y13.0382      R12.5000   
   X61.3836      Y14.3983      R12.5000   
   X62.1071      Y15.8654      R12.5000   
   X62.6329      Y17.4144      R12.5000   
   X62.9520      Y19.0187      R12.5000   
   X63.0536      Y20.5692      R12.5000   
G1   Y45.904    
   Y49.904    
   Y70.733    
G17 G3   X62.9520      Y72.2833      R12.5000   
   X62.6329      Y73.8876      R12.5000   
   X62.1071      Y75.4366      R12.5000   
   X61.3836      Y76.9037      R12.5000   
   X60.4748      Y78.2638      R12.5000   
   X59.3963      Y79.4936      R12.5000   
   X58.1664      Y80.5722      R12.5000   
   X56.8063      Y81.4810      R12.5000   
   X55.3392      Y82.2045      R12.5000   
   X53.7903      Y82.7303      R12.5000   
   X52.1859      Y83.0494      R12.5000   
   X50.6355      Y83.1510      R12.5000   
G1   X38.354    
   X34.354    
   X20.472    
G17 G3   X18.9214      Y83.0494      R12.5000   
   X17.3170      Y82.7303      R12.5000   
   X15.7680      Y82.2045      R12.5000   
   X14.3010      Y81.4810      R12.5000   
   X12.9408      Y80.5722      R12.5000   
   X11.7110      Y79.4936      R12.5000   
   X10.6325      Y78.2638      R12.5000   
   X9.7237       Y76.9037      R12.5000   
   X9.0002       Y75.4366      R12.5000   
   X8.4744       Y73.8876      R12.5000   
   X8.1553       Y72.2833      R12.5000   
   X8.0536       Y70.7328      R12.5000   
G1   Y50.443    
   Y46.443    
   Y20.569    
(Pass: 2)
   Z-0.200     F400 
G17 G3   X8.1553       Y19.0187      R12.5000    F600 
   X8.4744       Y17.4144      R12.5000   
   X9.0002       Y15.8654      R12.5000   
   X9.7237       Y14.3983      R12.5000   
   X10.6325      Y13.0382      R12.5000   
   X11.7110      Y11.8084      R12.5000   
   X12.9408      Y10.7298      R12.5000   
   X14.3010      Y9.8210       R12.5000   
   X15.7680      Y9.0976       R12.5000   
   X17.3170      Y8.5717       R12.5000   
   X18.9214      Y8.2526       R12.5000   
   X20.4718      Y8.1510       R12.5000   
G1   X32.595    
   X36.595    
   X50.635    
G17 G3   X52.1859      Y8.2526       R12.5000   
   X53.7903      Y8.5717       R12.5000   
   X55.3392      Y9.0976       R12.5000   
   X56.8063      Y9.8210       R12.5000   
   X58.1664      Y10.7298      R12.5000   
   X59.3963      Y11.8084      R12.5000   
   X60.4748      Y13.0382      R12.5000   
   X61.3836      Y14.3983      R12.5000   
   X62.1071      Y15.8654      R12.5000   
   X62.6329      Y17.4144      R12.5000   
   X62.9520      Y19.0187      R12.5000   
   X63.0536      Y20.5692      R12.5000   
G1   Y45.904    
   Y49.904    
   Y70.733    
G17 G3   X62.9520      Y72.2833      R12.5000   
   X62.6329      Y73.8876      R12.5000   
   X62.1071      Y75.4366      R12.5000   
   X61.3836      Y76.9037      R12.5000   
   X60.4748      Y78.2638      R12.5000   
   X59.3963      Y79.4936      R12.5000   
   X58.1664      Y80.5722      R12.5000   
   X56.8063      Y81.4810      R12.5000   
   X55.3392      Y82.2045      R12.5000   
   X53.7903      Y82.7303      R12.5000   
   X52.1859      Y83.0494      R12.5000   
   X50.6355      Y83.1510      R12.5000   
G1   X38.354    
   X34.354    
   X20.472    
G17 G3   X18.9214      Y83.0494      R12.5000   
   X17.3170      Y82.7303      R12.5000   
   X15.7680      Y82.2045      R12.5000   
   X14.3010      Y81.4810      R12.5000   
   X12.9408      Y80.5722      R12.5000   
   X11.7110      Y79.4936      R12.5000   
   X10.6325      Y78.2638      R12.5000   
   X9.7237       Y76.9037      R12.5000   
   X9.0002       Y75.4366      R12.5000   
   X8.4744       Y73.8876      R12.5000   
   X8.1553       Y72.2833      R12.5000   
   X8.0536       Y70.7328      R12.5000   
G1   Y50.443    
   Y46.443    
   Y20.569    
(Pass: 3)
   Z-0.300     F400 
G17 G3   X8.1553       Y19.0187      R12.5000    F600 
   X8.4744       Y17.4144      R12.5000   
   X9.0002       Y15.8654      R12.5000   
   X9.7237       Y14.3983      R12.5000   
   X10.6325      Y13.0382      R12.5000   
   X11.7110      Y11.8084      R12.5000   
   X12.9408      Y10.7298      R12.5000   
   X14.3010      Y9.8210       R12.5000   
   X15.7680      Y9.0976       R12.5000   
   X17.3170      Y8.5717       R12.5000   
   X18.9214      Y8.2526       R12.5000   
   X20.4718      Y8.1510       R12.5000   
G1   X32.595    
   X36.595    
   X50.635    
G17 G3   X52.1859      Y8.2526       R12.5000   
   X53.7903      Y8.5717       R12.5000   
   X55.3392      Y9.0976       R12.5000   
   X56.8063      Y9.8210       R12.5000   
   X58.1664      Y10.7298      R12.5000   
   X59.3963      Y11.8084      R12.5000   
   X60.4748      Y13.0382      R12.5000   
   X61.3836      Y14.3983      R12.5000   
   X62.1071      Y15.8654      R12.5000   
   X62.6329      Y17.4144      R12.5000   
   X62.9520      Y19.0187      R12.5000   
   X63.0536      Y20.5692      R12.5000   
G1   Y45.904    
   Y49.904    
   Y70.733    
G17 G3   X62.9520      Y72.2833      R12.5000   
   X62.6329      Y73.8876      R12.5000   
   X62.1071      Y75.4366      R12.5000   
   X61.3836      Y76.9037      R12.5000   
   X60.4748      Y78.2638      R12.5000   
   X59.3963      Y79.4936      R12.5000   
   X58.1664      Y80.5722      R12.5000   
   X56.8063      Y81.4810      R12.5000   
   X55.3392      Y82.2045      R12.5000   
   X53.7903      Y82.7303      R12.5000   
   X52.1859      Y83.0494      R12.5000   
   X50.6355      Y83.1510      R12.5000   
G1   X38.354    
   X34.354    
   X20.472    
G17 G3   X18.9214      Y83.0494      R12.5000   
   X17.3170      Y82.7303      R12.5000   
   X15.7680      Y82.2045      R12.5000   
   X14.3010      Y81.4810      R12.5000   
   X12.9408      Y80.5722      R12.5000   
   X11.7110      Y79.4936      R12.5000   
   X10.6325      Y78.2638      R12.5000   
   X9.7237       Y76.9037      R12.5000   
   X9.0002       Y75.4366      R12.5000   
   X8.4744       Y73.8876      R12.5000   
   X8.1553       Y72.2833      R12.5000   
   X8.0536       Y70.7328      R12.5000   
G1   Y50.443    
   Y46.443    
   Y20.569    
(Pass: 4)
   Z-0.400     F400 
G17 G3   X8.1553       Y19.0187      R12.5000    F600 
   X8.4744       Y17.4144      R12.5000   
   X9.0002       Y15.8654      R12.5000   
   X9.7237       Y14.3983      R12.5000   
   X10.6325      Y13.0382      R12.5000   
   X11.7110      Y11.8084      R12.5000   
   X12.9408      Y10.7298      R12.5000   
   X14.3010      Y9.8210       R12.5000   
   X15.7680      Y9.0976       R12.5000   
   X17.3170      Y8.5717       R12.5000   
   X18.9214      Y8.2526       R12.5000   
   X20.4718      Y8.1510       R12.5000   
G1   X32.595    
   X36.595    
   X50.635    
G17 G3   X52.1859      Y8.2526       R12.5000   
   X53.7903      Y8.5717       R12.5000   
   X55.3392      Y9.0976       R12.5000   
   X56.8063      Y9.8210       R12.5000   
   X58.1664      Y10.7298      R12.5000   
   X59.3963      Y11.8084      R12.5000   
   X60.4748      Y13.0382      R12.5000   
   X61.3836      Y14.3983      R12.5000   
   X62.1071      Y15.8654      R12.5000   
   X62.6329      Y17.4144      R12.5000   
   X62.9520      Y19.0187      R12.5000   
   X63.0536      Y20.5692      R12.5000   
G1   Y45.904    
   Y49.904    
   Y70.733    
G17 G3   X62.9520      Y72.2833      R12.5000   
   X62.6329      Y73.8876      R12.5000   
   X62.1071      Y75.4366      R12.5000   
   X61.3836      Y76.9037      R12.5000   
   X60.4748      Y78.2638      R12.5000   
   X59.3963      Y79.4936      R12.5000   
   X58.1664      Y80.5722      R12.5000   
   X56.8063      Y81.4810      R12.5000   
   X55.3392      Y82.2045      R12.5000   
   X53.7903      Y82.7303      R12.5000   
   X52.1859      Y83.0494      R12.5000   
   X50.6355      Y83.1510      R12.5000   
G1   X38.354    
   X34.354    
   X20.472    
G17 G3   X18.9214      Y83.0494      R12.5000   
   X17.3170      Y82.7303      R12.5000   
   X15.7680      Y82.2045      R12.5000   
   X14.3010      Y81.4810      R12.5000   
   X12.9408      Y80.5722      R12.5000   
   X11.7110      Y79.4936      R12.5000   
   X10.6325      Y78.2638      R12.5000   
   X9.7237       Y76.9037      R12.5000   
   X9.0002       Y75.4366      R12.5000   
   X8.4744       Y73.8876      R12.5000   
   X8.1553       Y72.2833      R12.5000   
   X8.0536       Y70.7328      R12.5000   
G1   Y50.443    
   Y46.443    
   Y20.569    
(Pass: 5)
   Z-0.500     F400 
G17 G3   X8.1553       Y19.0187      R12.5000    F600 
   X8.4744       Y17.4144      R12.5000   
   X9.0002       Y15.8654      R12.5000   
   X9.7237       Y14.3983      R12.5000   
   X10.6325      Y13.0382      R12.5000   
   X11.7110      Y11.8084      R12.5000   
   X12.9408      Y10.7298      R12.5000   
   X14.3010      Y9.8210       R12.5000   
   X15.7680      Y9.0976       R12.5000   
   X17.3170      Y8.5717       R12.5000   
   X18.9214      Y8.2526       R12.5000   
   X20.4718      Y8.1510       R12.5000   
G1   X32.595    
   X36.595    
   X50.635    
G17 G3   X52.1859      Y8.2526       R12.5000   
   X53.7903      Y8.5717       R12.5000   
   X55.3392      Y9.0976       R12.5000   
   X56.8063      Y9.8210       R12.5000   
   X58.1664      Y10.7298      R12.5000   
   X59.3963      Y11.8084      R12.5000   
   X60.4748      Y13.0382      R12.5000   
   X61.3836      Y14.3983      R12.5000   
   X62.1071      Y15.8654      R12.5000   
   X62.6329      Y17.4144      R12.5000   
   X62.9520      Y19.0187      R12.5000   
   X63.0536      Y20.5692      R12.5000   
G1   Y45.904    
   Y49.904    
   Y70.733    
G17 G3   X62.9520      Y72.2833      R12.5000   
   X62.6329      Y73.8876      R12.5000   
   X62.1071      Y75.4366      R12.5000   
   X61.3836      Y76.9037      R12.5000   
   X60.4748      Y78.2638      R12.5000   
   X59.3963      Y79.4936      R12.5000   
   X58.1664      Y80.5722      R12.5000   
   X56.8063      Y81.4810      R12.5000   
   X55.3392      Y82.2045      R12.5000   
   X53.7903      Y82.7303      R12.5000   
   X52.1859      Y83.0494      R12.5000   
   X50.6355      Y83.1510      R12.5000   
G1   X38.354    
   X34.354    
   X20.472    
G17 G3   X18.9214      Y83.0494      R12.5000   
   X17.3170      Y82.7303      R12.5000   
   X15.7680      Y82.2045      R12.5000   
   X14.3010      Y81.4810      R12.5000   
   X12.9408      Y80.5722      R12.5000   
   X11.7110      Y79.4936      R12.5000   
   X10.6325      Y78.2638      R12.5000   
   X9.7237       Y76.9037      R12.5000   
   X9.0002       Y75.4366      R12.5000   
   X8.4744       Y73.8876      R12.5000   
   X8.1553       Y72.2833      R12.5000   
   X8.0536       Y70.7328      R12.5000   
G1   Y50.443    
   Y46.443    
   Y20.569    
(Pass: 6)
   Z-0.600     F400 
G17 G3   X8.1553       Y19.0187      R12.5000    F600 
   X8.4744       Y17.4144      R12.5000   
   X9.0002       Y15.8654      R12.5000   
   X9.7237       Y14.3983      R12.5000   
   X10.6325      Y13.0382      R12.5000   
   X11.7110      Y11.8084      R12.5000   
   X12.9408      Y10.7298      R12.5000   
   X14.3010      Y9.8210       R12.5000   
   X15.7680      Y9.0976       R12.5000   
   X17.3170      Y8.5717       R12.5000   
   X18.9214      Y8.2526       R12.5000   
   X20.4718      Y8.1510       R12.5000   
G1   X32.595    
   X36.595    
   X50.635    
G17 G3   X52.1859      Y8.2526       R12.5000   
   X53.7903      Y8.5717       R12.5000   
   X55.3392      Y9.0976       R12.5000   
   X56.8063      Y9.8210       R12.5000   
   X58.1664      Y10.7298      R12.5000   
   X59.3963      Y11.8084      R12.5000   
   X60.4748      Y13.0382      R12.5000   
   X61.3836      Y14.3983      R12.5000   
   X62.1071      Y15.8654      R12.5000   
   X62.6329      Y17.4144      R12.5000   
   X62.9520      Y19.0187      R12.5000   
   X63.0536      Y20.5692      R12.5000   
G1   Y45.904    
   Y49.904    
   Y70.733    
G17 G3   X62.9520      Y72.2833      R12.5000   
   X62.6329      Y73.8876      R12.5000   
   X62.1071      Y75.4366      R12.5000   
   X61.3836      Y76.9037      R12.5000   
   X60.4748      Y78.2638      R12.5000   
   X59.3963      Y79.4936      R12.5000   
   X58.1664      Y80.5722      R12.5000   
   X56.8063      Y81.4810      R12.5000   
   X55.3392      Y82.2045      R12.5000   
   X53.7903      Y82.7303      R12.5000   
   X52.1859      Y83.0494      R12.5000   
   X50.6355      Y83.1510      R12.5000   
G1   X38.354    
   X34.354    
   X20.472    
G17 G3   X18.9214      Y83.0494      R12.5000   
   X17.3170      Y82.7303      R12.5000   
   X15.7680      Y82.2045      R12.5000   
   X14.3010      Y81.4810      R12.5000   
   X12.9408      Y80.5722      R12.5000   
   X11.7110      Y79.4936      R12.5000   
   X10.6325      Y78.2638      R12.5000   
   X9.7237       Y76.9037      R12.5000   
   X9.0002       Y75.4366      R12.5000   
   X8.4744       Y73.8876      R12.5000   
   X8.1553       Y72.2833      R12.5000   
   X8.0536       Y70.7328      R12.5000   
G1   Y50.443    
   Y46.443    
   Y20.569    
(Pass: 7)
   Z-0.700     F400 
G17 G3   X8.1553       Y19.0187      R12.5000    F600 
   X8.4744       Y17.4144      R12.5000   
   X9.0002       Y15.8654      R12.5000   
   X9.7237       Y14.3983      R12.5000   
   X10.6325      Y13.0382      R12.5000   
   X11.7110      Y11.8084      R12.5000   
   X12.9408      Y10.7298      R12.5000   
   X14.3010      Y9.8210       R12.5000   
   X15.7680      Y9.0976       R12.5000   
   X17.3170      Y8.5717       R12.5000   
   X18.9214      Y8.2526       R12.5000   
   X20.4718      Y8.1510       R12.5000   
G1   X32.595    
   X36.595    
   X50.635    
G17 G3   X52.1859      Y8.2526       R12.5000   
   X53.7903      Y8.5717       R12.5000   
   X55.3392      Y9.0976       R12.5000   
   X56.8063      Y9.8210       R12.5000   
   X58.1664      Y10.7298      R12.5000   
   X59.3963      Y11.8084      R12.5000   
   X60.4748      Y13.0382      R12.5000   
   X61.3836      Y14.3983      R12.5000   
   X62.1071      Y15.8654      R12.5000   
   X62.6329      Y17.4144      R12.5000   
   X62.9520      Y19.0187      R12.5000   
   X63.0536      Y20.5692      R12.5000   
G1   Y45.904    
   Y49.904    
   Y70.733    
G17 G3   X62.9520      Y72.2833      R12.5000   
   X62.6329      Y73.8876      R12.5000   
   X62.1071      Y75.4366      R12.5000   
   X61.3836      Y76.9037      R12.5000   
   X60.4748      Y78.2638      R12.5000   
   X59.3963      Y79.4936      R12.5000   
   X58.1664      Y80.5722      R12.5000   
   X56.8063      Y81.4810      R12.5000   
   X55.3392      Y82.2045      R12.5000   
   X53.7903      Y82.7303      R12.5000   
   X52.1859      Y83.0494      R12.5000   
   X50.6355      Y83.1510      R12.5000   
G1   X38.354    
   X34.354    
   X20.472    
G17 G3   X18.9214      Y83.0494      R12.5000   
   X17.3170      Y82.7303      R12.5000   
   X15.7680      Y82.2045      R12.5000   
   X14.3010      Y81.4810      R12.5000   
   X12.9408      Y80.5722      R12.5000   
   X11.7110      Y79.4936      R12.5000   
   X10.6325      Y78.2638      R12.5000   
   X9.7237       Y76.9037      R12.5000   
   X9.0002       Y75.4366      R12.5000   
   X8.4744       Y73.8876      R12.5000   
   X8.1553       Y72.2833      R12.5000   
   X8.0536       Y70.7328      R12.5000   
G1   Y50.443    
   Y46.443    
   Y20.569    
(Pass: 8)
   Z-0.800     F400 
G17 G3   X8.1553       Y19.0187      R12.5000    F600 
   X8.4744       Y17.4144      R12.5000   
   X9.0002       Y15.8654      R12.5000   
   X9.7237       Y14.3983      R12.5000   
   X10.6325      Y13.0382      R12.5000   
   X11.7110      Y11.8084      R12.5000   
   X12.9408      Y10.7298      R12.5000   
   X14.3010      Y9.8210       R12.5000   
   X15.7680      Y9.0976       R12.5000   
   X17.3170      Y8.5717       R12.5000   
   X18.9214      Y8.2526       R12.5000   
   X20.4718      Y8.1510       R12.5000   
G1   X32.595    
   X36.595    
   X50.635    
G17 G3   X52.1859      Y8.2526       R12.5000   
   X53.7903      Y8.5717       R12.5000   
   X55.3392      Y9.0976       R12.5000   
   X56.8063      Y9.8210       R12.5000   
   X58.1664      Y10.7298      R12.5000   
   X59.3963      Y11.8084      R12.5000   
   X60.4748      Y13.0382      R12.5000   
   X61.3836      Y14.3983      R12.5000   
   X62.1071      Y15.8654      R12.5000   
   X62.6329      Y17.4144      R12.5000   
   X62.9520      Y19.0187      R12.5000   
   X63.0536      Y20.5692      R12.5000   
G1   Y45.904    
   Y49.904    
   Y70.733    
G17 G3   X62.9520      Y72.2833      R12.5000   
   X62.6329      Y73.8876      R12.5000   
   X62.1071      Y75.4366      R12.5000   
   X61.3836      Y76.9037      R12.5000   
   X60.4748      Y78.2638      R12.5000   
   X59.3963      Y79.4936      R12.5000   
   X58.1664      Y80.5722      R12.5000   
   X56.8063      Y81.4810      R12.5000   
   X55.3392      Y82.2045      R12.5000   
   X53.7903      Y82.7303      R12.5000   
   X52.1859      Y83.0494      R12.5000   
   X50.6355      Y83.1510      R12.5000   
G1   X38.354    
   X34.354    
   X20.472    
G17 G3   X18.9214      Y83.0494      R12.5000   
   X17.3170      Y82.7303      R12.5000   
   X15.7680      Y82.2045      R12.5000   
   X14.3010      Y81.4810      R12.5000   
   X12.9408      Y80.5722      R12.5000   
   X11.7110      Y79.4936      R12.5000   
   X10.6325      Y78.2638      R12.5000   
   X9.7237       Y76.9037      R12.5000   
   X9.0002       Y75.4366      R12.5000   
   X8.4744       Y73.8876      R12.5000   
   X8.1553       Y72.2833      R12.5000   
   X8.0536       Y70.7328      R12.5000   
G1   Y50.443    
   Y46.443    
   Y20.569    
(Pass: 9)
   Z-0.900     F400 
G17 G3   X8.1553       Y19.0187      R12.5000    F600 
   X8.4744       Y17.4144      R12.5000   
   X9.0002       Y15.8654      R12.5000   
   X9.7237       Y14.3983      R12.5000   
   X10.6325      Y13.0382      R12.5000   
   X11.7110      Y11.8084      R12.5000   
   X12.9408      Y10.7298      R12.5000   
   X14.3010      Y9.8210       R12.5000   
   X15.7680      Y9.0976       R12.5000   
   X17.3170      Y8.5717       R12.5000   
   X18.9214      Y8.2526       R12.5000   
   X20.4718      Y8.1510       R12.5000   
G1   X32.595    
   X36.595    
   X50.635    
G17 G3   X52.1859      Y8.2526       R12.5000   
   X53.7903      Y8.5717       R12.5000   
   X55.3392      Y9.0976       R12.5000   
   X56.8063      Y9.8210       R12.5000   
   X58.1664      Y10.7298      R12.5000   
   X59.3963      Y11.8084      R12.5000   
   X60.4748      Y13.0382      R12.5000   
   X61.3836      Y14.3983      R12.5000   
   X62.1071      Y15.8654      R12.5000   
   X62.6329      Y17.4144      R12.5000   
   X62.9520      Y19.0187      R12.5000   
   X63.0536      Y20.5692      R12.5000   
G1   Y45.904    
   Y49.904    
   Y70.733    
G17 G3   X62.9520      Y72.2833      R12.5000   
   X62.6329      Y73.8876      R12.5000   
   X62.1071      Y75.4366      R12.5000   
   X61.3836      Y76.9037      R12.5000   
   X60.4748      Y78.2638      R12.5000   
   X59.3963      Y79.4936      R12.5000   
   X58.1664      Y80.5722      R12.5000   
   X56.8063      Y81.4810      R12.5000   
   X55.3392      Y82.2045      R12.5000   
   X53.7903      Y82.7303      R12.5000   
   X52.1859      Y83.0494      R12.5000   
   X50.6355      Y83.1510      R12.5000   
G1   X38.354    
   X34.354    
   X20.472    
G17 G3   X18.9214      Y83.0494      R12.5000   
   X17.3170      Y82.7303      R12.5000   
   X15.7680      Y82.2045      R12.5000   
   X14.3010      Y81.4810      R12.5000   
   X12.9408      Y80.5722      R12.5000   
   X11.7110      Y79.4936      R12.5000   
   X10.6325      Y78.2638      R12.5000   
   X9.7237       Y76.9037      R12.5000   
   X9.0002       Y75.4366      R12.5000   
   X8.4744       Y73.8876      R12.5000   
   X8.1553       Y72.2833      R12.5000   
   X8.0536       Y70.7328      R12.5000   
G1   Y50.443    
   Y46.443    
   Y20.569    
(Pass: 10)
   Z-1.000     F400 
G17 G3   X8.1553       Y19.0187      R12.5000    F600 
   X8.4744       Y17.4144      R12.5000   
   X9.0002       Y15.8654      R12.5000   
   X9.7237       Y14.3983      R12.5000   
   X10.6325      Y13.0382      R12.5000   
   X11.7110      Y11.8084      R12.5000   
   X12.9408      Y10.7298      R12.5000   
   X14.3010      Y9.8210       R12.5000   
   X15.7680      Y9.0976       R12.5000   
   X17.3170      Y8.5717       R12.5000   
   X18.9214      Y8.2526       R12.5000   
   X20.4718      Y8.1510       R12.5000   
G1   X32.595    
   X36.595    
   X50.635    
G17 G3   X52.1859      Y8.2526       R12.5000   
   X53.7903      Y8.5717       R12.5000   
   X55.3392      Y9.0976       R12.5000   
   X56.8063      Y9.8210       R12.5000   
   X58.1664      Y10.7298      R12.5000   
   X59.3963      Y11.8084      R12.5000   
   X60.4748      Y13.0382      R12.5000   
   X61.3836      Y14.3983      R12.5000   
   X62.1071      Y15.8654      R12.5000   
   X62.6329      Y17.4144      R12.5000   
   X62.9520      Y19.0187      R12.5000   
   X63.0536      Y20.5692      R12.5000   
G1   Y45.904    
   Y49.904    
   Y70.733    
G17 G3   X62.9520      Y72.2833      R12.5000   
   X62.6329      Y73.8876      R12.5000   
   X62.1071      Y75.4366      R12.5000   
   X61.3836      Y76.9037      R12.5000   
   X60.4748      Y78.2638      R12.5000   
   X59.3963      Y79.4936      R12.5000   
   X58.1664      Y80.5722      R12.5000   
   X56.8063      Y81.4810      R12.5000   
   X55.3392      Y82.2045      R12.5000   
   X53.7903      Y82.7303      R12.5000   
   X52.1859      Y83.0494      R12.5000   
   X50.6355      Y83.1510      R12.5000   
G1   X38.354    
   X34.354    
   X20.472    
G17 G3   X18.9214      Y83.0494      R12.5000   
   X17.3170      Y82.7303      R12.5000   
   X15.7680      Y82.2045      R12.5000   
   X14.3010      Y81.4810      R12.5000   
   X12.9408      Y80.5722      R12.5000   
   X11.7110      Y79.4936      R12.5000   
   X10.6325      Y78.2638      R12.5000   
   X9.7237       Y76.9037      R12.5000   
   X9.0002       Y75.4366      R12.5000   
   X8.4744       Y73.8876      R12.5000   
   X8.1553       Y72.2833      R12.5000   
   X8.0536       Y70.7328      R12.5000   
G1   Y50.443    
   Y46.443    
   Y20.569    
(Pass: 11)
   Z-1.100     F400 
G17 G3   X8.1553       Y19.0187      R12.5000    F600 
   X8.4744       Y17.4144      R12.5000   
   X9.0002       Y15.8654      R12.5000   
   X9.7237       Y14.3983      R12.5000   
   X10.6325      Y13.0382      R12.5000   
   X11.7110      Y11.8084      R12.5000   
   X12.9408      Y10.7298      R12.5000   
   X14.3010      Y9.8210       R12.5000   
   X15.7680      Y9.0976       R12.5000   
   X17.3170      Y8.5717       R12.5000   
   X18.9214      Y8.2526       R12.5000   
   X20.4718      Y8.1510       R12.5000   
G1   X32.595    
   X36.595    
   X50.635    
G17 G3   X52.1859      Y8.2526       R12.5000   
   X53.7903      Y8.5717       R12.5000   
   X55.3392      Y9.0976       R12.5000   
   X56.8063      Y9.8210       R12.5000   
   X58.1664      Y10.7298      R12.5000   
   X59.3963      Y11.8084      R12.5000   
   X60.4748      Y13.0382      R12.5000   
   X61.3836      Y14.3983      R12.5000   
   X62.1071      Y15.8654      R12.5000   
   X62.6329      Y17.4144      R12.5000   
   X62.9520      Y19.0187      R12.5000   
   X63.0536      Y20.5692      R12.5000   
G1   Y45.904    
   Y49.904    
   Y70.733    
G17 G3   X62.9520      Y72.2833      R12.5000   
   X62.6329      Y73.8876      R12.5000   
   X62.1071      Y75.4366      R12.5000   
   X61.3836      Y76.9037      R12.5000   
   X60.4748      Y78.2638      R12.5000   
   X59.3963      Y79.4936      R12.5000   
   X58.1664      Y80.5722      R12.5000   
   X56.8063      Y81.4810      R12.5000   
   X55.3392      Y82.2045      R12.5000   
   X53.7903      Y82.7303      R12.5000   
   X52.1859      Y83.0494      R12.5000   
   X50.6355      Y83.1510      R12.5000   
G1   X38.354    
   X34.354    
   X20.472    
G17 G3   X18.9214      Y83.0494      R12.5000   
   X17.3170      Y82.7303      R12.5000   
   X15.7680      Y82.2045      R12.5000   
   X14.3010      Y81.4810      R12.5000   
   X12.9408      Y80.5722      R12.5000   
   X11.7110      Y79.4936      R12.5000   
   X10.6325      Y78.2638      R12.5000   
   X9.7237       Y76.9037      R12.5000   
   X9.0002       Y75.4366      R12.5000   
   X8.4744       Y73.8876      R12.5000   
   X8.1553       Y72.2833      R12.5000   
   X8.0536       Y70.7328      R12.5000   
G1   Y50.443    
   Y46.443    
   Y20.569    
(Pass: 12)
   Z-1.200     F400 
G17 G3   X8.1553       Y19.0187      R12.5000    F600 
   X8.4744       Y17.4144      R12.5000   
   X9.0002       Y15.8654      R12.5000   
   X9.7237       Y14.3983      R12.5000   
   X10.6325      Y13.0382      R12.5000   
   X11.7110      Y11.8084      R12.5000   
   X12.9408      Y10.7298      R12.5000   
   X14.3010      Y9.8210       R12.5000   
   X15.7680      Y9.0976       R12.5000   
   X17.3170      Y8.5717       R12.5000   
   X18.9214      Y8.2526       R12.5000   
   X20.4718      Y8.1510       R12.5000   
G1   X32.595    
   X36.595    
   X50.635    
G17 G3   X52.1859      Y8.2526       R12.5000   
   X53.7903      Y8.5717       R12.5000   
   X55.3392      Y9.0976       R12.5000   
   X56.8063      Y9.8210       R12.5000   
   X58.1664      Y10.7298      R12.5000   
   X59.3963      Y11.8084      R12.5000   
   X60.4748      Y13.0382      R12.5000   
   X61.3836      Y14.3983      R12.5000   
   X62.1071      Y15.8654      R12.5000   
   X62.6329      Y17.4144      R12.5000   
   X62.9520      Y19.0187      R12.5000   
   X63.0536      Y20.5692      R12.5000   
G1   Y45.904    
   Y49.904    
   Y70.733    
G17 G3   X62.9520      Y72.2833      R12.5000   
   X62.6329      Y73.8876      R12.5000   
   X62.1071      Y75.4366      R12.5000   
   X61.3836      Y76.9037      R12.5000   
   X60.4748      Y78.2638      R12.5000   
   X59.3963      Y79.4936      R12.5000   
   X58.1664      Y80.5722      R12.5000   
   X56.8063      Y81.4810      R12.5000   
   X55.3392      Y82.2045      R12.5000   
   X53.7903      Y82.7303      R12.5000   
   X52.1859      Y83.0494      R12.5000   
   X50.6355      Y83.1510      R12.5000   
G1   X38.354    
   X34.354    
   X20.472    
G17 G3   X18.9214      Y83.0494      R12.5000   
   X17.3170      Y82.7303      R12.5000   
   X15.7680      Y82.2045      R12.5000   
   X14.3010      Y81.4810      R12.5000   
   X12.9408      Y80.5722      R12.5000   
   X11.7110      Y79.4936      R12.5000   
   X10.6325      Y78.2638      R12.5000   
   X9.7237       Y76.9037      R12.5000   
   X9.0002       Y75.4366      R12.5000   
   X8.4744       Y73.8876      R12.5000   
   X8.1553       Y72.2833      R12.5000   
   X8.0536       Y70.7328      R12.5000   
G1   Y50.443    
   Y46.443    
   Y20.569    
(Pass: 13)
   Z-1.300     F400 
G17 G3   X8.1553       Y19.0187      R12.5000    F600 
   X8.4744       Y17.4144      R12.5000   
   X9.0002       Y15.8654      R12.5000   
   X9.7237       Y14.3983      R12.5000   
   X10.6325      Y13.0382      R12.5000   
   X11.7110      Y11.8084      R12.5000   
   X12.9408      Y10.7298      R12.5000   
   X14.3010      Y9.8210       R12.5000   
   X15.7680      Y9.0976       R12.5000   
   X17.3170      Y8.5717       R12.5000   
   X18.9214      Y8.2526       R12.5000   
   X20.4718      Y8.1510       R12.5000   
G1   X32.595    
   X36.595    
   X50.635    
G17 G3   X52.1859      Y8.2526       R12.5000   
   X53.7903      Y8.5717       R12.5000   
   X55.3392      Y9.0976       R12.5000   
   X56.8063      Y9.8210       R12.5000   
   X58.1664      Y10.7298      R12.5000   
   X59.3963      Y11.8084      R12.5000   
   X60.4748      Y13.0382      R12.5000   
   X61.3836      Y14.3983      R12.5000   
   X62.1071      Y15.8654      R12.5000   
   X62.6329      Y17.4144      R12.5000   
   X62.9520      Y19.0187      R12.5000   
   X63.0536      Y20.5692      R12.5000   
G1   Y45.904    
   Y49.904    
   Y70.733    
G17 G3   X62.9520      Y72.2833      R12.5000   
   X62.6329      Y73.8876      R12.5000   
   X62.1071      Y75.4366      R12.5000   
   X61.3836      Y76.9037      R12.5000   
   X60.4748      Y78.2638      R12.5000   
   X59.3963      Y79.4936      R12.5000   
   X58.1664      Y80.5722      R12.5000   
   X56.8063      Y81.4810      R12.5000   
   X55.3392      Y82.2045      R12.5000   
   X53.7903      Y82.7303      R12.5000   
   X52.1859      Y83.0494      R12.5000   
   X50.6355      Y83.1510      R12.5000   
G1   X38.354    
   X34.354    
   X20.472    
G17 G3   X18.9214      Y83.0494      R12.5000   
   X17.3170      Y82.7303      R12.5000   
   X15.7680      Y82.2045      R12.5000   
   X14.3010      Y81.4810      R12.5000   
   X12.9408      Y80.5722      R12.5000   
   X11.7110      Y79.4936      R12.5000   
   X10.6325      Y78.2638      R12.5000   
   X9.7237       Y76.9037      R12.5000   
   X9.0002       Y75.4366      R12.5000   
   X8.4744       Y73.8876      R12.5000   
   X8.1553       Y72.2833      R12.5000   
   X8.0536       Y70.7328      R12.5000   
G1   Y50.443    
   Y46.443    
   Y20.569    
(Pass: 14)
   Z-1.400     F400 
G17 G3   X8.1553       Y19.0187      R12.5000    F600 
   X8.4744       Y17.4144      R12.5000   
   X9.0002       Y15.8654      R12.5000   
   X9.7237       Y14.3983      R12.5000   
   X10.6325      Y13.0382      R12.5000   
   X11.7110      Y11.8084      R12.5000   
   X12.9408      Y10.7298      R12.5000   
   X14.3010      Y9.8210       R12.5000   
   X15.7680      Y9.0976       R12.5000   
   X17.3170      Y8.5717       R12.5000   
   X18.9214      Y8.2526       R12.5000   
   X20.4718      Y8.1510       R12.5000   
G1   X32.595    
   X36.595    
   X50.635    
G17 G3   X52.1859      Y8.2526       R12.5000   
   X53.7903      Y8.5717       R12.5000   
   X55.3392      Y9.0976       R12.5000   
   X56.8063      Y9.8210       R12.5000   
   X58.1664      Y10.7298      R12.5000   
   X59.3963      Y11.8084      R12.5000   
   X60.4748      Y13.0382      R12.5000   
   X61.3836      Y14.3983      R12.5000   
   X62.1071      Y15.8654      R12.5000   
   X62.6329      Y17.4144      R12.5000   
   X62.9520      Y19.0187      R12.5000   
   X63.0536      Y20.5692      R12.5000   
G1   Y45.904    
   Y49.904    
   Y70.733    
G17 G3   X62.9520      Y72.2833      R12.5000   
   X62.6329      Y73.8876      R12.5000   
   X62.1071      Y75.4366      R12.5000   
   X61.3836      Y76.9037      R12.5000   
   X60.4748      Y78.2638      R12.5000   
   X59.3963      Y79.4936      R12.5000   
   X58.1664      Y80.5722      R12.5000   
   X56.8063      Y81.4810      R12.5000   
   X55.3392      Y82.2045      R12.5000   
   X53.7903      Y82.7303      R12.5000   
   X52.1859      Y83.0494      R12.5000   
   X50.6355      Y83.1510      R12.5000   
G1   X38.354    
   X34.354    
   X20.472    
G17 G3   X18.9214      Y83.0494      R12.5000   
   X17.3170      Y82.7303      R12.5000   
   X15.7680      Y82.2045      R12.5000   
   X14.3010      Y81.4810      R12.5000   
   X12.9408      Y80.5722      R12.5000   
   X11.7110      Y79.4936      R12.5000   
   X10.6325      Y78.2638      R12.5000   
   X9.7237       Y76.9037      R12.5000   
   X9.0002       Y75.4366      R12.5000   
   X8.4744       Y73.8876      R12.5000   
   X8.1553       Y72.2833      R12.5000   
   X8.0536       Y70.7328      R12.5000   
G1   Y50.443    
   Y46.443    
   Y20.569    
(Pass: 15)
   Z-1.500     F400 
G17 G3   X8.1553       Y19.0187      R12.5000    F600 
   X8.4744       Y17.4144      R12.5000   
   X9.0002       Y15.8654      R12.5000   
   X9.7237       Y14.3983      R12.5000   
   X10.6325      Y13.0382      R12.5000   
   X11.7110      Y11.8084      R12.5000   
   X12.9408      Y10.7298      R12.5000   
   X14.3010      Y9.8210       R12.5000   
   X15.7680      Y9.0976       R12.5000   
   X17.3170      Y8.5717       R12.5000   
   X18.9214      Y8.2526       R12.5000   
   X20.4718      Y8.1510       R12.5000   
G1   X32.595    
   X36.595    
   X50.635    
G17 G3   X52.1859      Y8.2526       R12.5000   
   X53.7903      Y8.5717       R12.5000   
   X55.3392      Y9.0976       R12.5000   
   X56.8063      Y9.8210       R12.5000   
   X58.1664      Y10.7298      R12.5000   
   X59.3963      Y11.8084      R12.5000   
   X60.4748      Y13.0382      R12.5000   
   X61.3836      Y14.3983      R12.5000   
   X62.1071      Y15.8654      R12.5000   
   X62.6329      Y17.4144      R12.5000   
   X62.9520      Y19.0187      R12.5000   
   X63.0536      Y20.5692      R12.5000   
G1   Y45.904    
   Y49.904    
   Y70.733    
G17 G3   X62.9520      Y72.2833      R12.5000   
   X62.6329      Y73.8876      R12.5000   
   X62.1071      Y75.4366      R12.5000   
   X61.3836      Y76.9037      R12.5000   
   X60.4748      Y78.2638      R12.5000   
   X59.3963      Y79.4936      R12.5000   
   X58.1664      Y80.5722      R12.5000   
   X56.8063      Y81.4810      R12.5000   
   X55.3392      Y82.2045      R12.5000   
   X53.7903      Y82.7303      R12.5000   
   X52.1859      Y83.0494      R12.5000   
   X50.6355      Y83.1510      R12.5000   
G1   X38.354    
   X34.354    
   X20.472    
G17 G3   X18.9214      Y83.0494      R12.5000   
   X17.3170      Y82.7303      R12.5000   
   X15.7680      Y82.2045      R12.5000   
   X14.3010      Y81.4810      R12.5000   
   X12.9408      Y80.5722      R12.5000   
   X11.7110      Y79.4936      R12.5000   
   X10.6325      Y78.2638      R12.5000   
   X9.7237       Y76.9037      R12.5000   
   X9.0002       Y75.4366      R12.5000   
   X8.4744       Y73.8876      R12.5000   
   X8.1553       Y72.2833      R12.5000   
   X8.0536       Y70.7328      R12.5000   
G1   Y50.443    
   Y46.443    
   Y20.569    
(Pass: 16)
   Z-1.600     F400 
G17 G3   X8.1553       Y19.0187      R12.5000    F600 
   X8.4744       Y17.4144      R12.5000   
   X9.0002       Y15.8654      R12.5000   
   X9.7237       Y14.3983      R12.5000   
   X10.6325      Y13.0382      R12.5000   
   X11.7110      Y11.8084      R12.5000   
   X12.9408      Y10.7298      R12.5000   
   X14.3010      Y9.8210       R12.5000   
   X15.7680      Y9.0976       R12.5000   
   X17.3170      Y8.5717       R12.5000   
   X18.9214      Y8.2526       R12.5000   
   X20.4718      Y8.1510       R12.5000   
G1   X32.595    
   X36.595    
   X50.635    
G17 G3   X52.1859      Y8.2526       R12.5000   
   X53.7903      Y8.5717       R12.5000   
   X55.3392      Y9.0976       R12.5000   
   X56.8063      Y9.8210       R12.5000   
   X58.1664      Y10.7298      R12.5000   
   X59.3963      Y11.8084      R12.5000   
   X60.4748      Y13.0382      R12.5000   
   X61.3836      Y14.3983      R12.5000   
   X62.1071      Y15.8654      R12.5000   
   X62.6329      Y17.4144      R12.5000   
   X62.9520      Y19.0187      R12.5000   
   X63.0536      Y20.5692      R12.5000   
G1   Y45.904    
   Y49.904    
   Y70.733    
G17 G3   X62.9520      Y72.2833      R12.5000   
   X62.6329      Y73.8876      R12.5000   
   X62.1071      Y75.4366      R12.5000   
   X61.3836      Y76.9037      R12.5000   
   X60.4748      Y78.2638      R12.5000   
   X59.3963      Y79.4936      R12.5000   
   X58.1664      Y80.5722      R12.5000   
   X56.8063      Y81.4810      R12.5000   
   X55.3392      Y82.2045      R12.5000   
   X53.7903      Y82.7303      R12.5000   
   X52.1859      Y83.0494      R12.5000   
   X50.6355      Y83.1510      R12.5000   
G1   X38.354    
   X34.354    
   X20.472    
G17 G3   X18.9214      Y83.0494      R12.5000   
   X17.3170      Y82.7303      R12.5000   
   X15.7680      Y82.2045      R12.5000   
   X14.3010      Y81.4810      R12.5000   
   X12.9408      Y80.5722      R12.5000   
   X11.7110      Y79.4936      R12.5000   
   X10.6325      Y78.2638      R12.5000   
   X9.7237       Y76.9037      R12.5000   
   X9.0002       Y75.4366      R12.5000   
   X8.4744       Y73.8876      R12.5000   
   X8.1553       Y72.2833      R12.5000   
   X8.0536       Y70.7328      R12.5000   
G1   Y50.443    
   Y46.443    
   Y20.569    
(Pass: 17)
   Z-1.700     F400 
G17 G3   X8.1553       Y19.0187      R12.5000    F600 
   X8.4744       Y17.4144      R12.5000   
   X9.0002       Y15.8654      R12.5000   
   X9.7237       Y14.3983      R12.5000   
   X10.6325      Y13.0382      R12.5000   
   X11.7110      Y11.8084      R12.5000   
   X12.9408      Y10.7298      R12.5000   
   X14.3010      Y9.8210       R12.5000   
   X15.7680      Y9.0976       R12.5000   
   X17.3170      Y8.5717       R12.5000   
   X18.9214      Y8.2526       R12.5000   
   X20.4718      Y8.1510       R12.5000   
G1   X32.595    
   Z-1.600    
   X36.595    
   Z-1.700     F400 
   X50.635     F600 
G17 G3   X52.1859      Y8.2526       R12.5000   
   X53.7903      Y8.5717       R12.5000   
   X55.3392      Y9.0976       R12.5000   
   X56.8063      Y9.8210       R12.5000   
   X58.1664      Y10.7298      R12.5000   
   X59.3963      Y11.8084      R12.5000   
   X60.4748      Y13.0382      R12.5000   
   X61.3836      Y14.3983      R12.5000   
   X62.1071      Y15.8654      R12.5000   
   X62.6329      Y17.4144      R12.5000   
   X62.9520      Y19.0187      R12.5000   
   X63.0536      Y20.5692      R12.5000   
G1   Y45.904    
   Z-1.600    
   Y49.904    
   Z-1.700     F400 
   Y70.733     F600 
G17 G3   X62.9520      Y72.2833      R12.5000   
   X62.6329      Y73.8876      R12.5000   
   X62.1071      Y75.4366      R12.5000   
   X61.3836      Y76.9037      R12.5000   
   X60.4748      Y78.2638      R12.5000   
   X59.3963      Y79.4936      R12.5000   
   X58.1664      Y80.5722      R12.5000   
   X56.8063      Y81.4810      R12.5000   
   X55.3392      Y82.2045      R12.5000   
   X53.7903      Y82.7303      R12.5000   
   X52.1859      Y83.0494      R12.5000   
   X50.6355      Y83.1510      R12.5000   
G1   X38.354    
   Z-1.600    
   X34.354    
   Z-1.700     F400 
   X20.472     F600 
G17 G3   X18.9214      Y83.0494      R12.5000   
   X17.3170      Y82.7303      R12.5000   
   X15.7680      Y82.2045      R12.5000   
   X14.3010      Y81.4810      R12.5000   
   X12.9408      Y80.5722      R12.5000   
   X11.7110      Y79.4936      R12.5000   
   X10.6325      Y78.2638      R12.5000   
   X9.7237       Y76.9037      R12.5000   
   X9.0002       Y75.4366      R12.5000   
   X8.4744       Y73.8876      R12.5000   
   X8.1553       Y72.2833      R12.5000   
   X8.0536       Y70.7328      R12.5000   
G1   Y50.443    
   Z-1.600    
   Y46.443    
   Z-1.700     F400 
   Y20.569     F600 
(Pass: 18)
   Z-1.800     F400 
G17 G3   X8.1553       Y19.0187      R12.5000    F600 
   X8.4744       Y17.4144      R12.5000   
   X9.0002       Y15.8654      R12.5000   
   X9.7237       Y14.3983      R12.5000   
   X10.6325      Y13.0382      R12.5000   
   X11.7110      Y11.8084      R12.5000   
   X12.9408      Y10.7298      R12.5000   
   X14.3010      Y9.8210       R12.5000   
   X15.7680      Y9.0976       R12.5000   
   X17.3170      Y8.5717       R12.5000   
   X18.9214      Y8.2526       R12.5000   
   X20.4718      Y8.1510       R12.5000   
G1   X32.595    
   Z-1.600    
   X36.595    
   Z-1.800     F400 
   X50.635     F600 
G17 G3   X52.1859      Y8.2526       R12.5000   
   X53.7903      Y8.5717       R12.5000   
   X55.3392      Y9.0976       R12.5000   
   X56.8063      Y9.8210       R12.5000   
   X58.1664      Y10.7298      R12.5000   
   X59.3963      Y11.8084      R12.5000   
   X60.4748      Y13.0382      R12.5000   
   X61.3836      Y14.3983      R12.5000   
   X62.1071      Y15.8654      R12.5000   
   X62.6329      Y17.4144      R12.5000   
   X62.9520      Y19.0187      R12.5000   
   X63.0536      Y20.5692      R12.5000   
G1   Y45.904    
   Z-1.600    
   Y49.904    
   Z-1.800     F400 
   Y70.733     F600 
G17 G3   X62.9520      Y72.2833      R12.5000   
   X62.6329      Y73.8876      R12.5000   
   X62.1071      Y75.4366      R12.5000   
   X61.3836      Y76.9037      R12.5000   
   X60.4748      Y78.2638      R12.5000   
   X59.3963      Y79.4936      R12.5000   
   X58.1664      Y80.5722      R12.5000   
   X56.8063      Y81.4810      R12.5000   
   X55.3392      Y82.2045      R12.5000   
   X53.7903      Y82.7303      R12.5000   
   X52.1859      Y83.0494      R12.5000   
   X50.6355      Y83.1510      R12.5000   
G1   X38.354    
   Z-1.600    
   X34.354    
   Z-1.800     F400 
   X20.472     F600 
G17 G3   X18.9214      Y83.0494      R12.5000   
   X17.3170      Y82.7303      R12.5000   
   X15.7680      Y82.2045      R12.5000   
   X14.3010      Y81.4810      R12.5000   
   X12.9408      Y80.5722      R12.5000   
   X11.7110      Y79.4936      R12.5000   
   X10.6325      Y78.2638      R12.5000   
   X9.7237       Y76.9037      R12.5000   
   X9.0002       Y75.4366      R12.5000   
   X8.4744       Y73.8876      R12.5000   
   X8.1553       Y72.2833      R12.5000   
   X8.0536       Y70.7328      R12.5000   
G1   Y50.443    
   Z-1.600    
   Y46.443    
   Z-1.800     F400 
   Y20.569     F600 
(Pass: 19)
   Z-1.900     F400 
G17 G3   X8.1553       Y19.0187      R12.5000    F600 
   X8.4744       Y17.4144      R12.5000   
   X9.0002       Y15.8654      R12.5000   
   X9.7237       Y14.3983      R12.5000   
   X10.6325      Y13.0382      R12.5000   
   X11.7110      Y11.8084      R12.5000   
   X12.9408      Y10.7298      R12.5000   
   X14.3010      Y9.8210       R12.5000   
   X15.7680      Y9.0976       R12.5000   
   X17.3170      Y8.5717       R12.5000   
   X18.9214      Y8.2526       R12.5000   
   X20.4718      Y8.1510       R12.5000   
G1   X32.595    
   Z-1.600    
   X36.595    
   Z-1.900     F400 
   X50.635     F600 
G17 G3   X52.1859      Y8.2526       R12.5000   
   X53.7903      Y8.5717       R12.5000   
   X55.3392      Y9.0976       R12.5000   
   X56.8063      Y9.8210       R12.5000   
   X58.1664      Y10.7298      R12.5000   
   X59.3963      Y11.8084      R12.5000   
   X60.4748      Y13.0382      R12.5000   
   X61.3836      Y14.3983      R12.5000   
   X62.1071      Y15.8654      R12.5000   
   X62.6329      Y17.4144      R12.5000   
   X62.9520      Y19.0187      R12.5000   
   X63.0536      Y20.5692      R12.5000   
G1   Y45.904    
   Z-1.600    
   Y49.904    
   Z-1.900     F400 
   Y70.733     F600 
G17 G3   X62.9520      Y72.2833      R12.5000   
   X62.6329      Y73.8876      R12.5000   
   X62.1071      Y75.4366      R12.5000   
   X61.3836      Y76.9037      R12.5000   
   X60.4748      Y78.2638      R12.5000   
   X59.3963      Y79.4936      R12.5000   
   X58.1664      Y80.5722      R12.5000   
   X56.8063      Y81.4810      R12.5000   
   X55.3392      Y82.2045      R12.5000   
   X53.7903      Y82.7303      R12.5000   
   X52.1859      Y83.0494      R12.5000   
   X50.6355      Y83.1510      R12.5000   
G1   X38.354    
   Z-1.600    
   X34.354    
   Z-1.900     F400 
   X20.472     F600 
G17 G3   X18.9214      Y83.0494      R12.5000   
   X17.3170      Y82.7303      R12.5000   
   X15.7680      Y82.2045      R12.5000   
   X14.3010      Y81.4810      R12.5000   
   X12.9408      Y80.5722      R12.5000   
   X11.7110      Y79.4936      R12.5000   
   X10.6325      Y78.2638      R12.5000   
   X9.7237       Y76.9037      R12.5000   
   X9.0002       Y75.4366      R12.5000   
   X8.4744       Y73.8876      R12.5000   
   X8.1553       Y72.2833      R12.5000   
   X8.0536       Y70.7328      R12.5000   
G1   Y50.443    
   Z-1.600    
   Y46.443    
   Z-1.900     F400 
   Y20.569     F600 
(Pass: 20)
   Z-2.000     F400 
G17 G3   X8.1553       Y19.0187      R12.5000    F600 
   X8.4744       Y17.4144      R12.5000   
   X9.0002       Y15.8654      R12.5000   
   X9.7237       Y14.3983      R12.5000   
   X10.6325      Y13.0382      R12.5000   
   X11.7110      Y11.8084      R12.5000   
   X12.9408      Y10.7298      R12.5000   
   X14.3010      Y9.8210       R12.5000   
   X15.7680      Y9.0976       R12.5000   
   X17.3170      Y8.5717       R12.5000   
   X18.9214      Y8.2526       R12.5000   
   X20.4718      Y8.1510       R12.5000   
G1   X32.595    
   Z-1.600    
   X36.595    
   Z-2.000     F400 
   X50.635     F600 
G17 G3   X52.1859      Y8.2526       R12.5000   
   X53.7903      Y8.5717       R12.5000   
   X55.3392      Y9.0976       R12.5000   
   X56.8063      Y9.8210       R12.5000   
   X58.1664      Y10.7298      R12.5000   
   X59.3963      Y11.8084      R12.5000   
   X60.4748      Y13.0382      R12.5000   
   X61.3836      Y14.3983      R12.5000   
   X62.1071      Y15.8654      R12.5000   
   X62.6329      Y17.4144      R12.5000   
   X62.9520      Y19.0187      R12.5000   
   X63.0536      Y20.5692      R12.5000   
G1   Y45.904    
   Z-1.600    
   Y49.904    
   Z-2.000     F400 
   Y70.733     F600 
G17 G3   X62.9520      Y72.2833      R12.5000   
   X62.6329      Y73.8876      R12.5000   
   X62.1071      Y75.4366      R12.5000   
   X61.3836      Y76.9037      R12.5000   
   X60.4748      Y78.2638      R12.5000   
   X59.3963      Y79.4936      R12.5000   
   X58.1664      Y80.5722      R12.5000   
   X56.8063      Y81.4810      R12.5000   
   X55.3392      Y82.2045      R12.5000   
   X53.7903      Y82.7303      R12.5000   
   X52.1859      Y83.0494      R12.5000   
   X50.6355      Y83.1510      R12.5000   
G1   X38.354    
   Z-1.600    
   X34.354    
   Z-2.000     F400 
   X20.472     F600 
G17 G3   X18.9214      Y83.0494      R12.5000   
   X17.3170      Y82.7303      R12.5000   
   X15.7680      Y82.2045      R12.5000   
   X14.3010      Y81.4810      R12.5000   
   X12.9408      Y80.5722      R12.5000   
   X11.7110      Y79.4936      R12.5000   
   X10.6325      Y78.2638      R12.5000   
   X9.7237       Y76.9037      R12.5000   
   X9.0002       Y75.4366      R12.5000   
   X8.4744       Y73.8876      R12.5000   
   X8.1553       Y72.2833      R12.5000   
   X8.0536       Y70.7328      R12.5000   
G1   Y50.443    
   Z-1.600    
   Y46.443    
   Z-2.000     F400 
   Y20.569     F600 
(Pass: 21)
   Z-2.100     F400 
G17 G3   X8.1553       Y19.0187      R12.5000    F600 
   X8.4744       Y17.4144      R12.5000   
   X9.0002       Y15.8654      R12.5000   
   X9.7237       Y14.3983      R12.5000   
   X10.6325      Y13.0382      R12.5000   
   X11.7110      Y11.8084      R12.5000   
   X12.9408      Y10.7298      R12.5000   
   X14.3010      Y9.8210       R12.5000   
   X15.7680      Y9.0976       R12.5000   
   X17.3170      Y8.5717       R12.5000   
   X18.9214      Y8.2526       R12.5000   
   X20.4718      Y8.1510       R12.5000   
G1   X32.595    
   Z-1.600    
   X36.595    
   Z-2.100     F400 
   X50.635     F600 
G17 G3   X52.1859      Y8.2526       R12.5000   
   X53.7903      Y8.5717       R12.5000   
   X55.3392      Y9.0976       R12.5000   
   X56.8063      Y9.8210       R12.5000   
   X58.1664      Y10.7298      R12.5000   
   X59.3963      Y11.8084      R12.5000   
   X60.4748      Y13.0382      R12.5000   
   X61.3836      Y14.3983      R12.5000   
   X62.1071      Y15.8654      R12.5000   
   X62.6329      Y17.4144      R12.5000   
   X62.9520      Y19.0187      R12.5000   
   X63.0536      Y20.5692      R12.5000   
G1   Y45.904    
   Z-1.600    
   Y49.904    
   Z-2.100     F400 
   Y70.733     F600 
G17 G3   X62.9520      Y72.2833      R12.5000   
   X62.6329      Y73.8876      R12.5000   
   X62.1071      Y75.4366      R12.5000   
   X61.3836      Y76.9037      R12.5000   
   X60.4748      Y78.2638      R12.5000   
   X59.3963      Y79.4936      R12.5000   
   X58.1664      Y80.5722      R12.5000   
   X56.8063      Y81.4810      R12.5000   
   X55.3392      Y82.2045      R12.5000   
   X53.7903      Y82.7303      R12.5000   
   X52.1859      Y83.0494      R12.5000   
   X50.6355      Y83.1510      R12.5000   
G1   X38.354    
   Z-1.600    
   X34.354    
   Z-2.100     F400 
   X20.472     F600 
G17 G3   X18.9214      Y83.0494      R12.5000   
   X17.3170      Y82.7303      R12.5000   
   X15.7680      Y82.2045      R12.5000   
   X14.3010      Y81.4810      R12.5000   
   X12.9408      Y80.5722      R12.5000   
   X11.7110      Y79.4936      R12.5000   
   X10.6325      Y78.2638      R12.5000   
   X9.7237       Y76.9037      R12.5000   
   X9.0002       Y75.4366      R12.5000   
   X8.4744       Y73.8876      R12.5000   
   X8.1553       Y72.2833      R12.5000   
   X8.0536       Y70.7328      R12.5000   
G1   Y50.443    
   Z-1.600    
   Y46.443    
   Z-2.100     F400 
   Y20.569     F600 
(Pass: 22)
   Z-2.200     F400 
G17 G3   X8.1553       Y19.0187      R12.5000    F600 
   X8.4744       Y17.4144      R12.5000   
   X9.0002       Y15.8654      R12.5000   
   X9.7237       Y14.3983      R12.5000   
   X10.6325      Y13.0382      R12.5000   
   X11.7110      Y11.8084      R12.5000   
   X12.9408      Y10.7298      R12.5000   
   X14.3010      Y9.8210       R12.5000   
   X15.7680      Y9.0976       R12.5000   
   X17.3170      Y8.5717       R12.5000   
   X18.9214      Y8.2526       R12.5000   
   X20.4718      Y8.1510       R12.5000   
G1   X32.595    
   Z-1.600    
   X36.595    
   Z-2.200     F400 
   X50.635     F600 
G17 G3   X52.1859      Y8.2526       R12.5000   
   X53.7903      Y8.5717       R12.5000   
   X55.3392      Y9.0976       R12.5000   
   X56.8063      Y9.8210       R12.5000   
   X58.1664      Y10.7298      R12.5000   
   X59.3963      Y11.8084      R12.5000   
   X60.4748      Y13.0382      R12.5000   
   X61.3836      Y14.3983      R12.5000   
   X62.1071      Y15.8654      R12.5000   
   X62.6329      Y17.4144      R12.5000   
   X62.9520      Y19.0187      R12.5000   
   X63.0536      Y20.5692      R12.5000   
G1   Y45.904    
   Z-1.600    
   Y49.904    
   Z-2.200     F400 
   Y70.733     F600 
G17 G3   X62.9520      Y72.2833      R12.5000   
   X62.6329      Y73.8876      R12.5000   
   X62.1071      Y75.4366      R12.5000   
   X61.3836      Y76.9037      R12.5000   
   X60.4748      Y78.2638      R12.5000   
   X59.3963      Y79.4936      R12.5000   
   X58.1664      Y80.5722      R12.5000   
   X56.8063      Y81.4810      R12.5000   
   X55.3392      Y82.2045      R12.5000   
   X53.7903      Y82.7303      R12.5000   
   X52.1859      Y83.0494      R12.5000   
   X50.6355      Y83.1510      R12.5000   
G1   X38.354    
   Z-1.600    
   X34.354    
   Z-2.200     F400 
   X20.472     F600 
G17 G3   X18.9214      Y83.0494      R12.5000   
   X17.3170      Y82.7303      R12.5000   
   X15.7680      Y82.2045      R12.5000   
   X14.3010      Y81.4810      R12.5000   
   X12.9408      Y80.5722      R12.5000   
   X11.7110      Y79.4936      R12.5000   
   X10.6325      Y78.2638      R12.5000   
   X9.7237       Y76.9037      R12.5000   
   X9.0002       Y75.4366      R12.5000   
   X8.4744       Y73.8876      R12.5000   
   X8.1553       Y72.2833      R12.5000   
   X8.0536       Y70.7328      R12.5000   
G1   Y50.443    
   Z-1.600    
   Y46.443    
   Z-2.200     F400 
   Y20.569     F600 
(Pass: 23)
   Z-2.300     F400 
G17 G3   X8.1553       Y19.0187      R12.5000    F600 
   X8.4744       Y17.4144      R12.5000   
   X9.0002       Y15.8654      R12.5000   
   X9.7237       Y14.3983      R12.5000   
   X10.6325      Y13.0382      R12.5000   
   X11.7110      Y11.8084      R12.5000   
   X12.9408      Y10.7298      R12.5000   
   X14.3010      Y9.8210       R12.5000   
   X15.7680      Y9.0976       R12.5000   
   X17.3170      Y8.5717       R12.5000   
   X18.9214      Y8.2526       R12.5000   
   X20.4718      Y8.1510       R12.5000   
G1   X32.595    
   Z-1.600    
   X36.595    
   Z-2.300     F400 
   X50.635     F600 
G17 G3   X52.1859      Y8.2526       R12.5000   
   X53.7903      Y8.5717       R12.5000   
   X55.3392      Y9.0976       R12.5000   
   X56.8063      Y9.8210       R12.5000   
   X58.1664      Y10.7298      R12.5000   
   X59.3963      Y11.8084      R12.5000   
   X60.4748      Y13.0382      R12.5000   
   X61.3836      Y14.3983      R12.5000   
   X62.1071      Y15.8654      R12.5000   
   X62.6329      Y17.4144      R12.5000   
   X62.9520      Y19.0187      R12.5000   
   X63.0536      Y20.5692      R12.5000   
G1   Y45.904    
   Z-1.600    
   Y49.904    
   Z-2.300     F400 
   Y70.733     F600 
G17 G3   X62.9520      Y72.2833      R12.5000   
   X62.6329      Y73.8876      R12.5000   
   X62.1071      Y75.4366      R12.5000   
   X61.3836      Y76.9037      R12.5000   
   X60.4748      Y78.2638      R12.5000   
   X59.3963      Y79.4936      R12.5000   
   X58.1664      Y80.5722      R12.5000   
   X56.8063      Y81.4810      R12.5000   
   X55.3392      Y82.2045      R12.5000   
   X53.7903      Y82.7303      R12.5000   
   X52.1859      Y83.0494      R12.5000   
   X50.6355      Y83.1510      R12.5000   
G1   X38.354    
   Z-1.600    
   X34.354    
   Z-2.300     F400 
   X20.472     F600 
G17 G3   X18.9214      Y83.0494      R12.5000   
   X17.3170      Y82.7303      R12.5000   
   X15.7680      Y82.2045      R12.5000   
   X14.3010      Y81.4810      R12.5000   
   X12.9408      Y80.5722      R12.5000   
   X11.7110      Y79.4936      R12.5000   
   X10.6325      Y78.2638      R12.5000   
   X9.7237       Y76.9037      R12.5000   
   X9.0002       Y75.4366      R12.5000   
   X8.4744       Y73.8876      R12.5000   
   X8.1553       Y72.2833      R12.5000   
   X8.0536       Y70.7328      R12.5000   
G1   Y50.443    
   Z-1.600    
   Y46.443    
   Z-2.300     F400 
   Y20.569     F600 
(Pass: 24)
   Z-2.400     F400 
G17 G3   X8.1553       Y19.0187      R12.5000    F600 
   X8.4744       Y17.4144      R12.5000   
   X9.0002       Y15.8654      R12.5000   
   X9.7237       Y14.3983      R12.5000   
   X10.6325      Y13.0382      R12.5000   
   X11.7110      Y11.8084      R12.5000   
   X12.9408      Y10.7298      R12.5000   
   X14.3010      Y9.8210       R12.5000   
   X15.7680      Y9.0976       R12.5000   
   X17.3170      Y8.5717       R12.5000   
   X18.9214      Y8.2526       R12.5000   
   X20.4718      Y8.1510       R12.5000   
G1   X32.595    
   Z-1.600    
   X36.595    
   Z-2.400     F400 
   X50.635     F600 
G17 G3   X52.1859      Y8.2526       R12.5000   
   X53.7903      Y8.5717       R12.5000   
   X55.3392      Y9.0976       R12.5000   
   X56.8063      Y9.8210       R12.5000   
   X58.1664      Y10.7298      R12.5000   
   X59.3963      Y11.8084      R12.5000   
   X60.4748      Y13.0382      R12.5000   
   X61.3836      Y14.3983      R12.5000   
   X62.1071      Y15.8654      R12.5000   
   X62.6329      Y17.4144      R12.5000   
   X62.9520      Y19.0187      R12.5000   
   X63.0536      Y20.5692      R12.5000   
G1   Y45.904    
   Z-1.600    
   Y49.904    
   Z-2.400     F400 
   Y70.733     F600 
G17 G3   X62.9520      Y72.2833      R12.5000   
   X62.6329      Y73.8876      R12.5000   
   X62.1071      Y75.4366      R12.5000   
   X61.3836      Y76.9037      R12.5000   
   X60.4748      Y78.2638      R12.5000   
   X59.3963      Y79.4936      R12.5000   
   X58.1664      Y80.5722      R12.5000   
   X56.8063      Y81.4810      R12.5000   
   X55.3392      Y82.2045      R12.5000   
   X53.7903      Y82.7303      R12.5000   
   X52.1859      Y83.0494      R12.5000   
   X50.6355      Y83.1510      R12.5000   
G1   X38.354    
   Z-1.600    
   X34.354    
   Z-2.400     F400 
   X20.472     F600 
G17 G3   X18.9214      Y83.0494      R12.5000   
   X17.3170      Y82.7303      R12.5000   
   X15.7680      Y82.2045      R12.5000   
   X14.3010      Y81.4810      R12.5000   
   X12.9408      Y80.5722      R12.5000   
   X11.7110      Y79.4936      R12.5000   
   X10.6325      Y78.2638      R12.5000   
   X9.7237       Y76.9037      R12.5000   
   X9.0002       Y75.4366      R12.5000   
   X8.4744       Y73.8876      R12.5000   
   X8.1553       Y72.2833      R12.5000   
   X8.0536       Y70.7328      R12.5000   
G1   Y50.443    
   Z-1.600    
   Y46.443    
   Z-2.400     F400 
   Y20.569     F600 
(Pass: 25)
   Z-2.500     F400 
G17 G3   X8.1553       Y19.0187      R12.5000    F600 
   X8.4744       Y17.4144      R12.5000   
   X9.0002       Y15.8654      R12.5000   
   X9.7237       Y14.3983      R12.5000   
   X10.6325      Y13.0382      R12.5000   
   X11.7110      Y11.8084      R12.5000   
   X12.9408      Y10.7298      R12.5000   
   X14.3010      Y9.8210       R12.5000   
   X15.7680      Y9.0976       R12.5000   
   X17.3170      Y8.5717       R12.5000   
   X18.9214      Y8.2526       R12.5000   
   X20.4718      Y8.1510       R12.5000   
G1   X32.595    
   Z-1.600    
   X36.595    
   Z-2.500     F400 
   X50.635     F600 
G17 G3   X52.1859      Y8.2526       R12.5000   
   X53.7903      Y8.5717       R12.5000   
   X55.3392      Y9.0976       R12.5000   
   X56.8063      Y9.8210       R12.5000   
   X58.1664      Y10.7298      R12.5000   
   X59.3963      Y11.8084      R12.5000   
   X60.4748      Y13.0382      R12.5000   
   X61.3836      Y14.3983      R12.5000   
   X62.1071      Y15.8654      R12.5000   
   X62.6329      Y17.4144      R12.5000   
   X62.9520      Y19.0187      R12.5000   
   X63.0536      Y20.5692      R12.5000   
G1   Y45.904    
   Z-1.600    
   Y49.904    
   Z-2.500     F400 
   Y70.733     F600 
G17 G3   X62.9520      Y72.2833      R12.5000   
   X62.6329      Y73.8876      R12.5000   
   X62.1071      Y75.4366      R12.5000   
   X61.3836      Y76.9037      R12.5000   
   X60.4748      Y78.2638      R12.5000   
   X59.3963      Y79.4936      R12.5000   
   X58.1664      Y80.5722      R12.5000   
   X56.8063      Y81.4810      R12.5000   
   X55.3392      Y82.2045      R12.5000   
   X53.7903      Y82.7303      R12.5000   
   X52.1859      Y83.0494      R12.5000   
   X50.6355      Y83.1510      R12.5000   
G1   X38.354    
   Z-1.600    
   X34.354    
   Z-2.500     F400 
   X20.472     F600 
G17 G3   X18.9214      Y83.0494      R12.5000   
   X17.3170      Y82.7303      R12.5000   
   X15.7680      Y82.2045      R12.5000   
   X14.3010      Y81.4810      R12.5000   
   X12.9408      Y80.5722      R12.5000   
   X11.7110      Y79.4936      R12.5000   
   X10.6325      Y78.2638      R12.5000   
   X9.7237       Y76.9037      R12.5000   
   X9.0002       Y75.4366      R12.5000   
   X8.4744       Y73.8876      R12.5000   
   X8.1553       Y72.2833      R12.5000   
   X8.0536       Y70.7328      R12.5000   
G1   Y50.443    
   Z-1.600    
   Y46.443    
   Z-2.500     F400 
   Y20.569     F600 
(Pass: 26)
   Z-2.600     F400 
G17 G3   X8.1553       Y19.0187      R12.5000    F600 
   X8.4744       Y17.4144      R12.5000   
   X9.0002       Y15.8654      R12.5000   
   X9.7237       Y14.3983      R12.5000   
   X10.6325      Y13.0382      R12.5000   
   X11.7110      Y11.8084      R12.5000   
   X12.9408      Y10.7298      R12.5000   
   X14.3010      Y9.8210       R12.5000   
   X15.7680      Y9.0976       R12.5000   
   X17.3170      Y8.5717       R12.5000   
   X18.9214      Y8.2526       R12.5000   
   X20.4718      Y8.1510       R12.5000   
G1   X32.595    
   Z-1.600    
   X36.595    
   Z-2.600     F400 
   X50.635     F600 
G17 G3   X52.1859      Y8.2526       R12.5000   
   X53.7903      Y8.5717       R12.5000   
   X55.3392      Y9.0976       R12.5000   
   X56.8063      Y9.8210       R12.5000   
   X58.1664      Y10.7298      R12.5000   
   X59.3963      Y11.8084      R12.5000   
   X60.4748      Y13.0382      R12.5000   
   X61.3836      Y14.3983      R12.5000   
   X62.1071      Y15.8654      R12.5000   
   X62.6329      Y17.4144      R12.5000   
   X62.9520      Y19.0187      R12.5000   
   X63.0536      Y20.5692      R12.5000   
G1   Y45.904    
   Z-1.600    
   Y49.904    
   Z-2.600     F400 
   Y70.733     F600 
G17 G3   X62.9520      Y72.2833      R12.5000   
   X62.6329      Y73.8876      R12.5000   
   X62.1071      Y75.4366      R12.5000   
   X61.3836      Y76.9037      R12.5000   
   X60.4748      Y78.2638      R12.5000   
   X59.3963      Y79.4936      R12.5000   
   X58.1664      Y80.5722      R12.5000   
   X56.8063      Y81.4810      R12.5000   
   X55.3392      Y82.2045      R12.5000   
   X53.7903      Y82.7303      R12.5000   
   X52.1859      Y83.0494      R12.5000   
   X50.6355      Y83.1510      R12.5000   
G1   X38.354    
   Z-1.600    
   X34.354    
   Z-2.600     F400 
   X20.472     F600 
G17 G3   X18.9214      Y83.0494      R12.5000   
   X17.3170      Y82.7303      R12.5000   
   X15.7680      Y82.2045      R12.5000   
   X14.3010      Y81.4810      R12.5000   
   X12.9408      Y80.5722      R12.5000   
   X11.7110      Y79.4936      R12.5000   
   X10.6325      Y78.2638      R12.5000   
   X9.7237       Y76.9037      R12.5000   
   X9.0002       Y75.4366      R12.5000   
   X8.4744       Y73.8876      R12.5000   
   X8.1553       Y72.2833      R12.5000   
   X8.0536       Y70.7328      R12.5000   
G1   Y50.443    
   Z-1.600    
   Y46.443    
   Z-2.600     F400 
   Y20.569     F600 
(Pass: 27)
   Z-2.700     F400 
G17 G3   X8.1553       Y19.0187      R12.5000    F600 
   X8.4744       Y17.4144      R12.5000   
   X9.0002       Y15.8654      R12.5000   
   X9.7237       Y14.3983      R12.5000   
   X10.6325      Y13.0382      R12.5000   
   X11.7110      Y11.8084      R12.5000   
   X12.9408      Y10.7298      R12.5000   
   X14.3010      Y9.8210       R12.5000   
   X15.7680      Y9.0976       R12.5000   
   X17.3170      Y8.5717       R12.5000   
   X18.9214      Y8.2526       R12.5000   
   X20.4718      Y8.1510       R12.5000   
G1   X32.595    
   Z-1.600    
   X36.595    
   Z-2.700     F400 
   X50.635     F600 
G17 G3   X52.1859      Y8.2526       R12.5000   
   X53.7903      Y8.5717       R12.5000   
   X55.3392      Y9.0976       R12.5000   
   X56.8063      Y9.8210       R12.5000   
   X58.1664      Y10.7298      R12.5000   
   X59.3963      Y11.8084      R12.5000   
   X60.4748      Y13.0382      R12.5000   
   X61.3836      Y14.3983      R12.5000   
   X62.1071      Y15.8654      R12.5000   
   X62.6329      Y17.4144      R12.5000   
   X62.9520      Y19.0187      R12.5000   
   X63.0536      Y20.5692      R12.5000   
G1   Y45.904    
   Z-1.600    
   Y49.904    
   Z-2.700     F400 
   Y70.733     F600 
G17 G3   X62.9520      Y72.2833      R12.5000   
   X62.6329      Y73.8876      R12.5000   
   X62.1071      Y75.4366      R12.5000   
   X61.3836      Y76.9037      R12.5000   
   X60.4748      Y78.2638      R12.5000   
   X59.3963      Y79.4936      R12.5000   
   X58.1664      Y80.5722      R12.5000   
   X56.8063      Y81.4810      R12.5000   
   X55.3392      Y82.2045      R12.5000   
   X53.7903      Y82.7303      R12.5000   
   X52.1859      Y83.0494      R12.5000   
   X50.6355      Y83.1510      R12.5000   
G1   X38.354    
   Z-1.600    
   X34.354    
   Z-2.700     F400 
   X20.472     F600 
G17 G3   X18.9214      Y83.0494      R12.5000   
   X17.3170      Y82.7303      R12.5000   
   X15.7680      Y82.2045      R12.5000   
   X14.3010      Y81.4810      R12.5000   
   X12.9408      Y80.5722      R12.5000   
   X11.7110      Y79.4936      R12.5000   
   X10.6325      Y78.2638      R12.5000   
   X9.7237       Y76.9037      R12.5000   
   X9.0002       Y75.4366      R12.5000   
   X8.4744       Y73.8876      R12.5000   
   X8.1553       Y72.2833      R12.5000   
   X8.0536       Y70.7328      R12.5000   
G1   Y50.443    
   Z-1.600    
   Y46.443    
   Z-2.700     F400 
   Y20.569     F600 
(Pass: 28)
   Z-2.800     F400 
G17 G3   X8.1553       Y19.0187      R12.5000    F600 
   X8.4744       Y17.4144      R12.5000   
   X9.0002       Y15.8654      R12.5000   
   X9.7237       Y14.3983      R12.5000   
   X10.6325      Y13.0382      R12.5000   
   X11.7110      Y11.8084      R12.5000   
   X12.9408      Y10.7298      R12.5000   
   X14.3010      Y9.8210       R12.5000   
   X15.7680      Y9.0976       R12.5000   
   X17.3170      Y8.5717       R12.5000   
   X18.9214      Y8.2526       R12.5000   
   X20.4718      Y8.1510       R12.5000   
G1   X32.595    
   Z-1.600    
   X36.595    
   Z-2.800     F400 
   X50.635     F600 
G17 G3   X52.1859      Y8.2526       R12.5000   
   X53.7903      Y8.5717       R12.5000   
   X55.3392      Y9.0976       R12.5000   
   X56.8063      Y9.8210       R12.5000   
   X58.1664      Y10.7298      R12.5000   
   X59.3963      Y11.8084      R12.5000   
   X60.4748      Y13.0382      R12.5000   
   X61.3836      Y14.3983      R12.5000   
   X62.1071      Y15.8654      R12.5000   
   X62.6329      Y17.4144      R12.5000   
   X62.9520      Y19.0187      R12.5000   
   X63.0536      Y20.5692      R12.5000   
G1   Y45.904    
   Z-1.600    
   Y49.904    
   Z-2.800     F400 
   Y70.733     F600 
G17 G3   X62.9520      Y72.2833      R12.5000   
   X62.6329      Y73.8876      R12.5000   
   X62.1071      Y75.4366      R12.5000   
   X61.3836      Y76.9037      R12.5000   
   X60.4748      Y78.2638      R12.5000   
   X59.3963      Y79.4936      R12.5000   
   X58.1664      Y80.5722      R12.5000   
   X56.8063      Y81.4810      R12.5000   
   X55.3392      Y82.2045      R12.5000   
   X53.7903      Y82.7303      R12.5000   
   X52.1859      Y83.0494      R12.5000   
   X50.6355      Y83.1510      R12.5000   
G1   X38.354    
   Z-1.600    
   X34.354    
   Z-2.800     F400 
   X20.472     F600 
G17 G3   X18.9214      Y83.0494      R12.5000   
   X17.3170      Y82.7303      R12.5000   
   X15.7680      Y82.2045      R12.5000   
   X14.3010      Y81.4810      R12.5000   
   X12.9408      Y80.5722      R12.5000   
   X11.7110      Y79.4936      R12.5000   
   X10.6325      Y78.2638      R12.5000   
   X9.7237       Y76.9037      R12.5000   
   X9.0002       Y75.4366      R12.5000   
   X8.4744       Y73.8876      R12.5000   
   X8.1553       Y72.2833      R12.5000   
   X8.0536       Y70.7328      R12.5000   
G1   Y50.443    
   Z-1.600    
   Y46.443    
   Z-2.800     F400 
   Y20.569     F600 
(Pass: 29)
   Z-2.900     F400 
G17 G3   X8.1553       Y19.0187      R12.5000    F600 
   X8.4744       Y17.4144      R12.5000   
   X9.0002       Y15.8654      R12.5000   
   X9.7237       Y14.3983      R12.5000   
   X10.6325      Y13.0382      R12.5000   
   X11.7110      Y11.8084      R12.5000   
   X12.9408      Y10.7298      R12.5000   
   X14.3010      Y9.8210       R12.5000   
   X15.7680      Y9.0976       R12.5000   
   X17.3170      Y8.5717       R12.5000   
   X18.9214      Y8.2526       R12.5000   
   X20.4718      Y8.1510       R12.5000   
G1   X32.595    
   Z-1.600    
   X36.595    
   Z-2.900     F400 
   X50.635     F600 
G17 G3   X52.1859      Y8.2526       R12.5000   
   X53.7903      Y8.5717       R12.5000   
   X55.3392      Y9.0976       R12.5000   
   X56.8063      Y9.8210       R12.5000   
   X58.1664      Y10.7298      R12.5000   
   X59.3963      Y11.8084      R12.5000   
   X60.4748      Y13.0382      R12.5000   
   X61.3836      Y14.3983      R12.5000   
   X62.1071      Y15.8654      R12.5000   
   X62.6329      Y17.4144      R12.5000   
   X62.9520      Y19.0187      R12.5000   
   X63.0536      Y20.5692      R12.5000   
G1   Y45.904    
   Z-1.600    
   Y49.904    
   Z-2.900     F400 
   Y70.733     F600 
G17 G3   X62.9520      Y72.2833      R12.5000   
   X62.6329      Y73.8876      R12.5000   
   X62.1071      Y75.4366      R12.5000   
   X61.3836      Y76.9037      R12.5000   
   X60.4748      Y78.2638      R12.5000   
   X59.3963      Y79.4936      R12.5000   
   X58.1664      Y80.5722      R12.5000   
   X56.8063      Y81.4810      R12.5000   
   X55.3392      Y82.2045      R12.5000   
   X53.7903      Y82.7303      R12.5000   
   X52.1859      Y83.0494      R12.5000   
   X50.6355      Y83.1510      R12.5000   
G1   X38.354    
   Z-1.600    
   X34.354    
   Z-2.900     F400 
   X20.472     F600 
G17 G3   X18.9214      Y83.0494      R12.5000   
   X17.3170      Y82.7303      R12.5000   
   X15.7680      Y82.2045      R12.5000   
   X14.3010      Y81.4810      R12.5000   
   X12.9408      Y80.5722      R12.5000   
   X11.7110      Y79.4936      R12.5000   
   X10.6325      Y78.2638      R12.5000   
   X9.7237       Y76.9037      R12.5000   
   X9.0002       Y75.4366      R12.5000   
   X8.4744       Y73.8876      R12.5000   
   X8.1553       Y72.2833      R12.5000   
   X8.0536       Y70.7328      R12.5000   
G1   Y50.443    
   Z-1.600    
   Y46.443    
   Z-2.900     F400 
   Y20.569     F600 
(Pass: 30)
   Z-3.000     F400 
G17 G3   X8.1553       Y19.0187      R12.5000    F600 
   X8.4744       Y17.4144      R12.5000   
   X9.0002       Y15.8654      R12.5000   
   X9.7237       Y14.3983      R12.5000   
   X10.6325      Y13.0382      R12.5000   
   X11.7110      Y11.8084      R12.5000   
   X12.9408      Y10.7298      R12.5000   
   X14.3010      Y9.8210       R12.5000   
   X15.7680      Y9.0976       R12.5000   
   X17.3170      Y8.5717       R12.5000   
   X18.9214      Y8.2526       R12.5000   
   X20.4718      Y8.1510       R12.5000   
G1   X32.595    
   Z-1.600    
   X36.595    
   Z-3.000     F400 
   X50.635     F600 
G17 G3   X52.1859      Y8.2526       R12.5000   
   X53.7903      Y8.5717       R12.5000   
   X55.3392      Y9.0976       R12.5000   
   X56.8063      Y9.8210       R12.5000   
   X58.1664      Y10.7298      R12.5000   
   X59.3963      Y11.8084      R12.5000   
   X60.4748      Y13.0382      R12.5000   
   X61.3836      Y14.3983      R12.5000   
   X62.1071      Y15.8654      R12.5000   
   X62.6329      Y17.4144      R12.5000   
   X62.9520      Y19.0187      R12.5000   
   X63.0536      Y20.5692      R12.5000   
G1   Y45.904    
   Z-1.600    
   Y49.904    
   Z-3.000     F400 
   Y70.733     F600 
G17 G3   X62.9520      Y72.2833      R12.5000   
   X62.6329      Y73.8876      R12.5000   
   X62.1071      Y75.4366      R12.5000   
   X61.3836      Y76.9037      R12.5000   
   X60.4748      Y78.2638      R12.5000   
   X59.3963      Y79.4936      R12.5000   
   X58.1664      Y80.5722      R12.5000   
   X56.8063      Y81.4810      R12.5000   
   X55.3392      Y82.2045      R12.5000   
   X53.7903      Y82.7303      R12.5000   
   X52.1859      Y83.0494      R12.5000   
   X50.6355      Y83.1510      R12.5000   
G1   X38.354    
   Z-1.600    
   X34.354    
   Z-3.000     F400 
   X20.472     F600 
G17 G3   X18.9214      Y83.0494      R12.5000   
   X17.3170      Y82.7303      R12.5000   
   X15.7680      Y82.2045      R12.5000   
   X14.3010      Y81.4810      R12.5000   
   X12.9408      Y80.5722      R12.5000   
   X11.7110      Y79.4936      R12.5000   
   X10.6325      Y78.2638      R12.5000   
   X9.7237       Y76.9037      R12.5000   
   X9.0002       Y75.4366      R12.5000   
   X8.4744       Y73.8876      R12.5000   
   X8.1553       Y72.2833      R12.5000   
   X8.0536       Y70.7328      R12.5000   
G1   Y50.443    
   Z-1.600    
   Y46.443    
   Z-3.000     F400 
   Y20.569     F600 
(Pass: 31)
   Z-3.100     F400 
G17 G3   X8.1553       Y19.0187      R12.5000    F600 
   X8.4744       Y17.4144      R12.5000   
   X9.0002       Y15.8654      R12.5000   
   X9.7237       Y14.3983      R12.5000   
   X10.6325      Y13.0382      R12.5000   
   X11.7110      Y11.8084      R12.5000   
   X12.9408      Y10.7298      R12.5000   
   X14.3010      Y9.8210       R12.5000   
   X15.7680      Y9.0976       R12.5000   
   X17.3170      Y8.5717       R12.5000   
   X18.9214      Y8.2526       R12.5000   
   X20.4718      Y8.1510       R12.5000   
G1   X32.595    
   Z-1.600    
   X36.595    
   Z-3.100     F400 
   X50.635     F600 
G17 G3   X52.1859      Y8.2526       R12.5000   
   X53.7903      Y8.5717       R12.5000   
   X55.3392      Y9.0976       R12.5000   
   X56.8063      Y9.8210       R12.5000   
   X58.1664      Y10.7298      R12.5000   
   X59.3963      Y11.8084      R12.5000   
   X60.4748      Y13.0382      R12.5000   
   X61.3836      Y14.3983      R12.5000   
   X62.1071      Y15.8654      R12.5000   
   X62.6329      Y17.4144      R12.5000   
   X62.9520      Y19.0187      R12.5000   
   X63.0536      Y20.5692      R12.5000   
G1   Y45.904    
   Z-1.600    
   Y49.904    
   Z-3.100     F400 
   Y70.733     F600 
G17 G3   X62.9520      Y72.2833      R12.5000   
   X62.6329      Y73.8876      R12.5000   
   X62.1071      Y75.4366      R12.5000   
   X61.3836      Y76.9037      R12.5000   
   X60.4748      Y78.2638      R12.5000   
   X59.3963      Y79.4936      R12.5000   
   X58.1664      Y80.5722      R12.5000   
   X56.8063      Y81.4810      R12.5000   
   X55.3392      Y82.2045      R12.5000   
   X53.7903      Y82.7303      R12.5000   
   X52.1859      Y83.0494      R12.5000   
   X50.6355      Y83.1510      R12.5000   
G1   X38.354    
   Z-1.600    
   X34.354    
   Z-3.100     F400 
   X20.472     F600 
G17 G3   X18.9214      Y83.0494      R12.5000   
   X17.3170      Y82.7303      R12.5000   
   X15.7680      Y82.2045      R12.5000   
   X14.3010      Y81.4810      R12.5000   
   X12.9408      Y80.5722      R12.5000   
   X11.7110      Y79.4936      R12.5000   
   X10.6325      Y78.2638      R12.5000   
   X9.7237       Y76.9037      R12.5000   
   X9.0002       Y75.4366      R12.5000   
   X8.4744       Y73.8876      R12.5000   
   X8.1553       Y72.2833      R12.5000   
   X8.0536       Y70.7328      R12.5000   
G1   Y50.443    
   Z-1.600    
   Y46.443    
   Z-3.100     F400 
   Y20.569     F600 
(Pass: 32)
   Z-3.200     F400 
G17 G3   X8.1553       Y19.0187      R12.5000    F600 
   X8.4744       Y17.4144      R12.5000   
   X9.0002       Y15.8654      R12.5000   
   X9.7237       Y14.3983      R12.5000   
   X10.6325      Y13.0382      R12.5000   
   X11.7110      Y11.8084      R12.5000   
   X12.9408      Y10.7298      R12.5000   
   X14.3010      Y9.8210       R12.5000   
   X15.7680      Y9.0976       R12.5000   
   X17.3170      Y8.5717       R12.5000   
   X18.9214      Y8.2526       R12.5000   
   X20.4718      Y8.1510       R12.5000   
G1   X32.595    
   Z-1.600    
   X36.595    
   Z-3.200     F400 
   X50.635     F600 
G17 G3   X52.1859      Y8.2526       R12.5000   
   X53.7903      Y8.5717       R12.5000   
   X55.3392      Y9.0976       R12.5000   
   X56.8063      Y9.8210       R12.5000   
   X58.1664      Y10.7298      R12.5000   
   X59.3963      Y11.8084      R12.5000   
   X60.4748      Y13.0382      R12.5000   
   X61.3836      Y14.3983      R12.5000   
   X62.1071      Y15.8654      R12.5000   
   X62.6329      Y17.4144      R12.5000   
   X62.9520      Y19.0187      R12.5000   
   X63.0536      Y20.5692      R12.5000   
G1   Y45.904    
   Z-1.600    
   Y49.904    
   Z-3.200     F400 
   Y70.733     F600 
G17 G3   X62.9520      Y72.2833      R12.5000   
   X62.6329      Y73.8876      R12.5000   
   X62.1071      Y75.4366      R12.5000   
   X61.3836      Y76.9037      R12.5000   
   X60.4748      Y78.2638      R12.5000   
   X59.3963      Y79.4936      R12.5000   
   X58.1664      Y80.5722      R12.5000   
   X56.8063      Y81.4810      R12.5000   
   X55.3392      Y82.2045      R12.5000   
   X53.7903      Y82.7303      R12.5000   
   X52.1859      Y83.0494      R12.5000   
   X50.6355      Y83.1510      R12.5000   
G1   X38.354    
   Z-1.600    
   X34.354    
   Z-3.200     F400 
   X20.472     F600 
G17 G3   X18.9214      Y83.0494      R12.5000   
   X17.3170      Y82.7303      R12.5000   
   X15.7680      Y82.2045      R12.5000   
   X14.3010      Y81.4810      R12.5000   
   X12.9408      Y80.5722      R12.5000   
   X11.7110      Y79.4936      R12.5000   
   X10.6325      Y78.2638      R12.5000   
   X9.7237       Y76.9037      R12.5000   
   X9.0002       Y75.4366      R12.5000   
   X8.4744       Y73.8876      R12.5000   
   X8.1553       Y72.2833      R12.5000   
   X8.0536       Y70.7328      R12.5000   
G1   Y50.443    
   Z-1.600    
   Y46.443    
   Z-3.200     F400 
   Y20.569     F600 
(Pass: 33)
   Z-3.300     F400 
G17 G3   X8.1553       Y19.0187      R12.5000    F600 
   X8.4744       Y17.4144      R12.5000   
