%
(Generated by SketchUcam {1.2b1})
(File: laser.skp)
(Bit diameter: 5.0mm)
(Feed rate: 600.0mm/min)
(Plunge Feed rate: 400.0mm/min)
(Material Thickness: 3.2mm)
(Material length: 600.0mm X width: 300.0mm)
(Overhead Gantry: true)
(Retract feed rate NOT limited to plunge feed rate)
(Multipass enabled, Depth = 0.1mm)
(Optimization is ON)
(www.PhlatBoyz.com)
(Loaded profile 5mmaluminum)
G90 G21 G49 
M3 S11000
(Group: Roof Side RailRoof Side Rail)
(Group complete: Roof Side RailRoof Side Rail)
(Group: Roof Side RailRoof Side Rail)
(Group complete: Roof Side RailRoof Side Rail)
(Group: Outside Panels)
(Group: Mechanical Panels)
(Group: Rear Panels)
(Group complete: Rear Panels)
(Group complete: Mechanical Panels)
(Group: SIde Panels)
(Group complete: SIde Panels)
(Group: Lid Front Panels)
(Group complete: Lid Front Panels)
(Group: Front Panels)
(Group complete: Front Panels)
(Group: Lid Top Panels)
(Group complete: Lid Top Panels)
(Group complete: Outside Panels)
(Group: Power Supplies)
(Group complete: Power Supplies)
(Group: Computers)
(Group complete: Computers)
(Group: Fans)
(Group complete: Fans)
G0   Z5.000     
(Pass: 1)
   X22.996       Y49.864    
(plungebore    depth=4.480         diam=5.000     )
G00   Z1.667     
G01   Z-0.100     F400 
G00   z1.667     
G01   Z-0.200    
G00   z1.667     
G01   Z-0.300    
G00   z1.667     
G01   Z-0.400    
G00   z1.667     
G01   Z-0.500    
G00   z1.667     
G01   Z-0.600    
G00   z1.667     
G01   Z-0.700    
G00   z1.667     
G01   Z-0.800    
G00   z1.667     
G01   Z-0.900    
G00   z1.667     
G01   Z-1.000    
G00   z1.667     
G01   Z-1.100    
G00   z1.667     
G01   Z-1.200    
G00   z1.667     
G01   Z-1.300    
G00   z1.667     
G01   Z-1.400    
G00   z1.667     
G01   Z-1.500    
G00   z1.667     
G01   Z-1.600    
G00   z1.667     
G01   Z-1.700    
G00   z1.667     
G01   Z-1.800    
G00   z1.667     
G01   Z-1.900    
G00   z1.667     
G01   Z-2.000    
G00   z1.667     
G01   Z-2.100    
G00   z1.667     
G01   Z-2.200    
G00   z1.667     
G01   Z-2.300    
G00   z1.667     
G01   Z-2.400    
G00   z1.667     
G01   Z-2.500    
G00   z1.667     
G01   Z-2.600    
G00   z1.667     
G01   Z-2.700    
G00   z1.667     
G01   Z-2.800    
G00   z1.667     
G01   Z-2.900    
G00   z1.667     
G01   Z-3.000    
G00   z1.667     
G01   Z-3.100    
G00   z1.667     
G01   Z-3.200    
G00   z1.667     
G01   Z-3.300    
G00   z1.667     
G01   Z-3.400    
G00   z1.667     
G01   Z-3.500    
G00   z1.667     
G01   Z-3.600    
G00   z1.667     
G01   Z-3.700    
G00   z1.667     
G01   Z-3.800    
G00   z1.667     
G01   Z-3.900    
G00   z1.667     
G01   Z-4.000    
G00   z1.667     
G01   Z-4.100    
G00   z1.667     
G01   Z-4.200    
G00   z1.667     
G01   Z-4.300    
G00   z1.667     
G01   Z-4.400    
G00   z1.667     
G01   Z-4.480    
G00   z1.667     
G00   Y49.864        Z5.000     
(plungebore end)
(BREAK pass 34)
(Pass: 1)
G0   X42.980    
(plungebore    depth=4.480         diam=5.000     )
G00   Z1.667     
G01   Z-0.100     F400 
G00   z1.667     
G01   Z-0.200    
G00   z1.667     
G01   Z-0.300    
G00   z1.667     
G01   Z-0.400    
G00   z1.667     
G01   Z-0.500    
G00   z1.667     
G01   Z-0.600    
G00   z1.667     
G01   Z-0.700    
G00   z1.667     
G01   Z-0.800    
G00   z1.667     
G01   Z-0.900    
G00   z1.667     
G01   Z-1.000    
G00   z1.667     
G01   Z-1.100    
G00   z1.667     
G01   Z-1.200    
G00   z1.667     
G01   Z-1.300    
G00   z1.667     
G01   Z-1.400    
G00   z1.667     
G01   Z-1.500    
G00   z1.667     
G01   Z-1.600    
G00   z1.667     
G01   Z-1.700    
G00   z1.667     
G01   Z-1.800    
G00   z1.667     
G01   Z-1.900    
G00   z1.667     
G01   Z-2.000    
G00   z1.667     
G01   Z-2.100    
G00   z1.667     
G01   Z-2.200    
G00   z1.667     
G01   Z-2.300    
G00   z1.667     
G01   Z-2.400    
G00   z1.667     
G01   Z-2.500    
G00   z1.667     
G01   Z-2.600    
G00   z1.667     
G01   Z-2.700    
G00   z1.667     
G01   Z-2.800    
G00   z1.667     
G01   Z-2.900    
G00   z1.667     
G01   Z-3.000    
G00   z1.667     
G01   Z-3.100    
G00   z1.667     
G01   Z-3.200    
G00   z1.667     
G01   Z-3.300    
G00   z1.667     
G01   Z-3.400    
G00   z1.667     
G01   Z-3.500    
G00   z1.667     
G01   Z-3.600    
G00   z1.667     
G01   Z-3.700    
G00   z1.667     
G01   Z-3.800    
G00   z1.667     
G01   Z-3.900    
G00   z1.667     
G01   Z-4.000    
G00   z1.667     
G01   Z-4.100    
G00   z1.667     
G01   Z-4.200    
G00   z1.667     
G01   Z-4.300    
G00   z1.667     
G01   Z-4.400    
G00   z1.667     
G01   Z-4.480    
G00   z1.667     
G00   Y49.864        Z5.000     
(plungebore end)
(BREAK pass 34)
(Group: _diam_7.1mm)
(Pass: 1)
G0   X17.129       Y68.036    
(plungebore    depth=4.480         diam=7.100     )
G00   Z1.667     
G01   Z-0.100     F400 
G00   z1.667     
G01   Z-0.200    
G00   z1.667     
G01   Z-0.300    
G00   z1.667     
G01   Z-0.400    
G00   z1.667     
G01   Z-0.500    
G00   z1.667     
G01   Z-0.600    
G00   z1.667     
G01   Z-0.700    
G00   z1.667     
G01   Z-0.800    
G00   z1.667     
G01   Z-0.900    
G00   z1.667     
G01   Z-1.000    
G00   z1.667     
G01   Z-1.100    
G00   z1.667     
G01   Z-1.200    
G00   z1.667     
G01   Z-1.300    
G00   z1.667     
G01   Z-1.400    
G00   z1.667     
G01   Z-1.500    
G00   z1.667     
G01   Z-1.600    
G00   z1.667     
G01   Z-1.700    
G00   z1.667     
G01   Z-1.800    
G00   z1.667     
G01   Z-1.900    
G00   z1.667     
G01   Z-2.000    
G00   z1.667     
G01   Z-2.100    
G00   z1.667     
G01   Z-2.200    
G00   z1.667     
G01   Z-2.300    
G00   z1.667     
G01   Z-2.400    
G00   z1.667     
G01   Z-2.500    
G00   z1.667     
G01   Z-2.600    
G00   z1.667     
G01   Z-2.700    
G00   z1.667     
G01   Z-2.800    
G00   z1.667     
G01   Z-2.900    
G00   z1.667     
G01   Z-3.000    
G00   z1.667     
G01   Z-3.100    
G00   z1.667     
G01   Z-3.200    
G00   z1.667     
G01   Z-3.300    
G00   z1.667     
G01   Z-3.400    
G00   z1.667     
G01   Z-3.500    
G00   z1.667     
G01   Z-3.600    
G00   z1.667     
G01   Z-3.700    
G00   z1.667     
G01   Z-3.800    
G00   z1.667     
G01   Z-3.900    
G00   z1.667     
G01   Z-4.000    
G00   z1.667     
G01   Z-4.100    
G00   z1.667     
G01   Z-4.200    
G00   z1.667     
G01   Z-4.300    
G00   z1.667     
G01   Z-4.400    
G00   z1.667     
G01   Z-4.480    
G00   z1.667     
G00   Y66.9860   
G01    Z0.0000     F600 
G02     X17.1293       Y66.9860       Z-0.1000    I0    J1.0500    
G02     X17.1293       Y66.9860       Z-0.2000    I0    J1.0500    
G02     X17.1293       Y66.9860       Z-0.3000    I0    J1.0500    
G02     X17.1293       Y66.9860       Z-0.4000    I0    J1.0500    
G02     X17.1293       Y66.9860       Z-0.5000    I0    J1.0500    
G02     X17.1293       Y66.9860       Z-0.6000    I0    J1.0500    
G02     X17.1293       Y66.9860       Z-0.7000    I0    J1.0500    
G02     X17.1293       Y66.9860       Z-0.8000    I0    J1.0500    
G02     X17.1293       Y66.9860       Z-0.9000    I0    J1.0500    
G02     X17.1293       Y66.9860       Z-1.0000    I0    J1.0500    
G02     X17.1293       Y66.9860       Z-1.1000    I0    J1.0500    
G02     X17.1293       Y66.9860       Z-1.2000    I0    J1.0500    
G02     X17.1293       Y66.9860       Z-1.3000    I0    J1.0500    
G02     X17.1293       Y66.9860       Z-1.4000    I0    J1.0500    
G02     X17.1293       Y66.9860       Z-1.5000    I0    J1.0500    
G02     X17.1293       Y66.9860       Z-1.6000    I0    J1.0500    
G02     X17.1293       Y66.9860       Z-1.7000    I0    J1.0500    
G02     X17.1293       Y66.9860       Z-1.8000    I0    J1.0500    
G02     X17.1293       Y66.9860       Z-1.9000    I0    J1.0500    
G02     X17.1293       Y66.9860       Z-2.0000    I0    J1.0500    
G02     X17.1293       Y66.9860       Z-2.1000    I0    J1.0500    
G02     X17.1293       Y66.9860       Z-2.2000    I0    J1.0500    
G02     X17.1293       Y66.9860       Z-2.3000    I0    J1.0500    
G02     X17.1293       Y66.9860       Z-2.4000    I0    J1.0500    
G02     X17.1293       Y66.9860       Z-2.5000    I0    J1.0500    
G02     X17.1293       Y66.9860       Z-2.6000    I0    J1.0500    
G02     X17.1293       Y66.9860       Z-2.7000    I0    J1.0500    
G02     X17.1293       Y66.9860       Z-2.8000    I0    J1.0500    
G02     X17.1293       Y66.9860       Z-2.9000    I0    J1.0500    
G02     X17.1293       Y66.9860       Z-3.0000    I0    J1.0500    
G02     X17.1293       Y66.9860       Z-3.1000    I0    J1.0500    
G02     X17.1293       Y66.9860       Z-3.2000    I0    J1.0500    
G02     X17.1293       Y66.9860       Z-3.3000    I0    J1.0500    
G02     X17.1293       Y66.9860       Z-3.4000    I0    J1.0500    
G02     X17.1293       Y66.9860       Z-3.5000    I0    J1.0500    
G02     X17.1293       Y66.9860       Z-3.6000    I0    J1.0500    
G02     X17.1293       Y66.9860       Z-3.7000    I0    J1.0500    
G02     X17.1293       Y66.9860       Z-3.8000    I0    J1.0500    
G02     X17.1293       Y66.9860       Z-4.4800    I0    J1.0500    
G02     X17.1293       Y66.9860    I0.0    J1.0500    
G00   Y68.036        Z5.000     
(plungebore end)
(BREAK pass 34)
(Group complete: _diam_7.1mm)
(Group: _diam_7.1mm)
(Pass: 1)
G0   X49.052    
(plungebore    depth=4.480         diam=7.100     )
G00   Z1.667     
G01   Z-0.100     F400 
G00   z1.667     
G01   Z-0.200    
G00   z1.667     
G01   Z-0.300    
G00   z1.667     
G01   Z-0.400    
G00   z1.667     
G01   Z-0.500    
G00   z1.667     
G01   Z-0.600    
G00   z1.667     
G01   Z-0.700    
G00   z1.667     
G01   Z-0.800    
G00   z1.667     
G01   Z-0.900    
G00   z1.667     
G01   Z-1.000    
G00   z1.667     
G01   Z-1.100    
G00   z1.667     
G01   Z-1.200    
G00   z1.667     
G01   Z-1.300    
G00   z1.667     
G01   Z-1.400    
G00   z1.667     
G01   Z-1.500    
G00   z1.667     
G01   Z-1.600    
G00   z1.667     
G01   Z-1.700    
G00   z1.667     
G01   Z-1.800    
G00   z1.667     
G01   Z-1.900    
G00   z1.667     
G01   Z-2.000    
G00   z1.667     
G01   Z-2.100    
G00   z1.667     
G01   Z-2.200    
G00   z1.667     
G01   Z-2.300    
G00   z1.667     
G01   Z-2.400    
G00   z1.667     
G01   Z-2.500    
G00   z1.667     
G01   Z-2.600    
G00   z1.667     
G01   Z-2.700    
G00   z1.667     
G01   Z-2.800    
G00   z1.667     
G01   Z-2.900    
G00   z1.667     
G01   Z-3.000    
G00   z1.667     
G01   Z-3.100    
G00   z1.667     
G01   Z-3.200    
G00   z1.667     
G01   Z-3.300    
G00   z1.667     
G01   Z-3.400    
G00   z1.667     
G01   Z-3.500    
G00   z1.667     
G01   Z-3.600    
G00   z1.667     
G01   Z-3.700    
G00   z1.667     
G01   Z-3.800    
G00   z1.667     
G01   Z-3.900    
G00   z1.667     
G01   Z-4.000    
G00   z1.667     
G01   Z-4.100    
G00   z1.667     
G01   Z-4.200    
G00   z1.667     
G01   Z-4.300    
G00   z1.667     
G01   Z-4.400    
G00   z1.667     
G01   Z-4.480    
G00   z1.667     
G00   Y66.9860   
G01    Z0.0000     F600 
G02     X49.0518       Y66.9860       Z-0.1000    I0    J1.0500    
G02     X49.0518       Y66.9860       Z-0.2000    I0    J1.0500    
G02     X49.0518       Y66.9860       Z-0.3000    I0    J1.0500    
G02     X49.0518       Y66.9860       Z-0.4000    I0    J1.0500    
G02     X49.0518       Y66.9860       Z-0.5000    I0    J1.0500    
G02     X49.0518       Y66.9860       Z-0.6000    I0    J1.0500    
G02     X49.0518       Y66.9860       Z-0.7000    I0    J1.0500    
G02     X49.0518       Y66.9860       Z-0.8000    I0    J1.0500    
G02     X49.0518       Y66.9860       Z-0.9000    I0    J1.0500    
G02     X49.0518       Y66.9860       Z-1.0000    I0    J1.0500    
G02     X49.0518       Y66.9860       Z-1.1000    I0    J1.0500    
G02     X49.0518       Y66.9860       Z-1.2000    I0    J1.0500    
G02     X49.0518       Y66.9860       Z-1.3000    I0    J1.0500    
G02     X49.0518       Y66.9860       Z-1.4000    I0    J1.0500    
G02     X49.0518       Y66.9860       Z-1.5000    I0    J1.0500    
G02     X49.0518       Y66.9860       Z-1.6000    I0    J1.0500    
G02     X49.0518       Y66.9860       Z-1.7000    I0    J1.0500    
G02     X49.0518       Y66.9860       Z-1.8000    I0    J1.0500    
G02     X49.0518       Y66.9860       Z-1.9000    I0    J1.0500    
G02     X49.0518       Y66.9860       Z-2.0000    I0    J1.0500    
G02     X49.0518       Y66.9860       Z-2.1000    I0    J1.0500    
G02     X49.0518       Y66.9860       Z-2.2000    I0    J1.0500    
G02     X49.0518       Y66.9860       Z-2.3000    I0    J1.0500    
G02     X49.0518       Y66.9860       Z-2.4000    I0    J1.0500    
G02     X49.0518       Y66.9860       Z-2.5000    I0    J1.0500    
G02     X49.0518       Y66.9860       Z-2.6000    I0    J1.0500    
G02     X49.0518       Y66.9860       Z-2.7000    I0    J1.0500    
G02     X49.0518       Y66.9860       Z-2.8000    I0    J1.0500    
G02     X49.0518       Y66.9860       Z-2.9000    I0    J1.0500    
G02     X49.0518       Y66.9860       Z-3.0000    I0    J1.0500    
G02     X49.0518       Y66.9860       Z-3.1000    I0    J1.0500    
G02     X49.0518       Y66.9860       Z-3.2000    I0    J1.0500    
G02     X49.0518       Y66.9860       Z-3.3000    I0    J1.0500    
G02     X49.0518       Y66.9860       Z-3.4000    I0    J1.0500    
G02     X49.0518       Y66.9860       Z-3.5000    I0    J1.0500    
G02     X49.0518       Y66.9860       Z-3.6000    I0    J1.0500    
G02     X49.0518       Y66.9860       Z-3.7000    I0    J1.0500    
G02     X49.0518       Y66.9860       Z-3.8000    I0    J1.0500    
G02     X49.0518       Y66.9860       Z-4.4800    I0    J1.0500    
G02     X49.0518       Y66.9860    I0.0    J1.0500    
G00   Y68.036        Z5.000     
(plungebore end)
(BREAK pass 34)
(Group complete: _diam_7.1mm)
(Group: _diam_7.1mm)
(Pass: 1)
G0   Y18.114    
(plungebore    depth=4.480         diam=7.100     )
G00   Z1.667     
G01   Z-0.100     F400 
G00   z1.667     
G01   Z-0.200    
G00   z1.667     
G01   Z-0.300    
G00   z1.667     
G01   Z-0.400    
G00   z1.667     
G01   Z-0.500    
G00   z1.667     
G01   Z-0.600    
G00   z1.667     
G01   Z-0.700    
G00   z1.667     
G01   Z-0.800    
G00   z1.667     
G01   Z-0.900    
G00   z1.667     
G01   Z-1.000    
G00   z1.667     
G01   Z-1.100    
G00   z1.667     
G01   Z-1.200    
G00   z1.667     
G01   Z-1.300    
G00   z1.667     
G01   Z-1.400    
G00   z1.667     
G01   Z-1.500    
G00   z1.667     
G01   Z-1.600    
G00   z1.667     
G01   Z-1.700    
G00   z1.667     
G01   Z-1.800    
G00   z1.667     
G01   Z-1.900    
G00   z1.667     
G01   Z-2.000    
G00   z1.667     
G01   Z-2.100    
G00   z1.667     
G01   Z-2.200    
G00   z1.667     
G01   Z-2.300    
G00   z1.667     
G01   Z-2.400    
G00   z1.667     
G01   Z-2.500    
G00   z1.667     
G01   Z-2.600    
G00   z1.667     
G01   Z-2.700    
G00   z1.667     
G01   Z-2.800    
G00   z1.667     
G01   Z-2.900    
G00   z1.667     
G01   Z-3.000    
G00   z1.667     
G01   Z-3.100    
G00   z1.667     
G01   Z-3.200    
G00   z1.667     
G01   Z-3.300    
G00   z1.667     
G01   Z-3.400    
G00   z1.667     
G01   Z-3.500    
G00   z1.667     
G01   Z-3.600    
G00   z1.667     
G01   Z-3.700    
G00   z1.667     
G01   Z-3.800    
G00   z1.667     
G01   Z-3.900    
G00   z1.667     
G01   Z-4.000    
G00   z1.667     
G01   Z-4.100    
G00   z1.667     
G01   Z-4.200    
G00   z1.667     
G01   Z-4.300    
G00   z1.667     
G01   Z-4.400    
G00   z1.667     
G01   Z-4.480    
G00   z1.667     
G00   Y17.0644   
G01    Z0.0000     F600 
G02     X49.0508       Y17.0644       Z-0.1000    I0    J1.0500    
G02     X49.0508       Y17.0644       Z-0.2000    I0    J1.0500    
G02     X49.0508       Y17.0644       Z-0.3000    I0    J1.0500    
G02     X49.0508       Y17.0644       Z-0.4000    I0    J1.0500    
G02     X49.0508       Y17.0644       Z-0.5000    I0    J1.0500    
G02     X49.0508       Y17.0644       Z-0.6000    I0    J1.0500    
G02     X49.0508       Y17.0644       Z-0.7000    I0    J1.0500    
G02     X49.0508       Y17.0644       Z-0.8000    I0    J1.0500    
G02     X49.0508       Y17.0644       Z-0.9000    I0    J1.0500    
G02     X49.0508       Y17.0644       Z-1.0000    I0    J1.0500    
G02     X49.0508       Y17.0644       Z-1.1000    I0    J1.0500    
G02     X49.0508       Y17.0644       Z-1.2000    I0    J1.0500    
G02     X49.0508       Y17.0644       Z-1.3000    I0    J1.0500    
G02     X49.0508       Y17.0644       Z-1.4000    I0    J1.0500    
G02     X49.0508       Y17.0644       Z-1.5000    I0    J1.0500    
G02     X49.0508       Y17.0644       Z-1.6000    I0    J1.0500    
G02     X49.0508       Y17.0644       Z-1.7000    I0    J1.0500    
G02     X49.0508       Y17.0644       Z-1.8000    I0    J1.0500    
G02     X49.0508       Y17.0644       Z-1.9000    I0    J1.0500    
G02     X49.0508       Y17.0644       Z-2.0000    I0    J1.0500    
G02     X49.0508       Y17.0644       Z-2.1000    I0    J1.0500    
G02     X49.0508       Y17.0644       Z-2.2000    I0    J1.0500    
G02     X49.0508       Y17.0644       Z-2.3000    I0    J1.0500    
G02     X49.0508       Y17.0644       Z-2.4000    I0    J1.0500    
G02     X49.0508       Y17.0644       Z-2.5000    I0    J1.0500    
G02     X49.0508       Y17.0644       Z-2.6000    I0    J1.0500    
G02     X49.0508       Y17.0644       Z-2.7000    I0    J1.0500    
G02     X49.0508       Y17.0644       Z-2.8000    I0    J1.0500    
G02     X49.0508       Y17.0644       Z-2.9000    I0    J1.0500    
G02     X49.0508       Y17.0644       Z-3.0000    I0    J1.0500    
G02     X49.0508       Y17.0644       Z-3.1000    I0    J1.0500    
G02     X49.0508       Y17.0644       Z-3.2000    I0    J1.0500    
G02     X49.0508       Y17.0644       Z-3.3000    I0    J1.0500    
G02     X49.0508       Y17.0644       Z-3.4000    I0    J1.0500    
G02     X49.0508       Y17.0644       Z-3.5000    I0    J1.0500    
G02     X49.0508       Y17.0644       Z-3.6000    I0    J1.0500    
G02     X49.0508       Y17.0644       Z-3.7000    I0    J1.0500    
G02     X49.0508       Y17.0644       Z-3.8000    I0    J1.0500    
G02     X49.0508       Y17.0644       Z-4.4800    I0    J1.0500    
G02     X49.0508       Y17.0644    I0.0    J1.0500    
G00   Y18.114        Z5.000     
(plungebore end)
(BREAK pass 34)
(Group complete: _diam_7.1mm)
(Group: _diam_7.1mm)
(Pass: 1)
G0   X17.129       Y18.021    
(plungebore    depth=4.480         diam=7.100     )
G00   Z1.667     
G01   Z-0.100     F400 
G00   z1.667     
G01   Z-0.200    
G00   z1.667     
G01   Z-0.300    
G00   z1.667     
G01   Z-0.400    
G00   z1.667     
G01   Z-0.500    
G00   z1.667     
G01   Z-0.600    
G00   z1.667     
G01   Z-0.700    
G00   z1.667     
G01   Z-0.800    
G00   z1.667     
G01   Z-0.900    
G00   z1.667     
G01   Z-1.000    
G00   z1.667     
G01   Z-1.100    
G00   z1.667     
G01   Z-1.200    
G00   z1.667     
G01   Z-1.300    
G00   z1.667     
G01   Z-1.400    
G00   z1.667     
G01   Z-1.500    
G00   z1.667     
G01   Z-1.600    
G00   z1.667     
G01   Z-1.700    
G00   z1.667     
G01   Z-1.800    
G00   z1.667     
G01   Z-1.900    
G00   z1.667     
G01   Z-2.000    
G00   z1.667     
G01   Z-2.100    
G00   z1.667     
G01   Z-2.200    
G00   z1.667     
G01   Z-2.300    
G00   z1.667     
G01   Z-2.400    
G00   z1.667     
G01   Z-2.500    
G00   z1.667     
G01   Z-2.600    
G00   z1.667     
G01   Z-2.700    
G00   z1.667     
G01   Z-2.800    
G00   z1.667     
G01   Z-2.900    
G00   z1.667     
G01   Z-3.000    
G00   z1.667     
G01   Z-3.100    
G00   z1.667     
G01   Z-3.200    
G00   z1.667     
G01   Z-3.300    
G00   z1.667     
G01   Z-3.400    
G00   z1.667     
G01   Z-3.500    
G00   z1.667     
G01   Z-3.600    
G00   z1.667     
G01   Z-3.700    
G00   z1.667     
G01   Z-3.800    
G00   z1.667     
G01   Z-3.900    
G00   z1.667     
G01   Z-4.000    
G00   z1.667     
G01   Z-4.100    
G00   z1.667     
G01   Z-4.200    
G00   z1.667     
G01   Z-4.300    
G00   z1.667     
G01   Z-4.400    
G00   z1.667     
G01   Z-4.480    
G00   z1.667     
G00   Y16.9714   
G01    Z0.0000     F600 
G02     X17.1293       Y16.9714       Z-0.1000    I0    J1.0500    
G02     X17.1293       Y16.9714       Z-0.2000    I0    J1.0500    
G02     X17.1293       Y16.9714       Z-0.3000    I0    J1.0500    
G02     X17.1293       Y16.9714       Z-0.4000    I0    J1.0500    
G02     X17.1293       Y16.9714       Z-0.5000    I0    J1.0500    
G02     X17.1293       Y16.9714       Z-0.6000    I0    J1.0500    
G02     X17.1293       Y16.9714       Z-0.7000    I0    J1.0500    
G02     X17.1293       Y16.9714       Z-0.8000    I0    J1.0500    
G02     X17.1293       Y16.9714       Z-0.9000    I0    J1.0500    
G02     X17.1293       Y16.9714       Z-1.0000    I0    J1.0500    
G02     X17.1293       Y16.9714       Z-1.1000    I0    J1.0500    
G02     X17.1293       Y16.9714       Z-1.2000    I0    J1.0500    
G02     X17.1293       Y16.9714       Z-1.3000    I0    J1.0500    
G02     X17.1293       Y16.9714       Z-1.4000    I0    J1.0500    
G02     X17.1293       Y16.9714       Z-1.5000    I0    J1.0500    
G02     X17.1293       Y16.9714       Z-1.6000    I0    J1.0500    
G02     X17.1293       Y16.9714       Z-1.7000    I0    J1.0500    
G02     X17.1293       Y16.9714       Z-1.8000    I0    J1.0500    
G02     X17.1293       Y16.9714       Z-1.9000    I0    J1.0500    
G02     X17.1293       Y16.9714       Z-2.0000    I0    J1.0500    
G02     X17.1293       Y16.9714       Z-2.1000    I0    J1.0500    
G02     X17.1293       Y16.9714       Z-2.2000    I0    J1.0500    
G02     X17.1293       Y16.9714       Z-2.3000    I0    J1.0500    
G02     X17.1293       Y16.9714       Z-2.4000    I0    J1.0500    
G02     X17.1293       Y16.9714       Z-2.5000    I0    J1.0500    
G02     X17.1293       Y16.9714       Z-2.6000    I0    J1.0500    
G02     X17.1293       Y16.9714       Z-2.7000    I0    J1.0500    
G02     X17.1293       Y16.9714       Z-2.8000    I0    J1.0500    
G02     X17.1293       Y16.9714       Z-2.9000    I0    J1.0500    
G02     X17.1293       Y16.9714       Z-3.0000    I0    J1.0500    
G02     X17.1293       Y16.9714       Z-3.1000    I0    J1.0500    
G02     X17.1293       Y16.9714       Z-3.2000    I0    J1.0500    
G02     X17.1293       Y16.9714       Z-3.3000    I0    J1.0500    
G02     X17.1293       Y16.9714       Z-3.4000    I0    J1.0500    
G02     X17.1293       Y16.9714       Z-3.5000    I0    J1.0500    
G02     X17.1293       Y16.9714       Z-3.6000    I0    J1.0500    
G02     X17.1293       Y16.9714       Z-3.7000    I0    J1.0500    
G02     X17.1293       Y16.9714       Z-3.8000    I0    J1.0500    
G02     X17.1293       Y16.9714       Z-4.4800    I0    J1.0500    
G02     X17.1293       Y16.9714    I0.0    J1.0500    
G00   Y18.021        Z5.000     
(plungebore end)
(BREAK pass 34)
(Group complete: _diam_7.1mm)
(Pass: 1)
(plungebore    depth=4.480         diam=5.000     )
G00   Z1.667     
G01   Z-0.100     F400 
G00   z1.667     
G01   Z-0.200    
G00   z1.667     
G01   Z-0.300    
G00   z1.667     
G01   Z-0.400    
G00   z1.667     
G01   Z-0.500    
G00   z1.667     
G01   Z-0.600    
G00   z1.667     
G01   Z-0.700    
G00   z1.667     
G01   Z-0.800    
G00   z1.667     
G01   Z-0.900    
G00   z1.667     
G01   Z-1.000    
G00   z1.667     
G01   Z-1.100    
G00   z1.667     
G01   Z-1.200    
G00   z1.667     
G01   Z-1.300    
G00   z1.667     
G01   Z-1.400    
G00   z1.667     
G01   Z-1.500    
G00   z1.667     
G01   Z-1.600    
G00   z1.667     
G01   Z-1.700    
G00   z1.667     
G01   Z-1.800    
G00   z1.667     
G01   Z-1.900    
G00   z1.667     
G01   Z-2.000    
G00   z1.667     
G01   Z-2.100    
G00   z1.667     
G01   Z-2.200    
G00   z1.667     
G01   Z-2.300    
G00   z1.667     
G01   Z-2.400    
G00   z1.667     
G01   Z-2.500    
G00   z1.667     
G01   Z-2.600    
G00   z1.667     
G01   Z-2.700    
G00   z1.667     
G01   Z-2.800    
G00   z1.667     
G01   Z-2.900    
G00   z1.667     
G01   Z-3.000    
G00   z1.667     
G01   Z-3.100    
G00   z1.667     
G01   Z-3.200    
G00   z1.667     
G01   Z-3.300    
G00   z1.667     
G01   Z-3.400    
G00   z1.667     
G01   Z-3.500    
G00   z1.667     
G01   Z-3.600    
G00   z1.667     
G01   Z-3.700    
G00   z1.667     
G01   Z-3.800    
G00   z1.667     
G01   Z-3.900    
G00   z1.667     
G01   Z-4.000    
G00   z1.667     
G01   Z-4.100    
G00   z1.667     
G01   Z-4.200    
G00   z1.667     
G01   Z-4.300    
G00   z1.667     
G01   Z-4.400    
G00   z1.667     
G01   Z-4.480    
G00   z1.667     
G00   Y18.021        Z5.000     
(plungebore end)
(BREAK pass 34)
(Pass: 1)
G0   X5.579        Y17.954    
G1   Z-0.100     F400 
G17 G3   X5.6809       Y16.4037      R12.5000    F600 
   X6.0000       Y14.7994      R12.5000   
   X6.5258       Y13.2504      R12.5000   
   X7.2493       Y11.7833      R12.5000   
   X8.1581       Y10.4232      R12.5000   
   X9.2367       Y9.1934       R12.5000   
   X10.4665      Y8.1148       R12.5000   
   X11.8266      Y7.2061       R12.5000   
   X13.2937      Y6.4826       R12.5000   
   X14.8427      Y5.9568       R12.5000   
   X16.4470      Y5.6376       R12.5000   
   X17.9975      Y5.5360       R12.5000   
G1   X48.161    
G17 G3   X49.7116      Y5.6376       R12.5000   
   X51.3159      Y5.9568       R12.5000   
   X52.8649      Y6.4826       R12.5000   
   X54.3320      Y7.2061       R12.5000   
   X55.6921      Y8.1148       R12.5000   
   X56.9219      Y9.1934       R12.5000   
   X58.0005      Y10.4232      R12.5000   
   X58.9093      Y11.7833      R12.5000   
   X59.6327      Y13.2504      R12.5000   
   X60.1585      Y14.7994      R12.5000   
   X60.4777      Y16.4037      R12.5000   
   X60.5793      Y17.9542      R12.5000   
G1   Y68.118    
G17 G3   X60.4777      Y69.6683      R12.5000   
   X60.1585      Y71.2726      R12.5000   
   X59.6327      Y72.8216      R12.5000   
   X58.9093      Y74.2887      R12.5000   
   X58.0005      Y75.6488      R12.5000   
   X56.9219      Y76.8786      R12.5000   
   X55.6921      Y77.9572      R12.5000   
   X54.3320      Y78.8660      R12.5000   
   X52.8649      Y79.5895      R12.5000   
   X51.3159      Y80.1153      R12.5000   
   X49.7116      Y80.4344      R12.5000   
   X48.1611      Y80.5360      R12.5000   
G1   X17.997    
G17 G3   X17.3642      Y80.4945      R12.5000   
   X16.4470      Y80.4344      R12.5000   
   X14.8427      Y80.1153      R12.5000   
   X13.2937      Y79.5895      R12.5000   
   X11.8266      Y78.8660      R12.5000   
   X10.4665      Y77.9572      R12.5000   
   X9.2367       Y76.8786      R12.5000   
   X8.1581       Y75.6488      R12.5000   
   X7.2493       Y74.2887      R12.5000   
   X6.5258       Y72.8216      R12.5000   
   X6.0000       Y71.2726      R12.5000   
   X5.6809       Y69.6683      R12.5000   
   X5.5793       Y68.1179      R12.5000   
G1   Y17.954    
(Pass: 2)
   Z-0.200     F400 
G17 G3   X5.6809       Y16.4037      R12.5000    F600 
   X6.0000       Y14.7994      R12.5000   
   X6.5258       Y13.2504      R12.5000   
   X7.2493       Y11.7833      R12.5000   
   X8.1581       Y10.4232      R12.5000   
   X9.2367       Y9.1934       R12.5000   
   X10.4665      Y8.1148       R12.5000   
   X11.8266      Y7.2061       R12.5000   
   X13.2937      Y6.4826       R12.5000   
   X14.8427      Y5.9568       R12.5000   
   X16.4470      Y5.6376       R12.5000   
   X17.9975      Y5.5360       R12.5000   
G1   X48.161    
G17 G3   X49.7116      Y5.6376       R12.5000   
   X51.3159      Y5.9568       R12.5000   
   X52.8649      Y6.4826       R12.5000   
   X54.3320      Y7.2061       R12.5000   
   X55.6921      Y8.1148       R12.5000   
   X56.9219      Y9.1934       R12.5000   
   X58.0005      Y10.4232      R12.5000   
   X58.9093      Y11.7833      R12.5000   
   X59.6327      Y13.2504      R12.5000   
   X60.1585      Y14.7994      R12.5000   
   X60.4777      Y16.4037      R12.5000   
   X60.5793      Y17.9542      R12.5000   
G1   Y68.118    
G17 G3   X60.4777      Y69.6683      R12.5000   
   X60.1585      Y71.2726      R12.5000   
   X59.6327      Y72.8216      R12.5000   
   X58.9093      Y74.2887      R12.5000   
   X58.0005      Y75.6488      R12.5000   
   X56.9219      Y76.8786      R12.5000   
   X55.6921      Y77.9572      R12.5000   
   X54.3320      Y78.8660      R12.5000   
   X52.8649      Y79.5895      R12.5000   
   X51.3159      Y80.1153      R12.5000   
   X49.7116      Y80.4344      R12.5000   
   X48.1611      Y80.5360      R12.5000   
G1   X17.997    
G17 G3   X17.3642      Y80.4945      R12.5000   
   X16.4470      Y80.4344      R12.5000   
   X14.8427      Y80.1153      R12.5000   
   X13.2937      Y79.5895      R12.5000   
   X11.8266      Y78.8660      R12.5000   
   X10.4665      Y77.9572      R12.5000   
   X9.2367       Y76.8786      R12.5000   
   X8.1581       Y75.6488      R12.5000   
   X7.2493       Y74.2887      R12.5000   
   X6.5258       Y72.8216      R12.5000   
   X6.0000       Y71.2726      R12.5000   
   X5.6809       Y69.6683      R12.5000   
   X5.5793       Y68.1179      R12.5000   
G1   Y17.954    
(Pass: 3)
   Z-0.300     F400 
G17 G3   X5.6809       Y16.4037      R12.5000    F600 
   X6.0000       Y14.7994      R12.5000   
   X6.5258       Y13.2504      R12.5000   
   X7.2493       Y11.7833      R12.5000   
   X8.1581       Y10.4232      R12.5000   
   X9.2367       Y9.1934       R12.5000   
   X10.4665      Y8.1148       R12.5000   
   X11.8266      Y7.2061       R12.5000   
   X13.2937      Y6.4826       R12.5000   
   X14.8427      Y5.9568       R12.5000   
   X16.4470      Y5.6376       R12.5000   
   X17.9975      Y5.5360       R12.5000   
G1   X48.161    
G17 G3   X49.7116      Y5.6376       R12.5000   
   X51.3159      Y5.9568       R12.5000   
   X52.8649      Y6.4826       R12.5000   
   X54.3320      Y7.2061       R12.5000   
   X55.6921      Y8.1148       R12.5000   
   X56.9219      Y9.1934       R12.5000   
   X58.0005      Y10.4232      R12.5000   
   X58.9093      Y11.7833      R12.5000   
   X59.6327      Y13.2504      R12.5000   
   X60.1585      Y14.7994      R12.5000   
   X60.4777      Y16.4037      R12.5000   
   X60.5793      Y17.9542      R12.5000   
G1   Y68.118    
G17 G3   X60.4777      Y69.6683      R12.5000   
   X60.1585      Y71.2726      R12.5000   
   X59.6327      Y72.8216      R12.5000   
   X58.9093      Y74.2887      R12.5000   
   X58.0005      Y75.6488      R12.5000   
   X56.9219      Y76.8786      R12.5000   
   X55.6921      Y77.9572      R12.5000   
   X54.3320      Y78.8660      R12.5000   
   X52.8649      Y79.5895      R12.5000   
   X51.3159      Y80.1153      R12.5000   
   X49.7116      Y80.4344      R12.5000   
   X48.1611      Y80.5360      R12.5000   
G1   X17.997    
G17 G3   X17.3642      Y80.4945      R12.5000   
   X16.4470      Y80.4344      R12.5000   
   X14.8427      Y80.1153      R12.5000   
   X13.2937      Y79.5895      R12.5000   
   X11.8266      Y78.8660      R12.5000   
   X10.4665      Y77.9572      R12.5000   
   X9.2367       Y76.8786      R12.5000   
   X8.1581       Y75.6488      R12.5000   
   X7.2493       Y74.2887      R12.5000   
   X6.5258       Y72.8216      R12.5000   
   X6.0000       Y71.2726      R12.5000   
   X5.6809       Y69.6683      R12.5000   
   X5.5793       Y68.1179      R12.5000   
G1   Y17.954    
(Pass: 4)
   Z-0.400     F400 
G17 G3   X5.6809       Y16.4037      R12.5000    F600 
   X6.0000       Y14.7994      R12.5000   
   X6.5258       Y13.2504      R12.5000   
   X7.2493       Y11.7833      R12.5000   
   X8.1581       Y10.4232      R12.5000   
   X9.2367       Y9.1934       R12.5000   
   X10.4665      Y8.1148       R12.5000   
   X11.8266      Y7.2061       R12.5000   
   X13.2937      Y6.4826       R12.5000   
   X14.8427      Y5.9568       R12.5000   
   X16.4470      Y5.6376       R12.5000   
   X17.9975      Y5.5360       R12.5000   
G1   X48.161    
G17 G3   X49.7116      Y5.6376       R12.5000   
   X51.3159      Y5.9568       R12.5000   
   X52.8649      Y6.4826       R12.5000   
   X54.3320      Y7.2061       R12.5000   
   X55.6921      Y8.1148       R12.5000   
   X56.9219      Y9.1934       R12.5000   
   X58.0005      Y10.4232      R12.5000   
   X58.9093      Y11.7833      R12.5000   
   X59.6327      Y13.2504      R12.5000   
   X60.1585      Y14.7994      R12.5000   
   X60.4777      Y16.4037      R12.5000   
   X60.5793      Y17.9542      R12.5000   
G1   Y68.118    
G17 G3   X60.4777      Y69.6683      R12.5000   
   X60.1585      Y71.2726      R12.5000   
   X59.6327      Y72.8216      R12.5000   
   X58.9093      Y74.2887      R12.5000   
   X58.0005      Y75.6488      R12.5000   
   X56.9219      Y76.8786      R12.5000   
   X55.6921      Y77.9572      R12.5000   
   X54.3320      Y78.8660      R12.5000   
   X52.8649      Y79.5895      R12.5000   
   X51.3159      Y80.1153      R12.5000   
   X49.7116      Y80.4344      R12.5000   
   X48.1611      Y80.5360      R12.5000   
G1   X17.997    
G17 G3   X17.3642      Y80.4945      R12.5000   
   X16.4470      Y80.4344      R12.5000   
   X14.8427      Y80.1153      R12.5000   
   X13.2937      Y79.5895      R12.5000   
   X11.8266      Y78.8660      R12.5000   
   X10.4665      Y77.9572      R12.5000   
   X9.2367       Y76.8786      R12.5000   
   X8.1581       Y75.6488      R12.5000   
   X7.2493       Y74.2887      R12.5000   
   X6.5258       Y72.8216      R12.5000   
   X6.0000       Y71.2726      R12.5000   
   X5.6809       Y69.6683      R12.5000   
   X5.5793       Y68.1179      R12.5000   
G1   Y17.954    
(Pass: 5)
   Z-0.500     F400 
G17 G3   X5.6809       Y16.4037      R12.5000    F600 
   X6.0000       Y14.7994      R12.5000   
   X6.5258       Y13.2504      R12.5000   
   X7.2493       Y11.7833      R12.5000   
   X8.1581       Y10.4232      R12.5000   
   X9.2367       Y9.1934       R12.5000   
   X10.4665      Y8.1148       R12.5000   
   X11.8266      Y7.2061       R12.5000   
   X13.2937      Y6.4826       R12.5000   
   X14.8427      Y5.9568       R12.5000   
   X16.4470      Y5.6376       R12.5000   
   X17.9975      Y5.5360       R12.5000   
G1   X48.161    
G17 G3   X49.7116      Y5.6376       R12.5000   
   X51.3159      Y5.9568       R12.5000   
   X52.8649      Y6.4826       R12.5000   
   X54.3320      Y7.2061       R12.5000   
   X55.6921      Y8.1148       R12.5000   
   X56.9219      Y9.1934       R12.5000   
   X58.0005      Y10.4232      R12.5000   
   X58.9093      Y11.7833      R12.5000   
   X59.6327      Y13.2504      R12.5000   
   X60.1585      Y14.7994      R12.5000   
   X60.4777      Y16.4037      R12.5000   
   X60.5793      Y17.9542      R12.5000   
G1   Y68.118    
G17 G3   X60.4777      Y69.6683      R12.5000   
   X60.1585      Y71.2726      R12.5000   
   X59.6327      Y72.8216      R12.5000   
   X58.9093      Y74.2887      R12.5000   
   X58.0005      Y75.6488      R12.5000   
   X56.9219      Y76.8786      R12.5000   
   X55.6921      Y77.9572      R12.5000   
   X54.3320      Y78.8660      R12.5000   
   X52.8649      Y79.5895      R12.5000   
   X51.3159      Y80.1153      R12.5000   
   X49.7116      Y80.4344      R12.5000   
   X48.1611      Y80.5360      R12.5000   
G1   X17.997    
G17 G3   X17.3642      Y80.4945      R12.5000   
   X16.4470      Y80.4344      R12.5000   
   X14.8427      Y80.1153      R12.5000   
   X13.2937      Y79.5895      R12.5000   
   X11.8266      Y78.8660      R12.5000   
   X10.4665      Y77.9572      R12.5000   
   X9.2367       Y76.8786      R12.5000   
   X8.1581       Y75.6488      R12.5000   
   X7.2493       Y74.2887      R12.5000   
   X6.5258       Y72.8216      R12.5000   
   X6.0000       Y71.2726      R12.5000   
   X5.6809       Y69.6683      R12.5000   
   X5.5793       Y68.1179      R12.5000   
G1   Y17.954    
(Pass: 6)
   Z-0.600     F400 
G17 G3   X5.6809       Y16.4037      R12.5000    F600 
   X6.0000       Y14.7994      R12.5000   
   X6.5258       Y13.2504      R12.5000   
   X7.2493       Y11.7833      R12.5000   
   X8.1581       Y10.4232      R12.5000   
   X9.2367       Y9.1934       R12.5000   
   X10.4665      Y8.1148       R12.5000   
   X11.8266      Y7.2061       R12.5000   
   X13.2937      Y6.4826       R12.5000   
   X14.8427      Y5.9568       R12.5000   
   X16.4470      Y5.6376       R12.5000   
   X17.9975      Y5.5360       R12.5000   
G1   X48.161    
G17 G3   X49.7116      Y5.6376       R12.5000   
   X51.3159      Y5.9568       R12.5000   
   X52.8649      Y6.4826       R12.5000   
   X54.3320      Y7.2061       R12.5000   
   X55.6921      Y8.1148       R12.5000   
   X56.9219      Y9.1934       R12.5000   
   X58.0005      Y10.4232      R12.5000   
   X58.9093      Y11.7833      R12.5000   
   X59.6327      Y13.2504      R12.5000   
   X60.1585      Y14.7994      R12.5000   
   X60.4777      Y16.4037      R12.5000   
   X60.5793      Y17.9542      R12.5000   
G1   Y68.118    
G17 G3   X60.4777      Y69.6683      R12.5000   
   X60.1585      Y71.2726      R12.5000   
   X59.6327      Y72.8216      R12.5000   
   X58.9093      Y74.2887      R12.5000   
   X58.0005      Y75.6488      R12.5000   
   X56.9219      Y76.8786      R12.5000   
   X55.6921      Y77.9572      R12.5000   
   X54.3320      Y78.8660      R12.5000   
   X52.8649      Y79.5895      R12.5000   
   X51.3159      Y80.1153      R12.5000   
   X49.7116      Y80.4344      R12.5000   
   X48.1611      Y80.5360      R12.5000   
G1   X17.997    
G17 G3   X17.3642      Y80.4945      R12.5000   
   X16.4470      Y80.4344      R12.5000   
   X14.8427      Y80.1153      R12.5000   
   X13.2937      Y79.5895      R12.5000   
   X11.8266      Y78.8660      R12.5000   
   X10.4665      Y77.9572      R12.5000   
   X9.2367       Y76.8786      R12.5000   
   X8.1581       Y75.6488      R12.5000   
   X7.2493       Y74.2887      R12.5000   
   X6.5258       Y72.8216      R12.5000   
   X6.0000       Y71.2726      R12.5000   
   X5.6809       Y69.6683      R12.5000   
   X5.5793       Y68.1179      R12.5000   
G1   Y17.954    
(Pass: 7)
   Z-0.700     F400 
G17 G3   X5.6809       Y16.4037      R12.5000    F600 
   X6.0000       Y14.7994      R12.5000   
   X6.5258       Y13.2504      R12.5000   
   X7.2493       Y11.7833      R12.5000   
   X8.1581       Y10.4232      R12.5000   
   X9.2367       Y9.1934       R12.5000   
   X10.4665      Y8.1148       R12.5000   
   X11.8266      Y7.2061       R12.5000   
   X13.2937      Y6.4826       R12.5000   
   X14.8427      Y5.9568       R12.5000   
   X16.4470      Y5.6376       R12.5000   
   X17.9975      Y5.5360       R12.5000   
G1   X48.161    
G17 G3   X49.7116      Y5.6376       R12.5000   
   X51.3159      Y5.9568       R12.5000   
   X52.8649      Y6.4826       R12.5000   
   X54.3320      Y7.2061       R12.5000   
   X55.6921      Y8.1148       R12.5000   
   X56.9219      Y9.1934       R12.5000   
   X58.0005      Y10.4232      R12.5000   
   X58.9093      Y11.7833      R12.5000   
   X59.6327      Y13.2504      R12.5000   
   X60.1585      Y14.7994      R12.5000   
   X60.4777      Y16.4037      R12.5000   
   X60.5793      Y17.9542      R12.5000   
G1   Y68.118    
G17 G3   X60.4777      Y69.6683      R12.5000   
   X60.1585      Y71.2726      R12.5000   
   X59.6327      Y72.8216      R12.5000   
   X58.9093      Y74.2887      R12.5000   
   X58.0005      Y75.6488      R12.5000   
   X56.9219      Y76.8786      R12.5000   
   X55.6921      Y77.9572      R12.5000   
   X54.3320      Y78.8660      R12.5000   
   X52.8649      Y79.5895      R12.5000   
   X51.3159      Y80.1153      R12.5000   
   X49.7116      Y80.4344      R12.5000   
   X48.1611      Y80.5360      R12.5000   
G1   X17.997    
G17 G3   X17.3642      Y80.4945      R12.5000   
   X16.4470      Y80.4344      R12.5000   
   X14.8427      Y80.1153      R12.5000   
   X13.2937      Y79.5895      R12.5000   
   X11.8266      Y78.8660      R12.5000   
   X10.4665      Y77.9572      R12.5000   
   X9.2367       Y76.8786      R12.5000   
   X8.1581       Y75.6488      R12.5000   
   X7.2493       Y74.2887      R12.5000   
   X6.5258       Y72.8216      R12.5000   
   X6.0000       Y71.2726      R12.5000   
   X5.6809       Y69.6683      R12.5000   
   X5.5793       Y68.1179      R12.5000   
G1   Y17.954    
(Pass: 8)
   Z-0.800     F400 
G17 G3   X5.6809       Y16.4037      R12.5000    F600 
   X6.0000       Y14.7994      R12.5000   
   X6.5258       Y13.2504      R12.5000   
   X7.2493       Y11.7833      R12.5000   
   X8.1581       Y10.4232      R12.5000   
   X9.2367       Y9.1934       R12.5000   
   X10.4665      Y8.1148       R12.5000   
   X11.8266      Y7.2061       R12.5000   
   X13.2937      Y6.4826       R12.5000   
   X14.8427      Y5.9568       R12.5000   
   X16.4470      Y5.6376       R12.5000   
   X17.9975      Y5.5360       R12.5000   
G1   X48.161    
G17 G3   X49.7116      Y5.6376       R12.5000   
   X51.3159      Y5.9568       R12.5000   
   X52.8649      Y6.4826       R12.5000   
   X54.3320      Y7.2061       R12.5000   
   X55.6921      Y8.1148       R12.5000   
   X56.9219      Y9.1934       R12.5000   
   X58.0005      Y10.4232      R12.5000   
   X58.9093      Y11.7833      R12.5000   
   X59.6327      Y13.2504      R12.5000   
   X60.1585      Y14.7994      R12.5000   
   X60.4777      Y16.4037      R12.5000   
   X60.5793      Y17.9542      R12.5000   
G1   Y68.118    
G17 G3   X60.4777      Y69.6683      R12.5000   
   X60.1585      Y71.2726      R12.5000   
   X59.6327      Y72.8216      R12.5000   
   X58.9093      Y74.2887      R12.5000   
   X58.0005      Y75.6488      R12.5000   
   X56.9219      Y76.8786      R12.5000   
   X55.6921      Y77.9572      R12.5000   
   X54.3320      Y78.8660      R12.5000   
   X52.8649      Y79.5895      R12.5000   
   X51.3159      Y80.1153      R12.5000   
   X49.7116      Y80.4344      R12.5000   
   X48.1611      Y80.5360      R12.5000   
G1   X17.997    
G17 G3   X17.3642      Y80.4945      R12.5000   
   X16.4470      Y80.4344      R12.5000   
   X14.8427      Y80.1153      R12.5000   
   X13.2937      Y79.5895      R12.5000   
   X11.8266      Y78.8660      R12.5000   
   X10.4665      Y77.9572      R12.5000   
   X9.2367       Y76.8786      R12.5000   
   X8.1581       Y75.6488      R12.5000   
   X7.2493       Y74.2887      R12.5000   
   X6.5258       Y72.8216      R12.5000   
   X6.0000       Y71.2726      R12.5000   
   X5.6809       Y69.6683      R12.5000   
   X5.5793       Y68.1179      R12.5000   
G1   Y17.954    
(Pass: 9)
   Z-0.900     F400 
G17 G3   X5.6809       Y16.4037      R12.5000    F600 
   X6.0000       Y14.7994      R12.5000   
   X6.5258       Y13.2504      R12.5000   
   X7.2493       Y11.7833      R12.5000   
   X8.1581       Y10.4232      R12.5000   
   X9.2367       Y9.1934       R12.5000   
   X10.4665      Y8.1148       R12.5000   
   X11.8266      Y7.2061       R12.5000   
   X13.2937      Y6.4826       R12.5000   
   X14.8427      Y5.9568       R12.5000   
   X16.4470      Y5.6376       R12.5000   
   X17.9975      Y5.5360       R12.5000   
G1   X48.161    
G17 G3   X49.7116      Y5.6376       R12.5000   
   X51.3159      Y5.9568       R12.5000   
   X52.8649      Y6.4826       R12.5000   
   X54.3320      Y7.2061       R12.5000   
   X55.6921      Y8.1148       R12.5000   
   X56.9219      Y9.1934       R12.5000   
   X58.0005      Y10.4232      R12.5000   
   X58.9093      Y11.7833      R12.5000   
   X59.6327      Y13.2504      R12.5000   
   X60.1585      Y14.7994      R12.5000   
   X60.4777      Y16.4037      R12.5000   
   X60.5793      Y17.9542      R12.5000   
G1   Y68.118    
G17 G3   X60.4777      Y69.6683      R12.5000   
   X60.1585      Y71.2726      R12.5000   
   X59.6327      Y72.8216      R12.5000   
   X58.9093      Y74.2887      R12.5000   
   X58.0005      Y75.6488      R12.5000   
   X56.9219      Y76.8786      R12.5000   
   X55.6921      Y77.9572      R12.5000   
   X54.3320      Y78.8660      R12.5000   
   X52.8649      Y79.5895      R12.5000   
   X51.3159      Y80.1153      R12.5000   
   X49.7116      Y80.4344      R12.5000   
   X48.1611      Y80.5360      R12.5000   
G1   X17.997    
G17 G3   X17.3642      Y80.4945      R12.5000   
   X16.4470      Y80.4344      R12.5000   
   X14.8427      Y80.1153      R12.5000   
   X13.2937      Y79.5895      R12.5000   
   X11.8266      Y78.8660      R12.5000   
   X10.4665      Y77.9572      R12.5000   
   X9.2367       Y76.8786      R12.5000   
   X8.1581       Y75.6488      R12.5000   
   X7.2493       Y74.2887      R12.5000   
   X6.5258       Y72.8216      R12.5000   
   X6.0000       Y71.2726      R12.5000   
   X5.6809       Y69.6683      R12.5000   
   X5.5793       Y68.1179      R12.5000   
G1   Y17.954    
(Pass: 10)
   Z-1.000     F400 
G17 G3   X5.6809       Y16.4037      R12.5000    F600 
   X6.0000       Y14.7994      R12.5000   
   X6.5258       Y13.2504      R12.5000   
   X7.2493       Y11.7833      R12.5000   
   X8.1581       Y10.4232      R12.5000   
   X9.2367       Y9.1934       R12.5000   
   X10.4665      Y8.1148       R12.5000   
   X11.8266      Y7.2061       R12.5000   
   X13.2937      Y6.4826       R12.5000   
   X14.8427      Y5.9568       R12.5000   
   X16.4470      Y5.6376       R12.5000   
   X17.9975      Y5.5360       R12.5000   
G1   X48.161    
G17 G3   X49.7116      Y5.6376       R12.5000   
   X51.3159      Y5.9568       R12.5000   
   X52.8649      Y6.4826       R12.5000   
   X54.3320      Y7.2061       R12.5000   
   X55.6921      Y8.1148       R12.5000   
   X56.9219      Y9.1934       R12.5000   
   X58.0005      Y10.4232      R12.5000   
   X58.9093      Y11.7833      R12.5000   
   X59.6327      Y13.2504      R12.5000   
   X60.1585      Y14.7994      R12.5000   
   X60.4777      Y16.4037      R12.5000   
   X60.5793      Y17.9542      R12.5000   
G1   Y68.118    
G17 G3   X60.4777      Y69.6683      R12.5000   
   X60.1585      Y71.2726      R12.5000   
   X59.6327      Y72.8216      R12.5000   
   X58.9093      Y74.2887      R12.5000   
   X58.0005      Y75.6488      R12.5000   
   X56.9219      Y76.8786      R12.5000   
   X55.6921      Y77.9572      R12.5000   
   X54.3320      Y78.8660      R12.5000   
   X52.8649      Y79.5895      R12.5000   
   X51.3159      Y80.1153      R12.5000   
   X49.7116      Y80.4344      R12.5000   
   X48.1611      Y80.5360      R12.5000   
G1   X17.997    
G17 G3   X17.3642      Y80.4945      R12.5000   
   X16.4470      Y80.4344      R12.5000   
   X14.8427      Y80.1153      R12.5000   
   X13.2937      Y79.5895      R12.5000   
   X11.8266      Y78.8660      R12.5000   
   X10.4665      Y77.9572      R12.5000   
   X9.2367       Y76.8786      R12.5000   
   X8.1581       Y75.6488      R12.5000   
   X7.2493       Y74.2887      R12.5000   
   X6.5258       Y72.8216      R12.5000   
   X6.0000       Y71.2726      R12.5000   
   X5.6809       Y69.6683      R12.5000   
   X5.5793       Y68.1179      R12.5000   
G1   Y17.954    
(Pass: 11)
   Z-1.100     F400 
G17 G3   X5.6809       Y16.4037      R12.5000    F600 
   X6.0000       Y14.7994      R12.5000   
   X6.5258       Y13.2504      R12.5000   
   X7.2493       Y11.7833      R12.5000   
   X8.1581       Y10.4232      R12.5000   
   X9.2367       Y9.1934       R12.5000   
   X10.4665      Y8.1148       R12.5000   
   X11.8266      Y7.2061       R12.5000   
   X13.2937      Y6.4826       R12.5000   
   X14.8427      Y5.9568       R12.5000   
   X16.4470      Y5.6376       R12.5000   
   X17.9975      Y5.5360       R12.5000   
G1   X48.161    
G17 G3   X49.7116      Y5.6376       R12.5000   
   X51.3159      Y5.9568       R12.5000   
   X52.8649      Y6.4826       R12.5000   
   X54.3320      Y7.2061       R12.5000   
   X55.6921      Y8.1148       R12.5000   
   X56.9219      Y9.1934       R12.5000   
   X58.0005      Y10.4232      R12.5000   
   X58.9093      Y11.7833      R12.5000   
   X59.6327      Y13.2504      R12.5000   
   X60.1585      Y14.7994      R12.5000   
   X60.4777      Y16.4037      R12.5000   
   X60.5793      Y17.9542      R12.5000   
G1   Y68.118    
G17 G3   X60.4777      Y69.6683      R12.5000   
   X60.1585      Y71.2726      R12.5000   
   X59.6327      Y72.8216      R12.5000   
   X58.9093      Y74.2887      R12.5000   
   X58.0005      Y75.6488      R12.5000   
   X56.9219      Y76.8786      R12.5000   
   X55.6921      Y77.9572      R12.5000   
   X54.3320      Y78.8660      R12.5000   
   X52.8649      Y79.5895      R12.5000   
   X51.3159      Y80.1153      R12.5000   
   X49.7116      Y80.4344      R12.5000   
   X48.1611      Y80.5360      R12.5000   
G1   X17.997    
G17 G3   X17.3642      Y80.4945      R12.5000   
   X16.4470      Y80.4344      R12.5000   
   X14.8427      Y80.1153      R12.5000   
   X13.2937      Y79.5895      R12.5000   
   X11.8266      Y78.8660      R12.5000   
   X10.4665      Y77.9572      R12.5000   
   X9.2367       Y76.8786      R12.5000   
   X8.1581       Y75.6488      R12.5000   
   X7.2493       Y74.2887      R12.5000   
   X6.5258       Y72.8216      R12.5000   
   X6.0000       Y71.2726      R12.5000   
   X5.6809       Y69.6683      R12.5000   
   X5.5793       Y68.1179      R12.5000   
G1   Y17.954    
(Pass: 12)
   Z-1.200     F400 
G17 G3   X5.6809       Y16.4037      R12.5000    F600 
   X6.0000       Y14.7994      R12.5000   
   X6.5258       Y13.2504      R12.5000   
   X7.2493       Y11.7833      R12.5000   
   X8.1581       Y10.4232      R12.5000   
   X9.2367       Y9.1934       R12.5000   
   X10.4665      Y8.1148       R12.5000   
   X11.8266      Y7.2061       R12.5000   
   X13.2937      Y6.4826       R12.5000   
   X14.8427      Y5.9568       R12.5000   
   X16.4470      Y5.6376       R12.5000   
   X17.9975      Y5.5360       R12.5000   
G1   X48.161    
G17 G3   X49.7116      Y5.6376       R12.5000   
   X51.3159      Y5.9568       R12.5000   
   X52.8649      Y6.4826       R12.5000   
   X54.3320      Y7.2061       R12.5000   
   X55.6921      Y8.1148       R12.5000   
   X56.9219      Y9.1934       R12.5000   
   X58.0005      Y10.4232      R12.5000   
   X58.9093      Y11.7833      R12.5000   
   X59.6327      Y13.2504      R12.5000   
   X60.1585      Y14.7994      R12.5000   
   X60.4777      Y16.4037      R12.5000   
   X60.5793      Y17.9542      R12.5000   
G1   Y68.118    
G17 G3   X60.4777      Y69.6683      R12.5000   
   X60.1585      Y71.2726      R12.5000   
   X59.6327      Y72.8216      R12.5000   
   X58.9093      Y74.2887      R12.5000   
   X58.0005      Y75.6488      R12.5000   
   X56.9219      Y76.8786      R12.5000   
   X55.6921      Y77.9572      R12.5000   
   X54.3320      Y78.8660      R12.5000   
   X52.8649      Y79.5895      R12.5000   
   X51.3159      Y80.1153      R12.5000   
   X49.7116      Y80.4344      R12.5000   
   X48.1611      Y80.5360      R12.5000   
G1   X17.997    
G17 G3   X17.3642      Y80.4945      R12.5000   
   X16.4470      Y80.4344      R12.5000   
   X14.8427      Y80.1153      R12.5000   
   X13.2937      Y79.5895      R12.5000   
   X11.8266      Y78.8660      R12.5000   
   X10.4665      Y77.9572      R12.5000   
   X9.2367       Y76.8786      R12.5000   
   X8.1581       Y75.6488      R12.5000   
   X7.2493       Y74.2887      R12.5000   
   X6.5258       Y72.8216      R12.5000   
   X6.0000       Y71.2726      R12.5000   
   X5.6809       Y69.6683      R12.5000   
   X5.5793       Y68.1179      R12.5000   
G1   Y17.954    
(Pass: 13)
   Z-1.300     F400 
G17 G3   X5.6809       Y16.4037      R12.5000    F600 
   X6.0000       Y14.7994      R12.5000   
   X6.5258       Y13.2504      R12.5000   
   X7.2493       Y11.7833      R12.5000   
   X8.1581       Y10.4232      R12.5000   
   X9.2367       Y9.1934       R12.5000   
   X10.4665      Y8.1148       R12.5000   
   X11.8266      Y7.2061       R12.5000   
   X13.2937      Y6.4826       R12.5000   
   X14.8427      Y5.9568       R12.5000   
   X16.4470      Y5.6376       R12.5000   
   X17.9975      Y5.5360       R12.5000   
G1   X48.161    
G17 G3   X49.7116      Y5.6376       R12.5000   
   X51.3159      Y5.9568       R12.5000   
   X52.8649      Y6.4826       R12.5000   
   X54.3320      Y7.2061       R12.5000   
   X55.6921      Y8.1148       R12.5000   
   X56.9219      Y9.1934       R12.5000   
   X58.0005      Y10.4232      R12.5000   
   X58.9093      Y11.7833      R12.5000   
   X59.6327      Y13.2504      R12.5000   
   X60.1585      Y14.7994      R12.5000   
   X60.4777      Y16.4037      R12.5000   
   X60.5793      Y17.9542      R12.5000   
G1   Y68.118    
G17 G3   X60.4777      Y69.6683      R12.5000   
   X60.1585      Y71.2726      R12.5000   
   X59.6327      Y72.8216      R12.5000   
   X58.9093      Y74.2887      R12.5000   
   X58.0005      Y75.6488      R12.5000   
   X56.9219      Y76.8786      R12.5000   
   X55.6921      Y77.9572      R12.5000   
   X54.3320      Y78.8660      R12.5000   
   X52.8649      Y79.5895      R12.5000   
   X51.3159      Y80.1153      R12.5000   
   X49.7116      Y80.4344      R12.5000   
   X48.1611      Y80.5360      R12.5000   
G1   X17.997    
G17 G3   X17.3642      Y80.4945      R12.5000   
   X16.4470      Y80.4344      R12.5000   
   X14.8427      Y80.1153      R12.5000   
   X13.2937      Y79.5895      R12.5000   
   X11.8266      Y78.8660      R12.5000   
   X10.4665      Y77.9572      R12.5000   
   X9.2367       Y76.8786      R12.5000   
   X8.1581       Y75.6488      R12.5000   
   X7.2493       Y74.2887      R12.5000   
   X6.5258       Y72.8216      R12.5000   
   X6.0000       Y71.2726      R12.5000   
   X5.6809       Y69.6683      R12.5000   
   X5.5793       Y68.1179      R12.5000   
G1   Y17.954    
(Pass: 14)
   Z-1.400     F400 
G17 G3   X5.6809       Y16.4037      R12.5000    F600 
   X6.0000       Y14.7994      R12.5000   
   X6.5258       Y13.2504      R12.5000   
   X7.2493       Y11.7833      R12.5000   
   X8.1581       Y10.4232      R12.5000   
   X9.2367       Y9.1934       R12.5000   
   X10.4665      Y8.1148       R12.5000   
   X11.8266      Y7.2061       R12.5000   
   X13.2937      Y6.4826       R12.5000   
   X14.8427      Y5.9568       R12.5000   
   X16.4470      Y5.6376       R12.5000   
   X17.9975      Y5.5360       R12.5000   
G1   X48.161    
G17 G3   X49.7116      Y5.6376       R12.5000   
   X51.3159      Y5.9568       R12.5000   
   X52.8649      Y6.4826       R12.5000   
   X54.3320      Y7.2061       R12.5000   
   X55.6921      Y8.1148       R12.5000   
   X56.9219      Y9.1934       R12.5000   
   X58.0005      Y10.4232      R12.5000   
   X58.9093      Y11.7833      R12.5000   
   X59.6327      Y13.2504      R12.5000   
   X60.1585      Y14.7994      R12.5000   
   X60.4777      Y16.4037      R12.5000   
   X60.5793      Y17.9542      R12.5000   
G1   Y68.118    
G17 G3   X60.4777      Y69.6683      R12.5000   
   X60.1585      Y71.2726      R12.5000   
   X59.6327      Y72.8216      R12.5000   
   X58.9093      Y74.2887      R12.5000   
   X58.0005      Y75.6488      R12.5000   
   X56.9219      Y76.8786      R12.5000   
   X55.6921      Y77.9572      R12.5000   
   X54.3320      Y78.8660      R12.5000   
   X52.8649      Y79.5895      R12.5000   
   X51.3159      Y80.1153      R12.5000   
   X49.7116      Y80.4344      R12.5000   
   X48.1611      Y80.5360      R12.5000   
G1   X17.997    
G17 G3   X17.3642      Y80.4945      R12.5000   
   X16.4470      Y80.4344      R12.5000   
   X14.8427      Y80.1153      R12.5000   
   X13.2937      Y79.5895      R12.5000   
   X11.8266      Y78.8660      R12.5000   
   X10.4665      Y77.9572      R12.5000   
   X9.2367       Y76.8786      R12.5000   
   X8.1581       Y75.6488      R12.5000   
   X7.2493       Y74.2887      R12.5000   
   X6.5258       Y72.8216      R12.5000   
   X6.0000       Y71.2726      R12.5000   
   X5.6809       Y69.6683      R12.5000   
   X5.5793       Y68.1179      R12.5000   
G1   Y17.954    
(Pass: 15)
   Z-1.500     F400 
G17 G3   X5.6809       Y16.4037      R12.5000    F600 
   X6.0000       Y14.7994      R12.5000   
   X6.5258       Y13.2504      R12.5000   
   X7.2493       Y11.7833      R12.5000   
   X8.1581       Y10.4232      R12.5000   
   X9.2367       Y9.1934       R12.5000   
   X10.4665      Y8.1148       R12.5000   
   X11.8266      Y7.2061       R12.5000   
   X13.2937      Y6.4826       R12.5000   
   X14.8427      Y5.9568       R12.5000   
   X16.4470      Y5.6376       R12.5000   
   X17.9975      Y5.5360       R12.5000   
G1   X48.161    
G17 G3   X49.7116      Y5.6376       R12.5000   
   X51.3159      Y5.9568       R12.5000   
   X52.8649      Y6.4826       R12.5000   
   X54.3320      Y7.2061       R12.5000   
   X55.6921      Y8.1148       R12.5000   
   X56.9219      Y9.1934       R12.5000   
   X58.0005      Y10.4232      R12.5000   
   X58.9093      Y11.7833      R12.5000   
   X59.6327      Y13.2504      R12.5000   
   X60.1585      Y14.7994      R12.5000   
   X60.4777      Y16.4037      R12.5000   
   X60.5793      Y17.9542      R12.5000   
G1   Y68.118    
G17 G3   X60.4777      Y69.6683      R12.5000   
   X60.1585      Y71.2726      R12.5000   
   X59.6327      Y72.8216      R12.5000   
   X58.9093      Y74.2887      R12.5000   
   X58.0005      Y75.6488      R12.5000   
   X56.9219      Y76.8786      R12.5000   
   X55.6921      Y77.9572      R12.5000   
   X54.3320      Y78.8660      R12.5000   
   X52.8649      Y79.5895      R12.5000   
   X51.3159      Y80.1153      R12.5000   
   X49.7116      Y80.4344      R12.5000   
   X48.1611      Y80.5360      R12.5000   
G1   X17.997    
G17 G3   X17.3642      Y80.4945      R12.5000   
   X16.4470      Y80.4344      R12.5000   
   X14.8427      Y80.1153      R12.5000   
   X13.2937      Y79.5895      R12.5000   
   X11.8266      Y78.8660      R12.5000   
   X10.4665      Y77.9572      R12.5000   
   X9.2367       Y76.8786      R12.5000   
   X8.1581       Y75.6488      R12.5000   
   X7.2493       Y74.2887      R12.5000   
   X6.5258       Y72.8216      R12.5000   
   X6.0000       Y71.2726      R12.5000   
   X5.6809       Y69.6683      R12.5000   
   X5.5793       Y68.1179      R12.5000   
G1   Y17.954    
(Pass: 16)
   Z-1.600     F400 
G17 G3   X5.6809       Y16.4037      R12.5000    F600 
   X6.0000       Y14.7994      R12.5000   
   X6.5258       Y13.2504      R12.5000   
   X7.2493       Y11.7833      R12.5000   
   X8.1581       Y10.4232      R12.5000   
   X9.2367       Y9.1934       R12.5000   
   X10.4665      Y8.1148       R12.5000   
   X11.8266      Y7.2061       R12.5000   
   X13.2937      Y6.4826       R12.5000   
   X14.8427      Y5.9568       R12.5000   
   X16.4470      Y5.6376       R12.5000   
   X17.9975      Y5.5360       R12.5000   
G1   X48.161    
G17 G3   X49.7116      Y5.6376       R12.5000   
   X51.3159      Y5.9568       R12.5000   
   X52.8649      Y6.4826       R12.5000   
   X54.3320      Y7.2061       R12.5000   
   X55.6921      Y8.1148       R12.5000   
   X56.9219      Y9.1934       R12.5000   
   X58.0005      Y10.4232      R12.5000   
   X58.9093      Y11.7833      R12.5000   
   X59.6327      Y13.2504      R12.5000   
   X60.1585      Y14.7994      R12.5000   
   X60.4777      Y16.4037      R12.5000   
   X60.5793      Y17.9542      R12.5000   
G1   Y68.118    
G17 G3   X60.4777      Y69.6683      R12.5000   
   X60.1585      Y71.2726      R12.5000   
   X59.6327      Y72.8216      R12.5000   
   X58.9093      Y74.2887      R12.5000   
   X58.0005      Y75.6488      R12.5000   
   X56.9219      Y76.8786      R12.5000   
   X55.6921      Y77.9572      R12.5000   
   X54.3320      Y78.8660      R12.5000   
   X52.8649      Y79.5895      R12.5000   
   X51.3159      Y80.1153      R12.5000   
   X49.7116      Y80.4344      R12.5000   
   X48.1611      Y80.5360      R12.5000   
G1   X17.997    
G17 G3   X17.3642      Y80.4945      R12.5000   
   X16.4470      Y80.4344      R12.5000   
   X14.8427      Y80.1153      R12.5000   
   X13.2937      Y79.5895      R12.5000   
   X11.8266      Y78.8660      R12.5000   
   X10.4665      Y77.9572      R12.5000   
   X9.2367       Y76.8786      R12.5000   
   X8.1581       Y75.6488      R12.5000   
   X7.2493       Y74.2887      R12.5000   
   X6.5258       Y72.8216      R12.5000   
   X6.0000       Y71.2726      R12.5000   
   X5.6809       Y69.6683      R12.5000   
   X5.5793       Y68.1179      R12.5000   
G1   Y17.954    
(Pass: 17)
   Z-1.700     F400 
G17 G3   X5.6809       Y16.4037      R12.5000    F600 
   X6.0000       Y14.7994      R12.5000   
   X6.5258       Y13.2504      R12.5000   
   X7.2493       Y11.7833      R12.5000   
   X8.1581       Y10.4232      R12.5000   
   X9.2367       Y9.1934       R12.5000   
   X10.4665      Y8.1148       R12.5000   
   X11.8266      Y7.2061       R12.5000   
   X13.2937      Y6.4826       R12.5000   
   X14.8427      Y5.9568       R12.5000   
   X16.4470      Y5.6376       R12.5000   
   X17.9975      Y5.5360       R12.5000   
G1   X48.161    
G17 G3   X49.7116      Y5.6376       R12.5000   
   X51.3159      Y5.9568       R12.5000   
   X52.8649      Y6.4826       R12.5000   
   X54.3320      Y7.2061       R12.5000   
   X55.6921      Y8.1148       R12.5000   
   X56.9219      Y9.1934       R12.5000   
   X58.0005      Y10.4232      R12.5000   
   X58.9093      Y11.7833      R12.5000   
   X59.6327      Y13.2504      R12.5000   
   X60.1585      Y14.7994      R12.5000   
   X60.4777      Y16.4037      R12.5000   
   X60.5793      Y17.9542      R12.5000   
G1   Y68.118    
G17 G3   X60.4777      Y69.6683      R12.5000   
   X60.1585      Y71.2726      R12.5000   
   X59.6327      Y72.8216      R12.5000   
   X58.9093      Y74.2887      R12.5000   
   X58.0005      Y75.6488      R12.5000   
   X56.9219      Y76.8786      R12.5000   
   X55.6921      Y77.9572      R12.5000   
   X54.3320      Y78.8660      R12.5000   
   X52.8649      Y79.5895      R12.5000   
   X51.3159      Y80.1153      R12.5000   
   X49.7116      Y80.4344      R12.5000   
   X48.1611      Y80.5360      R12.5000   
G1   X17.997    
G17 G3   X17.3642      Y80.4945      R12.5000   
   X16.4470      Y80.4344      R12.5000   
   X14.8427      Y80.1153      R12.5000   
   X13.2937      Y79.5895      R12.5000   
   X11.8266      Y78.8660      R12.5000   
   X10.4665      Y77.9572      R12.5000   
   X9.2367       Y76.8786      R12.5000   
   X8.1581       Y75.6488      R12.5000   
   X7.2493       Y74.2887      R12.5000   
   X6.5258       Y72.8216      R12.5000   
   X6.0000       Y71.2726      R12.5000   
   X5.6809       Y69.6683      R12.5000   
   X5.5793       Y68.1179      R12.5000   
G1   Y17.954    
(Pass: 18)
   Z-1.800     F400 
G17 G3   X5.6809       Y16.4037      R12.5000    F600 
   X6.0000       Y14.7994      R12.5000   
   X6.5258       Y13.2504      R12.5000   
   X7.2493       Y11.7833      R12.5000   
   X8.1581       Y10.4232      R12.5000   
   X9.2367       Y9.1934       R12.5000   
   X10.4665      Y8.1148       R12.5000   
   X11.8266      Y7.2061       R12.5000   
   X13.2937      Y6.4826       R12.5000   
   X14.8427      Y5.9568       R12.5000   
   X16.4470      Y5.6376       R12.5000   
   X17.9975      Y5.5360       R12.5000   
G1   X48.161    
G17 G3   X49.7116      Y5.6376       R12.5000   
   X51.3159      Y5.9568       R12.5000   
   X52.8649      Y6.4826       R12.5000   
   X54.3320      Y7.2061       R12.5000   
   X55.6921      Y8.1148       R12.5000   
   X56.9219      Y9.1934       R12.5000   
   X58.0005      Y10.4232      R12.5000   
   X58.9093      Y11.7833      R12.5000   
   X59.6327      Y13.2504      R12.5000   
   X60.1585      Y14.7994      R12.5000   
   X60.4777      Y16.4037      R12.5000   
   X60.5793      Y17.9542      R12.5000   
G1   Y68.118    
G17 G3   X60.4777      Y69.6683      R12.5000   
   X60.1585      Y71.2726      R12.5000   
   X59.6327      Y72.8216      R12.5000   
   X58.9093      Y74.2887      R12.5000   
   X58.0005      Y75.6488      R12.5000   
   X56.9219      Y76.8786      R12.5000   
   X55.6921      Y77.9572      R12.5000   
   X54.3320      Y78.8660      R12.5000   
   X52.8649      Y79.5895      R12.5000   
   X51.3159      Y80.1153      R12.5000   
   X49.7116      Y80.4344      R12.5000   
   X48.1611      Y80.5360      R12.5000   
G1   X17.997    
G17 G3   X17.3642      Y80.4945      R12.5000   
   X16.4470      Y80.4344      R12.5000   
   X14.8427      Y80.1153      R12.5000   
   X13.2937      Y79.5895      R12.5000   
   X11.8266      Y78.8660      R12.5000   
   X10.4665      Y77.9572      R12.5000   
   X9.2367       Y76.8786      R12.5000   
   X8.1581       Y75.6488      R12.5000   
   X7.2493       Y74.2887      R12.5000   
   X6.5258       Y72.8216      R12.5000   
   X6.0000       Y71.2726      R12.5000   
   X5.6809       Y69.6683      R12.5000   
   X5.5793       Y68.1179      R12.5000   
G1   Y17.954    
(Pass: 19)
   Z-1.900     F400 
G17 G3   X5.6809       Y16.4037      R12.5000    F600 
   X6.0000       Y14.7994      R12.5000   
   X6.5258       Y13.2504      R12.5000   
   X7.2493       Y11.7833      R12.5000   
   X8.1581       Y10.4232      R12.5000   
   X9.2367       Y9.1934       R12.5000   
   X10.4665      Y8.1148       R12.5000   
   X11.8266      Y7.2061       R12.5000   
   X13.2937      Y6.4826       R12.5000   
   X14.8427      Y5.9568       R12.5000   
   X16.4470      Y5.6376       R12.5000   
   X17.9975      Y5.5360       R12.5000   
G1   X48.161    
G17 G3   X49.7116      Y5.6376       R12.5000   
   X51.3159      Y5.9568       R12.5000   
   X52.8649      Y6.4826       R12.5000   
   X54.3320      Y7.2061       R12.5000   
   X55.6921      Y8.1148       R12.5000   
   X56.9219      Y9.1934       R12.5000   
   X58.0005      Y10.4232      R12.5000   
   X58.9093      Y11.7833      R12.5000   
   X59.6327      Y13.2504      R12.5000   
   X60.1585      Y14.7994      R12.5000   
   X60.4777      Y16.4037      R12.5000   
   X60.5793      Y17.9542      R12.5000   
G1   Y68.118    
G17 G3   X60.4777      Y69.6683      R12.5000   
   X60.1585      Y71.2726      R12.5000   
   X59.6327      Y72.8216      R12.5000   
   X58.9093      Y74.2887      R12.5000   
   X58.0005      Y75.6488      R12.5000   
   X56.9219      Y76.8786      R12.5000   
   X55.6921      Y77.9572      R12.5000   
   X54.3320      Y78.8660      R12.5000   
   X52.8649      Y79.5895      R12.5000   
   X51.3159      Y80.1153      R12.5000   
   X49.7116      Y80.4344      R12.5000   
   X48.1611      Y80.5360      R12.5000   
G1   X17.997    
G17 G3   X17.3642      Y80.4945      R12.5000   
   X16.4470      Y80.4344      R12.5000   
   X14.8427      Y80.1153      R12.5000   
   X13.2937      Y79.5895      R12.5000   
   X11.8266      Y78.8660      R12.5000   
   X10.4665      Y77.9572      R12.5000   
   X9.2367       Y76.8786      R12.5000   
   X8.1581       Y75.6488      R12.5000   
   X7.2493       Y74.2887      R12.5000   
   X6.5258       Y72.8216      R12.5000   
   X6.0000       Y71.2726      R12.5000   
   X5.6809       Y69.6683      R12.5000   
   X5.5793       Y68.1179      R12.5000   
G1   Y17.954    
(Pass: 20)
   Z-2.000     F400 
G17 G3   X5.6809       Y16.4037      R12.5000    F600 
   X6.0000       Y14.7994      R12.5000   
   X6.5258       Y13.2504      R12.5000   
   X7.2493       Y11.7833      R12.5000   
   X8.1581       Y10.4232      R12.5000   
   X9.2367       Y9.1934       R12.5000   
   X10.4665      Y8.1148       R12.5000   
   X11.8266      Y7.2061       R12.5000   
   X13.2937      Y6.4826       R12.5000   
   X14.8427      Y5.9568       R12.5000   
   X16.4470      Y5.6376       R12.5000   
   X17.9975      Y5.5360       R12.5000   
G1   X48.161    
G17 G3   X49.7116      Y5.6376       R12.5000   
   X51.3159      Y5.9568       R12.5000   
   X52.8649      Y6.4826       R12.5000   
   X54.3320      Y7.2061       R12.5000   
   X55.6921      Y8.1148       R12.5000   
   X56.9219      Y9.1934       R12.5000   
   X58.0005      Y10.4232      R12.5000   
   X58.9093      Y11.7833      R12.5000   
   X59.6327      Y13.2504      R12.5000   
   X60.1585      Y14.7994      R12.5000   
   X60.4777      Y16.4037      R12.5000   
   X60.5793      Y17.9542      R12.5000   
G1   Y68.118    
G17 G3   X60.4777      Y69.6683      R12.5000   
   X60.1585      Y71.2726      R12.5000   
   X59.6327      Y72.8216      R12.5000   
   X58.9093      Y74.2887      R12.5000   
   X58.0005      Y75.6488      R12.5000   
   X56.9219      Y76.8786      R12.5000   
   X55.6921      Y77.9572      R12.5000   
   X54.3320      Y78.8660      R12.5000   
   X52.8649      Y79.5895      R12.5000   
   X51.3159      Y80.1153      R12.5000   
   X49.7116      Y80.4344      R12.5000   
   X48.1611      Y80.5360      R12.5000   
G1   X17.997    
G17 G3   X17.3642      Y80.4945      R12.5000   
   X16.4470      Y80.4344      R12.5000   
   X14.8427      Y80.1153      R12.5000   
   X13.2937      Y79.5895      R12.5000   
   X11.8266      Y78.8660      R12.5000   
   X10.4665      Y77.9572      R12.5000   
   X9.2367       Y76.8786      R12.5000   
   X8.1581       Y75.6488      R12.5000   
   X7.2493       Y74.2887      R12.5000   
   X6.5258       Y72.8216      R12.5000   
   X6.0000       Y71.2726      R12.5000   
   X5.6809       Y69.6683      R12.5000   
   X5.5793       Y68.1179      R12.5000   
G1   Y17.954    
(Pass: 21)
   Z-2.100     F400 
G17 G3   X5.6809       Y16.4037      R12.5000    F600 
   X6.0000       Y14.7994      R12.5000   
   X6.5258       Y13.2504      R12.5000   
   X7.2493       Y11.7833      R12.5000   
   X8.1581       Y10.4232      R12.5000   
   X9.2367       Y9.1934       R12.5000   
   X10.4665      Y8.1148       R12.5000   
   X11.8266      Y7.2061       R12.5000   
   X13.2937      Y6.4826       R12.5000   
   X14.8427      Y5.9568       R12.5000   
   X16.4470      Y5.6376       R12.5000   
   X17.9975      Y5.5360       R12.5000   
G1   X48.161    
G17 G3   X49.7116      Y5.6376       R12.5000   
   X51.3159      Y5.9568       R12.5000   
   X52.8649      Y6.4826       R12.5000   
   X54.3320      Y7.2061       R12.5000   
   X55.6921      Y8.1148       R12.5000   
   X56.9219      Y9.1934       R12.5000   
   X58.0005      Y10.4232      R12.5000   
   X58.9093      Y11.7833      R12.5000   
   X59.6327      Y13.2504      R12.5000   
   X60.1585      Y14.7994      R12.5000   
   X60.4777      Y16.4037      R12.5000   
   X60.5793      Y17.9542      R12.5000   
G1   Y68.118    
G17 G3   X60.4777      Y69.6683      R12.5000   
   X60.1585      Y71.2726      R12.5000   
   X59.6327      Y72.8216      R12.5000   
   X58.9093      Y74.2887      R12.5000   
   X58.0005      Y75.6488      R12.5000   
   X56.9219      Y76.8786      R12.5000   
   X55.6921      Y77.9572      R12.5000   
   X54.3320      Y78.8660      R12.5000   
   X52.8649      Y79.5895      R12.5000   
   X51.3159      Y80.1153      R12.5000   
   X49.7116      Y80.4344      R12.5000   
   X48.1611      Y80.5360      R12.5000   
G1   X17.997    
G17 G3   X17.3642      Y80.4945      R12.5000   
   X16.4470      Y80.4344      R12.5000   
   X14.8427      Y80.1153      R12.5000   
   X13.2937      Y79.5895      R12.5000   
   X11.8266      Y78.8660      R12.5000   
   X10.4665      Y77.9572      R12.5000   
   X9.2367       Y76.8786      R12.5000   
   X8.1581       Y75.6488      R12.5000   
   X7.2493       Y74.2887      R12.5000   
   X6.5258       Y72.8216      R12.5000   
   X6.0000       Y71.2726      R12.5000   
   X5.6809       Y69.6683      R12.5000   
   X5.5793       Y68.1179      R12.5000   
G1   Y17.954    
(Pass: 22)
   Z-2.200     F400 
G17 G3   X5.6809       Y16.4037      R12.5000    F600 
   X6.0000       Y14.7994      R12.5000   
   X6.5258       Y13.2504      R12.5000   
   X7.2493       Y11.7833      R12.5000   
   X8.1581       Y10.4232      R12.5000   
   X9.2367       Y9.1934       R12.5000   
   X10.4665      Y8.1148       R12.5000   
   X11.8266      Y7.2061       R12.5000   
   X13.2937      Y6.4826       R12.5000   
   X14.8427      Y5.9568       R12.5000   
   X16.4470      Y5.6376       R12.5000   
   X17.9975      Y5.5360       R12.5000   
G1   X48.161    
G17 G3   X49.7116      Y5.6376       R12.5000   
   X51.3159      Y5.9568       R12.5000   
   X52.8649      Y6.4826       R12.5000   
   X54.3320      Y7.2061       R12.5000   
   X55.6921      Y8.1148       R12.5000   
   X56.9219      Y9.1934       R12.5000   
   X58.0005      Y10.4232      R12.5000   
   X58.9093      Y11.7833      R12.5000   
   X59.6327      Y13.2504      R12.5000   
   X60.1585      Y14.7994      R12.5000   
   X60.4777      Y16.4037      R12.5000   
   X60.5793      Y17.9542      R12.5000   
G1   Y68.118    
G17 G3   X60.4777      Y69.6683      R12.5000   
   X60.1585      Y71.2726      R12.5000   
   X59.6327      Y72.8216      R12.5000   
   X58.9093      Y74.2887      R12.5000   
   X58.0005      Y75.6488      R12.5000   
   X56.9219      Y76.8786      R12.5000   
   X55.6921      Y77.9572      R12.5000   
   X54.3320      Y78.8660      R12.5000   
   X52.8649      Y79.5895      R12.5000   
   X51.3159      Y80.1153      R12.5000   
   X49.7116      Y80.4344      R12.5000   
   X48.1611      Y80.5360      R12.5000   
G1   X17.997    
G17 G3   X17.3642      Y80.4945      R12.5000   
   X16.4470      Y80.4344      R12.5000   
   X14.8427      Y80.1153      R12.5000   
   X13.2937      Y79.5895      R12.5000   
   X11.8266      Y78.8660      R12.5000   
   X10.4665      Y77.9572      R12.5000   
   X9.2367       Y76.8786      R12.5000   
   X8.1581       Y75.6488      R12.5000   
   X7.2493       Y74.2887      R12.5000   
   X6.5258       Y72.8216      R12.5000   
   X6.0000       Y71.2726      R12.5000   
   X5.6809       Y69.6683      R12.5000   
   X5.5793       Y68.1179      R12.5000   
G1   Y17.954    
(Pass: 23)
   Z-2.300     F400 
G17 G3   X5.6809       Y16.4037      R12.5000    F600 
   X6.0000       Y14.7994      R12.5000   
   X6.5258       Y13.2504      R12.5000   
   X7.2493       Y11.7833      R12.5000   
   X8.1581       Y10.4232      R12.5000   
   X9.2367       Y9.1934       R12.5000   
   X10.4665      Y8.1148       R12.5000   
   X11.8266      Y7.2061       R12.5000   
   X13.2937      Y6.4826       R12.5000   
   X14.8427      Y5.9568       R12.5000   
   X16.4470      Y5.6376       R12.5000   
   X17.9975      Y5.5360       R12.5000   
G1   X48.161    
G17 G3   X49.7116      Y5.6376       R12.5000   
   X51.3159      Y5.9568       R12.5000   
   X52.8649      Y6.4826       R12.5000   
   X54.3320      Y7.2061       R12.5000   
   X55.6921      Y8.1148       R12.5000   
   X56.9219      Y9.1934       R12.5000   
   X58.0005      Y10.4232      R12.5000   
   X58.9093      Y11.7833      R12.5000   
   X59.6327      Y13.2504      R12.5000   
   X60.1585      Y14.7994      R12.5000   
   X60.4777      Y16.4037      R12.5000   
   X60.5793      Y17.9542      R12.5000   
G1   Y68.118    
G17 G3   X60.4777      Y69.6683      R12.5000   
   X60.1585      Y71.2726      R12.5000   
   X59.6327      Y72.8216      R12.5000   
   X58.9093      Y74.2887      R12.5000   
   X58.0005      Y75.6488      R12.5000   
   X56.9219      Y76.8786      R12.5000   
   X55.6921      Y77.9572      R12.5000   
   X54.3320      Y78.8660      R12.5000   
   X52.8649      Y79.5895      R12.5000   
   X51.3159      Y80.1153      R12.5000   
   X49.7116      Y80.4344      R12.5000   
   X48.1611      Y80.5360      R12.5000   
G1   X17.997    
G17 G3   X17.3642      Y80.4945      R12.5000   
   X16.4470      Y80.4344      R12.5000   
   X14.8427      Y80.1153      R12.5000   
   X13.2937      Y79.5895      R12.5000   
   X11.8266      Y78.8660      R12.5000   
   X10.4665      Y77.9572      R12.5000   
   X9.2367       Y76.8786      R12.5000   
   X8.1581       Y75.6488      R12.5000   
   X7.2493       Y74.2887      R12.5000   
   X6.5258       Y72.8216      R12.5000   
   X6.0000       Y71.2726      R12.5000   
   X5.6809       Y69.6683      R12.5000   
   X5.5793       Y68.1179      R12.5000   
G1   Y17.954    
(Pass: 24)
   Z-2.400     F400 
G17 G3   X5.6809       Y16.4037      R12.5000    F600 
   X6.0000       Y14.7994      R12.5000   
   X6.5258       Y13.2504      R12.5000   
   X7.2493       Y11.7833      R12.5000   
   X8.1581       Y10.4232      R12.5000   
   X9.2367       Y9.1934       R12.5000   
   X10.4665      Y8.1148       R12.5000   
   X11.8266      Y7.2061       R12.5000   
   X13.2937      Y6.4826       R12.5000   
   X14.8427      Y5.9568       R12.5000   
   X16.4470      Y5.6376       R12.5000   
   X17.9975      Y5.5360       R12.5000   
G1   X48.161    
G17 G3   X49.7116      Y5.6376       R12.5000   
   X51.3159      Y5.9568       R12.5000   
   X52.8649      Y6.4826       R12.5000   
   X54.3320      Y7.2061       R12.5000   
   X55.6921      Y8.1148       R12.5000   
   X56.9219      Y9.1934       R12.5000   
   X58.0005      Y10.4232      R12.5000   
   X58.9093      Y11.7833      R12.5000   
   X59.6327      Y13.2504      R12.5000   
   X60.1585      Y14.7994      R12.5000   
   X60.4777      Y16.4037      R12.5000   
   X60.5793      Y17.9542      R12.5000   
G1   Y68.118    
G17 G3   X60.4777      Y69.6683      R12.5000   
   X60.1585      Y71.2726      R12.5000   
   X59.6327      Y72.8216      R12.5000   
   X58.9093      Y74.2887      R12.5000   
   X58.0005      Y75.6488      R12.5000   
   X56.9219      Y76.8786      R12.5000   
   X55.6921      Y77.9572      R12.5000   
   X54.3320      Y78.8660      R12.5000   
   X52.8649      Y79.5895      R12.5000   
   X51.3159      Y80.1153      R12.5000   
   X49.7116      Y80.4344      R12.5000   
   X48.1611      Y80.5360      R12.5000   
G1   X17.997    
G17 G3   X17.3642      Y80.4945      R12.5000   
   X16.4470      Y80.4344      R12.5000   
   X14.8427      Y80.1153      R12.5000   
   X13.2937      Y79.5895      R12.5000   
   X11.8266      Y78.8660      R12.5000   
   X10.4665      Y77.9572      R12.5000   
   X9.2367       Y76.8786      R12.5000   
   X8.1581       Y75.6488      R12.5000   
   X7.2493       Y74.2887      R12.5000   
   X6.5258       Y72.8216      R12.5000   
   X6.0000       Y71.2726      R12.5000   
   X5.6809       Y69.6683      R12.5000   
   X5.5793       Y68.1179      R12.5000   
G1   Y17.954    
(Pass: 25)
   Z-2.500     F400 
G17 G3   X5.6809       Y16.4037      R12.5000    F600 
   X6.0000       Y14.7994      R12.5000   
   X6.5258       Y13.2504      R12.5000   
   X7.2493       Y11.7833      R12.5000   
   X8.1581       Y10.4232      R12.5000   
   X9.2367       Y9.1934       R12.5000   
   X10.4665      Y8.1148       R12.5000   
   X11.8266      Y7.2061       R12.5000   
   X13.2937      Y6.4826       R12.5000   
   X14.8427      Y5.9568       R12.5000   
   X16.4470      Y5.6376       R12.5000   
   X17.9975      Y5.5360       R12.5000   
G1   X48.161    
G17 G3   X49.7116      Y5.6376       R12.5000   
   X51.3159      Y5.9568       R12.5000   
   X52.8649      Y6.4826       R12.5000   
   X54.3320      Y7.2061       R12.5000   
   X55.6921      Y8.1148       R12.5000   
   X56.9219      Y9.1934       R12.5000   
   X58.0005      Y10.4232      R12.5000   
   X58.9093      Y11.7833      R12.5000   
   X59.6327      Y13.2504      R12.5000   
   X60.1585      Y14.7994      R12.5000   
   X60.4777      Y16.4037      R12.5000   
   X60.5793      Y17.9542      R12.5000   
G1   Y68.118    
G17 G3   X60.4777      Y69.6683      R12.5000   
   X60.1585      Y71.2726      R12.5000   
   X59.6327      Y72.8216      R12.5000   
   X58.9093      Y74.2887      R12.5000   
   X58.0005      Y75.6488      R12.5000   
   X56.9219      Y76.8786      R12.5000   
   X55.6921      Y77.9572      R12.5000   
   X54.3320      Y78.8660      R12.5000   
   X52.8649      Y79.5895      R12.5000   
   X51.3159      Y80.1153      R12.5000   
   X49.7116      Y80.4344      R12.5000   
   X48.1611      Y80.5360      R12.5000   
G1   X17.997    
G17 G3   X17.3642      Y80.4945      R12.5000   
   X16.4470      Y80.4344      R12.5000   
   X14.8427      Y80.1153      R12.5000   
   X13.2937      Y79.5895      R12.5000   
   X11.8266      Y78.8660      R12.5000   
   X10.4665      Y77.9572      R12.5000   
   X9.2367       Y76.8786      R12.5000   
   X8.1581       Y75.6488      R12.5000   
   X7.2493       Y74.2887      R12.5000   
   X6.5258       Y72.8216      R12.5000   
   X6.0000       Y71.2726      R12.5000   
   X5.6809       Y69.6683      R12.5000   
   X5.5793       Y68.1179      R12.5000   
G1   Y17.954    
(Pass: 26)
   Z-2.600     F400 
G17 G3   X5.6809       Y16.4037      R12.5000    F600 
   X6.0000       Y14.7994      R12.5000   
   X6.5258       Y13.2504      R12.5000   
   X7.2493       Y11.7833      R12.5000   
   X8.1581       Y10.4232      R12.5000   
   X9.2367       Y9.1934       R12.5000   
   X10.4665      Y8.1148       R12.5000   
   X11.8266      Y7.2061       R12.5000   
   X13.2937      Y6.4826       R12.5000   
   X14.8427      Y5.9568       R12.5000   
   X16.4470      Y5.6376       R12.5000   
   X17.9975      Y5.5360       R12.5000   
G1   X48.161    
G17 G3   X49.7116      Y5.6376       R12.5000   
   X51.3159      Y5.9568       R12.5000   
   X52.8649      Y6.4826       R12.5000   
   X54.3320      Y7.2061       R12.5000   
   X55.6921      Y8.1148       R12.5000   
   X56.9219      Y9.1934       R12.5000   
   X58.0005      Y10.4232      R12.5000   
   X58.9093      Y11.7833      R12.5000   
   X59.6327      Y13.2504      R12.5000   
   X60.1585      Y14.7994      R12.5000   
   X60.4777      Y16.4037      R12.5000   
   X60.5793      Y17.9542      R12.5000   
G1   Y68.118    
G17 G3   X60.4777      Y69.6683      R12.5000   
   X60.1585      Y71.2726      R12.5000   
   X59.6327      Y72.8216      R12.5000   
   X58.9093      Y74.2887      R12.5000   
   X58.0005      Y75.6488      R12.5000   
   X56.9219      Y76.8786      R12.5000   
   X55.6921      Y77.9572      R12.5000   
   X54.3320      Y78.8660      R12.5000   
   X52.8649      Y79.5895      R12.5000   
   X51.3159      Y80.1153      R12.5000   
   X49.7116      Y80.4344      R12.5000   
   X48.1611      Y80.5360      R12.5000   
G1   X17.997    
G17 G3   X17.3642      Y80.4945      R12.5000   
   X16.4470      Y80.4344      R12.5000   
   X14.8427      Y80.1153      R12.5000   
   X13.2937      Y79.5895      R12.5000   
   X11.8266      Y78.8660      R12.5000   
   X10.4665      Y77.9572      R12.5000   
   X9.2367       Y76.8786      R12.5000   
   X8.1581       Y75.6488      R12.5000   
   X7.2493       Y74.2887      R12.5000   
   X6.5258       Y72.8216      R12.5000   
   X6.0000       Y71.2726      R12.5000   
   X5.6809       Y69.6683      R12.5000   
   X5.5793       Y68.1179      R12.5000   
G1   Y17.954    
(Pass: 27)
   Z-2.700     F400 
G17 G3   X5.6809       Y16.4037      R12.5000    F600 
   X6.0000       Y14.7994      R12.5000   
   X6.5258       Y13.2504      R12.5000   
   X7.2493       Y11.7833      R12.5000   
   X8.1581       Y10.4232      R12.5000   
   X9.2367       Y9.1934       R12.5000   
   X10.4665      Y8.1148       R12.5000   
   X11.8266      Y7.2061       R12.5000   
   X13.2937      Y6.4826       R12.5000   
   X14.8427      Y5.9568       R12.5000   
   X16.4470      Y5.6376       R12.5000   
   X17.9975      Y5.5360       R12.5000   
G1   X48.161    
G17 G3   X49.7116      Y5.6376       R12.5000   
   X51.3159      Y5.9568       R12.5000   
   X52.8649      Y6.4826       R12.5000   
   X54.3320      Y7.2061       R12.5000   
   X55.6921      Y8.1148       R12.5000   
   X56.9219      Y9.1934       R12.5000   
   X58.0005      Y10.4232      R12.5000   
   X58.9093      Y11.7833      R12.5000   
   X59.6327      Y13.2504      R12.5000   
   X60.1585      Y14.7994      R12.5000   
   X60.4777      Y16.4037      R12.5000   
   X60.5793      Y17.9542      R12.5000   
G1   Y68.118    
G17 G3   X60.4777      Y69.6683      R12.5000   
   X60.1585      Y71.2726      R12.5000   
   X59.6327      Y72.8216      R12.5000   
   X58.9093      Y74.2887      R12.5000   
   X58.0005      Y75.6488      R12.5000   
   X56.9219      Y76.8786      R12.5000   
   X55.6921      Y77.9572      R12.5000   
   X54.3320      Y78.8660      R12.5000   
   X52.8649      Y79.5895      R12.5000   
   X51.3159      Y80.1153      R12.5000   
   X49.7116      Y80.4344      R12.5000   
   X48.1611      Y80.5360      R12.5000   
G1   X17.997    
G17 G3   X17.3642      Y80.4945      R12.5000   
   X16.4470      Y80.4344      R12.5000   
   X14.8427      Y80.1153      R12.5000   
   X13.2937      Y79.5895      R12.5000   
   X11.8266      Y78.8660      R12.5000   
   X10.4665      Y77.9572      R12.5000   
   X9.2367       Y76.8786      R12.5000   
   X8.1581       Y75.6488      R12.5000   
   X7.2493       Y74.2887      R12.5000   
   X6.5258       Y72.8216      R12.5000   
   X6.0000       Y71.2726      R12.5000   
   X5.6809       Y69.6683      R12.5000   
   X5.5793       Y68.1179      R12.5000   
G1   Y17.954    
(Pass: 28)
   Z-2.800     F400 
G17 G3   X5.6809       Y16.4037      R12.5000    F600 
   X6.0000       Y14.7994      R12.5000   
   X6.5258       Y13.2504      R12.5000   
   X7.2493       Y11.7833      R12.5000   
   X8.1581       Y10.4232      R12.5000   
   X9.2367       Y9.1934       R12.5000   
   X10.4665      Y8.1148       R12.5000   
   X11.8266      Y7.2061       R12.5000   
   X13.2937      Y6.4826       R12.5000   
   X14.8427      Y5.9568       R12.5000   
   X16.4470      Y5.6376       R12.5000   
   X17.9975      Y5.5360       R12.5000   
G1   X48.161    
G17 G3   X49.7116      Y5.6376       R12.5000   
   X51.3159      Y5.9568       R12.5000   
   X52.8649      Y6.4826       R12.5000   
   X54.3320      Y7.2061       R12.5000   
   X55.6921      Y8.1148       R12.5000   
   X56.9219      Y9.1934       R12.5000   
   X58.0005      Y10.4232      R12.5000   
   X58.9093      Y11.7833      R12.5000   
   X59.6327      Y13.2504      R12.5000   
   X60.1585      Y14.7994      R12.5000   
   X60.4777      Y16.4037      R12.5000   
   X60.5793      Y17.9542      R12.5000   
G1   Y68.118    
G17 G3   X60.4777      Y69.6683      R12.5000   
   X60.1585      Y71.2726      R12.5000   
   X59.6327      Y72.8216      R12.5000   
   X58.9093      Y74.2887      R12.5000   
   X58.0005      Y75.6488      R12.5000   
   X56.9219      Y76.8786      R12.5000   
   X55.6921      Y77.9572      R12.5000   
   X54.3320      Y78.8660      R12.5000   
   X52.8649      Y79.5895      R12.5000   
   X51.3159      Y80.1153      R12.5000   
   X49.7116      Y80.4344      R12.5000   
   X48.1611      Y80.5360      R12.5000   
G1   X17.997    
G17 G3   X17.3642      Y80.4945      R12.5000   
   X16.4470      Y80.4344      R12.5000   
   X14.8427      Y80.1153      R12.5000   
   X13.2937      Y79.5895      R12.5000   
   X11.8266      Y78.8660      R12.5000   
   X10.4665      Y77.9572      R12.5000   
   X9.2367       Y76.8786      R12.5000   
   X8.1581       Y75.6488      R12.5000   
   X7.2493       Y74.2887      R12.5000   
   X6.5258       Y72.8216      R12.5000   
   X6.0000       Y71.2726      R12.5000   
   X5.6809       Y69.6683      R12.5000   
   X5.5793       Y68.1179      R12.5000   
G1   Y17.954    
(Pass: 29)
   Z-2.900     F400 
G17 G3   X5.6809       Y16.4037      R12.5000    F600 
   X6.0000       Y14.7994      R12.5000   
   X6.5258       Y13.2504      R12.5000   
   X7.2493       Y11.7833      R12.5000   
   X8.1581       Y10.4232      R12.5000   
   X9.2367       Y9.1934       R12.5000   
   X10.4665      Y8.1148       R12.5000   
   X11.8266      Y7.2061       R12.5000   
   X13.2937      Y6.4826       R12.5000   
   X14.8427      Y5.9568       R12.5000   
   X16.4470      Y5.6376       R12.5000   
   X17.9975      Y5.5360       R12.5000   
G1   X48.161    
G17 G3   X49.7116      Y5.6376       R12.5000   
   X51.3159      Y5.9568       R12.5000   
   X52.8649      Y6.4826       R12.5000   
   X54.3320      Y7.2061       R12.5000   
   X55.6921      Y8.1148       R12.5000   
   X56.9219      Y9.1934       R12.5000   
   X58.0005      Y10.4232      R12.5000   
   X58.9093      Y11.7833      R12.5000   
   X59.6327      Y13.2504      R12.5000   
   X60.1585      Y14.7994      R12.5000   
   X60.4777      Y16.4037      R12.5000   
   X60.5793      Y17.9542      R12.5000   
G1   Y68.118    
G17 G3   X60.4777      Y69.6683      R12.5000   
   X60.1585      Y71.2726      R12.5000   
   X59.6327      Y72.8216      R12.5000   
   X58.9093      Y74.2887      R12.5000   
   X58.0005      Y75.6488      R12.5000   
   X56.9219      Y76.8786      R12.5000   
   X55.6921      Y77.9572      R12.5000   
   X54.3320      Y78.8660      R12.5000   
   X52.8649      Y79.5895      R12.5000   
   X51.3159      Y80.1153      R12.5000   
   X49.7116      Y80.4344      R12.5000   
   X48.1611      Y80.5360      R12.5000   
G1   X17.997    
G17 G3   X17.3642      Y80.4945      R12.5000   
   X16.4470      Y80.4344      R12.5000   
   X14.8427      Y80.1153      R12.5000   
   X13.2937      Y79.5895      R12.5000   
   X11.8266      Y78.8660      R12.5000   
   X10.4665      Y77.9572      R12.5000   
   X9.2367       Y76.8786      R12.5000   
   X8.1581       Y75.6488      R12.5000   
   X7.2493       Y74.2887      R12.5000   
   X6.5258       Y72.8216      R12.5000   
   X6.0000       Y71.2726      R12.5000   
   X5.6809       Y69.6683      R12.5000   
   X5.5793       Y68.1179      R12.5000   
G1   Y17.954    
(Pass: 30)
   Z-3.000     F400 
G17 G3   X5.6809       Y16.4037      R12.5000    F600 
   X6.0000       Y14.7994      R12.5000   
   X6.5258       Y13.2504      R12.5000   
   X7.2493       Y11.7833      R12.5000   
   X8.1581       Y10.4232      R12.5000   
   X9.2367       Y9.1934       R12.5000   
   X10.4665      Y8.1148       R12.5000   
   X11.8266      Y7.2061       R12.5000   
   X13.2937      Y6.4826       R12.5000   
   X14.8427      Y5.9568       R12.5000   
   X16.4470      Y5.6376       R12.5000   
   X17.9975      Y5.5360       R12.5000   
G1   X48.161    
G17 G3   X49.7116      Y5.6376       R12.5000   
   X51.3159      Y5.9568       R12.5000   
   X52.8649      Y6.4826       R12.5000   
   X54.3320      Y7.2061       R12.5000   
   X55.6921      Y8.1148       R12.5000   
   X56.9219      Y9.1934       R12.5000   
   X58.0005      Y10.4232      R12.5000   
   X58.9093      Y11.7833      R12.5000   
   X59.6327      Y13.2504      R12.5000   
   X60.1585      Y14.7994      R12.5000   
   X60.4777      Y16.4037      R12.5000   
   X60.5793      Y17.9542      R12.5000   
G1   Y68.118    
G17 G3   X60.4777      Y69.6683      R12.5000   
   X60.1585      Y71.2726      R12.5000   
   X59.6327      Y72.8216      R12.5000   
   X58.9093      Y74.2887      R12.5000   
   X58.0005      Y75.6488      R12.5000   
   X56.9219      Y76.8786      R12.5000   
   X55.6921      Y77.9572      R12.5000   
   X54.3320      Y78.8660      R12.5000   
   X52.8649      Y79.5895      R12.5000   
   X51.3159      Y80.1153      R12.5000   
   X49.7116      Y80.4344      R12.5000   
   X48.1611      Y80.5360      R12.5000   
G1   X17.997    
G17 G3   X17.3642      Y80.4945      R12.5000   
   X16.4470      Y80.4344      R12.5000   
   X14.8427      Y80.1153      R12.5000   
   X13.2937      Y79.5895      R12.5000   
   X11.8266      Y78.8660      R12.5000   
   X10.4665      Y77.9572      R12.5000   
   X9.2367       Y76.8786      R12.5000   
   X8.1581       Y75.6488      R12.5000   
   X7.2493       Y74.2887      R12.5000   
   X6.5258       Y72.8216      R12.5000   
   X6.0000       Y71.2726      R12.5000   
   X5.6809       Y69.6683      R12.5000   
   X5.5793       Y68.1179      R12.5000   
G1   Y17.954    
(Pass: 31)
   Z-3.100     F400 
G17 G3   X5.6809       Y16.4037      R12.5000    F600 
   X6.0000       Y14.7994      R12.5000   
   X6.5258       Y13.2504      R12.5000   
   X7.2493       Y11.7833      R12.5000   
   X8.1581       Y10.4232      R12.5000   
   X9.2367       Y9.1934       R12.5000   
   X10.4665      Y8.1148       R12.5000   
   X11.8266      Y7.2061       R12.5000   
   X13.2937      Y6.4826       R12.5000   
   X14.8427      Y5.9568       R12.5000   
   X16.4470      Y5.6376       R12.5000   
   X17.9975      Y5.5360       R12.5000   
G1   X48.161    
G17 G3   X49.7116      Y5.6376       R12.5000   
   X51.3159      Y5.9568       R12.5000   
   X52.8649      Y6.4826       R12.5000   
   X54.3320      Y7.2061       R12.5000   
   X55.6921      Y8.1148       R12.5000   
   X56.9219      Y9.1934       R12.5000   
   X58.0005      Y10.4232      R12.5000   
   X58.9093      Y11.7833      R12.5000   
   X59.6327      Y13.2504      R12.5000   
   X60.1585      Y14.7994      R12.5000   
   X60.4777      Y16.4037      R12.5000   
   X60.5793      Y17.9542      R12.5000   
G1   Y68.118    
G17 G3   X60.4777      Y69.6683      R12.5000   
   X60.1585      Y71.2726      R12.5000   
   X59.6327      Y72.8216      R12.5000   
   X58.9093      Y74.2887      R12.5000   
   X58.0005      Y75.6488      R12.5000   
   X56.9219      Y76.8786      R12.5000   
   X55.6921      Y77.9572      R12.5000   
   X54.3320      Y78.8660      R12.5000   
   X52.8649      Y79.5895      R12.5000   
   X51.3159      Y80.1153      R12.5000   
   X49.7116      Y80.4344      R12.5000   
   X48.1611      Y80.5360      R12.5000   
G1   X17.997    
G17 G3   X17.3642      Y80.4945      R12.5000   
   X16.4470      Y80.4344      R12.5000   
   X14.8427      Y80.1153      R12.5000   
   X13.2937      Y79.5895      R12.5000   
   X11.8266      Y78.8660      R12.5000   
   X10.4665      Y77.9572      R12.5000   
   X9.2367       Y76.8786      R12.5000   
   X8.1581       Y75.6488      R12.5000   
   X7.2493       Y74.2887      R12.5000   
   X6.5258       Y72.8216      R12.5000   
   X6.0000       Y71.2726      R12.5000   
   X5.6809       Y69.6683      R12.5000   
   X5.5793       Y68.1179      R12.5000   
G1   Y17.954    
(Pass: 32)
   Z-3.200     F400 
G17 G3   X5.6809       Y16.4037      R12.5000    F600 
   X6.0000       Y14.7994      R12.5000   
   X6.5258       Y13.2504      R12.5000   
   X7.2493       Y11.7833      R12.5000   
   X8.1581       Y10.4232      R12.5000   
   X9.2367       Y9.1934       R12.5000   
   X10.4665      Y8.1148       R12.5000   
   X11.8266      Y7.2061       R12.5000   
   X13.2937      Y6.4826       R12.5000   
   X14.8427      Y5.9568       R12.5000   
   X16.4470      Y5.6376       R12.5000   
   X17.9975      Y5.5360       R12.5000   
G1   X48.161    
G17 G3   X49.7116      Y5.6376       R12.5000   
   X51.3159      Y5.9568       R12.5000   
   X52.8649      Y6.4826       R12.5000   
   X54.3320      Y7.2061       R12.5000   
   X55.6921      Y8.1148       R12.5000   
   X56.9219      Y9.1934       R12.5000   
   X58.0005      Y10.4232      R12.5000   
   X58.9093      Y11.7833      R12.5000   
   X59.6327      Y13.2504      R12.5000   
   X60.1585      Y14.7994      R12.5000   
   X60.4777      Y16.4037      R12.5000   
   X60.5793      Y17.9542      R12.5000   
G1   Y68.118    
G17 G3   X60.4777      Y69.6683      R12.5000   
   X60.1585      Y71.2726      R12.5000   
   X59.6327      Y72.8216      R12.5000   
   X58.9093      Y74.2887      R12.5000   
   X58.0005      Y75.6488      R12.5000   
   X56.9219      Y76.8786      R12.5000   
   X55.6921      Y77.9572      R12.5000   
   X54.3320      Y78.8660      R12.5000   
   X52.8649      Y79.5895      R12.5000   
   X51.3159      Y80.1153      R12.5000   
   X49.7116      Y80.4344      R12.5000   
   X48.1611      Y80.5360      R12.5000   
G1   X17.997    
G17 G3   X17.3642      Y80.4945      R12.5000   
   X16.4470      Y80.4344      R12.5000   
   X14.8427      Y80.1153      R12.5000   
   X13.2937      Y79.5895      R12.5000   
   X11.8266      Y78.8660      R12.5000   
   X10.4665      Y77.9572      R12.5000   
   X9.2367       Y76.8786      R12.5000   
   X8.1581       Y75.6488      R12.5000   
   X7.2493       Y74.2887      R12.5000   
   X6.5258       Y72.8216      R12.5000   
   X6.0000       Y71.2726      R12.5000   
   X5.6809       Y69.6683      R12.5000   
   X5.5793       Y68.1179      R12.5000   
G1   Y17.954    
(Pass: 33)
   Z-3.300     F400 
G17 G3   X5.6809       Y16.4037      R12.5000    F600 
   X6.0000       Y14.7994      R12.5000   
   X6.5258       Y13.2504      R12.5000   
   X7.2493       Y11.7833      R12.5000   
   X8.1581       Y10.4232      R12.5000   
   X9.2367       Y9.1934       R12.5000   
   X10.4665      Y8.1148       R12.5000   
   X11.8266      Y7.2061       R12.5000   
   X13.2937      Y6.4826       R12.5000   
   X14.8427      Y5.9568       R12.5000   
   X16.4470      Y5.6376       R12.5000   
   X17.9975      Y5.5360       R12.5000   
G1   X48.161    
G17 G3   X49.7116      Y5.6376       R12.5000   
   X51.3159      Y5.9568       R12.5000   
   X52.8649      Y6.4826       R12.5000   
   X54.3320      Y7.2061       R12.5000   
   X55.6921      Y8.1148       R12.5000   
   X56.9219      Y9.1934       R12.5000   
   X58.0005      Y10.4232      R12.5000   
   X58.9093      Y11.7833      R12.5000   
   X59.6327      Y13.2504      R12.5000   
   X60.1585      Y14.7994      R12.5000   
   X60.4777      Y16.4037      R12.5000   
   X60.5793      Y17.9542      R12.5000   
G1   Y68.118    
G17 G3   X60.4777      Y69.6683      R12.5000   
   X60.1585      Y71.2726      R12.5000   
   X59.6327      Y72.8216      R12.5000   
   X58.9093      Y74.2887      R12.5000   
   X58.0005      Y75.6488      R12.5000   
   X56.9219      Y76.8786      R12.5000   
   X55.6921      Y77.9572      R12.5000   
   X54.3320      Y78.8660      R12.5000   
   X52.8649      Y79.5895      R12.5000   
   X51.3159      Y80.1153      R12.5000   
   X49.7116      Y80.4344      R12.5000   
   X48.1611      Y80.5360      R12.5000   
G1   X17.997    
G17 G3   X17.3642      Y80.4945      R12.5000   
   X16.4470      Y80.4344      R12.5000   
   X14.8427      Y80.1153      R12.5000   
   X13.2937      Y79.5895      R12.5000   
   X11.8266      Y78.8660      R12.5000   
   X10.4665      Y77.9572      R12.5000   
   X9.2367       Y76.8786      R12.5000   
   X8.1581       Y75.6488      R12.5000   
   X7.2493       Y74.2887      R12.5000   
   X6.5258       Y72.8216      R12.5000   
   X6.0000       Y71.2726      R12.5000   
   X5.6809       Y69.6683      R12.5000   
   X5.5793       Y68.1179      R12.5000   
G1   Y17.954    
(Pass: 34)
   Z-3.400     F400 
G17 G3   X5.6809       Y16.4037      R12.5000    F600 
   X6.0000       Y14.7994      R12.5000   
   X6.5258       Y13.2504      R12.5000   
   X7.2493       Y11.7833      R12.5000   
   X8.1581       Y10.4232      R12.5000   
   X9.2367       Y9.1934       R12.5000   
   X10.4665      Y8.1148       R12.5000   
   X11.8266      Y7.2061       R12.5000   
   X13.2937      Y6.4826       R12.5000   
   X14.8427      Y5.9568       R12.5000   
   X16.4470      Y5.6376       R12.5000   
   X17.9975      Y5.5360       R12.5000   
G1   X48.161    
G17 G3   X49.7116      Y5.6376       R12.5000   
   X51.3159      Y5.9568       R12.5000   
   X52.8649      Y6.4826       R12.5000   
   X54.3320      Y7.2061       R12.5000   
   X55.6921      Y8.1148       R12.5000   
   X56.9219      Y9.1934       R12.5000   
   X58.0005      Y10.4232      R12.5000   
   X58.9093      Y11.7833      R12.5000   
   X59.6327      Y13.2504      R12.5000   
   X60.1585      Y14.7994      R12.5000   
   X60.4777      Y16.4037      R12.5000   
   X60.5793      Y17.9542      R12.5000   
G1   Y68.118    
G17 G3   X60.4777      Y69.6683      R12.5000   
   X60.1585      Y71.2726      R12.5000   
   X59.6327      Y72.8216      R12.5000   
