%
(Generated by SketchUcam {1.2b1})
(File: Router Plates.skp)
(Bit diameter: 2.5mm)
(Feed rate: 400.0mm/min)
(Material Thickness: 3.4mm)
(Material length: 600.0mm X width: 300.0mm)
(Overhead Gantry: true)
(Retract feed rate NOT limited to plunge feed rate)
(Multipass enabled, Depth = 0.1mm)
(Optimization is ON)
(www.PhlatBoyz.com)
G90 G21 G49 
M3 S11000
G0   Z6.000     
(Pass: 1)
   X24.142       Y20.145    
G1   Z-0.100     F400 
G17 G2   X23.9452      Y20.4021      R1.2500    
   X23.8214      Y20.7010      R1.2500    
   X23.7792      Y21.0217      R1.2500    
   X23.8214      Y21.3424      R1.2500    
   X23.9452      Y21.6413      R1.2500    
   X24.1421      Y21.8980      R1.2500    
   X24.3988      Y22.0949      R1.2500    
   X24.6976      Y22.2187      R1.2500    
   X25.0184      Y22.2609      R1.2500    
   X25.3391      Y22.2187      R1.2500    
   X25.6380      Y22.0949      R1.2500    
   X25.8946      Y21.8980      R1.2500    
   X26.0916      Y21.6413      R1.2500    
   X26.2154      Y21.3424      R1.2500    
   X26.2576      Y21.0217      R1.2500    
   X26.2154      Y20.7010      R1.2500    
   X26.0916      Y20.4021      R1.2500    
   X25.8946      Y20.1454      R1.2500    
   X25.6380      Y19.9485      R1.2500    
   X25.3391      Y19.8247      R1.2500    
   X25.0184      Y19.7825      R1.2500    
   X24.6976      Y19.8247      R1.2500    
   X24.3988      Y19.9485      R1.2500    
   X24.1421      Y20.1454      R1.2500    
(Pass: 2)
G1   Z-0.200    
G17 G2   X23.9452      Y20.4021      R1.2500    
   X23.8214      Y20.7010      R1.2500    
   X23.7792      Y21.0217      R1.2500    
   X23.8214      Y21.3424      R1.2500    
   X23.9452      Y21.6413      R1.2500    
   X24.1421      Y21.8980      R1.2500    
   X24.3988      Y22.0949      R1.2500    
   X24.6976      Y22.2187      R1.2500    
   X25.0184      Y22.2609      R1.2500    
   X25.3391      Y22.2187      R1.2500    
   X25.6380      Y22.0949      R1.2500    
   X25.8946      Y21.8980      R1.2500    
   X26.0916      Y21.6413      R1.2500    
   X26.2154      Y21.3424      R1.2500    
   X26.2576      Y21.0217      R1.2500    
   X26.2154      Y20.7010      R1.2500    
   X26.0916      Y20.4021      R1.2500    
   X25.8946      Y20.1454      R1.2500    
   X25.6380      Y19.9485      R1.2500    
   X25.3391      Y19.8247      R1.2500    
   X25.0184      Y19.7825      R1.2500    
   X24.6976      Y19.8247      R1.2500    
   X24.3988      Y19.9485      R1.2500    
   X24.1421      Y20.1454      R1.2500    
(Pass: 3)
G1   Z-0.300    
G17 G2   X23.9452      Y20.4021      R1.2500    
   X23.8214      Y20.7010      R1.2500    
   X23.7792      Y21.0217      R1.2500    
   X23.8214      Y21.3424      R1.2500    
   X23.9452      Y21.6413      R1.2500    
   X24.1421      Y21.8980      R1.2500    
   X24.3988      Y22.0949      R1.2500    
   X24.6976      Y22.2187      R1.2500    
   X25.0184      Y22.2609      R1.2500    
   X25.3391      Y22.2187      R1.2500    
   X25.6380      Y22.0949      R1.2500    
   X25.8946      Y21.8980      R1.2500    
   X26.0916      Y21.6413      R1.2500    
   X26.2154      Y21.3424      R1.2500    
   X26.2576      Y21.0217      R1.2500    
   X26.2154      Y20.7010      R1.2500    
   X26.0916      Y20.4021      R1.2500    
   X25.8946      Y20.1454      R1.2500    
   X25.6380      Y19.9485      R1.2500    
   X25.3391      Y19.8247      R1.2500    
   X25.0184      Y19.7825      R1.2500    
   X24.6976      Y19.8247      R1.2500    
   X24.3988      Y19.9485      R1.2500    
   X24.1421      Y20.1454      R1.2500    
(Pass: 4)
G1   Z-0.400    
G17 G2   X23.9452      Y20.4021      R1.2500    
   X23.8214      Y20.7010      R1.2500    
   X23.7792      Y21.0217      R1.2500    
   X23.8214      Y21.3424      R1.2500    
   X23.9452      Y21.6413      R1.2500    
   X24.1421      Y21.8980      R1.2500    
   X24.3988      Y22.0949      R1.2500    
   X24.6976      Y22.2187      R1.2500    
   X25.0184      Y22.2609      R1.2500    
   X25.3391      Y22.2187      R1.2500    
   X25.6380      Y22.0949      R1.2500    
   X25.8946      Y21.8980      R1.2500    
   X26.0916      Y21.6413      R1.2500    
   X26.2154      Y21.3424      R1.2500    
   X26.2576      Y21.0217      R1.2500    
   X26.2154      Y20.7010      R1.2500    
   X26.0916      Y20.4021      R1.2500    
   X25.8946      Y20.1454      R1.2500    
   X25.6380      Y19.9485      R1.2500    
   X25.3391      Y19.8247      R1.2500    
   X25.0184      Y19.7825      R1.2500    
   X24.6976      Y19.8247      R1.2500    
   X24.3988      Y19.9485      R1.2500    
   X24.1421      Y20.1454      R1.2500    
(Pass: 5)
G1   Z-0.500    
G17 G2   X23.9452      Y20.4021      R1.2500    
   X23.8214      Y20.7010      R1.2500    
   X23.7792      Y21.0217      R1.2500    
   X23.8214      Y21.3424      R1.2500    
   X23.9452      Y21.6413      R1.2500    
   X24.1421      Y21.8980      R1.2500    
   X24.3988      Y22.0949      R1.2500    
   X24.6976      Y22.2187      R1.2500    
   X25.0184      Y22.2609      R1.2500    
   X25.3391      Y22.2187      R1.2500    
   X25.6380      Y22.0949      R1.2500    
   X25.8946      Y21.8980      R1.2500    
   X26.0916      Y21.6413      R1.2500    
   X26.2154      Y21.3424      R1.2500    
   X26.2576      Y21.0217      R1.2500    
   X26.2154      Y20.7010      R1.2500    
   X26.0916      Y20.4021      R1.2500    
   X25.8946      Y20.1454      R1.2500    
   X25.6380      Y19.9485      R1.2500    
   X25.3391      Y19.8247      R1.2500    
   X25.0184      Y19.7825      R1.2500    
   X24.6976      Y19.8247      R1.2500    
   X24.3988      Y19.9485      R1.2500    
   X24.1421      Y20.1454      R1.2500    
(Pass: 6)
G1   Z-0.600    
G17 G2   X23.9452      Y20.4021      R1.2500    
   X23.8214      Y20.7010      R1.2500    
   X23.7792      Y21.0217      R1.2500    
   X23.8214      Y21.3424      R1.2500    
   X23.9452      Y21.6413      R1.2500    
   X24.1421      Y21.8980      R1.2500    
   X24.3988      Y22.0949      R1.2500    
   X24.6976      Y22.2187      R1.2500    
   X25.0184      Y22.2609      R1.2500    
   X25.3391      Y22.2187      R1.2500    
   X25.6380      Y22.0949      R1.2500    
   X25.8946      Y21.8980      R1.2500    
   X26.0916      Y21.6413      R1.2500    
   X26.2154      Y21.3424      R1.2500    
   X26.2576      Y21.0217      R1.2500    
   X26.2154      Y20.7010      R1.2500    
   X26.0916      Y20.4021      R1.2500    
   X25.8946      Y20.1454      R1.2500    
   X25.6380      Y19.9485      R1.2500    
   X25.3391      Y19.8247      R1.2500    
   X25.0184      Y19.7825      R1.2500    
   X24.6976      Y19.8247      R1.2500    
   X24.3988      Y19.9485      R1.2500    
   X24.1421      Y20.1454      R1.2500    
(Pass: 7)
G1   Z-0.700    
G17 G2   X23.9452      Y20.4021      R1.2500    
   X23.8214      Y20.7010      R1.2500    
   X23.7792      Y21.0217      R1.2500    
   X23.8214      Y21.3424      R1.2500    
   X23.9452      Y21.6413      R1.2500    
   X24.1421      Y21.8980      R1.2500    
   X24.3988      Y22.0949      R1.2500    
   X24.6976      Y22.2187      R1.2500    
   X25.0184      Y22.2609      R1.2500    
   X25.3391      Y22.2187      R1.2500    
   X25.6380      Y22.0949      R1.2500    
   X25.8946      Y21.8980      R1.2500    
   X26.0916      Y21.6413      R1.2500    
   X26.2154      Y21.3424      R1.2500    
   X26.2576      Y21.0217      R1.2500    
   X26.2154      Y20.7010      R1.2500    
   X26.0916      Y20.4021      R1.2500    
   X25.8946      Y20.1454      R1.2500    
   X25.6380      Y19.9485      R1.2500    
   X25.3391      Y19.8247      R1.2500    
   X25.0184      Y19.7825      R1.2500    
   X24.6976      Y19.8247      R1.2500    
   X24.3988      Y19.9485      R1.2500    
   X24.1421      Y20.1454      R1.2500    
(Pass: 8)
G1   Z-0.800    
G17 G2   X23.9452      Y20.4021      R1.2500    
   X23.8214      Y20.7010      R1.2500    
   X23.7792      Y21.0217      R1.2500    
   X23.8214      Y21.3424      R1.2500    
   X23.9452      Y21.6413      R1.2500    
   X24.1421      Y21.8980      R1.2500    
   X24.3988      Y22.0949      R1.2500    
   X24.6976      Y22.2187      R1.2500    
   X25.0184      Y22.2609      R1.2500    
   X25.3391      Y22.2187      R1.2500    
   X25.6380      Y22.0949      R1.2500    
   X25.8946      Y21.8980      R1.2500    
   X26.0916      Y21.6413      R1.2500    
   X26.2154      Y21.3424      R1.2500    
   X26.2576      Y21.0217      R1.2500    
   X26.2154      Y20.7010      R1.2500    
   X26.0916      Y20.4021      R1.2500    
   X25.8946      Y20.1454      R1.2500    
   X25.6380      Y19.9485      R1.2500    
   X25.3391      Y19.8247      R1.2500    
   X25.0184      Y19.7825      R1.2500    
   X24.6976      Y19.8247      R1.2500    
   X24.3988      Y19.9485      R1.2500    
   X24.1421      Y20.1454      R1.2500    
(Pass: 9)
G1   Z-0.900    
G17 G2   X23.9452      Y20.4021      R1.2500    
   X23.8214      Y20.7010      R1.2500    
   X23.7792      Y21.0217      R1.2500    
   X23.8214      Y21.3424      R1.2500    
   X23.9452      Y21.6413      R1.2500    
   X24.1421      Y21.8980      R1.2500    
   X24.3988      Y22.0949      R1.2500    
   X24.6976      Y22.2187      R1.2500    
   X25.0184      Y22.2609      R1.2500    
   X25.3391      Y22.2187      R1.2500    
   X25.6380      Y22.0949      R1.2500    
   X25.8946      Y21.8980      R1.2500    
   X26.0916      Y21.6413      R1.2500    
   X26.2154      Y21.3424      R1.2500    
   X26.2576      Y21.0217      R1.2500    
   X26.2154      Y20.7010      R1.2500    
   X26.0916      Y20.4021      R1.2500    
   X25.8946      Y20.1454      R1.2500    
   X25.6380      Y19.9485      R1.2500    
   X25.3391      Y19.8247      R1.2500    
   X25.0184      Y19.7825      R1.2500    
   X24.6976      Y19.8247      R1.2500    
   X24.3988      Y19.9485      R1.2500    
   X24.1421      Y20.1454      R1.2500    
(Pass: 10)
G1   Z-1.000    
G17 G2   X23.9452      Y20.4021      R1.2500    
   X23.8214      Y20.7010      R1.2500    
   X23.7792      Y21.0217      R1.2500    
   X23.8214      Y21.3424      R1.2500    
   X23.9452      Y21.6413      R1.2500    
   X24.1421      Y21.8980      R1.2500    
   X24.3988      Y22.0949      R1.2500    
   X24.6976      Y22.2187      R1.2500    
   X25.0184      Y22.2609      R1.2500    
   X25.3391      Y22.2187      R1.2500    
   X25.6380      Y22.0949      R1.2500    
   X25.8946      Y21.8980      R1.2500    
   X26.0916      Y21.6413      R1.2500    
   X26.2154      Y21.3424      R1.2500    
   X26.2576      Y21.0217      R1.2500    
   X26.2154      Y20.7010      R1.2500    
   X26.0916      Y20.4021      R1.2500    
   X25.8946      Y20.1454      R1.2500    
   X25.6380      Y19.9485      R1.2500    
   X25.3391      Y19.8247      R1.2500    
   X25.0184      Y19.7825      R1.2500    
   X24.6976      Y19.8247      R1.2500    
   X24.3988      Y19.9485      R1.2500    
   X24.1421      Y20.1454      R1.2500    
(Pass: 11)
G1   Z-1.100    
G17 G2   X23.9452      Y20.4021      R1.2500    
   X23.8214      Y20.7010      R1.2500    
   X23.7792      Y21.0217      R1.2500    
   X23.8214      Y21.3424      R1.2500    
   X23.9452      Y21.6413      R1.2500    
   X24.1421      Y21.8980      R1.2500    
   X24.3988      Y22.0949      R1.2500    
   X24.6976      Y22.2187      R1.2500    
   X25.0184      Y22.2609      R1.2500    
   X25.3391      Y22.2187      R1.2500    
   X25.6380      Y22.0949      R1.2500    
   X25.8946      Y21.8980      R1.2500    
   X26.0916      Y21.6413      R1.2500    
   X26.2154      Y21.3424      R1.2500    
   X26.2576      Y21.0217      R1.2500    
   X26.2154      Y20.7010      R1.2500    
   X26.0916      Y20.4021      R1.2500    
   X25.8946      Y20.1454      R1.2500    
   X25.6380      Y19.9485      R1.2500    
   X25.3391      Y19.8247      R1.2500    
   X25.0184      Y19.7825      R1.2500    
   X24.6976      Y19.8247      R1.2500    
   X24.3988      Y19.9485      R1.2500    
   X24.1421      Y20.1454      R1.2500    
(Pass: 12)
G1   Z-1.200    
G17 G2   X23.9452      Y20.4021      R1.2500    
   X23.8214      Y20.7010      R1.2500    
   X23.7792      Y21.0217      R1.2500    
   X23.8214      Y21.3424      R1.2500    
   X23.9452      Y21.6413      R1.2500    
   X24.1421      Y21.8980      R1.2500    
   X24.3988      Y22.0949      R1.2500    
   X24.6976      Y22.2187      R1.2500    
   X25.0184      Y22.2609      R1.2500    
   X25.3391      Y22.2187      R1.2500    
   X25.6380      Y22.0949      R1.2500    
   X25.8946      Y21.8980      R1.2500    
   X26.0916      Y21.6413      R1.2500    
   X26.2154      Y21.3424      R1.2500    
   X26.2576      Y21.0217      R1.2500    
   X26.2154      Y20.7010      R1.2500    
   X26.0916      Y20.4021      R1.2500    
   X25.8946      Y20.1454      R1.2500    
   X25.6380      Y19.9485      R1.2500    
   X25.3391      Y19.8247      R1.2500    
   X25.0184      Y19.7825      R1.2500    
   X24.6976      Y19.8247      R1.2500    
   X24.3988      Y19.9485      R1.2500    
   X24.1421      Y20.1454      R1.2500    
(Pass: 13)
G1   Z-1.300    
G17 G2   X23.9452      Y20.4021      R1.2500    
   X23.8214      Y20.7010      R1.2500    
   X23.7792      Y21.0217      R1.2500    
   X23.8214      Y21.3424      R1.2500    
   X23.9452      Y21.6413      R1.2500    
   X24.1421      Y21.8980      R1.2500    
   X24.3988      Y22.0949      R1.2500    
   X24.6976      Y22.2187      R1.2500    
   X25.0184      Y22.2609      R1.2500    
   X25.3391      Y22.2187      R1.2500    
   X25.6380      Y22.0949      R1.2500    
   X25.8946      Y21.8980      R1.2500    
   X26.0916      Y21.6413      R1.2500    
   X26.2154      Y21.3424      R1.2500    
   X26.2576      Y21.0217      R1.2500    
   X26.2154      Y20.7010      R1.2500    
   X26.0916      Y20.4021      R1.2500    
   X25.8946      Y20.1454      R1.2500    
   X25.6380      Y19.9485      R1.2500    
   X25.3391      Y19.8247      R1.2500    
   X25.0184      Y19.7825      R1.2500    
   X24.6976      Y19.8247      R1.2500    
   X24.3988      Y19.9485      R1.2500    
   X24.1421      Y20.1454      R1.2500    
(Pass: 14)
G1   Z-1.400    
G17 G2   X23.9452      Y20.4021      R1.2500    
   X23.8214      Y20.7010      R1.2500    
   X23.7792      Y21.0217      R1.2500    
   X23.8214      Y21.3424      R1.2500    
   X23.9452      Y21.6413      R1.2500    
   X24.1421      Y21.8980      R1.2500    
   X24.3988      Y22.0949      R1.2500    
   X24.6976      Y22.2187      R1.2500    
   X25.0184      Y22.2609      R1.2500    
   X25.3391      Y22.2187      R1.2500    
   X25.6380      Y22.0949      R1.2500    
   X25.8946      Y21.8980      R1.2500    
   X26.0916      Y21.6413      R1.2500    
   X26.2154      Y21.3424      R1.2500    
   X26.2576      Y21.0217      R1.2500    
   X26.2154      Y20.7010      R1.2500    
   X26.0916      Y20.4021      R1.2500    
   X25.8946      Y20.1454      R1.2500    
   X25.6380      Y19.9485      R1.2500    
   X25.3391      Y19.8247      R1.2500    
   X25.0184      Y19.7825      R1.2500    
   X24.6976      Y19.8247      R1.2500    
   X24.3988      Y19.9485      R1.2500    
   X24.1421      Y20.1454      R1.2500    
(Pass: 15)
G1   Z-1.500    
G17 G2   X23.9452      Y20.4021      R1.2500    
   X23.8214      Y20.7010      R1.2500    
   X23.7792      Y21.0217      R1.2500    
   X23.8214      Y21.3424      R1.2500    
   X23.9452      Y21.6413      R1.2500    
   X24.1421      Y21.8980      R1.2500    
   X24.3988      Y22.0949      R1.2500    
   X24.6976      Y22.2187      R1.2500    
   X25.0184      Y22.2609      R1.2500    
   X25.3391      Y22.2187      R1.2500    
   X25.6380      Y22.0949      R1.2500    
   X25.8946      Y21.8980      R1.2500    
   X26.0916      Y21.6413      R1.2500    
   X26.2154      Y21.3424      R1.2500    
   X26.2576      Y21.0217      R1.2500    
   X26.2154      Y20.7010      R1.2500    
   X26.0916      Y20.4021      R1.2500    
   X25.8946      Y20.1454      R1.2500    
   X25.6380      Y19.9485      R1.2500    
   X25.3391      Y19.8247      R1.2500    
   X25.0184      Y19.7825      R1.2500    
   X24.6976      Y19.8247      R1.2500    
   X24.3988      Y19.9485      R1.2500    
   X24.1421      Y20.1454      R1.2500    
(Pass: 16)
G1   Z-1.600    
G17 G2   X23.9452      Y20.4021      R1.2500    
   X23.8214      Y20.7010      R1.2500    
   X23.7792      Y21.0217      R1.2500    
   X23.8214      Y21.3424      R1.2500    
   X23.9452      Y21.6413      R1.2500    
   X24.1421      Y21.8980      R1.2500    
   X24.3988      Y22.0949      R1.2500    
   X24.6976      Y22.2187      R1.2500    
   X25.0184      Y22.2609      R1.2500    
   X25.3391      Y22.2187      R1.2500    
   X25.6380      Y22.0949      R1.2500    
   X25.8946      Y21.8980      R1.2500    
   X26.0916      Y21.6413      R1.2500    
   X26.2154      Y21.3424      R1.2500    
   X26.2576      Y21.0217      R1.2500    
   X26.2154      Y20.7010      R1.2500    
   X26.0916      Y20.4021      R1.2500    
   X25.8946      Y20.1454      R1.2500    
   X25.6380      Y19.9485      R1.2500    
   X25.3391      Y19.8247      R1.2500    
   X25.0184      Y19.7825      R1.2500    
   X24.6976      Y19.8247      R1.2500    
   X24.3988      Y19.9485      R1.2500    
   X24.1421      Y20.1454      R1.2500    
(Pass: 17)
G1   Z-1.700    
G17 G2   X23.9452      Y20.4021      R1.2500    
   X23.8214      Y20.7010      R1.2500    
   X23.7792      Y21.0217      R1.2500    
   X23.8214      Y21.3424      R1.2500    
   X23.9452      Y21.6413      R1.2500    
   X24.1421      Y21.8980      R1.2500    
   X24.3988      Y22.0949      R1.2500    
   X24.6976      Y22.2187      R1.2500    
   X25.0184      Y22.2609      R1.2500    
   X25.3391      Y22.2187      R1.2500    
   X25.6380      Y22.0949      R1.2500    
   X25.8946      Y21.8980      R1.2500    
   X26.0916      Y21.6413      R1.2500    
   X26.2154      Y21.3424      R1.2500    
   X26.2576      Y21.0217      R1.2500    
   X26.2154      Y20.7010      R1.2500    
   X26.0916      Y20.4021      R1.2500    
   X25.8946      Y20.1454      R1.2500    
   X25.6380      Y19.9485      R1.2500    
   X25.3391      Y19.8247      R1.2500    
   X25.0184      Y19.7825      R1.2500    
   X24.6976      Y19.8247      R1.2500    
   X24.3988      Y19.9485      R1.2500    
   X24.1421      Y20.1454      R1.2500    
(Pass: 18)
G1   Z-1.800    
G17 G2   X23.9452      Y20.4021      R1.2500    
   X23.8214      Y20.7010      R1.2500    
   X23.7792      Y21.0217      R1.2500    
   X23.8214      Y21.3424      R1.2500    
   X23.9452      Y21.6413      R1.2500    
   X24.1421      Y21.8980      R1.2500    
   X24.3988      Y22.0949      R1.2500    
   X24.6976      Y22.2187      R1.2500    
   X25.0184      Y22.2609      R1.2500    
   X25.3391      Y22.2187      R1.2500    
   X25.6380      Y22.0949      R1.2500    
   X25.8946      Y21.8980      R1.2500    
   X26.0916      Y21.6413      R1.2500    
   X26.2154      Y21.3424      R1.2500    
   X26.2576      Y21.0217      R1.2500    
   X26.2154      Y20.7010      R1.2500    
   X26.0916      Y20.4021      R1.2500    
   X25.8946      Y20.1454      R1.2500    
   X25.6380      Y19.9485      R1.2500    
   X25.3391      Y19.8247      R1.2500    
   X25.0184      Y19.7825      R1.2500    
   X24.6976      Y19.8247      R1.2500    
   X24.3988      Y19.9485      R1.2500    
   X24.1421      Y20.1454      R1.2500    
(Pass: 19)
G1   Z-1.900    
G17 G2   X23.9452      Y20.4021      R1.2500    
   X23.8214      Y20.7010      R1.2500    
   X23.7792      Y21.0217      R1.2500    
   X23.8214      Y21.3424      R1.2500    
   X23.9452      Y21.6413      R1.2500    
   X24.1421      Y21.8980      R1.2500    
   X24.3988      Y22.0949      R1.2500    
   X24.6976      Y22.2187      R1.2500    
   X25.0184      Y22.2609      R1.2500    
   X25.3391      Y22.2187      R1.2500    
   X25.6380      Y22.0949      R1.2500    
   X25.8946      Y21.8980      R1.2500    
   X26.0916      Y21.6413      R1.2500    
   X26.2154      Y21.3424      R1.2500    
   X26.2576      Y21.0217      R1.2500    
   X26.2154      Y20.7010      R1.2500    
   X26.0916      Y20.4021      R1.2500    
   X25.8946      Y20.1454      R1.2500    
   X25.6380      Y19.9485      R1.2500    
   X25.3391      Y19.8247      R1.2500    
   X25.0184      Y19.7825      R1.2500    
   X24.6976      Y19.8247      R1.2500    
   X24.3988      Y19.9485      R1.2500    
   X24.1421      Y20.1454      R1.2500    
(Pass: 20)
G1   Z-2.000    
G17 G2   X23.9452      Y20.4021      R1.2500    
   X23.8214      Y20.7010      R1.2500    
   X23.7792      Y21.0217      R1.2500    
   X23.8214      Y21.3424      R1.2500    
   X23.9452      Y21.6413      R1.2500    
   X24.1421      Y21.8980      R1.2500    
   X24.3988      Y22.0949      R1.2500    
   X24.6976      Y22.2187      R1.2500    
   X25.0184      Y22.2609      R1.2500    
   X25.3391      Y22.2187      R1.2500    
   X25.6380      Y22.0949      R1.2500    
   X25.8946      Y21.8980      R1.2500    
   X26.0916      Y21.6413      R1.2500    
   X26.2154      Y21.3424      R1.2500    
   X26.2576      Y21.0217      R1.2500    
   X26.2154      Y20.7010      R1.2500    
   X26.0916      Y20.4021      R1.2500    
   X25.8946      Y20.1454      R1.2500    
   X25.6380      Y19.9485      R1.2500    
   X25.3391      Y19.8247      R1.2500    
   X25.0184      Y19.7825      R1.2500    
   X24.6976      Y19.8247      R1.2500    
   X24.3988      Y19.9485      R1.2500    
   X24.1421      Y20.1454      R1.2500    
(Pass: 21)
G1   Z-2.100    
G17 G2   X23.9452      Y20.4021      R1.2500    
   X23.8214      Y20.7010      R1.2500    
   X23.7792      Y21.0217      R1.2500    
   X23.8214      Y21.3424      R1.2500    
   X23.9452      Y21.6413      R1.2500    
   X24.1421      Y21.8980      R1.2500    
   X24.3988      Y22.0949      R1.2500    
   X24.6976      Y22.2187      R1.2500    
   X25.0184      Y22.2609      R1.2500    
   X25.3391      Y22.2187      R1.2500    
   X25.6380      Y22.0949      R1.2500    
   X25.8946      Y21.8980      R1.2500    
   X26.0916      Y21.6413      R1.2500    
   X26.2154      Y21.3424      R1.2500    
   X26.2576      Y21.0217      R1.2500    
   X26.2154      Y20.7010      R1.2500    
   X26.0916      Y20.4021      R1.2500    
   X25.8946      Y20.1454      R1.2500    
   X25.6380      Y19.9485      R1.2500    
   X25.3391      Y19.8247      R1.2500    
   X25.0184      Y19.7825      R1.2500    
   X24.6976      Y19.8247      R1.2500    
   X24.3988      Y19.9485      R1.2500    
   X24.1421      Y20.1454      R1.2500    
(Pass: 22)
G1   Z-2.200    
G17 G2   X23.9452      Y20.4021      R1.2500    
   X23.8214      Y20.7010      R1.2500    
   X23.7792      Y21.0217      R1.2500    
   X23.8214      Y21.3424      R1.2500    
   X23.9452      Y21.6413      R1.2500    
   X24.1421      Y21.8980      R1.2500    
   X24.3988      Y22.0949      R1.2500    
   X24.6976      Y22.2187      R1.2500    
   X25.0184      Y22.2609      R1.2500    
   X25.3391      Y22.2187      R1.2500    
   X25.6380      Y22.0949      R1.2500    
   X25.8946      Y21.8980      R1.2500    
   X26.0916      Y21.6413      R1.2500    
   X26.2154      Y21.3424      R1.2500    
   X26.2576      Y21.0217      R1.2500    
   X26.2154      Y20.7010      R1.2500    
   X26.0916      Y20.4021      R1.2500    
   X25.8946      Y20.1454      R1.2500    
   X25.6380      Y19.9485      R1.2500    
   X25.3391      Y19.8247      R1.2500    
   X25.0184      Y19.7825      R1.2500    
   X24.6976      Y19.8247      R1.2500    
   X24.3988      Y19.9485      R1.2500    
   X24.1421      Y20.1454      R1.2500    
(Pass: 23)
G1   Z-2.300    
G17 G2   X23.9452      Y20.4021      R1.2500    
   X23.8214      Y20.7010      R1.2500    
   X23.7792      Y21.0217      R1.2500    
   X23.8214      Y21.3424      R1.2500    
   X23.9452      Y21.6413      R1.2500    
   X24.1421      Y21.8980      R1.2500    
   X24.3988      Y22.0949      R1.2500    
   X24.6976      Y22.2187      R1.2500    
   X25.0184      Y22.2609      R1.2500    
   X25.3391      Y22.2187      R1.2500    
   X25.6380      Y22.0949      R1.2500    
   X25.8946      Y21.8980      R1.2500    
   X26.0916      Y21.6413      R1.2500    
   X26.2154      Y21.3424      R1.2500    
   X26.2576      Y21.0217      R1.2500    
   X26.2154      Y20.7010      R1.2500    
   X26.0916      Y20.4021      R1.2500    
   X25.8946      Y20.1454      R1.2500    
   X25.6380      Y19.9485      R1.2500    
   X25.3391      Y19.8247      R1.2500    
   X25.0184      Y19.7825      R1.2500    
   X24.6976      Y19.8247      R1.2500    
   X24.3988      Y19.9485      R1.2500    
   X24.1421      Y20.1454      R1.2500    
(Pass: 24)
G1   Z-2.400    
G17 G2   X23.9452      Y20.4021      R1.2500    
   X23.8214      Y20.7010      R1.2500    
   X23.7792      Y21.0217      R1.2500    
   X23.8214      Y21.3424      R1.2500    
   X23.9452      Y21.6413      R1.2500    
   X24.1421      Y21.8980      R1.2500    
   X24.3988      Y22.0949      R1.2500    
   X24.6976      Y22.2187      R1.2500    
   X25.0184      Y22.2609      R1.2500    
   X25.3391      Y22.2187      R1.2500    
   X25.6380      Y22.0949      R1.2500    
   X25.8946      Y21.8980      R1.2500    
   X26.0916      Y21.6413      R1.2500    
   X26.2154      Y21.3424      R1.2500    
   X26.2576      Y21.0217      R1.2500    
   X26.2154      Y20.7010      R1.2500    
   X26.0916      Y20.4021      R1.2500    
   X25.8946      Y20.1454      R1.2500    
   X25.6380      Y19.9485      R1.2500    
   X25.3391      Y19.8247      R1.2500    
   X25.0184      Y19.7825      R1.2500    
   X24.6976      Y19.8247      R1.2500    
   X24.3988      Y19.9485      R1.2500    
   X24.1421      Y20.1454      R1.2500    
(Pass: 25)
G1   Z-2.500    
G17 G2   X23.9452      Y20.4021      R1.2500    
   X23.8214      Y20.7010      R1.2500    
   X23.7792      Y21.0217      R1.2500    
   X23.8214      Y21.3424      R1.2500    
   X23.9452      Y21.6413      R1.2500    
   X24.1421      Y21.8980      R1.2500    
   X24.3988      Y22.0949      R1.2500    
   X24.6976      Y22.2187      R1.2500    
   X25.0184      Y22.2609      R1.2500    
   X25.3391      Y22.2187      R1.2500    
   X25.6380      Y22.0949      R1.2500    
   X25.8946      Y21.8980      R1.2500    
   X26.0916      Y21.6413      R1.2500    
   X26.2154      Y21.3424      R1.2500    
   X26.2576      Y21.0217      R1.2500    
   X26.2154      Y20.7010      R1.2500    
   X26.0916      Y20.4021      R1.2500    
   X25.8946      Y20.1454      R1.2500    
   X25.6380      Y19.9485      R1.2500    
   X25.3391      Y19.8247      R1.2500    
   X25.0184      Y19.7825      R1.2500    
   X24.6976      Y19.8247      R1.2500    
   X24.3988      Y19.9485      R1.2500    
   X24.1421      Y20.1454      R1.2500    
(Pass: 26)
G1   Z-2.600    
G17 G2   X23.9452      Y20.4021      R1.2500    
   X23.8214      Y20.7010      R1.2500    
   X23.7792      Y21.0217      R1.2500    
   X23.8214      Y21.3424      R1.2500    
   X23.9452      Y21.6413      R1.2500    
   X24.1421      Y21.8980      R1.2500    
   X24.3988      Y22.0949      R1.2500    
   X24.6976      Y22.2187      R1.2500    
   X25.0184      Y22.2609      R1.2500    
   X25.3391      Y22.2187      R1.2500    
   X25.6380      Y22.0949      R1.2500    
   X25.8946      Y21.8980      R1.2500    
   X26.0916      Y21.6413      R1.2500    
   X26.2154      Y21.3424      R1.2500    
   X26.2576      Y21.0217      R1.2500    
   X26.2154      Y20.7010      R1.2500    
   X26.0916      Y20.4021      R1.2500    
   X25.8946      Y20.1454      R1.2500    
   X25.6380      Y19.9485      R1.2500    
   X25.3391      Y19.8247      R1.2500    
   X25.0184      Y19.7825      R1.2500    
   X24.6976      Y19.8247      R1.2500    
   X24.3988      Y19.9485      R1.2500    
   X24.1421      Y20.1454      R1.2500    
(Pass: 27)
G1   Z-2.700    
G17 G2   X23.9452      Y20.4021      R1.2500    
   X23.8214      Y20.7010      R1.2500    
   X23.7792      Y21.0217      R1.2500    
   X23.8214      Y21.3424      R1.2500    
   X23.9452      Y21.6413      R1.2500    
   X24.1421      Y21.8980      R1.2500    
   X24.3988      Y22.0949      R1.2500    
   X24.6976      Y22.2187      R1.2500    
   X25.0184      Y22.2609      R1.2500    
   X25.3391      Y22.2187      R1.2500    
   X25.6380      Y22.0949      R1.2500    
   X25.8946      Y21.8980      R1.2500    
   X26.0916      Y21.6413      R1.2500    
   X26.2154      Y21.3424      R1.2500    
   X26.2576      Y21.0217      R1.2500    
   X26.2154      Y20.7010      R1.2500    
   X26.0916      Y20.4021      R1.2500    
   X25.8946      Y20.1454      R1.2500    
   X25.6380      Y19.9485      R1.2500    
   X25.3391      Y19.8247      R1.2500    
   X25.0184      Y19.7825      R1.2500    
   X24.6976      Y19.8247      R1.2500    
   X24.3988      Y19.9485      R1.2500    
   X24.1421      Y20.1454      R1.2500    
(Pass: 28)
G1   Z-2.800    
G17 G2   X23.9452      Y20.4021      R1.2500    
   X23.8214      Y20.7010      R1.2500    
   X23.7792      Y21.0217      R1.2500    
   X23.8214      Y21.3424      R1.2500    
   X23.9452      Y21.6413      R1.2500    
   X24.1421      Y21.8980      R1.2500    
   X24.3988      Y22.0949      R1.2500    
   X24.6976      Y22.2187      R1.2500    
   X25.0184      Y22.2609      R1.2500    
   X25.3391      Y22.2187      R1.2500    
   X25.6380      Y22.0949      R1.2500    
   X25.8946      Y21.8980      R1.2500    
   X26.0916      Y21.6413      R1.2500    
   X26.2154      Y21.3424      R1.2500    
   X26.2576      Y21.0217      R1.2500    
   X26.2154      Y20.7010      R1.2500    
   X26.0916      Y20.4021      R1.2500    
   X25.8946      Y20.1454      R1.2500    
   X25.6380      Y19.9485      R1.2500    
   X25.3391      Y19.8247      R1.2500    
   X25.0184      Y19.7825      R1.2500    
   X24.6976      Y19.8247      R1.2500    
   X24.3988      Y19.9485      R1.2500    
   X24.1421      Y20.1454      R1.2500    
(Pass: 29)
G1   Z-2.900    
G17 G2   X23.9452      Y20.4021      R1.2500    
   X23.8214      Y20.7010      R1.2500    
   X23.7792      Y21.0217      R1.2500    
   X23.8214      Y21.3424      R1.2500    
   X23.9452      Y21.6413      R1.2500    
   X24.1421      Y21.8980      R1.2500    
   X24.3988      Y22.0949      R1.2500    
   X24.6976      Y22.2187      R1.2500    
   X25.0184      Y22.2609      R1.2500    
   X25.3391      Y22.2187      R1.2500    
   X25.6380      Y22.0949      R1.2500    
   X25.8946      Y21.8980      R1.2500    
   X26.0916      Y21.6413      R1.2500    
   X26.2154      Y21.3424      R1.2500    
   X26.2576      Y21.0217      R1.2500    
   X26.2154      Y20.7010      R1.2500    
   X26.0916      Y20.4021      R1.2500    
   X25.8946      Y20.1454      R1.2500    
   X25.6380      Y19.9485      R1.2500    
   X25.3391      Y19.8247      R1.2500    
   X25.0184      Y19.7825      R1.2500    
   X24.6976      Y19.8247      R1.2500    
   X24.3988      Y19.9485      R1.2500    
   X24.1421      Y20.1454      R1.2500    
(Pass: 30)
G1   Z-3.000    
G17 G2   X23.9452      Y20.4021      R1.2500    
   X23.8214      Y20.7010      R1.2500    
   X23.7792      Y21.0217      R1.2500    
   X23.8214      Y21.3424      R1.2500    
   X23.9452      Y21.6413      R1.2500    
   X24.1421      Y21.8980      R1.2500    
   X24.3988      Y22.0949      R1.2500    
   X24.6976      Y22.2187      R1.2500    
   X25.0184      Y22.2609      R1.2500    
   X25.3391      Y22.2187      R1.2500    
   X25.6380      Y22.0949      R1.2500    
   X25.8946      Y21.8980      R1.2500    
   X26.0916      Y21.6413      R1.2500    
   X26.2154      Y21.3424      R1.2500    
   X26.2576      Y21.0217      R1.2500    
   X26.2154      Y20.7010      R1.2500    
   X26.0916      Y20.4021      R1.2500    
   X25.8946      Y20.1454      R1.2500    
   X25.6380      Y19.9485      R1.2500    
   X25.3391      Y19.8247      R1.2500    
   X25.0184      Y19.7825      R1.2500    
   X24.6976      Y19.8247      R1.2500    
   X24.3988      Y19.9485      R1.2500    
   X24.1421      Y20.1454      R1.2500    
(Pass: 31)
G1   Z-3.100    
G17 G2   X23.9452      Y20.4021      R1.2500    
   X23.8214      Y20.7010      R1.2500    
   X23.7792      Y21.0217      R1.2500    
   X23.8214      Y21.3424      R1.2500    
   X23.9452      Y21.6413      R1.2500    
   X24.1421      Y21.8980      R1.2500    
   X24.3988      Y22.0949      R1.2500    
   X24.6976      Y22.2187      R1.2500    
   X25.0184      Y22.2609      R1.2500    
   X25.3391      Y22.2187      R1.2500    
   X25.6380      Y22.0949      R1.2500    
   X25.8946      Y21.8980      R1.2500    
   X26.0916      Y21.6413      R1.2500    
   X26.2154      Y21.3424      R1.2500    
   X26.2576      Y21.0217      R1.2500    
   X26.2154      Y20.7010      R1.2500    
   X26.0916      Y20.4021      R1.2500    
   X25.8946      Y20.1454      R1.2500    
   X25.6380      Y19.9485      R1.2500    
   X25.3391      Y19.8247      R1.2500    
   X25.0184      Y19.7825      R1.2500    
   X24.6976      Y19.8247      R1.2500    
   X24.3988      Y19.9485      R1.2500    
   X24.1421      Y20.1454      R1.2500    
(Pass: 32)
G1   Z-3.200    
G17 G2   X23.9452      Y20.4021      R1.2500    
   X23.8214      Y20.7010      R1.2500    
   X23.7792      Y21.0217      R1.2500    
   X23.8214      Y21.3424      R1.2500    
   X23.9452      Y21.6413      R1.2500    
   X24.1421      Y21.8980      R1.2500    
   X24.3988      Y22.0949      R1.2500    
   X24.6976      Y22.2187      R1.2500    
   X25.0184      Y22.2609      R1.2500    
   X25.3391      Y22.2187      R1.2500    
   X25.6380      Y22.0949      R1.2500    
   X25.8946      Y21.8980      R1.2500    
   X26.0916      Y21.6413      R1.2500    
   X26.2154      Y21.3424      R1.2500    
   X26.2576      Y21.0217      R1.2500    
   X26.2154      Y20.7010      R1.2500    
   X26.0916      Y20.4021      R1.2500    
   X25.8946      Y20.1454      R1.2500    
   X25.6380      Y19.9485      R1.2500    
   X25.3391      Y19.8247      R1.2500    
   X25.0184      Y19.7825      R1.2500    
   X24.6976      Y19.8247      R1.2500    
   X24.3988      Y19.9485      R1.2500    
   X24.1421      Y20.1454      R1.2500    
(Pass: 33)
G1   Z-3.300    
G17 G2   X23.9452      Y20.4021      R1.2500    
   X23.8214      Y20.7010      R1.2500    
   X23.7792      Y21.0217      R1.2500    
   X23.8214      Y21.3424      R1.2500    
   X23.9452      Y21.6413      R1.2500    
   X24.1421      Y21.8980      R1.2500    
   X24.3988      Y22.0949      R1.2500    
   X24.6976      Y22.2187      R1.2500    
   X25.0184      Y22.2609      R1.2500    
   X25.3391      Y22.2187      R1.2500    
   X25.6380      Y22.0949      R1.2500    
   X25.8946      Y21.8980      R1.2500    
   X26.0916      Y21.6413      R1.2500    
   X26.2154      Y21.3424      R1.2500    
   X26.2576      Y21.0217      R1.2500    
   X26.2154      Y20.7010      R1.2500    
   X26.0916      Y20.4021      R1.2500    
   X25.8946      Y20.1454      R1.2500    
   X25.6380      Y19.9485      R1.2500    
   X25.3391      Y19.8247      R1.2500    
   X25.0184      Y19.7825      R1.2500    
   X24.6976      Y19.8247      R1.2500    
   X24.3988      Y19.9485      R1.2500    
   X24.1421      Y20.1454      R1.2500    
(Pass: 34)
G1   Z-3.400    
G17 G2   X23.9452      Y20.4021      R1.2500    
   X23.8214      Y20.7010      R1.2500    
   X23.7792      Y21.0217      R1.2500    
   X23.8214      Y21.3424      R1.2500    
   X23.9452      Y21.6413      R1.2500    
   X24.1421      Y21.8980      R1.2500    
   X24.3988      Y22.0949      R1.2500    
   X24.6976      Y22.2187      R1.2500    
   X25.0184      Y22.2609      R1.2500    
   X25.3391      Y22.2187      R1.2500    
   X25.6380      Y22.0949      R1.2500    
   X25.8946      Y21.8980      R1.2500    
   X26.0916      Y21.6413      R1.2500    
   X26.2154      Y21.3424      R1.2500    
   X26.2576      Y21.0217      R1.2500    
   X26.2154      Y20.7010      R1.2500    
   X26.0916      Y20.4021      R1.2500    
   X25.8946      Y20.1454      R1.2500    
   X25.6380      Y19.9485      R1.2500    
   X25.3391      Y19.8247      R1.2500    
   X25.0184      Y19.7825      R1.2500    
   X24.6976      Y19.8247      R1.2500    
   X24.3988      Y19.9485      R1.2500    
   X24.1421      Y20.1454      R1.2500    
(Pass: 35)
G1   Z-3.500    
G17 G2   X23.9452      Y20.4021      R1.2500    
   X23.8214      Y20.7010      R1.2500    
   X23.7792      Y21.0217      R1.2500    
   X23.8214      Y21.3424      R1.2500    
   X23.9452      Y21.6413      R1.2500    
   X24.1421      Y21.8980      R1.2500    
   X24.3988      Y22.0949      R1.2500    
   X24.6976      Y22.2187      R1.2500    
   X25.0184      Y22.2609      R1.2500    
   X25.3391      Y22.2187      R1.2500    
   X25.6380      Y22.0949      R1.2500    
   X25.8946      Y21.8980      R1.2500    
   X26.0916      Y21.6413      R1.2500    
   X26.2154      Y21.3424      R1.2500    
   X26.2576      Y21.0217      R1.2500    
   X26.2154      Y20.7010      R1.2500    
   X26.0916      Y20.4021      R1.2500    
   X25.8946      Y20.1454      R1.2500    
   X25.6380      Y19.9485      R1.2500    
   X25.3391      Y19.8247      R1.2500    
   X25.0184      Y19.7825      R1.2500    
   X24.6976      Y19.8247      R1.2500    
   X24.3988      Y19.9485      R1.2500    
   X24.1421      Y20.1454      R1.2500    
(BREAK pass 35)
G0   Z6.000     
(Pass: 1)
   X49.372       Y20.972    
G1   Z-0.100     F400 
G17 G2   X49.4139      Y21.2931      R1.2500    
   X49.5377      Y21.5920      R1.2500    
   X49.7347      Y21.8486      R1.2500    
   X49.9913      Y22.0456      R1.2500    
   X50.2902      Y22.1694      R1.2500    
   X50.6109      Y22.2116      R1.2500    
   X50.9316      Y22.1694      R1.2500    
   X51.2305      Y22.0456      R1.2500    
   X51.4872      Y21.8486      R1.2500    
   X51.6841      Y21.5920      R1.2500    
   X51.8079      Y21.2931      R1.2500    
   X51.8501      Y20.9724      R1.2500    
   X51.8079      Y20.6516      R1.2500    
   X51.6841      Y20.3528      R1.2500    
   X51.4872      Y20.0961      R1.2500    
   X51.2305      Y19.8992      R1.2500    
   X50.9316      Y19.7754      R1.2500    
   X50.6109      Y19.7332      R1.2500    
   X50.2902      Y19.7754      R1.2500    
   X49.9913      Y19.8992      R1.2500    
   X49.7347      Y20.0961      R1.2500    
   X49.5377      Y20.3528      R1.2500    
   X49.4139      Y20.6516      R1.2500    
   X49.3717      Y20.9724      R1.2500    
(Pass: 2)
G1   Z-0.200    
G17 G2   X49.4139      Y21.2931      R1.2500    
   X49.5377      Y21.5920      R1.2500    
   X49.7347      Y21.8486      R1.2500    
   X49.9913      Y22.0456      R1.2500    
   X50.2902      Y22.1694      R1.2500    
   X50.6109      Y22.2116      R1.2500    
   X50.9316      Y22.1694      R1.2500    
   X51.2305      Y22.0456      R1.2500    
   X51.4872      Y21.8486      R1.2500    
   X51.6841      Y21.5920      R1.2500    
   X51.8079      Y21.2931      R1.2500    
   X51.8501      Y20.9724      R1.2500    
   X51.8079      Y20.6516      R1.2500    
   X51.6841      Y20.3528      R1.2500    
   X51.4872      Y20.0961      R1.2500    
   X51.2305      Y19.8992      R1.2500    
   X50.9316      Y19.7754      R1.2500    
   X50.6109      Y19.7332      R1.2500    
   X50.2902      Y19.7754      R1.2500    
   X49.9913      Y19.8992      R1.2500    
   X49.7347      Y20.0961      R1.2500    
   X49.5377      Y20.3528      R1.2500    
   X49.4139      Y20.6516      R1.2500    
   X49.3717      Y20.9724      R1.2500    
(Pass: 3)
G1   Z-0.300    
G17 G2   X49.4139      Y21.2931      R1.2500    
   X49.5377      Y21.5920      R1.2500    
   X49.7347      Y21.8486      R1.2500    
   X49.9913      Y22.0456      R1.2500    
   X50.2902      Y22.1694      R1.2500    
   X50.6109      Y22.2116      R1.2500    
   X50.9316      Y22.1694      R1.2500    
   X51.2305      Y22.0456      R1.2500    
   X51.4872      Y21.8486      R1.2500    
   X51.6841      Y21.5920      R1.2500    
   X51.8079      Y21.2931      R1.2500    
   X51.8501      Y20.9724      R1.2500    
   X51.8079      Y20.6516      R1.2500    
   X51.6841      Y20.3528      R1.2500    
   X51.4872      Y20.0961      R1.2500    
   X51.2305      Y19.8992      R1.2500    
   X50.9316      Y19.7754      R1.2500    
   X50.6109      Y19.7332      R1.2500    
   X50.2902      Y19.7754      R1.2500    
   X49.9913      Y19.8992      R1.2500    
   X49.7347      Y20.0961      R1.2500    
   X49.5377      Y20.3528      R1.2500    
   X49.4139      Y20.6516      R1.2500    
   X49.3717      Y20.9724      R1.2500    
(Pass: 4)
G1   Z-0.400    
G17 G2   X49.4139      Y21.2931      R1.2500    
   X49.5377      Y21.5920      R1.2500    
   X49.7347      Y21.8486      R1.2500    
   X49.9913      Y22.0456      R1.2500    
   X50.2902      Y22.1694      R1.2500    
   X50.6109      Y22.2116      R1.2500    
   X50.9316      Y22.1694      R1.2500    
   X51.2305      Y22.0456      R1.2500    
   X51.4872      Y21.8486      R1.2500    
   X51.6841      Y21.5920      R1.2500    
   X51.8079      Y21.2931      R1.2500    
   X51.8501      Y20.9724      R1.2500    
   X51.8079      Y20.6516      R1.2500    
   X51.6841      Y20.3528      R1.2500    
   X51.4872      Y20.0961      R1.2500    
   X51.2305      Y19.8992      R1.2500    
   X50.9316      Y19.7754      R1.2500    
   X50.6109      Y19.7332      R1.2500    
   X50.2902      Y19.7754      R1.2500    
   X49.9913      Y19.8992      R1.2500    
   X49.7347      Y20.0961      R1.2500    
   X49.5377      Y20.3528      R1.2500    
   X49.4139      Y20.6516      R1.2500    
   X49.3717      Y20.9724      R1.2500    
(Pass: 5)
G1   Z-0.500    
G17 G2   X49.4139      Y21.2931      R1.2500    
   X49.5377      Y21.5920      R1.2500    
   X49.7347      Y21.8486      R1.2500    
   X49.9913      Y22.0456      R1.2500    
   X50.2902      Y22.1694      R1.2500    
   X50.6109      Y22.2116      R1.2500    
   X50.9316      Y22.1694      R1.2500    
   X51.2305      Y22.0456      R1.2500    
   X51.4872      Y21.8486      R1.2500    
   X51.6841      Y21.5920      R1.2500    
   X51.8079      Y21.2931      R1.2500    
   X51.8501      Y20.9724      R1.2500    
   X51.8079      Y20.6516      R1.2500    
   X51.6841      Y20.3528      R1.2500    
   X51.4872      Y20.0961      R1.2500    
   X51.2305      Y19.8992      R1.2500    
   X50.9316      Y19.7754      R1.2500    
   X50.6109      Y19.7332      R1.2500    
   X50.2902      Y19.7754      R1.2500    
   X49.9913      Y19.8992      R1.2500    
   X49.7347      Y20.0961      R1.2500    
   X49.5377      Y20.3528      R1.2500    
   X49.4139      Y20.6516      R1.2500    
   X49.3717      Y20.9724      R1.2500    
(Pass: 6)
G1   Z-0.600    
G17 G2   X49.4139      Y21.2931      R1.2500    
   X49.5377      Y21.5920      R1.2500    
   X49.7347      Y21.8486      R1.2500    
   X49.9913      Y22.0456      R1.2500    
   X50.2902      Y22.1694      R1.2500    
   X50.6109      Y22.2116      R1.2500    
   X50.9316      Y22.1694      R1.2500    
   X51.2305      Y22.0456      R1.2500    
   X51.4872      Y21.8486      R1.2500    
   X51.6841      Y21.5920      R1.2500    
   X51.8079      Y21.2931      R1.2500    
   X51.8501      Y20.9724      R1.2500    
   X51.8079      Y20.6516      R1.2500    
   X51.6841      Y20.3528      R1.2500    
   X51.4872      Y20.0961      R1.2500    
   X51.2305      Y19.8992      R1.2500    
   X50.9316      Y19.7754      R1.2500    
   X50.6109      Y19.7332      R1.2500    
   X50.2902      Y19.7754      R1.2500    
   X49.9913      Y19.8992      R1.2500    
   X49.7347      Y20.0961      R1.2500    
   X49.5377      Y20.3528      R1.2500    
   X49.4139      Y20.6516      R1.2500    
   X49.3717      Y20.9724      R1.2500    
(Pass: 7)
G1   Z-0.700    
G17 G2   X49.4139      Y21.2931      R1.2500    
   X49.5377      Y21.5920      R1.2500    
   X49.7347      Y21.8486      R1.2500    
   X49.9913      Y22.0456      R1.2500    
   X50.2902      Y22.1694      R1.2500    
   X50.6109      Y22.2116      R1.2500    
   X50.9316      Y22.1694      R1.2500    
   X51.2305      Y22.0456      R1.2500    
   X51.4872      Y21.8486      R1.2500    
   X51.6841      Y21.5920      R1.2500    
   X51.8079      Y21.2931      R1.2500    
   X51.8501      Y20.9724      R1.2500    
   X51.8079      Y20.6516      R1.2500    
   X51.6841      Y20.3528      R1.2500    
   X51.4872      Y20.0961      R1.2500    
   X51.2305      Y19.8992      R1.2500    
   X50.9316      Y19.7754      R1.2500    
   X50.6109      Y19.7332      R1.2500    
   X50.2902      Y19.7754      R1.2500    
   X49.9913      Y19.8992      R1.2500    
   X49.7347      Y20.0961      R1.2500    
   X49.5377      Y20.3528      R1.2500    
   X49.4139      Y20.6516      R1.2500    
   X49.3717      Y20.9724      R1.2500    
(Pass: 8)
G1   Z-0.800    
G17 G2   X49.4139      Y21.2931      R1.2500    
   X49.5377      Y21.5920      R1.2500    
   X49.7347      Y21.8486      R1.2500    
   X49.9913      Y22.0456      R1.2500    
   X50.2902      Y22.1694      R1.2500    
   X50.6109      Y22.2116      R1.2500    
   X50.9316      Y22.1694      R1.2500    
   X51.2305      Y22.0456      R1.2500    
   X51.4872      Y21.8486      R1.2500    
   X51.6841      Y21.5920      R1.2500    
   X51.8079      Y21.2931      R1.2500    
   X51.8501      Y20.9724      R1.2500    
   X51.8079      Y20.6516      R1.2500    
   X51.6841      Y20.3528      R1.2500    
   X51.4872      Y20.0961      R1.2500    
   X51.2305      Y19.8992      R1.2500    
   X50.9316      Y19.7754      R1.2500    
   X50.6109      Y19.7332      R1.2500    
   X50.2902      Y19.7754      R1.2500    
   X49.9913      Y19.8992      R1.2500    
   X49.7347      Y20.0961      R1.2500    
   X49.5377      Y20.3528      R1.2500    
   X49.4139      Y20.6516      R1.2500    
   X49.3717      Y20.9724      R1.2500    
(Pass: 9)
G1   Z-0.900    
G17 G2   X49.4139      Y21.2931      R1.2500    
   X49.5377      Y21.5920      R1.2500    
   X49.7347      Y21.8486      R1.2500    
   X49.9913      Y22.0456      R1.2500    
   X50.2902      Y22.1694      R1.2500    
   X50.6109      Y22.2116      R1.2500    
   X50.9316      Y22.1694      R1.2500    
   X51.2305      Y22.0456      R1.2500    
   X51.4872      Y21.8486      R1.2500    
   X51.6841      Y21.5920      R1.2500    
   X51.8079      Y21.2931      R1.2500    
   X51.8501      Y20.9724      R1.2500    
   X51.8079      Y20.6516      R1.2500    
   X51.6841      Y20.3528      R1.2500    
   X51.4872      Y20.0961      R1.2500    
   X51.2305      Y19.8992      R1.2500    
   X50.9316      Y19.7754      R1.2500    
   X50.6109      Y19.7332      R1.2500    
   X50.2902      Y19.7754      R1.2500    
   X49.9913      Y19.8992      R1.2500    
   X49.7347      Y20.0961      R1.2500    
   X49.5377      Y20.3528      R1.2500    
   X49.4139      Y20.6516      R1.2500    
   X49.3717      Y20.9724      R1.2500    
(Pass: 10)
G1   Z-1.000    
G17 G2   X49.4139      Y21.2931      R1.2500    
   X49.5377      Y21.5920      R1.2500    
   X49.7347      Y21.8486      R1.2500    
   X49.9913      Y22.0456      R1.2500    
   X50.2902      Y22.1694      R1.2500    
   X50.6109      Y22.2116      R1.2500    
   X50.9316      Y22.1694      R1.2500    
   X51.2305      Y22.0456      R1.2500    
   X51.4872      Y21.8486      R1.2500    
   X51.6841      Y21.5920      R1.2500    
   X51.8079      Y21.2931      R1.2500    
   X51.8501      Y20.9724      R1.2500    
   X51.8079      Y20.6516      R1.2500    
   X51.6841      Y20.3528      R1.2500    
   X51.4872      Y20.0961      R1.2500    
   X51.2305      Y19.8992      R1.2500    
   X50.9316      Y19.7754      R1.2500    
   X50.6109      Y19.7332      R1.2500    
   X50.2902      Y19.7754      R1.2500    
   X49.9913      Y19.8992      R1.2500    
   X49.7347      Y20.0961      R1.2500    
   X49.5377      Y20.3528      R1.2500    
   X49.4139      Y20.6516      R1.2500    
   X49.3717      Y20.9724      R1.2500    
(Pass: 11)
G1   Z-1.100    
G17 G2   X49.4139      Y21.2931      R1.2500    
   X49.5377      Y21.5920      R1.2500    
   X49.7347      Y21.8486      R1.2500    
   X49.9913      Y22.0456      R1.2500    
   X50.2902      Y22.1694      R1.2500    
   X50.6109      Y22.2116      R1.2500    
   X50.9316      Y22.1694      R1.2500    
   X51.2305      Y22.0456      R1.2500    
   X51.4872      Y21.8486      R1.2500    
   X51.6841      Y21.5920      R1.2500    
   X51.8079      Y21.2931      R1.2500    
   X51.8501      Y20.9724      R1.2500    
   X51.8079      Y20.6516      R1.2500    
   X51.6841      Y20.3528      R1.2500    
   X51.4872      Y20.0961      R1.2500    
   X51.2305      Y19.8992      R1.2500    
   X50.9316      Y19.7754      R1.2500    
   X50.6109      Y19.7332      R1.2500    
   X50.2902      Y19.7754      R1.2500    
   X49.9913      Y19.8992      R1.2500    
   X49.7347      Y20.0961      R1.2500    
   X49.5377      Y20.3528      R1.2500    
   X49.4139      Y20.6516      R1.2500    
   X49.3717      Y20.9724      R1.2500    
(Pass: 12)
G1   Z-1.200    
G17 G2   X49.4139      Y21.2931      R1.2500    
   X49.5377      Y21.5920      R1.2500    
   X49.7347      Y21.8486      R1.2500    
   X49.9913      Y22.0456      R1.2500    
   X50.2902      Y22.1694      R1.2500    
   X50.6109      Y22.2116      R1.2500    
   X50.9316      Y22.1694      R1.2500    
   X51.2305      Y22.0456      R1.2500    
   X51.4872      Y21.8486      R1.2500    
   X51.6841      Y21.5920      R1.2500    
   X51.8079      Y21.2931      R1.2500    
   X51.8501      Y20.9724      R1.2500    
   X51.8079      Y20.6516      R1.2500    
   X51.6841      Y20.3528      R1.2500    
   X51.4872      Y20.0961      R1.2500    
   X51.2305      Y19.8992      R1.2500    
   X50.9316      Y19.7754      R1.2500    
   X50.6109      Y19.7332      R1.2500    
   X50.2902      Y19.7754      R1.2500    
   X49.9913      Y19.8992      R1.2500    
   X49.7347      Y20.0961      R1.2500    
   X49.5377      Y20.3528      R1.2500    
   X49.4139      Y20.6516      R1.2500    
   X49.3717      Y20.9724      R1.2500    
(Pass: 13)
G1   Z-1.300    
G17 G2   X49.4139      Y21.2931      R1.2500    
   X49.5377      Y21.5920      R1.2500    
   X49.7347      Y21.8486      R1.2500    
   X49.9913      Y22.0456      R1.2500    
   X50.2902      Y22.1694      R1.2500    
   X50.6109      Y22.2116      R1.2500    
   X50.9316      Y22.1694      R1.2500    
   X51.2305      Y22.0456      R1.2500    
   X51.4872      Y21.8486      R1.2500    
   X51.6841      Y21.5920      R1.2500    
   X51.8079      Y21.2931      R1.2500    
   X51.8501      Y20.9724      R1.2500    
   X51.8079      Y20.6516      R1.2500    
   X51.6841      Y20.3528      R1.2500    
   X51.4872      Y20.0961      R1.2500    
   X51.2305      Y19.8992      R1.2500    
   X50.9316      Y19.7754      R1.2500    
   X50.6109      Y19.7332      R1.2500    
   X50.2902      Y19.7754      R1.2500    
   X49.9913      Y19.8992      R1.2500    
   X49.7347      Y20.0961      R1.2500    
   X49.5377      Y20.3528      R1.2500    
   X49.4139      Y20.6516      R1.2500    
   X49.3717      Y20.9724      R1.2500    
(Pass: 14)
G1   Z-1.400    
G17 G2   X49.4139      Y21.2931      R1.2500    
   X49.5377      Y21.5920      R1.2500    
   X49.7347      Y21.8486      R1.2500    
   X49.9913      Y22.0456      R1.2500    
   X50.2902      Y22.1694      R1.2500    
   X50.6109      Y22.2116      R1.2500    
   X50.9316      Y22.1694      R1.2500    
   X51.2305      Y22.0456      R1.2500    
   X51.4872      Y21.8486      R1.2500    
   X51.6841      Y21.5920      R1.2500    
   X51.8079      Y21.2931      R1.2500    
   X51.8501      Y20.9724      R1.2500    
   X51.8079      Y20.6516      R1.2500    
   X51.6841      Y20.3528      R1.2500    
   X51.4872      Y20.0961      R1.2500    
   X51.2305      Y19.8992      R1.2500    
   X50.9316      Y19.7754      R1.2500    
   X50.6109      Y19.7332      R1.2500    
   X50.2902      Y19.7754      R1.2500    
   X49.9913      Y19.8992      R1.2500    
   X49.7347      Y20.0961      R1.2500    
   X49.5377      Y20.3528      R1.2500    
   X49.4139      Y20.6516      R1.2500    
   X49.3717      Y20.9724      R1.2500    
(Pass: 15)
G1   Z-1.500    
G17 G2   X49.4139      Y21.2931      R1.2500    
   X49.5377      Y21.5920      R1.2500    
   X49.7347      Y21.8486      R1.2500    
   X49.9913      Y22.0456      R1.2500    
   X50.2902      Y22.1694      R1.2500    
   X50.6109      Y22.2116      R1.2500    
   X50.9316      Y22.1694      R1.2500    
   X51.2305      Y22.0456      R1.2500    
   X51.4872      Y21.8486      R1.2500    
   X51.6841      Y21.5920      R1.2500    
   X51.8079      Y21.2931      R1.2500    
   X51.8501      Y20.9724      R1.2500    
   X51.8079      Y20.6516      R1.2500    
   X51.6841      Y20.3528      R1.2500    
   X51.4872      Y20.0961      R1.2500    
   X51.2305      Y19.8992      R1.2500    
   X50.9316      Y19.7754      R1.2500    
   X50.6109      Y19.7332      R1.2500    
   X50.2902      Y19.7754      R1.2500    
   X49.9913      Y19.8992      R1.2500    
   X49.7347      Y20.0961      R1.2500    
   X49.5377      Y20.3528      R1.2500    
   X49.4139      Y20.6516      R1.2500    
   X49.3717      Y20.9724      R1.2500    
(Pass: 16)
G1   Z-1.600    
G17 G2   X49.4139      Y21.2931      R1.2500    
   X49.5377      Y21.5920      R1.2500    
   X49.7347      Y21.8486      R1.2500    
   X49.9913      Y22.0456      R1.2500    
   X50.2902      Y22.1694      R1.2500    
   X50.6109      Y22.2116      R1.2500    
   X50.9316      Y22.1694      R1.2500    
   X51.2305      Y22.0456      R1.2500    
   X51.4872      Y21.8486      R1.2500    
   X51.6841      Y21.5920      R1.2500    
   X51.8079      Y21.2931      R1.2500    
   X51.8501      Y20.9724      R1.2500    
   X51.8079      Y20.6516      R1.2500    
   X51.6841      Y20.3528      R1.2500    
   X51.4872      Y20.0961      R1.2500    
   X51.2305      Y19.8992      R1.2500    
   X50.9316      Y19.7754      R1.2500    
   X50.6109      Y19.7332      R1.2500    
   X50.2902      Y19.7754      R1.2500    
   X49.9913      Y19.8992      R1.2500    
   X49.7347      Y20.0961      R1.2500    
   X49.5377      Y20.3528      R1.2500    
   X49.4139      Y20.6516      R1.2500    
   X49.3717      Y20.9724      R1.2500    
(Pass: 17)
G1   Z-1.700    
G17 G2   X49.4139      Y21.2931      R1.2500    
   X49.5377      Y21.5920      R1.2500    
   X49.7347      Y21.8486      R1.2500    
   X49.9913      Y22.0456      R1.2500    
   X50.2902      Y22.1694      R1.2500    
   X50.6109      Y22.2116      R1.2500    
   X50.9316      Y22.1694      R1.2500    
   X51.2305      Y22.0456      R1.2500    
   X51.4872      Y21.8486      R1.2500    
   X51.6841      Y21.5920      R1.2500    
   X51.8079      Y21.2931      R1.2500    
   X51.8501      Y20.9724      R1.2500    
   X51.8079      Y20.6516      R1.2500    
   X51.6841      Y20.3528      R1.2500    
   X51.4872      Y20.0961      R1.2500    
   X51.2305      Y19.8992      R1.2500    
   X50.9316      Y19.7754      R1.2500    
   X50.6109      Y19.7332      R1.2500    
   X50.2902      Y19.7754      R1.2500    
   X49.9913      Y19.8992      R1.2500    
   X49.7347      Y20.0961      R1.2500    
   X49.5377      Y20.3528      R1.2500    
   X49.4139      Y20.6516      R1.2500    
   X49.3717      Y20.9724      R1.2500    
(Pass: 18)
G1   Z-1.800    
G17 G2   X49.4139      Y21.2931      R1.2500    
   X49.5377      Y21.5920      R1.2500    
   X49.7347      Y21.8486      R1.2500    
   X49.9913      Y22.0456      R1.2500    
   X50.2902      Y22.1694      R1.2500    
   X50.6109      Y22.2116      R1.2500    
   X50.9316      Y22.1694      R1.2500    
   X51.2305      Y22.0456      R1.2500    
   X51.4872      Y21.8486      R1.2500    
   X51.6841      Y21.5920      R1.2500    
   X51.8079      Y21.2931      R1.2500    
   X51.8501      Y20.9724      R1.2500    
   X51.8079      Y20.6516      R1.2500    
   X51.6841      Y20.3528      R1.2500    
   X51.4872      Y20.0961      R1.2500    
   X51.2305      Y19.8992      R1.2500    
   X50.9316      Y19.7754      R1.2500    
   X50.6109      Y19.7332      R1.2500    
   X50.2902      Y19.7754      R1.2500    
   X49.9913      Y19.8992      R1.2500    
   X49.7347      Y20.0961      R1.2500    
   X49.5377      Y20.3528      R1.2500    
   X49.4139      Y20.6516      R1.2500    
   X49.3717      Y20.9724      R1.2500    
(Pass: 19)
G1   Z-1.900    
G17 G2   X49.4139      Y21.2931      R1.2500    
   X49.5377      Y21.5920      R1.2500    
   X49.7347      Y21.8486      R1.2500    
   X49.9913      Y22.0456      R1.2500    
   X50.2902      Y22.1694      R1.2500    
   X50.6109      Y22.2116      R1.2500    
   X50.9316      Y22.1694      R1.2500    
   X51.2305      Y22.0456      R1.2500    
   X51.4872      Y21.8486      R1.2500    
   X51.6841      Y21.5920      R1.2500    
   X51.8079      Y21.2931      R1.2500    
   X51.8501      Y20.9724      R1.2500    
   X51.8079      Y20.6516      R1.2500    
   X51.6841      Y20.3528      R1.2500    
   X51.4872      Y20.0961      R1.2500    
   X51.2305      Y19.8992      R1.2500    
   X50.9316      Y19.7754      R1.2500    
   X50.6109      Y19.7332      R1.2500    
   X50.2902      Y19.7754      R1.2500    
   X49.9913      Y19.8992      R1.2500    
   X49.7347      Y20.0961      R1.2500    
   X49.5377      Y20.3528      R1.2500    
   X49.4139      Y20.6516      R1.2500    
   X49.3717      Y20.9724      R1.2500    
(Pass: 20)
G1   Z-2.000    
G17 G2   X49.4139      Y21.2931      R1.2500    
   X49.5377      Y21.5920      R1.2500    
   X49.7347      Y21.8486      R1.2500    
   X49.9913      Y22.0456      R1.2500    
   X50.2902      Y22.1694      R1.2500    
   X50.6109      Y22.2116      R1.2500    
   X50.9316      Y22.1694      R1.2500    
   X51.2305      Y22.0456      R1.2500    
   X51.4872      Y21.8486      R1.2500    
   X51.6841      Y21.5920      R1.2500    
   X51.8079      Y21.2931      R1.2500    
   X51.8501      Y20.9724      R1.2500    
   X51.8079      Y20.6516      R1.2500    
   X51.6841      Y20.3528      R1.2500    
   X51.4872      Y20.0961      R1.2500    
   X51.2305      Y19.8992      R1.2500    
   X50.9316      Y19.7754      R1.2500    
   X50.6109      Y19.7332      R1.2500    
   X50.2902      Y19.7754      R1.2500    
   X49.9913      Y19.8992      R1.2500    
   X49.7347      Y20.0961      R1.2500    
   X49.5377      Y20.3528      R1.2500    
   X49.4139      Y20.6516      R1.2500    
   X49.3717      Y20.9724      R1.2500    
(Pass: 21)
G1   Z-2.100    
G17 G2   X49.4139      Y21.2931      R1.2500    
   X49.5377      Y21.5920      R1.2500    
   X49.7347      Y21.8486      R1.2500    
   X49.9913      Y22.0456      R1.2500    
   X50.2902      Y22.1694      R1.2500    
   X50.6109      Y22.2116      R1.2500    
   X50.9316      Y22.1694      R1.2500    
   X51.2305      Y22.0456      R1.2500    
   X51.4872      Y21.8486      R1.2500    
   X51.6841      Y21.5920      R1.2500    
   X51.8079      Y21.2931      R1.2500    
   X51.8501      Y20.9724      R1.2500    
   X51.8079      Y20.6516      R1.2500    
   X51.6841      Y20.3528      R1.2500    
   X51.4872      Y20.0961      R1.2500    
   X51.2305      Y19.8992      R1.2500    
   X50.9316      Y19.7754      R1.2500    
   X50.6109      Y19.7332      R1.2500    
   X50.2902      Y19.7754      R1.2500    
   X49.9913      Y19.8992      R1.2500    
   X49.7347      Y20.0961      R1.2500    
   X49.5377      Y20.3528      R1.2500    
   X49.4139      Y20.6516      R1.2500    
   X49.3717      Y20.9724      R1.2500    
(Pass: 22)
G1   Z-2.200    
G17 G2   X49.4139      Y21.2931      R1.2500    
   X49.5377      Y21.5920      R1.2500    
   X49.7347      Y21.8486      R1.2500    
   X49.9913      Y22.0456      R1.2500    
   X50.2902      Y22.1694      R1.2500    
   X50.6109      Y22.2116      R1.2500    
   X50.9316      Y22.1694      R1.2500    
   X51.2305      Y22.0456      R1.2500    
   X51.4872      Y21.8486      R1.2500    
   X51.6841      Y21.5920      R1.2500    
   X51.8079      Y21.2931      R1.2500    
   X51.8501      Y20.9724      R1.2500    
   X51.8079      Y20.6516      R1.2500    
   X51.6841      Y20.3528      R1.2500    
   X51.4872      Y20.0961      R1.2500    
   X51.2305      Y19.8992      R1.2500    
   X50.9316      Y19.7754      R1.2500    
   X50.6109      Y19.7332      R1.2500    
   X50.2902      Y19.7754      R1.2500    
   X49.9913      Y19.8992      R1.2500    
   X49.7347      Y20.0961      R1.2500    
   X49.5377      Y20.3528      R1.2500    
   X49.4139      Y20.6516      R1.2500    
   X49.3717      Y20.9724      R1.2500    
(Pass: 23)
G1   Z-2.300    
G17 G2   X49.4139      Y21.2931      R1.2500    
   X49.5377      Y21.5920      R1.2500    
   X49.7347      Y21.8486      R1.2500    
   X49.9913      Y22.0456      R1.2500    
   X50.2902      Y22.1694      R1.2500    
   X50.6109      Y22.2116      R1.2500    
   X50.9316      Y22.1694      R1.2500    
   X51.2305      Y22.0456      R1.2500    
   X51.4872      Y21.8486      R1.2500    
   X51.6841      Y21.5920      R1.2500    
   X51.8079      Y21.2931      R1.2500    
   X51.8501      Y20.9724      R1.2500    
   X51.8079      Y20.6516      R1.2500    
   X51.6841      Y20.3528      R1.2500    
   X51.4872      Y20.0961      R1.2500    
   X51.2305      Y19.8992      R1.2500    
   X50.9316      Y19.7754      R1.2500    
   X50.6109      Y19.7332      R1.2500    
   X50.2902      Y19.7754      R1.2500    
   X49.9913      Y19.8992      R1.2500    
   X49.7347      Y20.0961      R1.2500    
   X49.5377      Y20.3528      R1.2500    
   X49.4139      Y20.6516      R1.2500    
   X49.3717      Y20.9724      R1.2500    
(Pass: 24)
G1   Z-2.400    
G17 G2   X49.4139      Y21.2931      R1.2500    
   X49.5377      Y21.5920      R1.2500    
   X49.7347      Y21.8486      R1.2500    
   X49.9913      Y22.0456      R1.2500    
   X50.2902      Y22.1694      R1.2500    
   X50.6109      Y22.2116      R1.2500    
   X50.9316      Y22.1694      R1.2500    
   X51.2305      Y22.0456      R1.2500    
   X51.4872      Y21.8486      R1.2500    
   X51.6841      Y21.5920      R1.2500    
   X51.8079      Y21.2931      R1.2500    
   X51.8501      Y20.9724      R1.2500    
   X51.8079      Y20.6516      R1.2500    
   X51.6841      Y20.3528      R1.2500    
   X51.4872      Y20.0961      R1.2500    
   X51.2305      Y19.8992      R1.2500    
   X50.9316      Y19.7754      R1.2500    
   X50.6109      Y19.7332      R1.2500    
   X50.2902      Y19.7754      R1.2500    
   X49.9913      Y19.8992      R1.2500    
   X49.7347      Y20.0961      R1.2500    
   X49.5377      Y20.3528      R1.2500    
   X49.4139      Y20.6516      R1.2500    
   X49.3717      Y20.9724      R1.2500    
(Pass: 25)
G1   Z-2.500    
G17 G2   X49.4139      Y21.2931      R1.2500    
   X49.5377      Y21.5920      R1.2500    
   X49.7347      Y21.8486      R1.2500    
   X49.9913      Y22.0456      R1.2500    
   X50.2902      Y22.1694      R1.2500    
   X50.6109      Y22.2116      R1.2500    
   X50.9316      Y22.1694      R1.2500    
   X51.2305      Y22.0456      R1.2500    
   X51.4872      Y21.8486      R1.2500    
   X51.6841      Y21.5920      R1.2500    
   X51.8079      Y21.2931      R1.2500    
   X51.8501      Y20.9724      R1.2500    
   X51.8079      Y20.6516      R1.2500    
   X51.6841      Y20.3528      R1.2500    
   X51.4872      Y20.0961      R1.2500    
   X51.2305      Y19.8992      R1.2500    
   X50.9316      Y19.7754      R1.2500    
   X50.6109      Y19.7332      R1.2500    
   X50.2902      Y19.7754      R1.2500    
   X49.9913      Y19.8992      R1.2500    
   X49.7347      Y20.0961      R1.2500    
   X49.5377      Y20.3528      R1.2500    
   X49.4139      Y20.6516      R1.2500    
   X49.3717      Y20.9724      R1.2500    
(Pass: 26)
G1   Z-2.600    
G17 G2   X49.4139      Y21.2931      R1.2500    
   X49.5377      Y21.5920      R1.2500    
   X49.7347      Y21.8486      R1.2500    
   X49.9913      Y22.0456      R1.2500    
   X50.2902      Y22.1694      R1.2500    
   X50.6109      Y22.2116      R1.2500    
   X50.9316      Y22.1694      R1.2500    
   X51.2305      Y22.0456      R1.2500    
   X51.4872      Y21.8486      R1.2500    
   X51.6841      Y21.5920      R1.2500    
   X51.8079      Y21.2931      R1.2500    
   X51.8501      Y20.9724      R1.2500    
   X51.8079      Y20.6516      R1.2500    
   X51.6841      Y20.3528      R1.2500    
   X51.4872      Y20.0961      R1.2500    
   X51.2305      Y19.8992      R1.2500    
   X50.9316      Y19.7754      R1.2500    
   X50.6109      Y19.7332      R1.2500    
   X50.2902      Y19.7754      R1.2500    
   X49.9913      Y19.8992      R1.2500    
   X49.7347      Y20.0961      R1.2500    
   X49.5377      Y20.3528      R1.2500    
   X49.4139      Y20.6516      R1.2500    
   X49.3717      Y20.9724      R1.2500    
(Pass: 27)
G1   Z-2.700    
G17 G2   X49.4139      Y21.2931      R1.2500    
   X49.5377      Y21.5920      R1.2500    
   X49.7347      Y21.8486      R1.2500    
   X49.9913      Y22.0456      R1.2500    
   X50.2902      Y22.1694      R1.2500    
   X50.6109      Y22.2116      R1.2500    
   X50.9316      Y22.1694      R1.2500    
   X51.2305      Y22.0456      R1.2500    
   X51.4872      Y21.8486      R1.2500    
   X51.6841      Y21.5920      R1.2500    
   X51.8079      Y21.2931      R1.2500    
   X51.8501      Y20.9724      R1.2500    
   X51.8079      Y20.6516      R1.2500    
   X51.6841      Y20.3528      R1.2500    
   X51.4872      Y20.0961      R1.2500    
   X51.2305      Y19.8992      R1.2500    
   X50.9316      Y19.7754      R1.2500    
   X50.6109      Y19.7332      R1.2500    
   X50.2902      Y19.7754      R1.2500    
   X49.9913      Y19.8992      R1.2500    
   X49.7347      Y20.0961      R1.2500    
   X49.5377      Y20.3528      R1.2500    
   X49.4139      Y20.6516      R1.2500    
   X49.3717      Y20.9724      R1.2500    
(Pass: 28)
G1   Z-2.800    
G17 G2   X49.4139      Y21.2931      R1.2500    
   X49.5377      Y21.5920      R1.2500    
   X49.7347      Y21.8486      R1.2500    
   X49.9913      Y22.0456      R1.2500    
   X50.2902      Y22.1694      R1.2500    
   X50.6109      Y22.2116      R1.2500    
   X50.9316      Y22.1694      R1.2500    
   X51.2305      Y22.0456      R1.2500    
   X51.4872      Y21.8486      R1.2500    
   X51.6841      Y21.5920      R1.2500    
   X51.8079      Y21.2931      R1.2500    
   X51.8501      Y20.9724      R1.2500    
   X51.8079      Y20.6516      R1.2500    
   X51.6841      Y20.3528      R1.2500    
   X51.4872      Y20.0961      R1.2500    
   X51.2305      Y19.8992      R1.2500    
   X50.9316      Y19.7754      R1.2500    
   X50.6109      Y19.7332      R1.2500    
   X50.2902      Y19.7754      R1.2500    
   X49.9913      Y19.8992      R1.2500    
   X49.7347      Y20.0961      R1.2500    
   X49.5377      Y20.3528      R1.2500    
   X49.4139      Y20.6516      R1.2500    
   X49.3717      Y20.9724      R1.2500    
(Pass: 29)
G1   Z-2.900    
G17 G2   X49.4139      Y21.2931      R1.2500    
   X49.5377      Y21.5920      R1.2500    
   X49.7347      Y21.8486      R1.2500    
   X49.9913      Y22.0456      R1.2500    
   X50.2902      Y22.1694      R1.2500    
   X50.6109      Y22.2116      R1.2500    
   X50.9316      Y22.1694      R1.2500    
   X51.2305      Y22.0456      R1.2500    
   X51.4872      Y21.8486      R1.2500    
   X51.6841      Y21.5920      R1.2500    
   X51.8079      Y21.2931      R1.2500    
   X51.8501      Y20.9724      R1.2500    
   X51.8079      Y20.6516      R1.2500    
   X51.6841      Y20.3528      R1.2500    
   X51.4872      Y20.0961      R1.2500    
   X51.2305      Y19.8992      R1.2500    
   X50.9316      Y19.7754      R1.2500    
   X50.6109      Y19.7332      R1.2500    
   X50.2902      Y19.7754      R1.2500    
   X49.9913      Y19.8992      R1.2500    
   X49.7347      Y20.0961      R1.2500    
   X49.5377      Y20.3528      R1.2500    
   X49.4139      Y20.6516      R1.2500    
   X49.3717      Y20.9724      R1.2500    
(Pass: 30)
G1   Z-3.000    
G17 G2   X49.4139      Y21.2931      R1.2500    
   X49.5377      Y21.5920      R1.2500    
   X49.7347      Y21.8486      R1.2500    
   X49.9913      Y22.0456      R1.2500    
   X50.2902      Y22.1694      R1.2500    
   X50.6109      Y22.2116      R1.2500    
   X50.9316      Y22.1694      R1.2500    
   X51.2305      Y22.0456      R1.2500    
   X51.4872      Y21.8486      R1.2500    
   X51.6841      Y21.5920      R1.2500    
   X51.8079      Y21.2931      R1.2500    
   X51.8501      Y20.9724      R1.2500    
   X51.8079      Y20.6516      R1.2500    
   X51.6841      Y20.3528      R1.2500    
   X51.4872      Y20.0961      R1.2500    
   X51.2305      Y19.8992      R1.2500    
   X50.9316      Y19.7754      R1.2500    
   X50.6109      Y19.7332      R1.2500    
   X50.2902      Y19.7754      R1.2500    
   X49.9913      Y19.8992      R1.2500    
   X49.7347      Y20.0961      R1.2500    
   X49.5377      Y20.3528      R1.2500    
   X49.4139      Y20.6516      R1.2500    
   X49.3717      Y20.9724      R1.2500    
(Pass: 31)
G1   Z-3.100    
G17 G2   X49.4139      Y21.2931      R1.2500    
   X49.5377      Y21.5920      R1.2500    
   X49.7347      Y21.8486      R1.2500    
   X49.9913      Y22.0456      R1.2500    
   X50.2902      Y22.1694      R1.2500    
   X50.6109      Y22.2116      R1.2500    
   X50.9316      Y22.1694      R1.2500    
   X51.2305      Y22.0456      R1.2500    
   X51.4872      Y21.8486      R1.2500    
   X51.6841      Y21.5920      R1.2500    
   X51.8079      Y21.2931      R1.2500    
   X51.8501      Y20.9724      R1.2500    
   X51.8079      Y20.6516      R1.2500    
   X51.6841      Y20.3528      R1.2500    
   X51.4872      Y20.0961      R1.2500    
   X51.2305      Y19.8992      R1.2500    
   X50.9316      Y19.7754      R1.2500    
   X50.6109      Y19.7332      R1.2500    
   X50.2902      Y19.7754      R1.2500    
   X49.9913      Y19.8992      R1.2500    
   X49.7347      Y20.0961      R1.2500    
   X49.5377      Y20.3528      R1.2500    
   X49.4139      Y20.6516      R1.2500    
   X49.3717      Y20.9724      R1.2500    
(Pass: 32)
G1   Z-3.200    
G17 G2   X49.4139      Y21.2931      R1.2500    
   X49.5377      Y21.5920      R1.2500    
   X49.7347      Y21.8486      R1.2500    
   X49.9913      Y22.0456      R1.2500    
   X50.2902      Y22.1694      R1.2500    
   X50.6109      Y22.2116      R1.2500    
   X50.9316      Y22.1694      R1.2500    
   X51.2305      Y22.0456      R1.2500    
   X51.4872      Y21.8486      R1.2500    
   X51.6841      Y21.5920      R1.2500    
   X51.8079      Y21.2931      R1.2500    
   X51.8501      Y20.9724      R1.2500    
   X51.8079      Y20.6516      R1.2500    
   X51.6841      Y20.3528      R1.2500    
   X51.4872      Y20.0961      R1.2500    
   X51.2305      Y19.8992      R1.2500    
   X50.9316      Y19.7754      R1.2500    
   X50.6109      Y19.7332      R1.2500    
   X50.2902      Y19.7754      R1.2500    
   X49.9913      Y19.8992      R1.2500    
   X49.7347      Y20.0961      R1.2500    
   X49.5377      Y20.3528      R1.2500    
   X49.4139      Y20.6516      R1.2500    
   X49.3717      Y20.9724      R1.2500    
(Pass: 33)
G1   Z-3.300    
G17 G2   X49.4139      Y21.2931      R1.2500    
   X49.5377      Y21.5920      R1.2500    
   X49.7347      Y21.8486      R1.2500    
   X49.9913      Y22.0456      R1.2500    
   X50.2902      Y22.1694      R1.2500    
   X50.6109      Y22.2116      R1.2500    
   X50.9316      Y22.1694      R1.2500    
   X51.2305      Y22.0456      R1.2500    
   X51.4872      Y21.8486      R1.2500    
   X51.6841      Y21.5920      R1.2500    
   X51.8079      Y21.2931      R1.2500    
   X51.8501      Y20.9724      R1.2500    
   X51.8079      Y20.6516      R1.2500    
   X51.6841      Y20.3528      R1.2500    
   X51.4872      Y20.0961      R1.2500    
   X51.2305      Y19.8992      R1.2500    
   X50.9316      Y19.7754      R1.2500    
   X50.6109      Y19.7332      R1.2500    
   X50.2902      Y19.7754      R1.2500    
   X49.9913      Y19.8992      R1.2500    
   X49.7347      Y20.0961      R1.2500    
   X49.5377      Y20.3528      R1.2500    
   X49.4139      Y20.6516      R1.2500    
   X49.3717      Y20.9724      R1.2500    
(Pass: 34)
G1   Z-3.400    
G17 G2   X49.4139      Y21.2931      R1.2500    
   X49.5377      Y21.5920      R1.2500    
   X49.7347      Y21.8486      R1.2500    
   X49.9913      Y22.0456      R1.2500    
   X50.2902      Y22.1694      R1.2500    
   X50.6109      Y22.2116      R1.2500    
   X50.9316      Y22.1694      R1.2500    
   X51.2305      Y22.0456      R1.2500    
   X51.4872      Y21.8486      R1.2500    
   X51.6841      Y21.5920      R1.2500    
   X51.8079      Y21.2931      R1.2500    
   X51.8501      Y20.9724      R1.2500    
   X51.8079      Y20.6516      R1.2500    
   X51.6841      Y20.3528      R1.2500    
   X51.4872      Y20.0961      R1.2500    
   X51.2305      Y19.8992      R1.2500    
   X50.9316      Y19.7754      R1.2500    
   X50.6109      Y19.7332      R1.2500    
   X50.2902      Y19.7754      R1.2500    
   X49.9913      Y19.8992      R1.2500    
   X49.7347      Y20.0961      R1.2500    
   X49.5377      Y20.3528      R1.2500    
   X49.4139      Y20.6516      R1.2500    
   X49.3717      Y20.9724      R1.2500    
(Pass: 35)
G1   Z-3.500    
G17 G2   X49.4139      Y21.2931      R1.2500    
   X49.5377      Y21.5920      R1.2500    
   X49.7347      Y21.8486      R1.2500    
   X49.9913      Y22.0456      R1.2500    
   X50.2902      Y22.1694      R1.2500    
   X50.6109      Y22.2116      R1.2500    
   X50.9316      Y22.1694      R1.2500    
   X51.2305      Y22.0456      R1.2500    
   X51.4872      Y21.8486      R1.2500    
   X51.6841      Y21.5920      R1.2500    
   X51.8079      Y21.2931      R1.2500    
   X51.8501      Y20.9724      R1.2500    
   X51.8079      Y20.6516      R1.2500    
   X51.6841      Y20.3528      R1.2500    
   X51.4872      Y20.0961      R1.2500    
   X51.2305      Y19.8992      R1.2500    
   X50.9316      Y19.7754      R1.2500    
   X50.6109      Y19.7332      R1.2500    
   X50.2902      Y19.7754      R1.2500    
   X49.9913      Y19.8992      R1.2500    
   X49.7347      Y20.0961      R1.2500    
   X49.5377      Y20.3528      R1.2500    
   X49.4139      Y20.6516      R1.2500    
   X49.3717      Y20.9724      R1.2500    
(BREAK pass 35)
G0   Z6.000     
(Pass: 1)
   X61.703       Y19.839    
G1   Z-0.100     F400 
G17 G2   X61.7319      Y20.0564      R0.8500    
   X61.8157      Y20.2588      R0.8500    
   X61.9491      Y20.4326      R0.8500    
   X62.1229      Y20.5660      R0.8500    
   X62.3253      Y20.6498      R0.8500    
   X62.5425      Y20.6784      R0.8500    
   X62.7597      Y20.6498      R0.8500    
   X62.9621      Y20.5660      R0.8500    
   X63.1359      Y20.4326      R0.8500    
   X63.2693      Y20.2588      R0.8500    
   X63.3531      Y20.0564      R0.8500    
   X63.3817      Y19.8392      R0.8500    
   X63.3531      Y19.6220      R0.8500    
   X63.2693      Y19.4196      R0.8500    
   X63.1359      Y19.2458      R0.8500    
   X62.9621      Y19.1124      R0.8500    
   X62.7597      Y19.0286      R0.8500    
   X62.5425      Y19.0000      R0.8500    
   X62.3253      Y19.0286      R0.8500    
   X62.1229      Y19.1124      R0.8500    
   X61.9491      Y19.2458      R0.8500    
   X61.8157      Y19.4196      R0.8500    
   X61.7319      Y19.6220      R0.8500    
   X61.7033      Y19.8392      R0.8500    
(Pass: 2)
G1   Z-0.200    
G17 G2   X61.7319      Y20.0564      R0.8500    
   X61.8157      Y20.2588      R0.8500    
   X61.9491      Y20.4326      R0.8500    
   X62.1229      Y20.5660      R0.8500    
   X62.3253      Y20.6498      R0.8500    
   X62.5425      Y20.6784      R0.8500    
   X62.7597      Y20.6498      R0.8500    
   X62.9621      Y20.5660      R0.8500    
   X63.1359      Y20.4326      R0.8500    
   X63.2693      Y20.2588      R0.8500    
   X63.3531      Y20.0564      R0.8500    
   X63.3817      Y19.8392      R0.8500    
   X63.3531      Y19.6220      R0.8500    
   X63.2693      Y19.4196      R0.8500    
   X63.1359      Y19.2458      R0.8500    
   X62.9621      Y19.1124      R0.8500    
   X62.7597      Y19.0286      R0.8500    
   X62.5425      Y19.0000      R0.8500    
   X62.3253      Y19.0286      R0.8500    
   X62.1229      Y19.1124      R0.8500    
   X61.9491      Y19.2458      R0.8500    
   X61.8157      Y19.4196      R0.8500    
   X61.7319      Y19.6220      R0.8500    
   X61.7033      Y19.8392      R0.8500    
(Pass: 3)
G1   Z-0.300    
G17 G2   X61.7319      Y20.0564      R0.8500    
   X61.8157      Y20.2588      R0.8500    
   X61.9491      Y20.4326      R0.8500    
   X62.1229      Y20.5660      R0.8500    
   X62.3253      Y20.6498      R0.8500    
   X62.5425      Y20.6784      R0.8500    
   X62.7597      Y20.6498      R0.8500    
   X62.9621      Y20.5660      R0.8500    
   X63.1359      Y20.4326      R0.8500    
   X63.2693      Y20.2588      R0.8500    
   X63.3531      Y20.0564      R0.8500    
   X63.3817      Y19.8392      R0.8500    
   X63.3531      Y19.6220      R0.8500    
   X63.2693      Y19.4196      R0.8500    
   X63.1359      Y19.2458      R0.8500    
   X62.9621      Y19.1124      R0.8500    
   X62.7597      Y19.0286      R0.8500    
   X62.5425      Y19.0000      R0.8500    
   X62.3253      Y19.0286      R0.8500    
   X62.1229      Y19.1124      R0.8500    
   X61.9491      Y19.2458      R0.8500    
   X61.8157      Y19.4196      R0.8500    
   X61.7319      Y19.6220      R0.8500    
   X61.7033      Y19.8392      R0.8500    
(Pass: 4)
G1   Z-0.400    
G17 G2   X61.7319      Y20.0564      R0.8500    
   X61.8157      Y20.2588      R0.8500    
   X61.9491      Y20.4326      R0.8500    
   X62.1229      Y20.5660      R0.8500    
   X62.3253      Y20.6498      R0.8500    
   X62.5425      Y20.6784      R0.8500    
   X62.7597      Y20.6498      R0.8500    
   X62.9621      Y20.5660      R0.8500    
   X63.1359      Y20.4326      R0.8500    
   X63.2693      Y20.2588      R0.8500    
   X63.3531      Y20.0564      R0.8500    
   X63.3817      Y19.8392      R0.8500    
   X63.3531      Y19.6220      R0.8500    
   X63.2693      Y19.4196      R0.8500    
   X63.1359      Y19.2458      R0.8500    
   X62.9621      Y19.1124      R0.8500    
   X62.7597      Y19.0286      R0.8500    
   X62.5425      Y19.0000      R0.8500    
   X62.3253      Y19.0286      R0.8500    
   X62.1229      Y19.1124      R0.8500    
   X61.9491      Y19.2458      R0.8500    
   X61.8157      Y19.4196      R0.8500    
   X61.7319      Y19.6220      R0.8500    
   X61.7033      Y19.8392      R0.8500    
(Pass: 5)
G1   Z-0.500    
G17 G2   X61.7319      Y20.0564      R0.8500    
   X61.8157      Y20.2588      R0.8500    
   X61.9491      Y20.4326      R0.8500    
   X62.1229      Y20.5660      R0.8500    
   X62.3253      Y20.6498      R0.8500    
   X62.5425      Y20.6784      R0.8500    
   X62.7597      Y20.6498      R0.8500    
   X62.9621      Y20.5660      R0.8500    
   X63.1359      Y20.4326      R0.8500    
   X63.2693      Y20.2588      R0.8500    
   X63.3531      Y20.0564      R0.8500    
   X63.3817      Y19.8392      R0.8500    
   X63.3531      Y19.6220      R0.8500    
   X63.2693      Y19.4196      R0.8500    
   X63.1359      Y19.2458      R0.8500    
   X62.9621      Y19.1124      R0.8500    
   X62.7597      Y19.0286      R0.8500    
   X62.5425      Y19.0000      R0.8500    
   X62.3253      Y19.0286      R0.8500    
   X62.1229      Y19.1124      R0.8500    
   X61.9491      Y19.2458      R0.8500    
   X61.8157      Y19.4196      R0.8500    
   X61.7319      Y19.6220      R0.8500    
   X61.7033      Y19.8392      R0.8500    
(Pass: 6)
G1   Z-0.600    
G17 G2   X61.7319      Y20.0564      R0.8500    
   X61.8157      Y20.2588      R0.8500    
   X61.9491      Y20.4326      R0.8500    
   X62.1229      Y20.5660      R0.8500    
   X62.3253      Y20.6498      R0.8500    
   X62.5425      Y20.6784      R0.8500    
   X62.7597      Y20.6498      R0.8500    
   X62.9621      Y20.5660      R0.8500    
   X63.1359      Y20.4326      R0.8500    
   X63.2693      Y20.2588      R0.8500    
   X63.3531      Y20.0564      R0.8500    
   X63.3817      Y19.8392      R0.8500    
   X63.3531      Y19.6220      R0.8500    
   X63.2693      Y19.4196      R0.8500    
   X63.1359      Y19.2458      R0.8500    
   X62.9621      Y19.1124      R0.8500    
   X62.7597      Y19.0286      R0.8500    
   X62.5425      Y19.0000      R0.8500    
   X62.3253      Y19.0286      R0.8500    
   X62.1229      Y19.1124      R0.8500    
   X61.9491      Y19.2458      R0.8500    
   X61.8157      Y19.4196      R0.8500    
   X61.7319      Y19.6220      R0.8500    
   X61.7033      Y19.8392      R0.8500    
(Pass: 7)
G1   Z-0.700    
G17 G2   X61.7319      Y20.0564      R0.8500    
   X61.8157      Y20.2588      R0.8500    
   X61.9491      Y20.4326      R0.8500    
   X62.1229      Y20.5660      R0.8500    
   X62.3253      Y20.6498      R0.8500    
   X62.5425      Y20.6784      R0.8500    
   X62.7597      Y20.6498      R0.8500    
   X62.9621      Y20.5660      R0.8500    
   X63.1359      Y20.4326      R0.8500    
   X63.2693      Y20.2588      R0.8500    
   X63.3531      Y20.0564      R0.8500    
   X63.3817      Y19.8392      R0.8500    
   X63.3531      Y19.6220      R0.8500    
   X63.2693      Y19.4196      R0.8500    
   X63.1359      Y19.2458      R0.8500    
   X62.9621      Y19.1124      R0.8500    
   X62.7597      Y19.0286      R0.8500    
   X62.5425      Y19.0000      R0.8500    
   X62.3253      Y19.0286      R0.8500    
   X62.1229      Y19.1124      R0.8500    
   X61.9491      Y19.2458      R0.8500    
   X61.8157      Y19.4196      R0.8500    
   X61.7319      Y19.6220      R0.8500    
   X61.7033      Y19.8392      R0.8500    
(Pass: 8)
G1   Z-0.800    
G17 G2   X61.7319      Y20.0564      R0.8500    
   X61.8157      Y20.2588      R0.8500    
   X61.9491      Y20.4326      R0.8500    
   X62.1229      Y20.5660      R0.8500    
   X62.3253      Y20.6498      R0.8500    
   X62.5425      Y20.6784      R0.8500    
   X62.7597      Y20.6498      R0.8500    
   X62.9621      Y20.5660      R0.8500    
   X63.1359      Y20.4326      R0.8500    
   X63.2693      Y20.2588      R0.8500    
   X63.3531      Y20.0564      R0.8500    
   X63.3817      Y19.8392      R0.8500    
   X63.3531      Y19.6220      R0.8500    
   X63.2693      Y19.4196      R0.8500    
   X63.1359      Y19.2458      R0.8500    
   X62.9621      Y19.1124      R0.8500    
   X62.7597      Y19.0286      R0.8500    
   X62.5425      Y19.0000      R0.8500    
   X62.3253      Y19.0286      R0.8500    
   X62.1229      Y19.1124      R0.8500    
   X61.9491      Y19.2458      R0.8500    
   X61.8157      Y19.4196      R0.8500    
   X61.7319      Y19.6220      R0.8500    
   X61.7033      Y19.8392      R0.8500    
(Pass: 9)
G1   Z-0.900    
G17 G2   X61.7319      Y20.0564      R0.8500    
   X61.8157      Y20.2588      R0.8500    
   X61.9491      Y20.4326      R0.8500    
   X62.1229      Y20.5660      R0.8500    
   X62.3253      Y20.6498      R0.8500    
   X62.5425      Y20.6784      R0.8500    
   X62.7597      Y20.6498      R0.8500    
   X62.9621      Y20.5660      R0.8500    
   X63.1359      Y20.4326      R0.8500    
   X63.2693      Y20.2588      R0.8500    
   X63.3531      Y20.0564      R0.8500    
   X63.3817      Y19.8392      R0.8500    
   X63.3531      Y19.6220      R0.8500    
   X63.2693      Y19.4196      R0.8500    
   X63.1359      Y19.2458      R0.8500    
   X62.9621      Y19.1124      R0.8500    
   X62.7597      Y19.0286      R0.8500    
   X62.5425      Y19.0000      R0.8500    
   X62.3253      Y19.0286      R0.8500    
   X62.1229      Y19.1124      R0.8500    
   X61.9491      Y19.2458      R0.8500    
   X61.8157      Y19.4196      R0.8500    
   X61.7319      Y19.6220      R0.8500    
   X61.7033      Y19.8392      R0.8500    
(Pass: 10)
G1   Z-1.000    
G17 G2   X61.7319      Y20.0564      R0.8500    
   X61.8157      Y20.2588      R0.8500    
   X61.9491      Y20.4326      R0.8500    
   X62.1229      Y20.5660      R0.8500    
   X62.3253      Y20.6498      R0.8500    
   X62.5425      Y20.6784      R0.8500    
   X62.7597      Y20.6498      R0.8500    
   X62.9621      Y20.5660      R0.8500    
   X63.1359      Y20.4326      R0.8500    
   X63.2693      Y20.2588      R0.8500    
   X63.3531      Y20.0564      R0.8500    
   X63.3817      Y19.8392      R0.8500    
   X63.3531      Y19.6220      R0.8500    
   X63.2693      Y19.4196      R0.8500    
   X63.1359      Y19.2458      R0.8500    
   X62.9621      Y19.1124      R0.8500    
   X62.7597      Y19.0286      R0.8500    
   X62.5425      Y19.0000      R0.8500    
   X62.3253      Y19.0286      R0.8500    
   X62.1229      Y19.1124      R0.8500    
   X61.9491      Y19.2458      R0.8500    
   X61.8157      Y19.4196      R0.8500    
   X61.7319      Y19.6220      R0.8500    
   X61.7033      Y19.8392      R0.8500    
(Pass: 11)
G1   Z-1.100    
G17 G2   X61.7319      Y20.0564      R0.8500    
   X61.8157      Y20.2588      R0.8500    
   X61.9491      Y20.4326      R0.8500    
   X62.1229      Y20.5660      R0.8500    
   X62.3253      Y20.6498      R0.8500    
   X62.5425      Y20.6784      R0.8500    
   X62.7597      Y20.6498      R0.8500    
   X62.9621      Y20.5660      R0.8500    
   X63.1359      Y20.4326      R0.8500    
   X63.2693      Y20.2588      R0.8500    
   X63.3531      Y20.0564      R0.8500    
   X63.3817      Y19.8392      R0.8500    
   X63.3531      Y19.6220      R0.8500    
   X63.2693      Y19.4196      R0.8500    
   X63.1359      Y19.2458      R0.8500    
   X62.9621      Y19.1124      R0.8500    
   X62.7597      Y19.0286      R0.8500    
   X62.5425      Y19.0000      R0.8500    
   X62.3253      Y19.0286      R0.8500    
   X62.1229      Y19.1124      R0.8500    
   X61.9491      Y19.2458      R0.8500    
   X61.8157      Y19.4196      R0.8500    
   X61.7319      Y19.6220      R0.8500    
   X61.7033      Y19.8392      R0.8500    
(Pass: 12)
G1   Z-1.200    
G17 G2   X61.7319      Y20.0564      R0.8500    
   X61.8157      Y20.2588      R0.8500    
   X61.9491      Y20.4326      R0.8500    
   X62.1229      Y20.5660      R0.8500    
   X62.3253      Y20.6498      R0.8500    
   X62.5425      Y20.6784      R0.8500    
   X62.7597      Y20.6498      R0.8500    
   X62.9621      Y20.5660      R0.8500    
   X63.1359      Y20.4326      R0.8500    
   X63.2693      Y20.2588      R0.8500    
   X63.3531      Y20.0564      R0.8500    
   X63.3817      Y19.8392      R0.8500    
   X63.3531      Y19.6220      R0.8500    
   X63.2693      Y19.4196      R0.8500    
   X63.1359      Y19.2458      R0.8500    
   X62.9621      Y19.1124      R0.8500    
   X62.7597      Y19.0286      R0.8500    
   X62.5425      Y19.0000      R0.8500    
   X62.3253      Y19.0286      R0.8500    
   X62.1229      Y19.1124      R0.8500    
   X61.9491      Y19.2458      R0.8500    
   X61.8157      Y19.4196      R0.8500    
   X61.7319      Y19.6220      R0.8500    
   X61.7033      Y19.8392      R0.8500    
(Pass: 13)
G1   Z-1.300    
G17 G2   X61.7319      Y20.0564      R0.8500    
   X61.8157      Y20.2588      R0.8500    
   X61.9491      Y20.4326      R0.8500    
   X62.1229      Y20.5660      R0.8500    
   X62.3253      Y20.6498      R0.8500    
   X62.5425      Y20.6784      R0.8500    
   X62.7597      Y20.6498      R0.8500    
   X62.9621      Y20.5660      R0.8500    
   X63.1359      Y20.4326      R0.8500    
   X63.2693      Y20.2588      R0.8500    
   X63.3531      Y20.0564      R0.8500    
   X63.3817      Y19.8392      R0.8500    
   X63.3531      Y19.6220      R0.8500    
   X63.2693      Y19.4196      R0.8500    
   X63.1359      Y19.2458      R0.8500    
   X62.9621      Y19.1124      R0.8500    
   X62.7597      Y19.0286      R0.8500    
   X62.5425      Y19.0000      R0.8500    
   X62.3253      Y19.0286      R0.8500    
   X62.1229      Y19.1124      R0.8500    
   X61.9491      Y19.2458      R0.8500    
   X61.8157      Y19.4196      R0.8500    
   X61.7319      Y19.6220      R0.8500    
   X61.7033      Y19.8392      R0.8500    
(Pass: 14)
G1   Z-1.400    
G17 G2   X61.7319      Y20.0564      R0.8500    
   X61.8157      Y20.2588      R0.8500    
   X61.9491      Y20.4326      R0.8500    
   X62.1229      Y20.5660      R0.8500    
   X62.3253      Y20.6498      R0.8500    
   X62.5425      Y20.6784      R0.8500    
   X62.7597      Y20.6498      R0.8500    
   X62.9621      Y20.5660      R0.8500    
   X63.1359      Y20.4326      R0.8500    
   X63.2693      Y20.2588      R0.8500    
   X63.3531      Y20.0564      R0.8500    
   X63.3817      Y19.8392      R0.8500    
   X63.3531      Y19.6220      R0.8500    
   X63.2693      Y19.4196      R0.8500    
   X63.1359      Y19.2458      R0.8500    
   X62.9621      Y19.1124      R0.8500    
   X62.7597      Y19.0286      R0.8500    
   X62.5425      Y19.0000      R0.8500    
   X62.3253      Y19.0286      R0.8500    
   X62.1229      Y19.1124      R0.8500    
   X61.9491      Y19.2458      R0.8500    
   X61.8157      Y19.4196      R0.8500    
   X61.7319      Y19.6220      R0.8500    
   X61.7033      Y19.8392      R0.8500    
(Pass: 15)
G1   Z-1.500    
G17 G2   X61.7319      Y20.0564      R0.8500    
   X61.8157      Y20.2588      R0.8500    
   X61.9491      Y20.4326      R0.8500    
   X62.1229      Y20.5660      R0.8500    
   X62.3253      Y20.6498      R0.8500    
   X62.5425      Y20.6784      R0.8500    
   X62.7597      Y20.6498      R0.8500    
   X62.9621      Y20.5660      R0.8500    
   X63.1359      Y20.4326      R0.8500    
   X63.2693      Y20.2588      R0.8500    
   X63.3531      Y20.0564      R0.8500    
   X63.3817      Y19.8392      R0.8500    
   X63.3531      Y19.6220      R0.8500    
   X63.2693      Y19.4196      R0.8500    
   X63.1359      Y19.2458      R0.8500    
   X62.9621      Y19.1124      R0.8500    
   X62.7597      Y19.0286      R0.8500    
   X62.5425      Y19.0000      R0.8500    
   X62.3253      Y19.0286      R0.8500    
   X62.1229      Y19.1124      R0.8500    
   X61.9491      Y19.2458      R0.8500    
   X61.8157      Y19.4196      R0.8500    
   X61.7319      Y19.6220      R0.8500    
   X61.7033      Y19.8392      R0.8500    
(Pass: 16)
G1   Z-1.600    
G17 G2   X61.7319      Y20.0564      R0.8500    
   X61.8157      Y20.2588      R0.8500    
   X61.9491      Y20.4326      R0.8500    
   X62.1229      Y20.5660      R0.8500    
   X62.3253      Y20.6498      R0.8500    
   X62.5425      Y20.6784      R0.8500    
   X62.7597      Y20.6498      R0.8500    
   X62.9621      Y20.5660      R0.8500    
   X63.1359      Y20.4326      R0.8500    
   X63.2693      Y20.2588      R0.8500    
   X63.3531      Y20.0564      R0.8500    
   X63.3817      Y19.8392      R0.8500    
   X63.3531      Y19.6220      R0.8500    
   X63.2693      Y19.4196      R0.8500    
   X63.1359      Y19.2458      R0.8500    
   X62.9621      Y19.1124      R0.8500    
   X62.7597      Y19.0286      R0.8500    
   X62.5425      Y19.0000      R0.8500    
   X62.3253      Y19.0286      R0.8500    
   X62.1229      Y19.1124      R0.8500    
   X61.9491      Y19.2458      R0.8500    
   X61.8157      Y19.4196      R0.8500    
   X61.7319      Y19.6220      R0.8500    
   X61.7033      Y19.8392      R0.8500    
(Pass: 17)
G1   Z-1.700    
G17 G2   X61.7319      Y20.0564      R0.8500    
   X61.8157      Y20.2588      R0.8500    
   X61.9491      Y20.4326      R0.8500    
   X62.1229      Y20.5660      R0.8500    
   X62.3253      Y20.6498      R0.8500    
   X62.5425      Y20.6784      R0.8500    
   X62.7597      Y20.6498      R0.8500    
   X62.9621      Y20.5660      R0.8500    
   X63.1359      Y20.4326      R0.8500    
   X63.2693      Y20.2588      R0.8500    
   X63.3531      Y20.0564      R0.8500    
   X63.3817      Y19.8392      R0.8500    
   X63.3531      Y19.6220      R0.8500    
   X63.2693      Y19.4196      R0.8500    
   X63.1359      Y19.2458      R0.8500    
   X62.9621      Y19.1124      R0.8500    
   X62.7597      Y19.0286      R0.8500    
   X62.5425      Y19.0000      R0.8500    
   X62.3253      Y19.0286      R0.8500    
   X62.1229      Y19.1124      R0.8500    
   X61.9491      Y19.2458      R0.8500    
   X61.8157      Y19.4196      R0.8500    
   X61.7319      Y19.6220      R0.8500    
   X61.7033      Y19.8392      R0.8500    
(Pass: 18)
G1   Z-1.800    
G17 G2   X61.7319      Y20.0564      R0.8500    
   X61.8157      Y20.2588      R0.8500    
   X61.9491      Y20.4326      R0.8500    
   X62.1229      Y20.5660      R0.8500    
   X62.3253      Y20.6498      R0.8500    
   X62.5425      Y20.6784      R0.8500    
   X62.7597      Y20.6498      R0.8500    
   X62.9621      Y20.5660      R0.8500    
   X63.1359      Y20.4326      R0.8500    
   X63.2693      Y20.2588      R0.8500    
   X63.3531      Y20.0564      R0.8500    
   X63.3817      Y19.8392      R0.8500    
   X63.3531      Y19.6220      R0.8500    
   X63.2693      Y19.4196      R0.8500    
   X63.1359      Y19.2458      R0.8500    
   X62.9621      Y19.1124      R0.8500    
   X62.7597      Y19.0286      R0.8500    
   X62.5425      Y19.0000      R0.8500    
   X62.3253      Y19.0286      R0.8500    
   X62.1229      Y19.1124      R0.8500    
   X61.9491      Y19.2458      R0.8500    
   X61.8157      Y19.4196      R0.8500    
   X61.7319      Y19.6220      R0.8500    
   X61.7033      Y19.8392      R0.8500    
(Pass: 19)
G1   Z-1.900    
G17 G2   X61.7319      Y20.0564      R0.8500    
   X61.8157      Y20.2588      R0.8500    
   X61.9491      Y20.4326      R0.8500    
   X62.1229      Y20.5660      R0.8500    
   X62.3253      Y20.6498      R0.8500    
   X62.5425      Y20.6784      R0.8500    
   X62.7597      Y20.6498      R0.8500    
   X62.9621      Y20.5660      R0.8500    
   X63.1359      Y20.4326      R0.8500    
   X63.2693      Y20.2588      R0.8500    
   X63.3531      Y20.0564      R0.8500    
   X63.3817      Y19.8392      R0.8500    
   X63.3531      Y19.6220      R0.8500    
   X63.2693      Y19.4196      R0.8500    
   X63.1359      Y19.2458      R0.8500    
   X62.9621      Y19.1124      R0.8500    
   X62.7597      Y19.0286      R0.8500    
   X62.5425      Y19.0000      R0.8500    
   X62.3253      Y19.0286      R0.8500    
   X62.1229      Y19.1124      R0.8500    
   X61.9491      Y19.2458      R0.8500    
   X61.8157      Y19.4196      R0.8500    
   X61.7319      Y19.6220      R0.8500    
   X61.7033      Y19.8392      R0.8500    
(Pass: 20)
G1   Z-2.000    
G17 G2   X61.7319      Y20.0564      R0.8500    
   X61.8157      Y20.2588      R0.8500    
   X61.9491      Y20.4326      R0.8500    
   X62.1229      Y20.5660      R0.8500    
   X62.3253      Y20.6498      R0.8500    
   X62.5425      Y20.6784      R0.8500    
   X62.7597      Y20.6498      R0.8500    
   X62.9621      Y20.5660      R0.8500    
   X63.1359      Y20.4326      R0.8500    
   X63.2693      Y20.2588      R0.8500    
   X63.3531      Y20.0564      R0.8500    
   X63.3817      Y19.8392      R0.8500    
   X63.3531      Y19.6220      R0.8500    
   X63.2693      Y19.4196      R0.8500    
   X63.1359      Y19.2458      R0.8500    
   X62.9621      Y19.1124      R0.8500    
   X62.7597      Y19.0286      R0.8500    
   X62.5425      Y19.0000      R0.8500    
   X62.3253      Y19.0286      R0.8500    
   X62.1229      Y19.1124      R0.8500    
   X61.9491      Y19.2458      R0.8500    
   X61.8157      Y19.4196      R0.8500    
   X61.7319      Y19.6220      R0.8500    
   X61.7033      Y19.8392      R0.8500    
(Pass: 21)
G1   Z-2.100    
G17 G2   X61.7319      Y20.0564      R0.8500    
   X61.8157      Y20.2588      R0.8500    
   X61.9491      Y20.4326      R0.8500    
   X62.1229      Y20.5660      R0.8500    
   X62.3253      Y20.6498      R0.8500    
   X62.5425      Y20.6784      R0.8500    
   X62.7597      Y20.6498      R0.8500    
   X62.9621      Y20.5660      R0.8500    
   X63.1359      Y20.4326      R0.8500    
   X63.2693      Y20.2588      R0.8500    
   X63.3531      Y20.0564      R0.8500    
   X63.3817      Y19.8392      R0.8500    
   X63.3531      Y19.6220      R0.8500    
   X63.2693      Y19.4196      R0.8500    
   X63.1359      Y19.2458      R0.8500    
   X62.9621      Y19.1124      R0.8500    
   X62.7597      Y19.0286      R0.8500    
   X62.5425      Y19.0000      R0.8500    
   X62.3253      Y19.0286      R0.8500    
   X62.1229      Y19.1124      R0.8500    
   X61.9491      Y19.2458      R0.8500    
   X61.8157      Y19.4196      R0.8500    
   X61.7319      Y19.6220      R0.8500    
   X61.7033      Y19.8392      R0.8500    
(Pass: 22)
G1   Z-2.200    
G17 G2   X61.7319      Y20.0564      R0.8500    
   X61.8157      Y20.2588      R0.8500    
   X61.9491      Y20.4326      R0.8500    
   X62.1229      Y20.5660      R0.8500    
   X62.3253      Y20.6498      R0.8500    
   X62.5425      Y20.6784      R0.8500    
   X62.7597      Y20.6498      R0.8500    
   X62.9621      Y20.5660      R0.8500    
   X63.1359      Y20.4326      R0.8500    
   X63.2693      Y20.2588      R0.8500    
   X63.3531      Y20.0564      R0.8500    
   X63.3817      Y19.8392      R0.8500    
   X63.3531      Y19.6220      R0.8500    
   X63.2693      Y19.4196      R0.8500    
   X63.1359      Y19.2458      R0.8500    
   X62.9621      Y19.1124      R0.8500    
   X62.7597      Y19.0286      R0.8500    
   X62.5425      Y19.0000      R0.8500    
   X62.3253      Y19.0286      R0.8500    
   X62.1229      Y19.1124      R0.8500    
   X61.9491      Y19.2458      R0.8500    
   X61.8157      Y19.4196      R0.8500    
   X61.7319      Y19.6220      R0.8500    
   X61.7033      Y19.8392      R0.8500    
(Pass: 23)
G1   Z-2.300    
G17 G2   X61.7319      Y20.0564      R0.8500    
   X61.8157      Y20.2588      R0.8500    
   X61.9491      Y20.4326      R0.8500    
   X62.1229      Y20.5660      R0.8500    
   X62.3253      Y20.6498      R0.8500    
   X62.5425      Y20.6784      R0.8500    
   X62.7597      Y20.6498      R0.8500    
   X62.9621      Y20.5660      R0.8500    
   X63.1359      Y20.4326      R0.8500    
   X63.2693      Y20.2588      R0.8500    
   X63.3531      Y20.0564      R0.8500    
   X63.3817      Y19.8392      R0.8500    
   X63.3531      Y19.6220      R0.8500    
   X63.2693      Y19.4196      R0.8500    
   X63.1359      Y19.2458      R0.8500    
   X62.9621      Y19.1124      R0.8500    
   X62.7597      Y19.0286      R0.8500    
   X62.5425      Y19.0000      R0.8500    
   X62.3253      Y19.0286      R0.8500    
   X62.1229      Y19.1124      R0.8500    
   X61.9491      Y19.2458      R0.8500    
   X61.8157      Y19.4196      R0.8500    
   X61.7319      Y19.6220      R0.8500    
   X61.7033      Y19.8392      R0.8500    
(Pass: 24)
G1   Z-2.400    
G17 G2   X61.7319      Y20.0564      R0.8500    
   X61.8157      Y20.2588      R0.8500    
   X61.9491      Y20.4326      R0.8500    
   X62.1229      Y20.5660      R0.8500    
   X62.3253      Y20.6498      R0.8500    
   X62.5425      Y20.6784      R0.8500    
   X62.7597      Y20.6498      R0.8500    
