%
(Generated by SketchUcam {1.2b1})
(File: Router Plates.skp)
(Bit diameter: 2.5mm)
(Feed rate: 400.0mm/min)
(Material Thickness: 3.4mm)
(Material length: 600.0mm X width: 300.0mm)
(Overhead Gantry: true)
(Retract feed rate NOT limited to plunge feed rate)
(Multipass enabled, Depth = 0.1mm)
(Optimization is ON)
(www.PhlatBoyz.com)
G90 G21 G49 
M3 S11000
G0   Z6.000     
(Pass: 1)
   X18.080       Y21.427    
G1   Z-0.100     F400 
G17 G2   X17.8237      Y21.6237      R1.2500    
   X17.6268      Y21.8804      R1.2500    
   X17.5030      Y22.1793      R1.2500    
   X17.4608      Y22.5000      R1.2500    
   X17.5030      Y22.8207      R1.2500    
   X17.6268      Y23.1196      R1.2500    
   X17.8237      Y23.3763      R1.2500    
   X18.0804      Y23.5732      R1.2500    
   X18.3793      Y23.6970      R1.2500    
   X18.7000      Y23.7392      R1.2500    
   X19.0207      Y23.6970      R1.2500    
   X19.3196      Y23.5732      R1.2500    
   X19.5763      Y23.3763      R1.2500    
   X19.7732      Y23.1196      R1.2500    
   X19.8970      Y22.8207      R1.2500    
   X19.9392      Y22.5000      R1.2500    
   X19.8970      Y22.1793      R1.2500    
   X19.7732      Y21.8804      R1.2500    
   X19.5763      Y21.6237      R1.2500    
   X19.3196      Y21.4268      R1.2500    
   X19.0207      Y21.3030      R1.2500    
   X18.7000      Y21.2608      R1.2500    
   X18.3793      Y21.3030      R1.2500    
   X18.0804      Y21.4268      R1.2500    
(Pass: 2)
G1   Z-0.200    
G17 G2   X17.8237      Y21.6237      R1.2500    
   X17.6268      Y21.8804      R1.2500    
   X17.5030      Y22.1793      R1.2500    
   X17.4608      Y22.5000      R1.2500    
   X17.5030      Y22.8207      R1.2500    
   X17.6268      Y23.1196      R1.2500    
   X17.8237      Y23.3763      R1.2500    
   X18.0804      Y23.5732      R1.2500    
   X18.3793      Y23.6970      R1.2500    
   X18.7000      Y23.7392      R1.2500    
   X19.0207      Y23.6970      R1.2500    
   X19.3196      Y23.5732      R1.2500    
   X19.5763      Y23.3763      R1.2500    
   X19.7732      Y23.1196      R1.2500    
   X19.8970      Y22.8207      R1.2500    
   X19.9392      Y22.5000      R1.2500    
   X19.8970      Y22.1793      R1.2500    
   X19.7732      Y21.8804      R1.2500    
   X19.5763      Y21.6237      R1.2500    
   X19.3196      Y21.4268      R1.2500    
   X19.0207      Y21.3030      R1.2500    
   X18.7000      Y21.2608      R1.2500    
   X18.3793      Y21.3030      R1.2500    
   X18.0804      Y21.4268      R1.2500    
(Pass: 3)
G1   Z-0.300    
G17 G2   X17.8237      Y21.6237      R1.2500    
   X17.6268      Y21.8804      R1.2500    
   X17.5030      Y22.1793      R1.2500    
   X17.4608      Y22.5000      R1.2500    
   X17.5030      Y22.8207      R1.2500    
   X17.6268      Y23.1196      R1.2500    
   X17.8237      Y23.3763      R1.2500    
   X18.0804      Y23.5732      R1.2500    
   X18.3793      Y23.6970      R1.2500    
   X18.7000      Y23.7392      R1.2500    
   X19.0207      Y23.6970      R1.2500    
   X19.3196      Y23.5732      R1.2500    
   X19.5763      Y23.3763      R1.2500    
   X19.7732      Y23.1196      R1.2500    
   X19.8970      Y22.8207      R1.2500    
   X19.9392      Y22.5000      R1.2500    
   X19.8970      Y22.1793      R1.2500    
   X19.7732      Y21.8804      R1.2500    
   X19.5763      Y21.6237      R1.2500    
   X19.3196      Y21.4268      R1.2500    
   X19.0207      Y21.3030      R1.2500    
   X18.7000      Y21.2608      R1.2500    
   X18.3793      Y21.3030      R1.2500    
   X18.0804      Y21.4268      R1.2500    
(Pass: 4)
G1   Z-0.400    
G17 G2   X17.8237      Y21.6237      R1.2500    
   X17.6268      Y21.8804      R1.2500    
   X17.5030      Y22.1793      R1.2500    
   X17.4608      Y22.5000      R1.2500    
   X17.5030      Y22.8207      R1.2500    
   X17.6268      Y23.1196      R1.2500    
   X17.8237      Y23.3763      R1.2500    
   X18.0804      Y23.5732      R1.2500    
   X18.3793      Y23.6970      R1.2500    
   X18.7000      Y23.7392      R1.2500    
   X19.0207      Y23.6970      R1.2500    
   X19.3196      Y23.5732      R1.2500    
   X19.5763      Y23.3763      R1.2500    
   X19.7732      Y23.1196      R1.2500    
   X19.8970      Y22.8207      R1.2500    
   X19.9392      Y22.5000      R1.2500    
   X19.8970      Y22.1793      R1.2500    
   X19.7732      Y21.8804      R1.2500    
   X19.5763      Y21.6237      R1.2500    
   X19.3196      Y21.4268      R1.2500    
   X19.0207      Y21.3030      R1.2500    
   X18.7000      Y21.2608      R1.2500    
   X18.3793      Y21.3030      R1.2500    
   X18.0804      Y21.4268      R1.2500    
(Pass: 5)
G1   Z-0.500    
G17 G2   X17.8237      Y21.6237      R1.2500    
   X17.6268      Y21.8804      R1.2500    
   X17.5030      Y22.1793      R1.2500    
   X17.4608      Y22.5000      R1.2500    
   X17.5030      Y22.8207      R1.2500    
   X17.6268      Y23.1196      R1.2500    
   X17.8237      Y23.3763      R1.2500    
   X18.0804      Y23.5732      R1.2500    
   X18.3793      Y23.6970      R1.2500    
   X18.7000      Y23.7392      R1.2500    
   X19.0207      Y23.6970      R1.2500    
   X19.3196      Y23.5732      R1.2500    
   X19.5763      Y23.3763      R1.2500    
   X19.7732      Y23.1196      R1.2500    
   X19.8970      Y22.8207      R1.2500    
   X19.9392      Y22.5000      R1.2500    
   X19.8970      Y22.1793      R1.2500    
   X19.7732      Y21.8804      R1.2500    
   X19.5763      Y21.6237      R1.2500    
   X19.3196      Y21.4268      R1.2500    
   X19.0207      Y21.3030      R1.2500    
   X18.7000      Y21.2608      R1.2500    
   X18.3793      Y21.3030      R1.2500    
   X18.0804      Y21.4268      R1.2500    
(Pass: 6)
G1   Z-0.600    
G17 G2   X17.8237      Y21.6237      R1.2500    
   X17.6268      Y21.8804      R1.2500    
   X17.5030      Y22.1793      R1.2500    
   X17.4608      Y22.5000      R1.2500    
   X17.5030      Y22.8207      R1.2500    
   X17.6268      Y23.1196      R1.2500    
   X17.8237      Y23.3763      R1.2500    
   X18.0804      Y23.5732      R1.2500    
   X18.3793      Y23.6970      R1.2500    
   X18.7000      Y23.7392      R1.2500    
   X19.0207      Y23.6970      R1.2500    
   X19.3196      Y23.5732      R1.2500    
   X19.5763      Y23.3763      R1.2500    
   X19.7732      Y23.1196      R1.2500    
   X19.8970      Y22.8207      R1.2500    
   X19.9392      Y22.5000      R1.2500    
   X19.8970      Y22.1793      R1.2500    
   X19.7732      Y21.8804      R1.2500    
   X19.5763      Y21.6237      R1.2500    
   X19.3196      Y21.4268      R1.2500    
   X19.0207      Y21.3030      R1.2500    
   X18.7000      Y21.2608      R1.2500    
   X18.3793      Y21.3030      R1.2500    
   X18.0804      Y21.4268      R1.2500    
(Pass: 7)
G1   Z-0.700    
G17 G2   X17.8237      Y21.6237      R1.2500    
   X17.6268      Y21.8804      R1.2500    
   X17.5030      Y22.1793      R1.2500    
   X17.4608      Y22.5000      R1.2500    
   X17.5030      Y22.8207      R1.2500    
   X17.6268      Y23.1196      R1.2500    
   X17.8237      Y23.3763      R1.2500    
   X18.0804      Y23.5732      R1.2500    
   X18.3793      Y23.6970      R1.2500    
   X18.7000      Y23.7392      R1.2500    
   X19.0207      Y23.6970      R1.2500    
   X19.3196      Y23.5732      R1.2500    
   X19.5763      Y23.3763      R1.2500    
   X19.7732      Y23.1196      R1.2500    
   X19.8970      Y22.8207      R1.2500    
   X19.9392      Y22.5000      R1.2500    
   X19.8970      Y22.1793      R1.2500    
   X19.7732      Y21.8804      R1.2500    
   X19.5763      Y21.6237      R1.2500    
   X19.3196      Y21.4268      R1.2500    
   X19.0207      Y21.3030      R1.2500    
   X18.7000      Y21.2608      R1.2500    
   X18.3793      Y21.3030      R1.2500    
   X18.0804      Y21.4268      R1.2500    
(Pass: 8)
G1   Z-0.800    
G17 G2   X17.8237      Y21.6237      R1.2500    
   X17.6268      Y21.8804      R1.2500    
   X17.5030      Y22.1793      R1.2500    
   X17.4608      Y22.5000      R1.2500    
   X17.5030      Y22.8207      R1.2500    
   X17.6268      Y23.1196      R1.2500    
   X17.8237      Y23.3763      R1.2500    
   X18.0804      Y23.5732      R1.2500    
   X18.3793      Y23.6970      R1.2500    
   X18.7000      Y23.7392      R1.2500    
   X19.0207      Y23.6970      R1.2500    
   X19.3196      Y23.5732      R1.2500    
   X19.5763      Y23.3763      R1.2500    
   X19.7732      Y23.1196      R1.2500    
   X19.8970      Y22.8207      R1.2500    
   X19.9392      Y22.5000      R1.2500    
   X19.8970      Y22.1793      R1.2500    
   X19.7732      Y21.8804      R1.2500    
   X19.5763      Y21.6237      R1.2500    
   X19.3196      Y21.4268      R1.2500    
   X19.0207      Y21.3030      R1.2500    
   X18.7000      Y21.2608      R1.2500    
   X18.3793      Y21.3030      R1.2500    
   X18.0804      Y21.4268      R1.2500    
(Pass: 9)
G1   Z-0.900    
G17 G2   X17.8237      Y21.6237      R1.2500    
   X17.6268      Y21.8804      R1.2500    
   X17.5030      Y22.1793      R1.2500    
   X17.4608      Y22.5000      R1.2500    
   X17.5030      Y22.8207      R1.2500    
   X17.6268      Y23.1196      R1.2500    
   X17.8237      Y23.3763      R1.2500    
   X18.0804      Y23.5732      R1.2500    
   X18.3793      Y23.6970      R1.2500    
   X18.7000      Y23.7392      R1.2500    
   X19.0207      Y23.6970      R1.2500    
   X19.3196      Y23.5732      R1.2500    
   X19.5763      Y23.3763      R1.2500    
   X19.7732      Y23.1196      R1.2500    
   X19.8970      Y22.8207      R1.2500    
   X19.9392      Y22.5000      R1.2500    
   X19.8970      Y22.1793      R1.2500    
   X19.7732      Y21.8804      R1.2500    
   X19.5763      Y21.6237      R1.2500    
   X19.3196      Y21.4268      R1.2500    
   X19.0207      Y21.3030      R1.2500    
   X18.7000      Y21.2608      R1.2500    
   X18.3793      Y21.3030      R1.2500    
   X18.0804      Y21.4268      R1.2500    
(Pass: 10)
G1   Z-1.000    
G17 G2   X17.8237      Y21.6237      R1.2500    
   X17.6268      Y21.8804      R1.2500    
   X17.5030      Y22.1793      R1.2500    
   X17.4608      Y22.5000      R1.2500    
   X17.5030      Y22.8207      R1.2500    
   X17.6268      Y23.1196      R1.2500    
   X17.8237      Y23.3763      R1.2500    
   X18.0804      Y23.5732      R1.2500    
   X18.3793      Y23.6970      R1.2500    
   X18.7000      Y23.7392      R1.2500    
   X19.0207      Y23.6970      R1.2500    
   X19.3196      Y23.5732      R1.2500    
   X19.5763      Y23.3763      R1.2500    
   X19.7732      Y23.1196      R1.2500    
   X19.8970      Y22.8207      R1.2500    
   X19.9392      Y22.5000      R1.2500    
   X19.8970      Y22.1793      R1.2500    
   X19.7732      Y21.8804      R1.2500    
   X19.5763      Y21.6237      R1.2500    
   X19.3196      Y21.4268      R1.2500    
   X19.0207      Y21.3030      R1.2500    
   X18.7000      Y21.2608      R1.2500    
   X18.3793      Y21.3030      R1.2500    
   X18.0804      Y21.4268      R1.2500    
(Pass: 11)
G1   Z-1.100    
G17 G2   X17.8237      Y21.6237      R1.2500    
   X17.6268      Y21.8804      R1.2500    
   X17.5030      Y22.1793      R1.2500    
   X17.4608      Y22.5000      R1.2500    
   X17.5030      Y22.8207      R1.2500    
   X17.6268      Y23.1196      R1.2500    
   X17.8237      Y23.3763      R1.2500    
   X18.0804      Y23.5732      R1.2500    
   X18.3793      Y23.6970      R1.2500    
   X18.7000      Y23.7392      R1.2500    
   X19.0207      Y23.6970      R1.2500    
   X19.3196      Y23.5732      R1.2500    
   X19.5763      Y23.3763      R1.2500    
   X19.7732      Y23.1196      R1.2500    
   X19.8970      Y22.8207      R1.2500    
   X19.9392      Y22.5000      R1.2500    
   X19.8970      Y22.1793      R1.2500    
   X19.7732      Y21.8804      R1.2500    
   X19.5763      Y21.6237      R1.2500    
   X19.3196      Y21.4268      R1.2500    
   X19.0207      Y21.3030      R1.2500    
   X18.7000      Y21.2608      R1.2500    
   X18.3793      Y21.3030      R1.2500    
   X18.0804      Y21.4268      R1.2500    
(Pass: 12)
G1   Z-1.200    
G17 G2   X17.8237      Y21.6237      R1.2500    
   X17.6268      Y21.8804      R1.2500    
   X17.5030      Y22.1793      R1.2500    
   X17.4608      Y22.5000      R1.2500    
   X17.5030      Y22.8207      R1.2500    
   X17.6268      Y23.1196      R1.2500    
   X17.8237      Y23.3763      R1.2500    
   X18.0804      Y23.5732      R1.2500    
   X18.3793      Y23.6970      R1.2500    
   X18.7000      Y23.7392      R1.2500    
   X19.0207      Y23.6970      R1.2500    
   X19.3196      Y23.5732      R1.2500    
   X19.5763      Y23.3763      R1.2500    
   X19.7732      Y23.1196      R1.2500    
   X19.8970      Y22.8207      R1.2500    
   X19.9392      Y22.5000      R1.2500    
   X19.8970      Y22.1793      R1.2500    
   X19.7732      Y21.8804      R1.2500    
   X19.5763      Y21.6237      R1.2500    
   X19.3196      Y21.4268      R1.2500    
   X19.0207      Y21.3030      R1.2500    
   X18.7000      Y21.2608      R1.2500    
   X18.3793      Y21.3030      R1.2500    
   X18.0804      Y21.4268      R1.2500    
(Pass: 13)
G1   Z-1.300    
G17 G2   X17.8237      Y21.6237      R1.2500    
   X17.6268      Y21.8804      R1.2500    
   X17.5030      Y22.1793      R1.2500    
   X17.4608      Y22.5000      R1.2500    
   X17.5030      Y22.8207      R1.2500    
   X17.6268      Y23.1196      R1.2500    
   X17.8237      Y23.3763      R1.2500    
   X18.0804      Y23.5732      R1.2500    
   X18.3793      Y23.6970      R1.2500    
   X18.7000      Y23.7392      R1.2500    
   X19.0207      Y23.6970      R1.2500    
   X19.3196      Y23.5732      R1.2500    
   X19.5763      Y23.3763      R1.2500    
   X19.7732      Y23.1196      R1.2500    
   X19.8970      Y22.8207      R1.2500    
   X19.9392      Y22.5000      R1.2500    
   X19.8970      Y22.1793      R1.2500    
   X19.7732      Y21.8804      R1.2500    
   X19.5763      Y21.6237      R1.2500    
   X19.3196      Y21.4268      R1.2500    
   X19.0207      Y21.3030      R1.2500    
   X18.7000      Y21.2608      R1.2500    
   X18.3793      Y21.3030      R1.2500    
   X18.0804      Y21.4268      R1.2500    
(Pass: 14)
G1   Z-1.400    
G17 G2   X17.8237      Y21.6237      R1.2500    
   X17.6268      Y21.8804      R1.2500    
   X17.5030      Y22.1793      R1.2500    
   X17.4608      Y22.5000      R1.2500    
   X17.5030      Y22.8207      R1.2500    
   X17.6268      Y23.1196      R1.2500    
   X17.8237      Y23.3763      R1.2500    
   X18.0804      Y23.5732      R1.2500    
   X18.3793      Y23.6970      R1.2500    
   X18.7000      Y23.7392      R1.2500    
   X19.0207      Y23.6970      R1.2500    
   X19.3196      Y23.5732      R1.2500    
   X19.5763      Y23.3763      R1.2500    
   X19.7732      Y23.1196      R1.2500    
   X19.8970      Y22.8207      R1.2500    
   X19.9392      Y22.5000      R1.2500    
   X19.8970      Y22.1793      R1.2500    
   X19.7732      Y21.8804      R1.2500    
   X19.5763      Y21.6237      R1.2500    
   X19.3196      Y21.4268      R1.2500    
   X19.0207      Y21.3030      R1.2500    
   X18.7000      Y21.2608      R1.2500    
   X18.3793      Y21.3030      R1.2500    
   X18.0804      Y21.4268      R1.2500    
(Pass: 15)
G1   Z-1.500    
G17 G2   X17.8237      Y21.6237      R1.2500    
   X17.6268      Y21.8804      R1.2500    
   X17.5030      Y22.1793      R1.2500    
   X17.4608      Y22.5000      R1.2500    
   X17.5030      Y22.8207      R1.2500    
   X17.6268      Y23.1196      R1.2500    
   X17.8237      Y23.3763      R1.2500    
   X18.0804      Y23.5732      R1.2500    
   X18.3793      Y23.6970      R1.2500    
   X18.7000      Y23.7392      R1.2500    
   X19.0207      Y23.6970      R1.2500    
   X19.3196      Y23.5732      R1.2500    
   X19.5763      Y23.3763      R1.2500    
   X19.7732      Y23.1196      R1.2500    
   X19.8970      Y22.8207      R1.2500    
   X19.9392      Y22.5000      R1.2500    
   X19.8970      Y22.1793      R1.2500    
   X19.7732      Y21.8804      R1.2500    
   X19.5763      Y21.6237      R1.2500    
   X19.3196      Y21.4268      R1.2500    
   X19.0207      Y21.3030      R1.2500    
   X18.7000      Y21.2608      R1.2500    
   X18.3793      Y21.3030      R1.2500    
   X18.0804      Y21.4268      R1.2500    
(Pass: 16)
G1   Z-1.600    
G17 G2   X17.8237      Y21.6237      R1.2500    
   X17.6268      Y21.8804      R1.2500    
   X17.5030      Y22.1793      R1.2500    
   X17.4608      Y22.5000      R1.2500    
   X17.5030      Y22.8207      R1.2500    
   X17.6268      Y23.1196      R1.2500    
   X17.8237      Y23.3763      R1.2500    
   X18.0804      Y23.5732      R1.2500    
   X18.3793      Y23.6970      R1.2500    
   X18.7000      Y23.7392      R1.2500    
   X19.0207      Y23.6970      R1.2500    
   X19.3196      Y23.5732      R1.2500    
   X19.5763      Y23.3763      R1.2500    
   X19.7732      Y23.1196      R1.2500    
   X19.8970      Y22.8207      R1.2500    
   X19.9392      Y22.5000      R1.2500    
   X19.8970      Y22.1793      R1.2500    
   X19.7732      Y21.8804      R1.2500    
   X19.5763      Y21.6237      R1.2500    
   X19.3196      Y21.4268      R1.2500    
   X19.0207      Y21.3030      R1.2500    
   X18.7000      Y21.2608      R1.2500    
   X18.3793      Y21.3030      R1.2500    
   X18.0804      Y21.4268      R1.2500    
(Pass: 17)
G1   Z-1.700    
G17 G2   X17.8237      Y21.6237      R1.2500    
   X17.6268      Y21.8804      R1.2500    
   X17.5030      Y22.1793      R1.2500    
   X17.4608      Y22.5000      R1.2500    
   X17.5030      Y22.8207      R1.2500    
   X17.6268      Y23.1196      R1.2500    
   X17.8237      Y23.3763      R1.2500    
   X18.0804      Y23.5732      R1.2500    
   X18.3793      Y23.6970      R1.2500    
   X18.7000      Y23.7392      R1.2500    
   X19.0207      Y23.6970      R1.2500    
   X19.3196      Y23.5732      R1.2500    
   X19.5763      Y23.3763      R1.2500    
   X19.7732      Y23.1196      R1.2500    
   X19.8970      Y22.8207      R1.2500    
   X19.9392      Y22.5000      R1.2500    
   X19.8970      Y22.1793      R1.2500    
   X19.7732      Y21.8804      R1.2500    
   X19.5763      Y21.6237      R1.2500    
   X19.3196      Y21.4268      R1.2500    
   X19.0207      Y21.3030      R1.2500    
   X18.7000      Y21.2608      R1.2500    
   X18.3793      Y21.3030      R1.2500    
   X18.0804      Y21.4268      R1.2500    
(Pass: 18)
G1   Z-1.800    
G17 G2   X17.8237      Y21.6237      R1.2500    
   X17.6268      Y21.8804      R1.2500    
   X17.5030      Y22.1793      R1.2500    
   X17.4608      Y22.5000      R1.2500    
   X17.5030      Y22.8207      R1.2500    
   X17.6268      Y23.1196      R1.2500    
   X17.8237      Y23.3763      R1.2500    
   X18.0804      Y23.5732      R1.2500    
   X18.3793      Y23.6970      R1.2500    
   X18.7000      Y23.7392      R1.2500    
   X19.0207      Y23.6970      R1.2500    
   X19.3196      Y23.5732      R1.2500    
   X19.5763      Y23.3763      R1.2500    
   X19.7732      Y23.1196      R1.2500    
   X19.8970      Y22.8207      R1.2500    
   X19.9392      Y22.5000      R1.2500    
   X19.8970      Y22.1793      R1.2500    
   X19.7732      Y21.8804      R1.2500    
   X19.5763      Y21.6237      R1.2500    
   X19.3196      Y21.4268      R1.2500    
   X19.0207      Y21.3030      R1.2500    
   X18.7000      Y21.2608      R1.2500    
   X18.3793      Y21.3030      R1.2500    
   X18.0804      Y21.4268      R1.2500    
(Pass: 19)
G1   Z-1.900    
G17 G2   X17.8237      Y21.6237      R1.2500    
   X17.6268      Y21.8804      R1.2500    
   X17.5030      Y22.1793      R1.2500    
   X17.4608      Y22.5000      R1.2500    
   X17.5030      Y22.8207      R1.2500    
   X17.6268      Y23.1196      R1.2500    
   X17.8237      Y23.3763      R1.2500    
   X18.0804      Y23.5732      R1.2500    
   X18.3793      Y23.6970      R1.2500    
   X18.7000      Y23.7392      R1.2500    
   X19.0207      Y23.6970      R1.2500    
   X19.3196      Y23.5732      R1.2500    
   X19.5763      Y23.3763      R1.2500    
   X19.7732      Y23.1196      R1.2500    
   X19.8970      Y22.8207      R1.2500    
   X19.9392      Y22.5000      R1.2500    
   X19.8970      Y22.1793      R1.2500    
   X19.7732      Y21.8804      R1.2500    
   X19.5763      Y21.6237      R1.2500    
   X19.3196      Y21.4268      R1.2500    
   X19.0207      Y21.3030      R1.2500    
   X18.7000      Y21.2608      R1.2500    
   X18.3793      Y21.3030      R1.2500    
   X18.0804      Y21.4268      R1.2500    
(Pass: 20)
G1   Z-2.000    
G17 G2   X17.8237      Y21.6237      R1.2500    
   X17.6268      Y21.8804      R1.2500    
   X17.5030      Y22.1793      R1.2500    
   X17.4608      Y22.5000      R1.2500    
   X17.5030      Y22.8207      R1.2500    
   X17.6268      Y23.1196      R1.2500    
   X17.8237      Y23.3763      R1.2500    
   X18.0804      Y23.5732      R1.2500    
   X18.3793      Y23.6970      R1.2500    
   X18.7000      Y23.7392      R1.2500    
   X19.0207      Y23.6970      R1.2500    
   X19.3196      Y23.5732      R1.2500    
   X19.5763      Y23.3763      R1.2500    
   X19.7732      Y23.1196      R1.2500    
   X19.8970      Y22.8207      R1.2500    
   X19.9392      Y22.5000      R1.2500    
   X19.8970      Y22.1793      R1.2500    
   X19.7732      Y21.8804      R1.2500    
   X19.5763      Y21.6237      R1.2500    
   X19.3196      Y21.4268      R1.2500    
   X19.0207      Y21.3030      R1.2500    
   X18.7000      Y21.2608      R1.2500    
   X18.3793      Y21.3030      R1.2500    
   X18.0804      Y21.4268      R1.2500    
(Pass: 21)
G1   Z-2.100    
G17 G2   X17.8237      Y21.6237      R1.2500    
   X17.6268      Y21.8804      R1.2500    
   X17.5030      Y22.1793      R1.2500    
   X17.4608      Y22.5000      R1.2500    
   X17.5030      Y22.8207      R1.2500    
   X17.6268      Y23.1196      R1.2500    
   X17.8237      Y23.3763      R1.2500    
   X18.0804      Y23.5732      R1.2500    
   X18.3793      Y23.6970      R1.2500    
   X18.7000      Y23.7392      R1.2500    
   X19.0207      Y23.6970      R1.2500    
   X19.3196      Y23.5732      R1.2500    
   X19.5763      Y23.3763      R1.2500    
   X19.7732      Y23.1196      R1.2500    
   X19.8970      Y22.8207      R1.2500    
   X19.9392      Y22.5000      R1.2500    
   X19.8970      Y22.1793      R1.2500    
   X19.7732      Y21.8804      R1.2500    
   X19.5763      Y21.6237      R1.2500    
   X19.3196      Y21.4268      R1.2500    
   X19.0207      Y21.3030      R1.2500    
   X18.7000      Y21.2608      R1.2500    
   X18.3793      Y21.3030      R1.2500    
   X18.0804      Y21.4268      R1.2500    
(Pass: 22)
G1   Z-2.200    
G17 G2   X17.8237      Y21.6237      R1.2500    
   X17.6268      Y21.8804      R1.2500    
   X17.5030      Y22.1793      R1.2500    
   X17.4608      Y22.5000      R1.2500    
   X17.5030      Y22.8207      R1.2500    
   X17.6268      Y23.1196      R1.2500    
   X17.8237      Y23.3763      R1.2500    
   X18.0804      Y23.5732      R1.2500    
   X18.3793      Y23.6970      R1.2500    
   X18.7000      Y23.7392      R1.2500    
   X19.0207      Y23.6970      R1.2500    
   X19.3196      Y23.5732      R1.2500    
   X19.5763      Y23.3763      R1.2500    
   X19.7732      Y23.1196      R1.2500    
   X19.8970      Y22.8207      R1.2500    
   X19.9392      Y22.5000      R1.2500    
   X19.8970      Y22.1793      R1.2500    
   X19.7732      Y21.8804      R1.2500    
   X19.5763      Y21.6237      R1.2500    
   X19.3196      Y21.4268      R1.2500    
   X19.0207      Y21.3030      R1.2500    
   X18.7000      Y21.2608      R1.2500    
   X18.3793      Y21.3030      R1.2500    
   X18.0804      Y21.4268      R1.2500    
(Pass: 23)
G1   Z-2.300    
G17 G2   X17.8237      Y21.6237      R1.2500    
   X17.6268      Y21.8804      R1.2500    
   X17.5030      Y22.1793      R1.2500    
   X17.4608      Y22.5000      R1.2500    
   X17.5030      Y22.8207      R1.2500    
   X17.6268      Y23.1196      R1.2500    
   X17.8237      Y23.3763      R1.2500    
   X18.0804      Y23.5732      R1.2500    
   X18.3793      Y23.6970      R1.2500    
   X18.7000      Y23.7392      R1.2500    
   X19.0207      Y23.6970      R1.2500    
   X19.3196      Y23.5732      R1.2500    
   X19.5763      Y23.3763      R1.2500    
   X19.7732      Y23.1196      R1.2500    
   X19.8970      Y22.8207      R1.2500    
   X19.9392      Y22.5000      R1.2500    
   X19.8970      Y22.1793      R1.2500    
   X19.7732      Y21.8804      R1.2500    
   X19.5763      Y21.6237      R1.2500    
   X19.3196      Y21.4268      R1.2500    
   X19.0207      Y21.3030      R1.2500    
   X18.7000      Y21.2608      R1.2500    
   X18.3793      Y21.3030      R1.2500    
   X18.0804      Y21.4268      R1.2500    
(Pass: 24)
G1   Z-2.400    
G17 G2   X17.8237      Y21.6237      R1.2500    
   X17.6268      Y21.8804      R1.2500    
   X17.5030      Y22.1793      R1.2500    
   X17.4608      Y22.5000      R1.2500    
   X17.5030      Y22.8207      R1.2500    
   X17.6268      Y23.1196      R1.2500    
   X17.8237      Y23.3763      R1.2500    
   X18.0804      Y23.5732      R1.2500    
   X18.3793      Y23.6970      R1.2500    
   X18.7000      Y23.7392      R1.2500    
   X19.0207      Y23.6970      R1.2500    
   X19.3196      Y23.5732      R1.2500    
   X19.5763      Y23.3763      R1.2500    
   X19.7732      Y23.1196      R1.2500    
   X19.8970      Y22.8207      R1.2500    
   X19.9392      Y22.5000      R1.2500    
   X19.8970      Y22.1793      R1.2500    
   X19.7732      Y21.8804      R1.2500    
   X19.5763      Y21.6237      R1.2500    
   X19.3196      Y21.4268      R1.2500    
   X19.0207      Y21.3030      R1.2500    
   X18.7000      Y21.2608      R1.2500    
   X18.3793      Y21.3030      R1.2500    
   X18.0804      Y21.4268      R1.2500    
(Pass: 25)
G1   Z-2.500    
G17 G2   X17.8237      Y21.6237      R1.2500    
   X17.6268      Y21.8804      R1.2500    
   X17.5030      Y22.1793      R1.2500    
   X17.4608      Y22.5000      R1.2500    
   X17.5030      Y22.8207      R1.2500    
   X17.6268      Y23.1196      R1.2500    
   X17.8237      Y23.3763      R1.2500    
   X18.0804      Y23.5732      R1.2500    
   X18.3793      Y23.6970      R1.2500    
   X18.7000      Y23.7392      R1.2500    
   X19.0207      Y23.6970      R1.2500    
   X19.3196      Y23.5732      R1.2500    
   X19.5763      Y23.3763      R1.2500    
   X19.7732      Y23.1196      R1.2500    
   X19.8970      Y22.8207      R1.2500    
   X19.9392      Y22.5000      R1.2500    
   X19.8970      Y22.1793      R1.2500    
   X19.7732      Y21.8804      R1.2500    
   X19.5763      Y21.6237      R1.2500    
   X19.3196      Y21.4268      R1.2500    
   X19.0207      Y21.3030      R1.2500    
   X18.7000      Y21.2608      R1.2500    
   X18.3793      Y21.3030      R1.2500    
   X18.0804      Y21.4268      R1.2500    
(Pass: 26)
G1   Z-2.600    
G17 G2   X17.8237      Y21.6237      R1.2500    
   X17.6268      Y21.8804      R1.2500    
   X17.5030      Y22.1793      R1.2500    
   X17.4608      Y22.5000      R1.2500    
   X17.5030      Y22.8207      R1.2500    
   X17.6268      Y23.1196      R1.2500    
   X17.8237      Y23.3763      R1.2500    
   X18.0804      Y23.5732      R1.2500    
   X18.3793      Y23.6970      R1.2500    
   X18.7000      Y23.7392      R1.2500    
   X19.0207      Y23.6970      R1.2500    
   X19.3196      Y23.5732      R1.2500    
   X19.5763      Y23.3763      R1.2500    
   X19.7732      Y23.1196      R1.2500    
   X19.8970      Y22.8207      R1.2500    
   X19.9392      Y22.5000      R1.2500    
   X19.8970      Y22.1793      R1.2500    
   X19.7732      Y21.8804      R1.2500    
   X19.5763      Y21.6237      R1.2500    
   X19.3196      Y21.4268      R1.2500    
   X19.0207      Y21.3030      R1.2500    
   X18.7000      Y21.2608      R1.2500    
   X18.3793      Y21.3030      R1.2500    
   X18.0804      Y21.4268      R1.2500    
(Pass: 27)
G1   Z-2.700    
G17 G2   X17.8237      Y21.6237      R1.2500    
   X17.6268      Y21.8804      R1.2500    
   X17.5030      Y22.1793      R1.2500    
   X17.4608      Y22.5000      R1.2500    
   X17.5030      Y22.8207      R1.2500    
   X17.6268      Y23.1196      R1.2500    
   X17.8237      Y23.3763      R1.2500    
   X18.0804      Y23.5732      R1.2500    
   X18.3793      Y23.6970      R1.2500    
   X18.7000      Y23.7392      R1.2500    
   X19.0207      Y23.6970      R1.2500    
   X19.3196      Y23.5732      R1.2500    
   X19.5763      Y23.3763      R1.2500    
   X19.7732      Y23.1196      R1.2500    
   X19.8970      Y22.8207      R1.2500    
   X19.9392      Y22.5000      R1.2500    
   X19.8970      Y22.1793      R1.2500    
   X19.7732      Y21.8804      R1.2500    
   X19.5763      Y21.6237      R1.2500    
   X19.3196      Y21.4268      R1.2500    
   X19.0207      Y21.3030      R1.2500    
   X18.7000      Y21.2608      R1.2500    
   X18.3793      Y21.3030      R1.2500    
   X18.0804      Y21.4268      R1.2500    
(Pass: 28)
G1   Z-2.800    
G17 G2   X17.8237      Y21.6237      R1.2500    
   X17.6268      Y21.8804      R1.2500    
   X17.5030      Y22.1793      R1.2500    
   X17.4608      Y22.5000      R1.2500    
   X17.5030      Y22.8207      R1.2500    
   X17.6268      Y23.1196      R1.2500    
   X17.8237      Y23.3763      R1.2500    
   X18.0804      Y23.5732      R1.2500    
   X18.3793      Y23.6970      R1.2500    
   X18.7000      Y23.7392      R1.2500    
   X19.0207      Y23.6970      R1.2500    
   X19.3196      Y23.5732      R1.2500    
   X19.5763      Y23.3763      R1.2500    
   X19.7732      Y23.1196      R1.2500    
   X19.8970      Y22.8207      R1.2500    
   X19.9392      Y22.5000      R1.2500    
   X19.8970      Y22.1793      R1.2500    
   X19.7732      Y21.8804      R1.2500    
   X19.5763      Y21.6237      R1.2500    
   X19.3196      Y21.4268      R1.2500    
   X19.0207      Y21.3030      R1.2500    
   X18.7000      Y21.2608      R1.2500    
   X18.3793      Y21.3030      R1.2500    
   X18.0804      Y21.4268      R1.2500    
(Pass: 29)
G1   Z-2.900    
G17 G2   X17.8237      Y21.6237      R1.2500    
   X17.6268      Y21.8804      R1.2500    
   X17.5030      Y22.1793      R1.2500    
   X17.4608      Y22.5000      R1.2500    
   X17.5030      Y22.8207      R1.2500    
   X17.6268      Y23.1196      R1.2500    
   X17.8237      Y23.3763      R1.2500    
   X18.0804      Y23.5732      R1.2500    
   X18.3793      Y23.6970      R1.2500    
   X18.7000      Y23.7392      R1.2500    
   X19.0207      Y23.6970      R1.2500    
   X19.3196      Y23.5732      R1.2500    
   X19.5763      Y23.3763      R1.2500    
   X19.7732      Y23.1196      R1.2500    
   X19.8970      Y22.8207      R1.2500    
   X19.9392      Y22.5000      R1.2500    
   X19.8970      Y22.1793      R1.2500    
   X19.7732      Y21.8804      R1.2500    
   X19.5763      Y21.6237      R1.2500    
   X19.3196      Y21.4268      R1.2500    
   X19.0207      Y21.3030      R1.2500    
   X18.7000      Y21.2608      R1.2500    
   X18.3793      Y21.3030      R1.2500    
   X18.0804      Y21.4268      R1.2500    
(Pass: 30)
G1   Z-3.000    
G17 G2   X17.8237      Y21.6237      R1.2500    
   X17.6268      Y21.8804      R1.2500    
   X17.5030      Y22.1793      R1.2500    
   X17.4608      Y22.5000      R1.2500    
   X17.5030      Y22.8207      R1.2500    
   X17.6268      Y23.1196      R1.2500    
   X17.8237      Y23.3763      R1.2500    
   X18.0804      Y23.5732      R1.2500    
   X18.3793      Y23.6970      R1.2500    
   X18.7000      Y23.7392      R1.2500    
   X19.0207      Y23.6970      R1.2500    
   X19.3196      Y23.5732      R1.2500    
   X19.5763      Y23.3763      R1.2500    
   X19.7732      Y23.1196      R1.2500    
   X19.8970      Y22.8207      R1.2500    
   X19.9392      Y22.5000      R1.2500    
   X19.8970      Y22.1793      R1.2500    
   X19.7732      Y21.8804      R1.2500    
   X19.5763      Y21.6237      R1.2500    
   X19.3196      Y21.4268      R1.2500    
   X19.0207      Y21.3030      R1.2500    
   X18.7000      Y21.2608      R1.2500    
   X18.3793      Y21.3030      R1.2500    
   X18.0804      Y21.4268      R1.2500    
(Pass: 31)
G1   Z-3.100    
G17 G2   X17.8237      Y21.6237      R1.2500    
   X17.6268      Y21.8804      R1.2500    
   X17.5030      Y22.1793      R1.2500    
   X17.4608      Y22.5000      R1.2500    
   X17.5030      Y22.8207      R1.2500    
   X17.6268      Y23.1196      R1.2500    
   X17.8237      Y23.3763      R1.2500    
   X18.0804      Y23.5732      R1.2500    
   X18.3793      Y23.6970      R1.2500    
   X18.7000      Y23.7392      R1.2500    
   X19.0207      Y23.6970      R1.2500    
   X19.3196      Y23.5732      R1.2500    
   X19.5763      Y23.3763      R1.2500    
   X19.7732      Y23.1196      R1.2500    
   X19.8970      Y22.8207      R1.2500    
   X19.9392      Y22.5000      R1.2500    
   X19.8970      Y22.1793      R1.2500    
   X19.7732      Y21.8804      R1.2500    
   X19.5763      Y21.6237      R1.2500    
   X19.3196      Y21.4268      R1.2500    
   X19.0207      Y21.3030      R1.2500    
   X18.7000      Y21.2608      R1.2500    
   X18.3793      Y21.3030      R1.2500    
   X18.0804      Y21.4268      R1.2500    
(Pass: 32)
G1   Z-3.200    
G17 G2   X17.8237      Y21.6237      R1.2500    
   X17.6268      Y21.8804      R1.2500    
   X17.5030      Y22.1793      R1.2500    
   X17.4608      Y22.5000      R1.2500    
   X17.5030      Y22.8207      R1.2500    
   X17.6268      Y23.1196      R1.2500    
   X17.8237      Y23.3763      R1.2500    
   X18.0804      Y23.5732      R1.2500    
   X18.3793      Y23.6970      R1.2500    
   X18.7000      Y23.7392      R1.2500    
   X19.0207      Y23.6970      R1.2500    
   X19.3196      Y23.5732      R1.2500    
   X19.5763      Y23.3763      R1.2500    
   X19.7732      Y23.1196      R1.2500    
   X19.8970      Y22.8207      R1.2500    
   X19.9392      Y22.5000      R1.2500    
   X19.8970      Y22.1793      R1.2500    
   X19.7732      Y21.8804      R1.2500    
   X19.5763      Y21.6237      R1.2500    
   X19.3196      Y21.4268      R1.2500    
   X19.0207      Y21.3030      R1.2500    
   X18.7000      Y21.2608      R1.2500    
   X18.3793      Y21.3030      R1.2500    
   X18.0804      Y21.4268      R1.2500    
(Pass: 33)
G1   Z-3.300    
G17 G2   X17.8237      Y21.6237      R1.2500    
   X17.6268      Y21.8804      R1.2500    
   X17.5030      Y22.1793      R1.2500    
   X17.4608      Y22.5000      R1.2500    
   X17.5030      Y22.8207      R1.2500    
   X17.6268      Y23.1196      R1.2500    
   X17.8237      Y23.3763      R1.2500    
   X18.0804      Y23.5732      R1.2500    
   X18.3793      Y23.6970      R1.2500    
   X18.7000      Y23.7392      R1.2500    
   X19.0207      Y23.6970      R1.2500    
   X19.3196      Y23.5732      R1.2500    
   X19.5763      Y23.3763      R1.2500    
   X19.7732      Y23.1196      R1.2500    
   X19.8970      Y22.8207      R1.2500    
   X19.9392      Y22.5000      R1.2500    
   X19.8970      Y22.1793      R1.2500    
   X19.7732      Y21.8804      R1.2500    
   X19.5763      Y21.6237      R1.2500    
   X19.3196      Y21.4268      R1.2500    
   X19.0207      Y21.3030      R1.2500    
   X18.7000      Y21.2608      R1.2500    
   X18.3793      Y21.3030      R1.2500    
   X18.0804      Y21.4268      R1.2500    
(Pass: 34)
G1   Z-3.400    
G17 G2   X17.8237      Y21.6237      R1.2500    
   X17.6268      Y21.8804      R1.2500    
   X17.5030      Y22.1793      R1.2500    
   X17.4608      Y22.5000      R1.2500    
   X17.5030      Y22.8207      R1.2500    
   X17.6268      Y23.1196      R1.2500    
   X17.8237      Y23.3763      R1.2500    
   X18.0804      Y23.5732      R1.2500    
   X18.3793      Y23.6970      R1.2500    
   X18.7000      Y23.7392      R1.2500    
   X19.0207      Y23.6970      R1.2500    
   X19.3196      Y23.5732      R1.2500    
   X19.5763      Y23.3763      R1.2500    
   X19.7732      Y23.1196      R1.2500    
   X19.8970      Y22.8207      R1.2500    
   X19.9392      Y22.5000      R1.2500    
   X19.8970      Y22.1793      R1.2500    
   X19.7732      Y21.8804      R1.2500    
   X19.5763      Y21.6237      R1.2500    
   X19.3196      Y21.4268      R1.2500    
   X19.0207      Y21.3030      R1.2500    
   X18.7000      Y21.2608      R1.2500    
   X18.3793      Y21.3030      R1.2500    
   X18.0804      Y21.4268      R1.2500    
(Pass: 35)
G1   Z-3.500    
G17 G2   X17.8237      Y21.6237      R1.2500    
   X17.6268      Y21.8804      R1.2500    
   X17.5030      Y22.1793      R1.2500    
   X17.4608      Y22.5000      R1.2500    
   X17.5030      Y22.8207      R1.2500    
   X17.6268      Y23.1196      R1.2500    
   X17.8237      Y23.3763      R1.2500    
   X18.0804      Y23.5732      R1.2500    
   X18.3793      Y23.6970      R1.2500    
   X18.7000      Y23.7392      R1.2500    
   X19.0207      Y23.6970      R1.2500    
   X19.3196      Y23.5732      R1.2500    
   X19.5763      Y23.3763      R1.2500    
   X19.7732      Y23.1196      R1.2500    
   X19.8970      Y22.8207      R1.2500    
   X19.9392      Y22.5000      R1.2500    
   X19.8970      Y22.1793      R1.2500    
   X19.7732      Y21.8804      R1.2500    
   X19.5763      Y21.6237      R1.2500    
   X19.3196      Y21.4268      R1.2500    
   X19.0207      Y21.3030      R1.2500    
   X18.7000      Y21.2608      R1.2500    
   X18.3793      Y21.3030      R1.2500    
   X18.0804      Y21.4268      R1.2500    
(BREAK pass 35)
G0   Z6.000     
(Pass: 1)
   X18.651       Y46.822    
G1   Z-0.100     F400 
G17 G2   X18.3299      Y46.8642      R1.2500    
   X18.0311      Y46.9880      R1.2500    
   X17.7744      Y47.1849      R1.2500    
   X17.5775      Y47.4416      R1.2500    
   X17.4537      Y47.7405      R1.2500    
   X17.4115      Y48.0612      R1.2500    
   X17.4537      Y48.3819      R1.2500    
   X17.5775      Y48.6808      R1.2500    
   X17.7744      Y48.9375      R1.2500    
   X18.0311      Y49.1344      R1.2500    
   X18.3299      Y49.2582      R1.2500    
   X18.6507      Y49.3004      R1.2500    
   X18.9714      Y49.2582      R1.2500    
   X19.2703      Y49.1344      R1.2500    
   X19.5269      Y48.9375      R1.2500    
   X19.7239      Y48.6808      R1.2500    
   X19.8477      Y48.3819      R1.2500    
   X19.8899      Y48.0612      R1.2500    
   X19.8477      Y47.7405      R1.2500    
   X19.7239      Y47.4416      R1.2500    
   X19.5269      Y47.1849      R1.2500    
   X19.2703      Y46.9880      R1.2500    
   X18.9714      Y46.8642      R1.2500    
   X18.6507      Y46.8220      R1.2500    
(Pass: 2)
G1   Z-0.200    
G17 G2   X18.3299      Y46.8642      R1.2500    
   X18.0311      Y46.9880      R1.2500    
   X17.7744      Y47.1849      R1.2500    
   X17.5775      Y47.4416      R1.2500    
   X17.4537      Y47.7405      R1.2500    
   X17.4115      Y48.0612      R1.2500    
   X17.4537      Y48.3819      R1.2500    
   X17.5775      Y48.6808      R1.2500    
   X17.7744      Y48.9375      R1.2500    
   X18.0311      Y49.1344      R1.2500    
   X18.3299      Y49.2582      R1.2500    
   X18.6507      Y49.3004      R1.2500    
   X18.9714      Y49.2582      R1.2500    
   X19.2703      Y49.1344      R1.2500    
   X19.5269      Y48.9375      R1.2500    
   X19.7239      Y48.6808      R1.2500    
   X19.8477      Y48.3819      R1.2500    
   X19.8899      Y48.0612      R1.2500    
   X19.8477      Y47.7405      R1.2500    
   X19.7239      Y47.4416      R1.2500    
   X19.5269      Y47.1849      R1.2500    
   X19.2703      Y46.9880      R1.2500    
   X18.9714      Y46.8642      R1.2500    
   X18.6507      Y46.8220      R1.2500    
(Pass: 3)
G1   Z-0.300    
G17 G2   X18.3299      Y46.8642      R1.2500    
   X18.0311      Y46.9880      R1.2500    
   X17.7744      Y47.1849      R1.2500    
   X17.5775      Y47.4416      R1.2500    
   X17.4537      Y47.7405      R1.2500    
   X17.4115      Y48.0612      R1.2500    
   X17.4537      Y48.3819      R1.2500    
   X17.5775      Y48.6808      R1.2500    
   X17.7744      Y48.9375      R1.2500    
   X18.0311      Y49.1344      R1.2500    
   X18.3299      Y49.2582      R1.2500    
   X18.6507      Y49.3004      R1.2500    
   X18.9714      Y49.2582      R1.2500    
   X19.2703      Y49.1344      R1.2500    
   X19.5269      Y48.9375      R1.2500    
   X19.7239      Y48.6808      R1.2500    
   X19.8477      Y48.3819      R1.2500    
   X19.8899      Y48.0612      R1.2500    
   X19.8477      Y47.7405      R1.2500    
   X19.7239      Y47.4416      R1.2500    
   X19.5269      Y47.1849      R1.2500    
   X19.2703      Y46.9880      R1.2500    
   X18.9714      Y46.8642      R1.2500    
   X18.6507      Y46.8220      R1.2500    
(Pass: 4)
G1   Z-0.400    
G17 G2   X18.3299      Y46.8642      R1.2500    
   X18.0311      Y46.9880      R1.2500    
   X17.7744      Y47.1849      R1.2500    
   X17.5775      Y47.4416      R1.2500    
   X17.4537      Y47.7405      R1.2500    
   X17.4115      Y48.0612      R1.2500    
   X17.4537      Y48.3819      R1.2500    
   X17.5775      Y48.6808      R1.2500    
   X17.7744      Y48.9375      R1.2500    
   X18.0311      Y49.1344      R1.2500    
   X18.3299      Y49.2582      R1.2500    
   X18.6507      Y49.3004      R1.2500    
   X18.9714      Y49.2582      R1.2500    
   X19.2703      Y49.1344      R1.2500    
   X19.5269      Y48.9375      R1.2500    
   X19.7239      Y48.6808      R1.2500    
   X19.8477      Y48.3819      R1.2500    
   X19.8899      Y48.0612      R1.2500    
   X19.8477      Y47.7405      R1.2500    
   X19.7239      Y47.4416      R1.2500    
   X19.5269      Y47.1849      R1.2500    
   X19.2703      Y46.9880      R1.2500    
   X18.9714      Y46.8642      R1.2500    
   X18.6507      Y46.8220      R1.2500    
(Pass: 5)
G1   Z-0.500    
G17 G2   X18.3299      Y46.8642      R1.2500    
   X18.0311      Y46.9880      R1.2500    
   X17.7744      Y47.1849      R1.2500    
   X17.5775      Y47.4416      R1.2500    
   X17.4537      Y47.7405      R1.2500    
   X17.4115      Y48.0612      R1.2500    
   X17.4537      Y48.3819      R1.2500    
   X17.5775      Y48.6808      R1.2500    
   X17.7744      Y48.9375      R1.2500    
   X18.0311      Y49.1344      R1.2500    
   X18.3299      Y49.2582      R1.2500    
   X18.6507      Y49.3004      R1.2500    
   X18.9714      Y49.2582      R1.2500    
   X19.2703      Y49.1344      R1.2500    
   X19.5269      Y48.9375      R1.2500    
   X19.7239      Y48.6808      R1.2500    
   X19.8477      Y48.3819      R1.2500    
   X19.8899      Y48.0612      R1.2500    
   X19.8477      Y47.7405      R1.2500    
   X19.7239      Y47.4416      R1.2500    
   X19.5269      Y47.1849      R1.2500    
   X19.2703      Y46.9880      R1.2500    
   X18.9714      Y46.8642      R1.2500    
   X18.6507      Y46.8220      R1.2500    
(Pass: 6)
G1   Z-0.600    
G17 G2   X18.3299      Y46.8642      R1.2500    
   X18.0311      Y46.9880      R1.2500    
   X17.7744      Y47.1849      R1.2500    
   X17.5775      Y47.4416      R1.2500    
   X17.4537      Y47.7405      R1.2500    
   X17.4115      Y48.0612      R1.2500    
   X17.4537      Y48.3819      R1.2500    
   X17.5775      Y48.6808      R1.2500    
   X17.7744      Y48.9375      R1.2500    
   X18.0311      Y49.1344      R1.2500    
   X18.3299      Y49.2582      R1.2500    
   X18.6507      Y49.3004      R1.2500    
   X18.9714      Y49.2582      R1.2500    
   X19.2703      Y49.1344      R1.2500    
   X19.5269      Y48.9375      R1.2500    
   X19.7239      Y48.6808      R1.2500    
   X19.8477      Y48.3819      R1.2500    
   X19.8899      Y48.0612      R1.2500    
   X19.8477      Y47.7405      R1.2500    
   X19.7239      Y47.4416      R1.2500    
   X19.5269      Y47.1849      R1.2500    
   X19.2703      Y46.9880      R1.2500    
   X18.9714      Y46.8642      R1.2500    
   X18.6507      Y46.8220      R1.2500    
(Pass: 7)
G1   Z-0.700    
G17 G2   X18.3299      Y46.8642      R1.2500    
   X18.0311      Y46.9880      R1.2500    
   X17.7744      Y47.1849      R1.2500    
   X17.5775      Y47.4416      R1.2500    
   X17.4537      Y47.7405      R1.2500    
   X17.4115      Y48.0612      R1.2500    
   X17.4537      Y48.3819      R1.2500    
   X17.5775      Y48.6808      R1.2500    
   X17.7744      Y48.9375      R1.2500    
   X18.0311      Y49.1344      R1.2500    
   X18.3299      Y49.2582      R1.2500    
   X18.6507      Y49.3004      R1.2500    
   X18.9714      Y49.2582      R1.2500    
   X19.2703      Y49.1344      R1.2500    
   X19.5269      Y48.9375      R1.2500    
   X19.7239      Y48.6808      R1.2500    
   X19.8477      Y48.3819      R1.2500    
   X19.8899      Y48.0612      R1.2500    
   X19.8477      Y47.7405      R1.2500    
   X19.7239      Y47.4416      R1.2500    
   X19.5269      Y47.1849      R1.2500    
   X19.2703      Y46.9880      R1.2500    
   X18.9714      Y46.8642      R1.2500    
   X18.6507      Y46.8220      R1.2500    
(Pass: 8)
G1   Z-0.800    
G17 G2   X18.3299      Y46.8642      R1.2500    
   X18.0311      Y46.9880      R1.2500    
   X17.7744      Y47.1849      R1.2500    
   X17.5775      Y47.4416      R1.2500    
   X17.4537      Y47.7405      R1.2500    
   X17.4115      Y48.0612      R1.2500    
   X17.4537      Y48.3819      R1.2500    
   X17.5775      Y48.6808      R1.2500    
   X17.7744      Y48.9375      R1.2500    
   X18.0311      Y49.1344      R1.2500    
   X18.3299      Y49.2582      R1.2500    
   X18.6507      Y49.3004      R1.2500    
   X18.9714      Y49.2582      R1.2500    
   X19.2703      Y49.1344      R1.2500    
   X19.5269      Y48.9375      R1.2500    
   X19.7239      Y48.6808      R1.2500    
   X19.8477      Y48.3819      R1.2500    
   X19.8899      Y48.0612      R1.2500    
   X19.8477      Y47.7405      R1.2500    
   X19.7239      Y47.4416      R1.2500    
   X19.5269      Y47.1849      R1.2500    
   X19.2703      Y46.9880      R1.2500    
   X18.9714      Y46.8642      R1.2500    
   X18.6507      Y46.8220      R1.2500    
(Pass: 9)
G1   Z-0.900    
G17 G2   X18.3299      Y46.8642      R1.2500    
   X18.0311      Y46.9880      R1.2500    
   X17.7744      Y47.1849      R1.2500    
   X17.5775      Y47.4416      R1.2500    
   X17.4537      Y47.7405      R1.2500    
   X17.4115      Y48.0612      R1.2500    
   X17.4537      Y48.3819      R1.2500    
   X17.5775      Y48.6808      R1.2500    
   X17.7744      Y48.9375      R1.2500    
   X18.0311      Y49.1344      R1.2500    
   X18.3299      Y49.2582      R1.2500    
   X18.6507      Y49.3004      R1.2500    
   X18.9714      Y49.2582      R1.2500    
   X19.2703      Y49.1344      R1.2500    
   X19.5269      Y48.9375      R1.2500    
   X19.7239      Y48.6808      R1.2500    
   X19.8477      Y48.3819      R1.2500    
   X19.8899      Y48.0612      R1.2500    
   X19.8477      Y47.7405      R1.2500    
   X19.7239      Y47.4416      R1.2500    
   X19.5269      Y47.1849      R1.2500    
   X19.2703      Y46.9880      R1.2500    
   X18.9714      Y46.8642      R1.2500    
   X18.6507      Y46.8220      R1.2500    
(Pass: 10)
G1   Z-1.000    
G17 G2   X18.3299      Y46.8642      R1.2500    
   X18.0311      Y46.9880      R1.2500    
   X17.7744      Y47.1849      R1.2500    
   X17.5775      Y47.4416      R1.2500    
   X17.4537      Y47.7405      R1.2500    
   X17.4115      Y48.0612      R1.2500    
   X17.4537      Y48.3819      R1.2500    
   X17.5775      Y48.6808      R1.2500    
   X17.7744      Y48.9375      R1.2500    
   X18.0311      Y49.1344      R1.2500    
   X18.3299      Y49.2582      R1.2500    
   X18.6507      Y49.3004      R1.2500    
   X18.9714      Y49.2582      R1.2500    
   X19.2703      Y49.1344      R1.2500    
   X19.5269      Y48.9375      R1.2500    
   X19.7239      Y48.6808      R1.2500    
   X19.8477      Y48.3819      R1.2500    
   X19.8899      Y48.0612      R1.2500    
   X19.8477      Y47.7405      R1.2500    
   X19.7239      Y47.4416      R1.2500    
   X19.5269      Y47.1849      R1.2500    
   X19.2703      Y46.9880      R1.2500    
   X18.9714      Y46.8642      R1.2500    
   X18.6507      Y46.8220      R1.2500    
(Pass: 11)
G1   Z-1.100    
G17 G2   X18.3299      Y46.8642      R1.2500    
   X18.0311      Y46.9880      R1.2500    
   X17.7744      Y47.1849      R1.2500    
   X17.5775      Y47.4416      R1.2500    
   X17.4537      Y47.7405      R1.2500    
   X17.4115      Y48.0612      R1.2500    
   X17.4537      Y48.3819      R1.2500    
   X17.5775      Y48.6808      R1.2500    
   X17.7744      Y48.9375      R1.2500    
   X18.0311      Y49.1344      R1.2500    
   X18.3299      Y49.2582      R1.2500    
   X18.6507      Y49.3004      R1.2500    
   X18.9714      Y49.2582      R1.2500    
   X19.2703      Y49.1344      R1.2500    
   X19.5269      Y48.9375      R1.2500    
   X19.7239      Y48.6808      R1.2500    
   X19.8477      Y48.3819      R1.2500    
   X19.8899      Y48.0612      R1.2500    
   X19.8477      Y47.7405      R1.2500    
   X19.7239      Y47.4416      R1.2500    
   X19.5269      Y47.1849      R1.2500    
   X19.2703      Y46.9880      R1.2500    
   X18.9714      Y46.8642      R1.2500    
   X18.6507      Y46.8220      R1.2500    
(Pass: 12)
G1   Z-1.200    
G17 G2   X18.3299      Y46.8642      R1.2500    
   X18.0311      Y46.9880      R1.2500    
   X17.7744      Y47.1849      R1.2500    
   X17.5775      Y47.4416      R1.2500    
   X17.4537      Y47.7405      R1.2500    
   X17.4115      Y48.0612      R1.2500    
   X17.4537      Y48.3819      R1.2500    
   X17.5775      Y48.6808      R1.2500    
   X17.7744      Y48.9375      R1.2500    
   X18.0311      Y49.1344      R1.2500    
   X18.3299      Y49.2582      R1.2500    
   X18.6507      Y49.3004      R1.2500    
   X18.9714      Y49.2582      R1.2500    
   X19.2703      Y49.1344      R1.2500    
   X19.5269      Y48.9375      R1.2500    
   X19.7239      Y48.6808      R1.2500    
   X19.8477      Y48.3819      R1.2500    
   X19.8899      Y48.0612      R1.2500    
   X19.8477      Y47.7405      R1.2500    
   X19.7239      Y47.4416      R1.2500    
   X19.5269      Y47.1849      R1.2500    
   X19.2703      Y46.9880      R1.2500    
   X18.9714      Y46.8642      R1.2500    
   X18.6507      Y46.8220      R1.2500    
(Pass: 13)
G1   Z-1.300    
G17 G2   X18.3299      Y46.8642      R1.2500    
   X18.0311      Y46.9880      R1.2500    
   X17.7744      Y47.1849      R1.2500    
   X17.5775      Y47.4416      R1.2500    
   X17.4537      Y47.7405      R1.2500    
   X17.4115      Y48.0612      R1.2500    
   X17.4537      Y48.3819      R1.2500    
   X17.5775      Y48.6808      R1.2500    
   X17.7744      Y48.9375      R1.2500    
   X18.0311      Y49.1344      R1.2500    
   X18.3299      Y49.2582      R1.2500    
   X18.6507      Y49.3004      R1.2500    
   X18.9714      Y49.2582      R1.2500    
   X19.2703      Y49.1344      R1.2500    
   X19.5269      Y48.9375      R1.2500    
   X19.7239      Y48.6808      R1.2500    
   X19.8477      Y48.3819      R1.2500    
   X19.8899      Y48.0612      R1.2500    
   X19.8477      Y47.7405      R1.2500    
   X19.7239      Y47.4416      R1.2500    
   X19.5269      Y47.1849      R1.2500    
   X19.2703      Y46.9880      R1.2500    
   X18.9714      Y46.8642      R1.2500    
   X18.6507      Y46.8220      R1.2500    
(Pass: 14)
G1   Z-1.400    
G17 G2   X18.3299      Y46.8642      R1.2500    
   X18.0311      Y46.9880      R1.2500    
   X17.7744      Y47.1849      R1.2500    
   X17.5775      Y47.4416      R1.2500    
   X17.4537      Y47.7405      R1.2500    
   X17.4115      Y48.0612      R1.2500    
   X17.4537      Y48.3819      R1.2500    
   X17.5775      Y48.6808      R1.2500    
   X17.7744      Y48.9375      R1.2500    
   X18.0311      Y49.1344      R1.2500    
   X18.3299      Y49.2582      R1.2500    
   X18.6507      Y49.3004      R1.2500    
   X18.9714      Y49.2582      R1.2500    
   X19.2703      Y49.1344      R1.2500    
   X19.5269      Y48.9375      R1.2500    
   X19.7239      Y48.6808      R1.2500    
   X19.8477      Y48.3819      R1.2500    
   X19.8899      Y48.0612      R1.2500    
   X19.8477      Y47.7405      R1.2500    
   X19.7239      Y47.4416      R1.2500    
   X19.5269      Y47.1849      R1.2500    
   X19.2703      Y46.9880      R1.2500    
   X18.9714      Y46.8642      R1.2500    
   X18.6507      Y46.8220      R1.2500    
(Pass: 15)
G1   Z-1.500    
G17 G2   X18.3299      Y46.8642      R1.2500    
   X18.0311      Y46.9880      R1.2500    
   X17.7744      Y47.1849      R1.2500    
   X17.5775      Y47.4416      R1.2500    
   X17.4537      Y47.7405      R1.2500    
   X17.4115      Y48.0612      R1.2500    
   X17.4537      Y48.3819      R1.2500    
   X17.5775      Y48.6808      R1.2500    
   X17.7744      Y48.9375      R1.2500    
   X18.0311      Y49.1344      R1.2500    
   X18.3299      Y49.2582      R1.2500    
   X18.6507      Y49.3004      R1.2500    
   X18.9714      Y49.2582      R1.2500    
   X19.2703      Y49.1344      R1.2500    
   X19.5269      Y48.9375      R1.2500    
   X19.7239      Y48.6808      R1.2500    
   X19.8477      Y48.3819      R1.2500    
   X19.8899      Y48.0612      R1.2500    
   X19.8477      Y47.7405      R1.2500    
   X19.7239      Y47.4416      R1.2500    
   X19.5269      Y47.1849      R1.2500    
   X19.2703      Y46.9880      R1.2500    
   X18.9714      Y46.8642      R1.2500    
   X18.6507      Y46.8220      R1.2500    
(Pass: 16)
G1   Z-1.600    
G17 G2   X18.3299      Y46.8642      R1.2500    
   X18.0311      Y46.9880      R1.2500    
   X17.7744      Y47.1849      R1.2500    
   X17.5775      Y47.4416      R1.2500    
   X17.4537      Y47.7405      R1.2500    
   X17.4115      Y48.0612      R1.2500    
   X17.4537      Y48.3819      R1.2500    
   X17.5775      Y48.6808      R1.2500    
   X17.7744      Y48.9375      R1.2500    
   X18.0311      Y49.1344      R1.2500    
   X18.3299      Y49.2582      R1.2500    
   X18.6507      Y49.3004      R1.2500    
   X18.9714      Y49.2582      R1.2500    
   X19.2703      Y49.1344      R1.2500    
   X19.5269      Y48.9375      R1.2500    
   X19.7239      Y48.6808      R1.2500    
   X19.8477      Y48.3819      R1.2500    
   X19.8899      Y48.0612      R1.2500    
   X19.8477      Y47.7405      R1.2500    
   X19.7239      Y47.4416      R1.2500    
   X19.5269      Y47.1849      R1.2500    
   X19.2703      Y46.9880      R1.2500    
   X18.9714      Y46.8642      R1.2500    
   X18.6507      Y46.8220      R1.2500    
(Pass: 17)
G1   Z-1.700    
G17 G2   X18.3299      Y46.8642      R1.2500    
   X18.0311      Y46.9880      R1.2500    
   X17.7744      Y47.1849      R1.2500    
   X17.5775      Y47.4416      R1.2500    
   X17.4537      Y47.7405      R1.2500    
   X17.4115      Y48.0612      R1.2500    
   X17.4537      Y48.3819      R1.2500    
   X17.5775      Y48.6808      R1.2500    
   X17.7744      Y48.9375      R1.2500    
   X18.0311      Y49.1344      R1.2500    
   X18.3299      Y49.2582      R1.2500    
   X18.6507      Y49.3004      R1.2500    
   X18.9714      Y49.2582      R1.2500    
   X19.2703      Y49.1344      R1.2500    
   X19.5269      Y48.9375      R1.2500    
   X19.7239      Y48.6808      R1.2500    
   X19.8477      Y48.3819      R1.2500    
   X19.8899      Y48.0612      R1.2500    
   X19.8477      Y47.7405      R1.2500    
   X19.7239      Y47.4416      R1.2500    
   X19.5269      Y47.1849      R1.2500    
   X19.2703      Y46.9880      R1.2500    
   X18.9714      Y46.8642      R1.2500    
   X18.6507      Y46.8220      R1.2500    
(Pass: 18)
G1   Z-1.800    
G17 G2   X18.3299      Y46.8642      R1.2500    
   X18.0311      Y46.9880      R1.2500    
   X17.7744      Y47.1849      R1.2500    
   X17.5775      Y47.4416      R1.2500    
   X17.4537      Y47.7405      R1.2500    
   X17.4115      Y48.0612      R1.2500    
   X17.4537      Y48.3819      R1.2500    
   X17.5775      Y48.6808      R1.2500    
   X17.7744      Y48.9375      R1.2500    
   X18.0311      Y49.1344      R1.2500    
   X18.3299      Y49.2582      R1.2500    
   X18.6507      Y49.3004      R1.2500    
   X18.9714      Y49.2582      R1.2500    
   X19.2703      Y49.1344      R1.2500    
   X19.5269      Y48.9375      R1.2500    
   X19.7239      Y48.6808      R1.2500    
   X19.8477      Y48.3819      R1.2500    
   X19.8899      Y48.0612      R1.2500    
   X19.8477      Y47.7405      R1.2500    
   X19.7239      Y47.4416      R1.2500    
   X19.5269      Y47.1849      R1.2500    
   X19.2703      Y46.9880      R1.2500    
   X18.9714      Y46.8642      R1.2500    
   X18.6507      Y46.8220      R1.2500    
(Pass: 19)
G1   Z-1.900    
G17 G2   X18.3299      Y46.8642      R1.2500    
   X18.0311      Y46.9880      R1.2500    
   X17.7744      Y47.1849      R1.2500    
   X17.5775      Y47.4416      R1.2500    
   X17.4537      Y47.7405      R1.2500    
   X17.4115      Y48.0612      R1.2500    
   X17.4537      Y48.3819      R1.2500    
   X17.5775      Y48.6808      R1.2500    
   X17.7744      Y48.9375      R1.2500    
   X18.0311      Y49.1344      R1.2500    
   X18.3299      Y49.2582      R1.2500    
   X18.6507      Y49.3004      R1.2500    
   X18.9714      Y49.2582      R1.2500    
   X19.2703      Y49.1344      R1.2500    
   X19.5269      Y48.9375      R1.2500    
   X19.7239      Y48.6808      R1.2500    
   X19.8477      Y48.3819      R1.2500    
   X19.8899      Y48.0612      R1.2500    
   X19.8477      Y47.7405      R1.2500    
   X19.7239      Y47.4416      R1.2500    
   X19.5269      Y47.1849      R1.2500    
   X19.2703      Y46.9880      R1.2500    
   X18.9714      Y46.8642      R1.2500    
   X18.6507      Y46.8220      R1.2500    
(Pass: 20)
G1   Z-2.000    
G17 G2   X18.3299      Y46.8642      R1.2500    
   X18.0311      Y46.9880      R1.2500    
   X17.7744      Y47.1849      R1.2500    
   X17.5775      Y47.4416      R1.2500    
   X17.4537      Y47.7405      R1.2500    
   X17.4115      Y48.0612      R1.2500    
   X17.4537      Y48.3819      R1.2500    
   X17.5775      Y48.6808      R1.2500    
   X17.7744      Y48.9375      R1.2500    
   X18.0311      Y49.1344      R1.2500    
   X18.3299      Y49.2582      R1.2500    
   X18.6507      Y49.3004      R1.2500    
   X18.9714      Y49.2582      R1.2500    
   X19.2703      Y49.1344      R1.2500    
   X19.5269      Y48.9375      R1.2500    
   X19.7239      Y48.6808      R1.2500    
   X19.8477      Y48.3819      R1.2500    
   X19.8899      Y48.0612      R1.2500    
   X19.8477      Y47.7405      R1.2500    
   X19.7239      Y47.4416      R1.2500    
   X19.5269      Y47.1849      R1.2500    
   X19.2703      Y46.9880      R1.2500    
   X18.9714      Y46.8642      R1.2500    
   X18.6507      Y46.8220      R1.2500    
(Pass: 21)
G1   Z-2.100    
G17 G2   X18.3299      Y46.8642      R1.2500    
   X18.0311      Y46.9880      R1.2500    
   X17.7744      Y47.1849      R1.2500    
   X17.5775      Y47.4416      R1.2500    
   X17.4537      Y47.7405      R1.2500    
   X17.4115      Y48.0612      R1.2500    
   X17.4537      Y48.3819      R1.2500    
   X17.5775      Y48.6808      R1.2500    
   X17.7744      Y48.9375      R1.2500    
   X18.0311      Y49.1344      R1.2500    
   X18.3299      Y49.2582      R1.2500    
   X18.6507      Y49.3004      R1.2500    
   X18.9714      Y49.2582      R1.2500    
   X19.2703      Y49.1344      R1.2500    
   X19.5269      Y48.9375      R1.2500    
   X19.7239      Y48.6808      R1.2500    
   X19.8477      Y48.3819      R1.2500    
   X19.8899      Y48.0612      R1.2500    
   X19.8477      Y47.7405      R1.2500    
   X19.7239      Y47.4416      R1.2500    
   X19.5269      Y47.1849      R1.2500    
   X19.2703      Y46.9880      R1.2500    
   X18.9714      Y46.8642      R1.2500    
   X18.6507      Y46.8220      R1.2500    
(Pass: 22)
G1   Z-2.200    
G17 G2   X18.3299      Y46.8642      R1.2500    
   X18.0311      Y46.9880      R1.2500    
   X17.7744      Y47.1849      R1.2500    
   X17.5775      Y47.4416      R1.2500    
   X17.4537      Y47.7405      R1.2500    
   X17.4115      Y48.0612      R1.2500    
   X17.4537      Y48.3819      R1.2500    
   X17.5775      Y48.6808      R1.2500    
   X17.7744      Y48.9375      R1.2500    
   X18.0311      Y49.1344      R1.2500    
   X18.3299      Y49.2582      R1.2500    
   X18.6507      Y49.3004      R1.2500    
   X18.9714      Y49.2582      R1.2500    
   X19.2703      Y49.1344      R1.2500    
   X19.5269      Y48.9375      R1.2500    
   X19.7239      Y48.6808      R1.2500    
   X19.8477      Y48.3819      R1.2500    
   X19.8899      Y48.0612      R1.2500    
   X19.8477      Y47.7405      R1.2500    
   X19.7239      Y47.4416      R1.2500    
   X19.5269      Y47.1849      R1.2500    
   X19.2703      Y46.9880      R1.2500    
   X18.9714      Y46.8642      R1.2500    
   X18.6507      Y46.8220      R1.2500    
(Pass: 23)
G1   Z-2.300    
G17 G2   X18.3299      Y46.8642      R1.2500    
   X18.0311      Y46.9880      R1.2500    
   X17.7744      Y47.1849      R1.2500    
   X17.5775      Y47.4416      R1.2500    
   X17.4537      Y47.7405      R1.2500    
   X17.4115      Y48.0612      R1.2500    
   X17.4537      Y48.3819      R1.2500    
   X17.5775      Y48.6808      R1.2500    
   X17.7744      Y48.9375      R1.2500    
   X18.0311      Y49.1344      R1.2500    
   X18.3299      Y49.2582      R1.2500    
   X18.6507      Y49.3004      R1.2500    
   X18.9714      Y49.2582      R1.2500    
   X19.2703      Y49.1344      R1.2500    
   X19.5269      Y48.9375      R1.2500    
   X19.7239      Y48.6808      R1.2500    
   X19.8477      Y48.3819      R1.2500    
   X19.8899      Y48.0612      R1.2500    
   X19.8477      Y47.7405      R1.2500    
   X19.7239      Y47.4416      R1.2500    
   X19.5269      Y47.1849      R1.2500    
   X19.2703      Y46.9880      R1.2500    
   X18.9714      Y46.8642      R1.2500    
   X18.6507      Y46.8220      R1.2500    
(Pass: 24)
G1   Z-2.400    
G17 G2   X18.3299      Y46.8642      R1.2500    
   X18.0311      Y46.9880      R1.2500    
   X17.7744      Y47.1849      R1.2500    
   X17.5775      Y47.4416      R1.2500    
   X17.4537      Y47.7405      R1.2500    
   X17.4115      Y48.0612      R1.2500    
   X17.4537      Y48.3819      R1.2500    
   X17.5775      Y48.6808      R1.2500    
   X17.7744      Y48.9375      R1.2500    
   X18.0311      Y49.1344      R1.2500    
   X18.3299      Y49.2582      R1.2500    
   X18.6507      Y49.3004      R1.2500    
   X18.9714      Y49.2582      R1.2500    
   X19.2703      Y49.1344      R1.2500    
   X19.5269      Y48.9375      R1.2500    
   X19.7239      Y48.6808      R1.2500    
   X19.8477      Y48.3819      R1.2500    
   X19.8899      Y48.0612      R1.2500    
   X19.8477      Y47.7405      R1.2500    
   X19.7239      Y47.4416      R1.2500    
   X19.5269      Y47.1849      R1.2500    
   X19.2703      Y46.9880      R1.2500    
   X18.9714      Y46.8642      R1.2500    
   X18.6507      Y46.8220      R1.2500    
(Pass: 25)
G1   Z-2.500    
G17 G2   X18.3299      Y46.8642      R1.2500    
   X18.0311      Y46.9880      R1.2500    
   X17.7744      Y47.1849      R1.2500    
   X17.5775      Y47.4416      R1.2500    
   X17.4537      Y47.7405      R1.2500    
   X17.4115      Y48.0612      R1.2500    
   X17.4537      Y48.3819      R1.2500    
   X17.5775      Y48.6808      R1.2500    
   X17.7744      Y48.9375      R1.2500    
   X18.0311      Y49.1344      R1.2500    
   X18.3299      Y49.2582      R1.2500    
   X18.6507      Y49.3004      R1.2500    
   X18.9714      Y49.2582      R1.2500    
   X19.2703      Y49.1344      R1.2500    
   X19.5269      Y48.9375      R1.2500    
   X19.7239      Y48.6808      R1.2500    
   X19.8477      Y48.3819      R1.2500    
   X19.8899      Y48.0612      R1.2500    
   X19.8477      Y47.7405      R1.2500    
   X19.7239      Y47.4416      R1.2500    
   X19.5269      Y47.1849      R1.2500    
   X19.2703      Y46.9880      R1.2500    
   X18.9714      Y46.8642      R1.2500    
   X18.6507      Y46.8220      R1.2500    
(Pass: 26)
G1   Z-2.600    
G17 G2   X18.3299      Y46.8642      R1.2500    
   X18.0311      Y46.9880      R1.2500    
   X17.7744      Y47.1849      R1.2500    
   X17.5775      Y47.4416      R1.2500    
   X17.4537      Y47.7405      R1.2500    
   X17.4115      Y48.0612      R1.2500    
   X17.4537      Y48.3819      R1.2500    
   X17.5775      Y48.6808      R1.2500    
   X17.7744      Y48.9375      R1.2500    
   X18.0311      Y49.1344      R1.2500    
   X18.3299      Y49.2582      R1.2500    
   X18.6507      Y49.3004      R1.2500    
   X18.9714      Y49.2582      R1.2500    
   X19.2703      Y49.1344      R1.2500    
   X19.5269      Y48.9375      R1.2500    
   X19.7239      Y48.6808      R1.2500    
   X19.8477      Y48.3819      R1.2500    
   X19.8899      Y48.0612      R1.2500    
   X19.8477      Y47.7405      R1.2500    
   X19.7239      Y47.4416      R1.2500    
   X19.5269      Y47.1849      R1.2500    
   X19.2703      Y46.9880      R1.2500    
   X18.9714      Y46.8642      R1.2500    
   X18.6507      Y46.8220      R1.2500    
(Pass: 27)
G1   Z-2.700    
G17 G2   X18.3299      Y46.8642      R1.2500    
   X18.0311      Y46.9880      R1.2500    
   X17.7744      Y47.1849      R1.2500    
   X17.5775      Y47.4416      R1.2500    
   X17.4537      Y47.7405      R1.2500    
   X17.4115      Y48.0612      R1.2500    
   X17.4537      Y48.3819      R1.2500    
   X17.5775      Y48.6808      R1.2500    
   X17.7744      Y48.9375      R1.2500    
   X18.0311      Y49.1344      R1.2500    
   X18.3299      Y49.2582      R1.2500    
   X18.6507      Y49.3004      R1.2500    
   X18.9714      Y49.2582      R1.2500    
   X19.2703      Y49.1344      R1.2500    
   X19.5269      Y48.9375      R1.2500    
   X19.7239      Y48.6808      R1.2500    
   X19.8477      Y48.3819      R1.2500    
   X19.8899      Y48.0612      R1.2500    
   X19.8477      Y47.7405      R1.2500    
   X19.7239      Y47.4416      R1.2500    
   X19.5269      Y47.1849      R1.2500    
   X19.2703      Y46.9880      R1.2500    
   X18.9714      Y46.8642      R1.2500    
   X18.6507      Y46.8220      R1.2500    
(Pass: 28)
G1   Z-2.800    
G17 G2   X18.3299      Y46.8642      R1.2500    
   X18.0311      Y46.9880      R1.2500    
   X17.7744      Y47.1849      R1.2500    
   X17.5775      Y47.4416      R1.2500    
   X17.4537      Y47.7405      R1.2500    
   X17.4115      Y48.0612      R1.2500    
   X17.4537      Y48.3819      R1.2500    
   X17.5775      Y48.6808      R1.2500    
   X17.7744      Y48.9375      R1.2500    
   X18.0311      Y49.1344      R1.2500    
   X18.3299      Y49.2582      R1.2500    
   X18.6507      Y49.3004      R1.2500    
   X18.9714      Y49.2582      R1.2500    
   X19.2703      Y49.1344      R1.2500    
   X19.5269      Y48.9375      R1.2500    
   X19.7239      Y48.6808      R1.2500    
   X19.8477      Y48.3819      R1.2500    
   X19.8899      Y48.0612      R1.2500    
   X19.8477      Y47.7405      R1.2500    
   X19.7239      Y47.4416      R1.2500    
   X19.5269      Y47.1849      R1.2500    
   X19.2703      Y46.9880      R1.2500    
   X18.9714      Y46.8642      R1.2500    
   X18.6507      Y46.8220      R1.2500    
(Pass: 29)
G1   Z-2.900    
G17 G2   X18.3299      Y46.8642      R1.2500    
   X18.0311      Y46.9880      R1.2500    
   X17.7744      Y47.1849      R1.2500    
   X17.5775      Y47.4416      R1.2500    
   X17.4537      Y47.7405      R1.2500    
   X17.4115      Y48.0612      R1.2500    
   X17.4537      Y48.3819      R1.2500    
   X17.5775      Y48.6808      R1.2500    
   X17.7744      Y48.9375      R1.2500    
   X18.0311      Y49.1344      R1.2500    
   X18.3299      Y49.2582      R1.2500    
   X18.6507      Y49.3004      R1.2500    
   X18.9714      Y49.2582      R1.2500    
   X19.2703      Y49.1344      R1.2500    
   X19.5269      Y48.9375      R1.2500    
   X19.7239      Y48.6808      R1.2500    
   X19.8477      Y48.3819      R1.2500    
   X19.8899      Y48.0612      R1.2500    
   X19.8477      Y47.7405      R1.2500    
   X19.7239      Y47.4416      R1.2500    
   X19.5269      Y47.1849      R1.2500    
   X19.2703      Y46.9880      R1.2500    
   X18.9714      Y46.8642      R1.2500    
   X18.6507      Y46.8220      R1.2500    
(Pass: 30)
G1   Z-3.000    
G17 G2   X18.3299      Y46.8642      R1.2500    
   X18.0311      Y46.9880      R1.2500    
   X17.7744      Y47.1849      R1.2500    
   X17.5775      Y47.4416      R1.2500    
   X17.4537      Y47.7405      R1.2500    
   X17.4115      Y48.0612      R1.2500    
   X17.4537      Y48.3819      R1.2500    
   X17.5775      Y48.6808      R1.2500    
   X17.7744      Y48.9375      R1.2500    
   X18.0311      Y49.1344      R1.2500    
   X18.3299      Y49.2582      R1.2500    
   X18.6507      Y49.3004      R1.2500    
   X18.9714      Y49.2582      R1.2500    
   X19.2703      Y49.1344      R1.2500    
   X19.5269      Y48.9375      R1.2500    
   X19.7239      Y48.6808      R1.2500    
   X19.8477      Y48.3819      R1.2500    
   X19.8899      Y48.0612      R1.2500    
   X19.8477      Y47.7405      R1.2500    
   X19.7239      Y47.4416      R1.2500    
   X19.5269      Y47.1849      R1.2500    
   X19.2703      Y46.9880      R1.2500    
   X18.9714      Y46.8642      R1.2500    
   X18.6507      Y46.8220      R1.2500    
(Pass: 31)
G1   Z-3.100    
G17 G2   X18.3299      Y46.8642      R1.2500    
   X18.0311      Y46.9880      R1.2500    
   X17.7744      Y47.1849      R1.2500    
   X17.5775      Y47.4416      R1.2500    
   X17.4537      Y47.7405      R1.2500    
   X17.4115      Y48.0612      R1.2500    
   X17.4537      Y48.3819      R1.2500    
   X17.5775      Y48.6808      R1.2500    
   X17.7744      Y48.9375      R1.2500    
   X18.0311      Y49.1344      R1.2500    
   X18.3299      Y49.2582      R1.2500    
   X18.6507      Y49.3004      R1.2500    
   X18.9714      Y49.2582      R1.2500    
   X19.2703      Y49.1344      R1.2500    
   X19.5269      Y48.9375      R1.2500    
   X19.7239      Y48.6808      R1.2500    
   X19.8477      Y48.3819      R1.2500    
   X19.8899      Y48.0612      R1.2500    
   X19.8477      Y47.7405      R1.2500    
   X19.7239      Y47.4416      R1.2500    
   X19.5269      Y47.1849      R1.2500    
   X19.2703      Y46.9880      R1.2500    
   X18.9714      Y46.8642      R1.2500    
   X18.6507      Y46.8220      R1.2500    
(Pass: 32)
G1   Z-3.200    
G17 G2   X18.3299      Y46.8642      R1.2500    
   X18.0311      Y46.9880      R1.2500    
   X17.7744      Y47.1849      R1.2500    
   X17.5775      Y47.4416      R1.2500    
   X17.4537      Y47.7405      R1.2500    
   X17.4115      Y48.0612      R1.2500    
   X17.4537      Y48.3819      R1.2500    
   X17.5775      Y48.6808      R1.2500    
   X17.7744      Y48.9375      R1.2500    
   X18.0311      Y49.1344      R1.2500    
   X18.3299      Y49.2582      R1.2500    
   X18.6507      Y49.3004      R1.2500    
   X18.9714      Y49.2582      R1.2500    
   X19.2703      Y49.1344      R1.2500    
   X19.5269      Y48.9375      R1.2500    
   X19.7239      Y48.6808      R1.2500    
   X19.8477      Y48.3819      R1.2500    
   X19.8899      Y48.0612      R1.2500    
   X19.8477      Y47.7405      R1.2500    
   X19.7239      Y47.4416      R1.2500    
   X19.5269      Y47.1849      R1.2500    
   X19.2703      Y46.9880      R1.2500    
   X18.9714      Y46.8642      R1.2500    
   X18.6507      Y46.8220      R1.2500    
(Pass: 33)
G1   Z-3.300    
G17 G2   X18.3299      Y46.8642      R1.2500    
   X18.0311      Y46.9880      R1.2500    
   X17.7744      Y47.1849      R1.2500    
   X17.5775      Y47.4416      R1.2500    
   X17.4537      Y47.7405      R1.2500    
   X17.4115      Y48.0612      R1.2500    
   X17.4537      Y48.3819      R1.2500    
   X17.5775      Y48.6808      R1.2500    
   X17.7744      Y48.9375      R1.2500    
   X18.0311      Y49.1344      R1.2500    
   X18.3299      Y49.2582      R1.2500    
   X18.6507      Y49.3004      R1.2500    
   X18.9714      Y49.2582      R1.2500    
   X19.2703      Y49.1344      R1.2500    
   X19.5269      Y48.9375      R1.2500    
   X19.7239      Y48.6808      R1.2500    
   X19.8477      Y48.3819      R1.2500    
   X19.8899      Y48.0612      R1.2500    
   X19.8477      Y47.7405      R1.2500    
   X19.7239      Y47.4416      R1.2500    
   X19.5269      Y47.1849      R1.2500    
   X19.2703      Y46.9880      R1.2500    
   X18.9714      Y46.8642      R1.2500    
   X18.6507      Y46.8220      R1.2500    
(Pass: 34)
G1   Z-3.400    
G17 G2   X18.3299      Y46.8642      R1.2500    
   X18.0311      Y46.9880      R1.2500    
   X17.7744      Y47.1849      R1.2500    
   X17.5775      Y47.4416      R1.2500    
   X17.4537      Y47.7405      R1.2500    
   X17.4115      Y48.0612      R1.2500    
   X17.4537      Y48.3819      R1.2500    
   X17.5775      Y48.6808      R1.2500    
   X17.7744      Y48.9375      R1.2500    
   X18.0311      Y49.1344      R1.2500    
   X18.3299      Y49.2582      R1.2500    
   X18.6507      Y49.3004      R1.2500    
   X18.9714      Y49.2582      R1.2500    
   X19.2703      Y49.1344      R1.2500    
   X19.5269      Y48.9375      R1.2500    
   X19.7239      Y48.6808      R1.2500    
   X19.8477      Y48.3819      R1.2500    
   X19.8899      Y48.0612      R1.2500    
   X19.8477      Y47.7405      R1.2500    
   X19.7239      Y47.4416      R1.2500    
   X19.5269      Y47.1849      R1.2500    
   X19.2703      Y46.9880      R1.2500    
   X18.9714      Y46.8642      R1.2500    
   X18.6507      Y46.8220      R1.2500    
(Pass: 35)
G1   Z-3.500    
G17 G2   X18.3299      Y46.8642      R1.2500    
   X18.0311      Y46.9880      R1.2500    
   X17.7744      Y47.1849      R1.2500    
   X17.5775      Y47.4416      R1.2500    
   X17.4537      Y47.7405      R1.2500    
   X17.4115      Y48.0612      R1.2500    
   X17.4537      Y48.3819      R1.2500    
   X17.5775      Y48.6808      R1.2500    
   X17.7744      Y48.9375      R1.2500    
   X18.0311      Y49.1344      R1.2500    
   X18.3299      Y49.2582      R1.2500    
   X18.6507      Y49.3004      R1.2500    
   X18.9714      Y49.2582      R1.2500    
   X19.2703      Y49.1344      R1.2500    
   X19.5269      Y48.9375      R1.2500    
   X19.7239      Y48.6808      R1.2500    
   X19.8477      Y48.3819      R1.2500    
   X19.8899      Y48.0612      R1.2500    
   X19.8477      Y47.7405      R1.2500    
   X19.7239      Y47.4416      R1.2500    
   X19.5269      Y47.1849      R1.2500    
   X19.2703      Y46.9880      R1.2500    
   X18.9714      Y46.8642      R1.2500    
   X18.6507      Y46.8220      R1.2500    
(BREAK pass 35)
G0   Z6.000     
(Pass: 1)
   X17.772       Y59.176    
G1   Z-0.100     F400 
G17 G2   X17.5562      Y59.1375      R0.8500    
   X17.3379      Y59.1561      R0.8500    
   X17.1318      Y59.2305      R0.8500    
   X16.9521      Y59.3557      R0.8500    
   X16.8108      Y59.5232      R0.8500    
   X16.7178      Y59.7215      R0.8500    
   X16.6792      Y59.9372      R0.8500    
   X16.6977      Y60.1555      R0.8500    
   X16.7722      Y60.3615      R0.8500    
   X16.8974      Y60.5413      R0.8500    
   X17.0649      Y60.6825      R0.8500    
   X17.2632      Y60.7756      R0.8500    
   X17.4789      Y60.8142      R0.8500    
   X17.6971      Y60.7956      R0.8500    
   X17.9032      Y60.7212      R0.8500    
   X18.0830      Y60.5960      R0.8500    
   X18.2242      Y60.4285      R0.8500    
   X18.3173      Y60.2302      R0.8500    
   X18.3558      Y60.0145      R0.8500    
   X18.3373      Y59.7962      R0.8500    
   X18.2629      Y59.5902      R0.8500    
   X18.1376      Y59.4104      R0.8500    
   X17.9702      Y59.2692      R0.8500    
   X17.7718      Y59.1761      R0.8500    
(Pass: 2)
G1   Z-0.200    
G17 G2   X17.5562      Y59.1375      R0.8500    
   X17.3379      Y59.1561      R0.8500    
   X17.1318      Y59.2305      R0.8500    
   X16.9521      Y59.3557      R0.8500    
   X16.8108      Y59.5232      R0.8500    
   X16.7178      Y59.7215      R0.8500    
   X16.6792      Y59.9372      R0.8500    
   X16.6977      Y60.1555      R0.8500    
   X16.7722      Y60.3615      R0.8500    
   X16.8974      Y60.5413      R0.8500    
   X17.0649      Y60.6825      R0.8500    
   X17.2632      Y60.7756      R0.8500    
   X17.4789      Y60.8142      R0.8500    
   X17.6971      Y60.7956      R0.8500    
   X17.9032      Y60.7212      R0.8500    
   X18.0830      Y60.5960      R0.8500    
   X18.2242      Y60.4285      R0.8500    
   X18.3173      Y60.2302      R0.8500    
   X18.3558      Y60.0145      R0.8500    
   X18.3373      Y59.7962      R0.8500    
   X18.2629      Y59.5902      R0.8500    
   X18.1376      Y59.4104      R0.8500    
   X17.9702      Y59.2692      R0.8500    
   X17.7718      Y59.1761      R0.8500    
(Pass: 3)
G1   Z-0.300    
G17 G2   X17.5562      Y59.1375      R0.8500    
   X17.3379      Y59.1561      R0.8500    
   X17.1318      Y59.2305      R0.8500    
   X16.9521      Y59.3557      R0.8500    
   X16.8108      Y59.5232      R0.8500    
   X16.7178      Y59.7215      R0.8500    
   X16.6792      Y59.9372      R0.8500    
   X16.6977      Y60.1555      R0.8500    
   X16.7722      Y60.3615      R0.8500    
   X16.8974      Y60.5413      R0.8500    
   X17.0649      Y60.6825      R0.8500    
   X17.2632      Y60.7756      R0.8500    
   X17.4789      Y60.8142      R0.8500    
   X17.6971      Y60.7956      R0.8500    
   X17.9032      Y60.7212      R0.8500    
   X18.0830      Y60.5960      R0.8500    
   X18.2242      Y60.4285      R0.8500    
   X18.3173      Y60.2302      R0.8500    
   X18.3558      Y60.0145      R0.8500    
   X18.3373      Y59.7962      R0.8500    
   X18.2629      Y59.5902      R0.8500    
   X18.1376      Y59.4104      R0.8500    
   X17.9702      Y59.2692      R0.8500    
   X17.7718      Y59.1761      R0.8500    
(Pass: 4)
G1   Z-0.400    
G17 G2   X17.5562      Y59.1375      R0.8500    
   X17.3379      Y59.1561      R0.8500    
   X17.1318      Y59.2305      R0.8500    
   X16.9521      Y59.3557      R0.8500    
   X16.8108      Y59.5232      R0.8500    
   X16.7178      Y59.7215      R0.8500    
   X16.6792      Y59.9372      R0.8500    
   X16.6977      Y60.1555      R0.8500    
   X16.7722      Y60.3615      R0.8500    
   X16.8974      Y60.5413      R0.8500    
   X17.0649      Y60.6825      R0.8500    
   X17.2632      Y60.7756      R0.8500    
   X17.4789      Y60.8142      R0.8500    
   X17.6971      Y60.7956      R0.8500    
   X17.9032      Y60.7212      R0.8500    
   X18.0830      Y60.5960      R0.8500    
   X18.2242      Y60.4285      R0.8500    
   X18.3173      Y60.2302      R0.8500    
   X18.3558      Y60.0145      R0.8500    
   X18.3373      Y59.7962      R0.8500    
   X18.2629      Y59.5902      R0.8500    
   X18.1376      Y59.4104      R0.8500    
   X17.9702      Y59.2692      R0.8500    
   X17.7718      Y59.1761      R0.8500    
(Pass: 5)
G1   Z-0.500    
G17 G2   X17.5562      Y59.1375      R0.8500    
   X17.3379      Y59.1561      R0.8500    
   X17.1318      Y59.2305      R0.8500    
   X16.9521      Y59.3557      R0.8500    
   X16.8108      Y59.5232      R0.8500    
   X16.7178      Y59.7215      R0.8500    
   X16.6792      Y59.9372      R0.8500    
   X16.6977      Y60.1555      R0.8500    
   X16.7722      Y60.3615      R0.8500    
   X16.8974      Y60.5413      R0.8500    
   X17.0649      Y60.6825      R0.8500    
   X17.2632      Y60.7756      R0.8500    
   X17.4789      Y60.8142      R0.8500    
   X17.6971      Y60.7956      R0.8500    
   X17.9032      Y60.7212      R0.8500    
   X18.0830      Y60.5960      R0.8500    
   X18.2242      Y60.4285      R0.8500    
   X18.3173      Y60.2302      R0.8500    
   X18.3558      Y60.0145      R0.8500    
   X18.3373      Y59.7962      R0.8500    
   X18.2629      Y59.5902      R0.8500    
   X18.1376      Y59.4104      R0.8500    
   X17.9702      Y59.2692      R0.8500    
   X17.7718      Y59.1761      R0.8500    
(Pass: 6)
G1   Z-0.600    
G17 G2   X17.5562      Y59.1375      R0.8500    
   X17.3379      Y59.1561      R0.8500    
   X17.1318      Y59.2305      R0.8500    
   X16.9521      Y59.3557      R0.8500    
   X16.8108      Y59.5232      R0.8500    
   X16.7178      Y59.7215      R0.8500    
   X16.6792      Y59.9372      R0.8500    
   X16.6977      Y60.1555      R0.8500    
   X16.7722      Y60.3615      R0.8500    
   X16.8974      Y60.5413      R0.8500    
   X17.0649      Y60.6825      R0.8500    
   X17.2632      Y60.7756      R0.8500    
   X17.4789      Y60.8142      R0.8500    
   X17.6971      Y60.7956      R0.8500    
   X17.9032      Y60.7212      R0.8500    
   X18.0830      Y60.5960      R0.8500    
   X18.2242      Y60.4285      R0.8500    
   X18.3173      Y60.2302      R0.8500    
   X18.3558      Y60.0145      R0.8500    
   X18.3373      Y59.7962      R0.8500    
   X18.2629      Y59.5902      R0.8500    
   X18.1376      Y59.4104      R0.8500    
   X17.9702      Y59.2692      R0.8500    
   X17.7718      Y59.1761      R0.8500    
(Pass: 7)
G1   Z-0.700    
G17 G2   X17.5562      Y59.1375      R0.8500    
   X17.3379      Y59.1561      R0.8500    
   X17.1318      Y59.2305      R0.8500    
   X16.9521      Y59.3557      R0.8500    
   X16.8108      Y59.5232      R0.8500    
   X16.7178      Y59.7215      R0.8500    
   X16.6792      Y59.9372      R0.8500    
   X16.6977      Y60.1555      R0.8500    
   X16.7722      Y60.3615      R0.8500    
   X16.8974      Y60.5413      R0.8500    
   X17.0649      Y60.6825      R0.8500    
   X17.2632      Y60.7756      R0.8500    
   X17.4789      Y60.8142      R0.8500    
   X17.6971      Y60.7956      R0.8500    
   X17.9032      Y60.7212      R0.8500    
   X18.0830      Y60.5960      R0.8500    
   X18.2242      Y60.4285      R0.8500    
   X18.3173      Y60.2302      R0.8500    
   X18.3558      Y60.0145      R0.8500    
   X18.3373      Y59.7962      R0.8500    
   X18.2629      Y59.5902      R0.8500    
   X18.1376      Y59.4104      R0.8500    
   X17.9702      Y59.2692      R0.8500    
   X17.7718      Y59.1761      R0.8500    
(Pass: 8)
G1   Z-0.800    
G17 G2   X17.5562      Y59.1375      R0.8500    
   X17.3379      Y59.1561      R0.8500    
   X17.1318      Y59.2305      R0.8500    
   X16.9521      Y59.3557      R0.8500    
   X16.8108      Y59.5232      R0.8500    
   X16.7178      Y59.7215      R0.8500    
   X16.6792      Y59.9372      R0.8500    
   X16.6977      Y60.1555      R0.8500    
   X16.7722      Y60.3615      R0.8500    
   X16.8974      Y60.5413      R0.8500    
   X17.0649      Y60.6825      R0.8500    
   X17.2632      Y60.7756      R0.8500    
   X17.4789      Y60.8142      R0.8500    
   X17.6971      Y60.7956      R0.8500    
   X17.9032      Y60.7212      R0.8500    
   X18.0830      Y60.5960      R0.8500    
   X18.2242      Y60.4285      R0.8500    
   X18.3173      Y60.2302      R0.8500    
   X18.3558      Y60.0145      R0.8500    
   X18.3373      Y59.7962      R0.8500    
   X18.2629      Y59.5902      R0.8500    
   X18.1376      Y59.4104      R0.8500    
   X17.9702      Y59.2692      R0.8500    
   X17.7718      Y59.1761      R0.8500    
(Pass: 9)
G1   Z-0.900    
G17 G2   X17.5562      Y59.1375      R0.8500    
   X17.3379      Y59.1561      R0.8500    
   X17.1318      Y59.2305      R0.8500    
   X16.9521      Y59.3557      R0.8500    
   X16.8108      Y59.5232      R0.8500    
   X16.7178      Y59.7215      R0.8500    
   X16.6792      Y59.9372      R0.8500    
   X16.6977      Y60.1555      R0.8500    
   X16.7722      Y60.3615      R0.8500    
   X16.8974      Y60.5413      R0.8500    
   X17.0649      Y60.6825      R0.8500    
   X17.2632      Y60.7756      R0.8500    
   X17.4789      Y60.8142      R0.8500    
   X17.6971      Y60.7956      R0.8500    
   X17.9032      Y60.7212      R0.8500    
   X18.0830      Y60.5960      R0.8500    
   X18.2242      Y60.4285      R0.8500    
   X18.3173      Y60.2302      R0.8500    
   X18.3558      Y60.0145      R0.8500    
   X18.3373      Y59.7962      R0.8500    
   X18.2629      Y59.5902      R0.8500    
   X18.1376      Y59.4104      R0.8500    
   X17.9702      Y59.2692      R0.8500    
   X17.7718      Y59.1761      R0.8500    
(Pass: 10)
G1   Z-1.000    
G17 G2   X17.5562      Y59.1375      R0.8500    
   X17.3379      Y59.1561      R0.8500    
   X17.1318      Y59.2305      R0.8500    
   X16.9521      Y59.3557      R0.8500    
   X16.8108      Y59.5232      R0.8500    
   X16.7178      Y59.7215      R0.8500    
   X16.6792      Y59.9372      R0.8500    
   X16.6977      Y60.1555      R0.8500    
   X16.7722      Y60.3615      R0.8500    
   X16.8974      Y60.5413      R0.8500    
   X17.0649      Y60.6825      R0.8500    
   X17.2632      Y60.7756      R0.8500    
   X17.4789      Y60.8142      R0.8500    
   X17.6971      Y60.7956      R0.8500    
   X17.9032      Y60.7212      R0.8500    
   X18.0830      Y60.5960      R0.8500    
   X18.2242      Y60.4285      R0.8500    
   X18.3173      Y60.2302      R0.8500    
   X18.3558      Y60.0145      R0.8500    
   X18.3373      Y59.7962      R0.8500    
   X18.2629      Y59.5902      R0.8500    
   X18.1376      Y59.4104      R0.8500    
   X17.9702      Y59.2692      R0.8500    
   X17.7718      Y59.1761      R0.8500    
(Pass: 11)
G1   Z-1.100    
G17 G2   X17.5562      Y59.1375      R0.8500    
   X17.3379      Y59.1561      R0.8500    
   X17.1318      Y59.2305      R0.8500    
   X16.9521      Y59.3557      R0.8500    
   X16.8108      Y59.5232      R0.8500    
   X16.7178      Y59.7215      R0.8500    
   X16.6792      Y59.9372      R0.8500    
   X16.6977      Y60.1555      R0.8500    
   X16.7722      Y60.3615      R0.8500    
   X16.8974      Y60.5413      R0.8500    
   X17.0649      Y60.6825      R0.8500    
   X17.2632      Y60.7756      R0.8500    
   X17.4789      Y60.8142      R0.8500    
   X17.6971      Y60.7956      R0.8500    
   X17.9032      Y60.7212      R0.8500    
   X18.0830      Y60.5960      R0.8500    
   X18.2242      Y60.4285      R0.8500    
   X18.3173      Y60.2302      R0.8500    
   X18.3558      Y60.0145      R0.8500    
   X18.3373      Y59.7962      R0.8500    
   X18.2629      Y59.5902      R0.8500    
   X18.1376      Y59.4104      R0.8500    
   X17.9702      Y59.2692      R0.8500    
   X17.7718      Y59.1761      R0.8500    
(Pass: 12)
G1   Z-1.200    
G17 G2   X17.5562      Y59.1375      R0.8500    
   X17.3379      Y59.1561      R0.8500    
   X17.1318      Y59.2305      R0.8500    
   X16.9521      Y59.3557      R0.8500    
   X16.8108      Y59.5232      R0.8500    
   X16.7178      Y59.7215      R0.8500    
   X16.6792      Y59.9372      R0.8500    
   X16.6977      Y60.1555      R0.8500    
   X16.7722      Y60.3615      R0.8500    
   X16.8974      Y60.5413      R0.8500    
   X17.0649      Y60.6825      R0.8500    
   X17.2632      Y60.7756      R0.8500    
   X17.4789      Y60.8142      R0.8500    
   X17.6971      Y60.7956      R0.8500    
   X17.9032      Y60.7212      R0.8500    
   X18.0830      Y60.5960      R0.8500    
   X18.2242      Y60.4285      R0.8500    
   X18.3173      Y60.2302      R0.8500    
   X18.3558      Y60.0145      R0.8500    
   X18.3373      Y59.7962      R0.8500    
   X18.2629      Y59.5902      R0.8500    
   X18.1376      Y59.4104      R0.8500    
   X17.9702      Y59.2692      R0.8500    
   X17.7718      Y59.1761      R0.8500    
(Pass: 13)
G1   Z-1.300    
G17 G2   X17.5562      Y59.1375      R0.8500    
   X17.3379      Y59.1561      R0.8500    
   X17.1318      Y59.2305      R0.8500    
   X16.9521      Y59.3557      R0.8500    
   X16.8108      Y59.5232      R0.8500    
   X16.7178      Y59.7215      R0.8500    
   X16.6792      Y59.9372      R0.8500    
   X16.6977      Y60.1555      R0.8500    
   X16.7722      Y60.3615      R0.8500    
   X16.8974      Y60.5413      R0.8500    
   X17.0649      Y60.6825      R0.8500    
   X17.2632      Y60.7756      R0.8500    
   X17.4789      Y60.8142      R0.8500    
   X17.6971      Y60.7956      R0.8500    
   X17.9032      Y60.7212      R0.8500    
   X18.0830      Y60.5960      R0.8500    
   X18.2242      Y60.4285      R0.8500    
   X18.3173      Y60.2302      R0.8500    
   X18.3558      Y60.0145      R0.8500    
   X18.3373      Y59.7962      R0.8500    
   X18.2629      Y59.5902      R0.8500    
   X18.1376      Y59.4104      R0.8500    
   X17.9702      Y59.2692      R0.8500    
   X17.7718      Y59.1761      R0.8500    
(Pass: 14)
G1   Z-1.400    
G17 G2   X17.5562      Y59.1375      R0.8500    
   X17.3379      Y59.1561      R0.8500    
   X17.1318      Y59.2305      R0.8500    
   X16.9521      Y59.3557      R0.8500    
   X16.8108      Y59.5232      R0.8500    
   X16.7178      Y59.7215      R0.8500    
   X16.6792      Y59.9372      R0.8500    
   X16.6977      Y60.1555      R0.8500    
   X16.7722      Y60.3615      R0.8500    
   X16.8974      Y60.5413      R0.8500    
   X17.0649      Y60.6825      R0.8500    
   X17.2632      Y60.7756      R0.8500    
   X17.4789      Y60.8142      R0.8500    
   X17.6971      Y60.7956      R0.8500    
   X17.9032      Y60.7212      R0.8500    
   X18.0830      Y60.5960      R0.8500    
   X18.2242      Y60.4285      R0.8500    
   X18.3173      Y60.2302      R0.8500    
   X18.3558      Y60.0145      R0.8500    
   X18.3373      Y59.7962      R0.8500    
   X18.2629      Y59.5902      R0.8500    
   X18.1376      Y59.4104      R0.8500    
   X17.9702      Y59.2692      R0.8500    
   X17.7718      Y59.1761      R0.8500    
(Pass: 15)
G1   Z-1.500    
G17 G2   X17.5562      Y59.1375      R0.8500    
   X17.3379      Y59.1561      R0.8500    
   X17.1318      Y59.2305      R0.8500    
   X16.9521      Y59.3557      R0.8500    
   X16.8108      Y59.5232      R0.8500    
   X16.7178      Y59.7215      R0.8500    
   X16.6792      Y59.9372      R0.8500    
   X16.6977      Y60.1555      R0.8500    
   X16.7722      Y60.3615      R0.8500    
   X16.8974      Y60.5413      R0.8500    
   X17.0649      Y60.6825      R0.8500    
   X17.2632      Y60.7756      R0.8500    
   X17.4789      Y60.8142      R0.8500    
   X17.6971      Y60.7956      R0.8500    
   X17.9032      Y60.7212      R0.8500    
   X18.0830      Y60.5960      R0.8500    
   X18.2242      Y60.4285      R0.8500    
   X18.3173      Y60.2302      R0.8500    
   X18.3558      Y60.0145      R0.8500    
   X18.3373      Y59.7962      R0.8500    
   X18.2629      Y59.5902      R0.8500    
   X18.1376      Y59.4104      R0.8500    
   X17.9702      Y59.2692      R0.8500    
   X17.7718      Y59.1761      R0.8500    
(Pass: 16)
G1   Z-1.600    
G17 G2   X17.5562      Y59.1375      R0.8500    
   X17.3379      Y59.1561      R0.8500    
   X17.1318      Y59.2305      R0.8500    
   X16.9521      Y59.3557      R0.8500    
   X16.8108      Y59.5232      R0.8500    
   X16.7178      Y59.7215      R0.8500    
   X16.6792      Y59.9372      R0.8500    
   X16.6977      Y60.1555      R0.8500    
   X16.7722      Y60.3615      R0.8500    
   X16.8974      Y60.5413      R0.8500    
   X17.0649      Y60.6825      R0.8500    
   X17.2632      Y60.7756      R0.8500    
   X17.4789      Y60.8142      R0.8500    
   X17.6971      Y60.7956      R0.8500    
   X17.9032      Y60.7212      R0.8500    
   X18.0830      Y60.5960      R0.8500    
   X18.2242      Y60.4285      R0.8500    
   X18.3173      Y60.2302      R0.8500    
   X18.3558      Y60.0145      R0.8500    
   X18.3373      Y59.7962      R0.8500    
   X18.2629      Y59.5902      R0.8500    
   X18.1376      Y59.4104      R0.8500    
   X17.9702      Y59.2692      R0.8500    
   X17.7718      Y59.1761      R0.8500    
(Pass: 17)
G1   Z-1.700    
G17 G2   X17.5562      Y59.1375      R0.8500    
   X17.3379      Y59.1561      R0.8500    
   X17.1318      Y59.2305      R0.8500    
   X16.9521      Y59.3557      R0.8500    
   X16.8108      Y59.5232      R0.8500    
   X16.7178      Y59.7215      R0.8500    
   X16.6792      Y59.9372      R0.8500    
   X16.6977      Y60.1555      R0.8500    
   X16.7722      Y60.3615      R0.8500    
   X16.8974      Y60.5413      R0.8500    
   X17.0649      Y60.6825      R0.8500    
   X17.2632      Y60.7756      R0.8500    
   X17.4789      Y60.8142      R0.8500    
   X17.6971      Y60.7956      R0.8500    
   X17.9032      Y60.7212      R0.8500    
   X18.0830      Y60.5960      R0.8500    
   X18.2242      Y60.4285      R0.8500    
   X18.3173      Y60.2302      R0.8500    
   X18.3558      Y60.0145      R0.8500    
   X18.3373      Y59.7962      R0.8500    
   X18.2629      Y59.5902      R0.8500    
   X18.1376      Y59.4104      R0.8500    
   X17.9702      Y59.2692      R0.8500    
   X17.7718      Y59.1761      R0.8500    
(Pass: 18)
G1   Z-1.800    
G17 G2   X17.5562      Y59.1375      R0.8500    
   X17.3379      Y59.1561      R0.8500    
   X17.1318      Y59.2305      R0.8500    
   X16.9521      Y59.3557      R0.8500    
   X16.8108      Y59.5232      R0.8500    
   X16.7178      Y59.7215      R0.8500    
   X16.6792      Y59.9372      R0.8500    
   X16.6977      Y60.1555      R0.8500    
   X16.7722      Y60.3615      R0.8500    
   X16.8974      Y60.5413      R0.8500    
   X17.0649      Y60.6825      R0.8500    
   X17.2632      Y60.7756      R0.8500    
   X17.4789      Y60.8142      R0.8500    
   X17.6971      Y60.7956      R0.8500    
   X17.9032      Y60.7212      R0.8500    
   X18.0830      Y60.5960      R0.8500    
   X18.2242      Y60.4285      R0.8500    
   X18.3173      Y60.2302      R0.8500    
   X18.3558      Y60.0145      R0.8500    
   X18.3373      Y59.7962      R0.8500    
   X18.2629      Y59.5902      R0.8500    
   X18.1376      Y59.4104      R0.8500    
   X17.9702      Y59.2692      R0.8500    
   X17.7718      Y59.1761      R0.8500    
(Pass: 19)
G1   Z-1.900    
G17 G2   X17.5562      Y59.1375      R0.8500    
   X17.3379      Y59.1561      R0.8500    
   X17.1318      Y59.2305      R0.8500    
   X16.9521      Y59.3557      R0.8500    
   X16.8108      Y59.5232      R0.8500    
   X16.7178      Y59.7215      R0.8500    
   X16.6792      Y59.9372      R0.8500    
   X16.6977      Y60.1555      R0.8500    
   X16.7722      Y60.3615      R0.8500    
   X16.8974      Y60.5413      R0.8500    
   X17.0649      Y60.6825      R0.8500    
   X17.2632      Y60.7756      R0.8500    
   X17.4789      Y60.8142      R0.8500    
   X17.6971      Y60.7956      R0.8500    
   X17.9032      Y60.7212      R0.8500    
   X18.0830      Y60.5960      R0.8500    
   X18.2242      Y60.4285      R0.8500    
   X18.3173      Y60.2302      R0.8500    
   X18.3558      Y60.0145      R0.8500    
   X18.3373      Y59.7962      R0.8500    
   X18.2629      Y59.5902      R0.8500    
   X18.1376      Y59.4104      R0.8500    
   X17.9702      Y59.2692      R0.8500    
   X17.7718      Y59.1761      R0.8500    
(Pass: 20)
G1   Z-2.000    
G17 G2   X17.5562      Y59.1375      R0.8500    
   X17.3379      Y59.1561      R0.8500    
   X17.1318      Y59.2305      R0.8500    
   X16.9521      Y59.3557      R0.8500    
   X16.8108      Y59.5232      R0.8500    
   X16.7178      Y59.7215      R0.8500    
   X16.6792      Y59.9372      R0.8500    
   X16.6977      Y60.1555      R0.8500    
   X16.7722      Y60.3615      R0.8500    
   X16.8974      Y60.5413      R0.8500    
   X17.0649      Y60.6825      R0.8500    
   X17.2632      Y60.7756      R0.8500    
   X17.4789      Y60.8142      R0.8500    
   X17.6971      Y60.7956      R0.8500    
   X17.9032      Y60.7212      R0.8500    
   X18.0830      Y60.5960      R0.8500    
   X18.2242      Y60.4285      R0.8500    
   X18.3173      Y60.2302      R0.8500    
   X18.3558      Y60.0145      R0.8500    
   X18.3373      Y59.7962      R0.8500    
   X18.2629      Y59.5902      R0.8500    
   X18.1376      Y59.4104      R0.8500    
   X17.9702      Y59.2692      R0.8500    
   X17.7718      Y59.1761      R0.8500    
(Pass: 21)
G1   Z-2.100    
G17 G2   X17.5562      Y59.1375      R0.8500    
   X17.3379      Y59.1561      R0.8500    
   X17.1318      Y59.2305      R0.8500    
   X16.9521      Y59.3557      R0.8500    
   X16.8108      Y59.5232      R0.8500    
   X16.7178      Y59.7215      R0.8500    
   X16.6792      Y59.9372      R0.8500    
   X16.6977      Y60.1555      R0.8500    
   X16.7722      Y60.3615      R0.8500    
   X16.8974      Y60.5413      R0.8500    
   X17.0649      Y60.6825      R0.8500    
   X17.2632      Y60.7756      R0.8500    
   X17.4789      Y60.8142      R0.8500    
   X17.6971      Y60.7956      R0.8500    
   X17.9032      Y60.7212      R0.8500    
   X18.0830      Y60.5960      R0.8500    
   X18.2242      Y60.4285      R0.8500    
   X18.3173      Y60.2302      R0.8500    
   X18.3558      Y60.0145      R0.8500    
   X18.3373      Y59.7962      R0.8500    
   X18.2629      Y59.5902      R0.8500    
   X18.1376      Y59.4104      R0.8500    
   X17.9702      Y59.2692      R0.8500    
   X17.7718      Y59.1761      R0.8500    
(Pass: 22)
G1   Z-2.200    
G17 G2   X17.5562      Y59.1375      R0.8500    
   X17.3379      Y59.1561      R0.8500    
   X17.1318      Y59.2305      R0.8500    
   X16.9521      Y59.3557      R0.8500    
   X16.8108      Y59.5232      R0.8500    
   X16.7178      Y59.7215      R0.8500    
   X16.6792      Y59.9372      R0.8500    
   X16.6977      Y60.1555      R0.8500    
   X16.7722      Y60.3615      R0.8500    
   X16.8974      Y60.5413      R0.8500    
   X17.0649      Y60.6825      R0.8500    
   X17.2632      Y60.7756      R0.8500    
   X17.4789      Y60.8142      R0.8500    
   X17.6971      Y60.7956      R0.8500    
   X17.9032      Y60.7212      R0.8500    
   X18.0830      Y60.5960      R0.8500    
   X18.2242      Y60.4285      R0.8500    
   X18.3173      Y60.2302      R0.8500    
   X18.3558      Y60.0145      R0.8500    
   X18.3373      Y59.7962      R0.8500    
   X18.2629      Y59.5902      R0.8500    
   X18.1376      Y59.4104      R0.8500    
   X17.9702      Y59.2692      R0.8500    
   X17.7718      Y59.1761      R0.8500    
(Pass: 23)
G1   Z-2.300    
G17 G2   X17.5562      Y59.1375      R0.8500    
   X17.3379      Y59.1561      R0.8500    
   X17.1318      Y59.2305      R0.8500    
   X16.9521      Y59.3557      R0.8500    
   X16.8108      Y59.5232      R0.8500    
   X16.7178      Y59.7215      R0.8500    
   X16.6792      Y59.9372      R0.8500    
   X16.6977      Y60.1555      R0.8500    
   X16.7722      Y60.3615      R0.8500    
   X16.8974      Y60.5413      R0.8500    
   X17.0649      Y60.6825      R0.8500    
   X17.2632      Y60.7756      R0.8500    
   X17.4789      Y60.8142      R0.8500    
   X17.6971      Y60.7956      R0.8500    
   X17.9032      Y60.7212      R0.8500    
   X18.0830      Y60.5960      R0.8500    
   X18.2242      Y60.4285      R0.8500    
   X18.3173      Y60.2302      R0.8500    
   X18.3558      Y60.0145      R0.8500    
   X18.3373      Y59.7962      R0.8500    
   X18.2629      Y59.5902      R0.8500    
   X18.1376      Y59.4104      R0.8500    
   X17.9702      Y59.2692      R0.8500    
   X17.7718      Y59.1761      R0.8500    
(Pass: 24)
G1   Z-2.400    
G17 G2   X17.5562      Y59.1375      R0.8500    
   X17.3379      Y59.1561      R0.8500    
   X17.1318      Y59.2305      R0.8500    
   X16.9521      Y59.3557      R0.8500    
   X16.8108      Y59.5232      R0.8500    
   X16.7178      Y59.7215      R0.8500    
   X16.6792      Y59.9372      R0.8500    
