%
(Generated by SketchUcam {1.2b1})
(File: Router Plates.skp)
(Bit diameter: 2.5mm)
(Feed rate: 1000.0mm/min)
(Material Thickness: 3.4mm)
(Material length: 600.0mm X width: 300.0mm)
(Overhead Gantry: true)
(Retract feed rate NOT limited to plunge feed rate)
(Multipass enabled, Depth = 0.1mm)
(Optimization is ON)
(www.PhlatBoyz.com)
G90 G21 G49 
M3 S11000
G0   Z6.000     
(Pass: 1)
   X8.142        Y143.655   
(plungebore    depth=4.760         diam=2.500     )
G00   Z2.000     
G01   Z-0.100     F500
G00   z2.000     
G01   Z-0.200    
G00   z2.000     
G01   Z-0.300    
G00   z2.000     
G01   Z-0.400    
G00   z2.000     
G01   Z-0.500    
G00   z2.000     
G01   Z-0.600    
G00   z2.000     
G01   Z-0.700    
G00   z2.000     
G01   Z-0.800    
G00   z2.000     
G01   Z-0.900    
G00   z2.000     
G01   Z-1.000    
G00   z2.000     
G01   Z-1.100    
G00   z2.000     
G01   Z-1.200    
G00   z2.000     
G01   Z-1.300    
G00   z2.000     
G01   Z-1.400    
G00   z2.000     
G01   Z-1.500    
G00   z2.000     
G01   Z-1.600    
G00   z2.000     
G01   Z-1.700    
G00   z2.000     
G01   Z-1.800    
G00   z2.000     
G01   Z-1.900    
G00   z2.000     
G01   Z-2.000    
G00   z2.000     
G01   Z-2.100    
G00   z2.000     
G01   Z-2.200    
G00   z2.000     
G01   Z-2.300    
G00   z2.000     
G01   Z-2.400    
G00   z2.000     
G01   Z-2.500    
G00   z2.000     
G01   Z-2.600    
G00   z2.000     
G01   Z-2.700    
G00   z2.000     
G01   Z-2.800    
G00   z2.000     
G01   Z-2.900    
G00   z2.000     
G01   Z-3.000    
G00   z2.000     
G01   Z-3.100    
G00   z2.000     
G01   Z-3.200    
G00   z2.000     
G01   Z-3.300    
G00   z2.000     
G01   Z-3.400    
G00   z2.000     
G01   Z-3.500    
G00   z2.000     
G01   Z-3.600    
G00   z2.000     
G01   Z-3.700    
G00   z2.000     
G01   Z-3.800    
G00   z2.000     
G01   Z-3.900    
G00   z2.000     
G01   Z-4.000    
G00   z2.000     
G01   Z-4.100    
G00   z2.000     
G01   Z-4.200    
G00   z2.000     
G01   Z-4.300    
G00   z2.000     
G01   Z-4.400    
G00   z2.000     
G01   Z-4.500    
G00   z2.000     
G01   Z-4.600    
G00   z2.000     
G01   Z-4.700    
G00   z2.000     
G01   Z-4.760    
G00   z2.000     
G00   Y143.655       Z6.000     
(plungebore end)
G0   X9.255     
(plungebore    depth=4.760         diam=2.500     )
G00   Z2.000     
G01   Z-0.100     F500
G00   z2.000     
G01   Z-0.200    
G00   z2.000     
G01   Z-0.300    
G00   z2.000     
G01   Z-0.400    
G00   z2.000     
G01   Z-0.500    
G00   z2.000     
G01   Z-0.600    
G00   z2.000     
G01   Z-0.700    
G00   z2.000     
G01   Z-0.800    
G00   z2.000     
G01   Z-0.900    
G00   z2.000     
G01   Z-1.000    
G00   z2.000     
G01   Z-1.100    
G00   z2.000     
G01   Z-1.200    
G00   z2.000     
G01   Z-1.300    
G00   z2.000     
G01   Z-1.400    
G00   z2.000     
G01   Z-1.500    
G00   z2.000     
G01   Z-1.600    
G00   z2.000     
G01   Z-1.700    
G00   z2.000     
G01   Z-1.800    
G00   z2.000     
G01   Z-1.900    
G00   z2.000     
G01   Z-2.000    
G00   z2.000     
G01   Z-2.100    
G00   z2.000     
G01   Z-2.200    
G00   z2.000     
G01   Z-2.300    
G00   z2.000     
G01   Z-2.400    
G00   z2.000     
G01   Z-2.500    
G00   z2.000     
G01   Z-2.600    
G00   z2.000     
G01   Z-2.700    
G00   z2.000     
G01   Z-2.800    
G00   z2.000     
G01   Z-2.900    
G00   z2.000     
G01   Z-3.000    
G00   z2.000     
G01   Z-3.100    
G00   z2.000     
G01   Z-3.200    
G00   z2.000     
G01   Z-3.300    
G00   z2.000     
G01   Z-3.400    
G00   z2.000     
G01   Z-3.500    
G00   z2.000     
G01   Z-3.600    
G00   z2.000     
G01   Z-3.700    
G00   z2.000     
G01   Z-3.800    
G00   z2.000     
G01   Z-3.900    
G00   z2.000     
G01   Z-4.000    
G00   z2.000     
G01   Z-4.100    
G00   z2.000     
G01   Z-4.200    
G00   z2.000     
G01   Z-4.300    
G00   z2.000     
G01   Z-4.400    
G00   z2.000     
G01   Z-4.500    
G00   z2.000     
G01   Z-4.600    
G00   z2.000     
G01   Z-4.700    
G00   z2.000     
G01   Z-4.760    
G00   z2.000     
G00   Y143.655       Z6.000     
(plungebore end)
(BREAK pass 35)
(Pass: 1)
G0   X18.023       Y121.732   
(plungebore    depth=4.760         diam=2.500     )
G00   Z2.000     
G01   Z-0.100     F500
G00   z2.000     
G01   Z-0.200    
G00   z2.000     
G01   Z-0.300    
G00   z2.000     
G01   Z-0.400    
G00   z2.000     
G01   Z-0.500    
G00   z2.000     
G01   Z-0.600    
G00   z2.000     
G01   Z-0.700    
G00   z2.000     
G01   Z-0.800    
G00   z2.000     
G01   Z-0.900    
G00   z2.000     
G01   Z-1.000    
G00   z2.000     
G01   Z-1.100    
G00   z2.000     
G01   Z-1.200    
G00   z2.000     
G01   Z-1.300    
G00   z2.000     
G01   Z-1.400    
G00   z2.000     
G01   Z-1.500    
G00   z2.000     
G01   Z-1.600    
G00   z2.000     
G01   Z-1.700    
G00   z2.000     
G01   Z-1.800    
G00   z2.000     
G01   Z-1.900    
G00   z2.000     
G01   Z-2.000    
G00   z2.000     
G01   Z-2.100    
G00   z2.000     
G01   Z-2.200    
G00   z2.000     
G01   Z-2.300    
G00   z2.000     
G01   Z-2.400    
G00   z2.000     
G01   Z-2.500    
G00   z2.000     
G01   Z-2.600    
G00   z2.000     
G01   Z-2.700    
G00   z2.000     
G01   Z-2.800    
G00   z2.000     
G01   Z-2.900    
G00   z2.000     
G01   Z-3.000    
G00   z2.000     
G01   Z-3.100    
G00   z2.000     
G01   Z-3.200    
G00   z2.000     
G01   Z-3.300    
G00   z2.000     
G01   Z-3.400    
G00   z2.000     
G01   Z-3.500    
G00   z2.000     
G01   Z-3.600    
G00   z2.000     
G01   Z-3.700    
G00   z2.000     
G01   Z-3.800    
G00   z2.000     
G01   Z-3.900    
G00   z2.000     
G01   Z-4.000    
G00   z2.000     
G01   Z-4.100    
G00   z2.000     
G01   Z-4.200    
G00   z2.000     
G01   Z-4.300    
G00   z2.000     
G01   Z-4.400    
G00   z2.000     
G01   Z-4.500    
G00   z2.000     
G01   Z-4.600    
G00   z2.000     
G01   Z-4.700    
G00   z2.000     
G01   Z-4.760    
G00   z2.000     
G00   Y121.732       Z6.000     
(plungebore end)
(BREAK pass 35)
(Pass: 1)
G0   X211.984   
(plungebore    depth=4.760         diam=2.500     )
G00   Z2.000     
G01   Z-0.100     F500
G00   z2.000     
G01   Z-0.200    
G00   z2.000     
G01   Z-0.300    
G00   z2.000     
G01   Z-0.400    
G00   z2.000     
G01   Z-0.500    
G00   z2.000     
G01   Z-0.600    
G00   z2.000     
G01   Z-0.700    
G00   z2.000     
G01   Z-0.800    
G00   z2.000     
G01   Z-0.900    
G00   z2.000     
G01   Z-1.000    
G00   z2.000     
G01   Z-1.100    
G00   z2.000     
G01   Z-1.200    
G00   z2.000     
G01   Z-1.300    
G00   z2.000     
G01   Z-1.400    
G00   z2.000     
G01   Z-1.500    
G00   z2.000     
G01   Z-1.600    
G00   z2.000     
G01   Z-1.700    
G00   z2.000     
G01   Z-1.800    
G00   z2.000     
G01   Z-1.900    
G00   z2.000     
G01   Z-2.000    
G00   z2.000     
G01   Z-2.100    
G00   z2.000     
G01   Z-2.200    
G00   z2.000     
G01   Z-2.300    
G00   z2.000     
G01   Z-2.400    
G00   z2.000     
G01   Z-2.500    
G00   z2.000     
G01   Z-2.600    
G00   z2.000     
G01   Z-2.700    
G00   z2.000     
G01   Z-2.800    
G00   z2.000     
G01   Z-2.900    
G00   z2.000     
G01   Z-3.000    
G00   z2.000     
G01   Z-3.100    
G00   z2.000     
G01   Z-3.200    
G00   z2.000     
G01   Z-3.300    
G00   z2.000     
G01   Z-3.400    
G00   z2.000     
G01   Z-3.500    
G00   z2.000     
G01   Z-3.600    
G00   z2.000     
G01   Z-3.700    
G00   z2.000     
G01   Z-3.800    
G00   z2.000     
G01   Z-3.900    
G00   z2.000     
G01   Z-4.000    
G00   z2.000     
G01   Z-4.100    
G00   z2.000     
G01   Z-4.200    
G00   z2.000     
G01   Z-4.300    
G00   z2.000     
G01   Z-4.400    
G00   z2.000     
G01   Z-4.500    
G00   z2.000     
G01   Z-4.600    
G00   z2.000     
G01   Z-4.700    
G00   z2.000     
G01   Z-4.760    
G00   z2.000     
G00   Y121.732       Z6.000     
(plungebore end)
(BREAK pass 35)
(Pass: 1)
G0   X222.048      Y143.805   
(plungebore    depth=4.760         diam=2.500     )
G00   Z2.000     
G01   Z-0.100     F500
G00   z2.000     
G01   Z-0.200    
G00   z2.000     
G01   Z-0.300    
G00   z2.000     
G01   Z-0.400    
G00   z2.000     
G01   Z-0.500    
G00   z2.000     
G01   Z-0.600    
G00   z2.000     
G01   Z-0.700    
G00   z2.000     
G01   Z-0.800    
G00   z2.000     
G01   Z-0.900    
G00   z2.000     
G01   Z-1.000    
G00   z2.000     
G01   Z-1.100    
G00   z2.000     
G01   Z-1.200    
G00   z2.000     
G01   Z-1.300    
G00   z2.000     
G01   Z-1.400    
G00   z2.000     
G01   Z-1.500    
G00   z2.000     
G01   Z-1.600    
G00   z2.000     
G01   Z-1.700    
G00   z2.000     
G01   Z-1.800    
G00   z2.000     
G01   Z-1.900    
G00   z2.000     
G01   Z-2.000    
G00   z2.000     
G01   Z-2.100    
G00   z2.000     
G01   Z-2.200    
G00   z2.000     
G01   Z-2.300    
G00   z2.000     
G01   Z-2.400    
G00   z2.000     
G01   Z-2.500    
G00   z2.000     
G01   Z-2.600    
G00   z2.000     
G01   Z-2.700    
G00   z2.000     
G01   Z-2.800    
G00   z2.000     
G01   Z-2.900    
G00   z2.000     
G01   Z-3.000    
G00   z2.000     
G01   Z-3.100    
G00   z2.000     
G01   Z-3.200    
G00   z2.000     
G01   Z-3.300    
G00   z2.000     
G01   Z-3.400    
G00   z2.000     
G01   Z-3.500    
G00   z2.000     
G01   Z-3.600    
G00   z2.000     
G01   Z-3.700    
G00   z2.000     
G01   Z-3.800    
G00   z2.000     
G01   Z-3.900    
G00   z2.000     
G01   Z-4.000    
G00   z2.000     
G01   Z-4.100    
G00   z2.000     
G01   Z-4.200    
G00   z2.000     
G01   Z-4.300    
G00   z2.000     
G01   Z-4.400    
G00   z2.000     
G01   Z-4.500    
G00   z2.000     
G01   Z-4.600    
G00   z2.000     
G01   Z-4.700    
G00   z2.000     
G01   Z-4.760    
G00   z2.000     
G00   Y143.805       Z6.000     
(plungebore end)
G0   X223.262   
(plungebore    depth=4.760         diam=2.500     )
G00   Z2.000     
G01   Z-0.100     F500
G00   z2.000     
G01   Z-0.200    
G00   z2.000     
G01   Z-0.300    
G00   z2.000     
G01   Z-0.400    
G00   z2.000     
G01   Z-0.500    
G00   z2.000     
G01   Z-0.600    
G00   z2.000     
G01   Z-0.700    
G00   z2.000     
G01   Z-0.800    
G00   z2.000     
G01   Z-0.900    
G00   z2.000     
G01   Z-1.000    
G00   z2.000     
G01   Z-1.100    
G00   z2.000     
G01   Z-1.200    
G00   z2.000     
G01   Z-1.300    
G00   z2.000     
G01   Z-1.400    
G00   z2.000     
G01   Z-1.500    
G00   z2.000     
G01   Z-1.600    
G00   z2.000     
G01   Z-1.700    
G00   z2.000     
G01   Z-1.800    
G00   z2.000     
G01   Z-1.900    
G00   z2.000     
G01   Z-2.000    
G00   z2.000     
G01   Z-2.100    
G00   z2.000     
G01   Z-2.200    
G00   z2.000     
G01   Z-2.300    
G00   z2.000     
G01   Z-2.400    
G00   z2.000     
G01   Z-2.500    
G00   z2.000     
G01   Z-2.600    
G00   z2.000     
G01   Z-2.700    
G00   z2.000     
G01   Z-2.800    
G00   z2.000     
G01   Z-2.900    
G00   z2.000     
G01   Z-3.000    
G00   z2.000     
G01   Z-3.100    
G00   z2.000     
G01   Z-3.200    
G00   z2.000     
G01   Z-3.300    
G00   z2.000     
G01   Z-3.400    
G00   z2.000     
G01   Z-3.500    
G00   z2.000     
G01   Z-3.600    
G00   z2.000     
G01   Z-3.700    
G00   z2.000     
G01   Z-3.800    
G00   z2.000     
G01   Z-3.900    
G00   z2.000     
G01   Z-4.000    
G00   z2.000     
G01   Z-4.100    
G00   z2.000     
G01   Z-4.200    
G00   z2.000     
G01   Z-4.300    
G00   z2.000     
G01   Z-4.400    
G00   z2.000     
G01   Z-4.500    
G00   z2.000     
G01   Z-4.600    
G00   z2.000     
G01   Z-4.700    
G00   z2.000     
G01   Z-4.760    
G00   z2.000     
G00   Y143.805       Z6.000     
(plungebore end)
(BREAK pass 35)
(Pass: 1)
G0   X21.699       Y19.818    
G1   Z-0.100     F500
   X21.929       Y19.261    
   X22.008       Y18.664    
   X21.929       Y18.067    
   X21.699       Y17.510    
   X21.332       Y17.032    
   X20.854       Y16.665    
   X20.297       Y16.435    
   X19.700       Y16.356    
   X19.103       Y16.435    
   X18.546       Y16.665    
   X18.068       Y17.032    
   X17.702       Y17.510    
   X17.471       Y18.067    
   X17.392       Y18.664    
   X17.471       Y19.261    
   X17.702       Y19.818    
   X18.068       Y20.296    
   X18.546       Y20.662    
   X19.103       Y20.893    
   X19.700       Y20.972    
   X20.297       Y20.893    
   X20.854       Y20.662    
   X21.332       Y20.296    
   X21.699       Y19.818    
(Pass: 2)
   Z-0.200    
   X21.929       Y19.261    
   X22.008       Y18.664    
   X21.929       Y18.067    
   X21.699       Y17.510    
   X21.332       Y17.032    
   X20.854       Y16.665    
   X20.297       Y16.435    
   X19.700       Y16.356    
   X19.103       Y16.435    
   X18.546       Y16.665    
   X18.068       Y17.032    
   X17.702       Y17.510    
   X17.471       Y18.067    
   X17.392       Y18.664    
   X17.471       Y19.261    
   X17.702       Y19.818    
   X18.068       Y20.296    
   X18.546       Y20.662    
   X19.103       Y20.893    
   X19.700       Y20.972    
   X20.297       Y20.893    
   X20.854       Y20.662    
   X21.332       Y20.296    
   X21.699       Y19.818    
(Pass: 3)
   Z-0.300    
   X21.929       Y19.261    
   X22.008       Y18.664    
   X21.929       Y18.067    
   X21.699       Y17.510    
   X21.332       Y17.032    
   X20.854       Y16.665    
   X20.297       Y16.435    
   X19.700       Y16.356    
   X19.103       Y16.435    
   X18.546       Y16.665    
   X18.068       Y17.032    
   X17.702       Y17.510    
   X17.471       Y18.067    
   X17.392       Y18.664    
   X17.471       Y19.261    
   X17.702       Y19.818    
   X18.068       Y20.296    
   X18.546       Y20.662    
   X19.103       Y20.893    
   X19.700       Y20.972    
   X20.297       Y20.893    
   X20.854       Y20.662    
   X21.332       Y20.296    
   X21.699       Y19.818    
(Pass: 4)
   Z-0.400    
   X21.929       Y19.261    
   X22.008       Y18.664    
   X21.929       Y18.067    
   X21.699       Y17.510    
   X21.332       Y17.032    
   X20.854       Y16.665    
   X20.297       Y16.435    
   X19.700       Y16.356    
   X19.103       Y16.435    
   X18.546       Y16.665    
   X18.068       Y17.032    
   X17.702       Y17.510    
   X17.471       Y18.067    
   X17.392       Y18.664    
   X17.471       Y19.261    
   X17.702       Y19.818    
   X18.068       Y20.296    
   X18.546       Y20.662    
   X19.103       Y20.893    
   X19.700       Y20.972    
   X20.297       Y20.893    
   X20.854       Y20.662    
   X21.332       Y20.296    
   X21.699       Y19.818    
(Pass: 5)
   Z-0.500    
   X21.929       Y19.261    
   X22.008       Y18.664    
   X21.929       Y18.067    
   X21.699       Y17.510    
   X21.332       Y17.032    
   X20.854       Y16.665    
   X20.297       Y16.435    
   X19.700       Y16.356    
   X19.103       Y16.435    
   X18.546       Y16.665    
   X18.068       Y17.032    
   X17.702       Y17.510    
   X17.471       Y18.067    
   X17.392       Y18.664    
   X17.471       Y19.261    
   X17.702       Y19.818    
   X18.068       Y20.296    
   X18.546       Y20.662    
   X19.103       Y20.893    
   X19.700       Y20.972    
   X20.297       Y20.893    
   X20.854       Y20.662    
   X21.332       Y20.296    
   X21.699       Y19.818    
(Pass: 6)
   Z-0.600    
   X21.929       Y19.261    
   X22.008       Y18.664    
   X21.929       Y18.067    
   X21.699       Y17.510    
   X21.332       Y17.032    
   X20.854       Y16.665    
   X20.297       Y16.435    
   X19.700       Y16.356    
   X19.103       Y16.435    
   X18.546       Y16.665    
   X18.068       Y17.032    
   X17.702       Y17.510    
   X17.471       Y18.067    
   X17.392       Y18.664    
   X17.471       Y19.261    
   X17.702       Y19.818    
   X18.068       Y20.296    
   X18.546       Y20.662    
   X19.103       Y20.893    
   X19.700       Y20.972    
   X20.297       Y20.893    
   X20.854       Y20.662    
   X21.332       Y20.296    
   X21.699       Y19.818    
(Pass: 7)
   Z-0.700    
   X21.929       Y19.261    
   X22.008       Y18.664    
   X21.929       Y18.067    
   X21.699       Y17.510    
   X21.332       Y17.032    
   X20.854       Y16.665    
   X20.297       Y16.435    
   X19.700       Y16.356    
   X19.103       Y16.435    
   X18.546       Y16.665    
   X18.068       Y17.032    
   X17.702       Y17.510    
   X17.471       Y18.067    
   X17.392       Y18.664    
   X17.471       Y19.261    
   X17.702       Y19.818    
   X18.068       Y20.296    
   X18.546       Y20.662    
   X19.103       Y20.893    
   X19.700       Y20.972    
   X20.297       Y20.893    
   X20.854       Y20.662    
   X21.332       Y20.296    
   X21.699       Y19.818    
(Pass: 8)
   Z-0.800    
   X21.929       Y19.261    
   X22.008       Y18.664    
   X21.929       Y18.067    
   X21.699       Y17.510    
   X21.332       Y17.032    
   X20.854       Y16.665    
   X20.297       Y16.435    
   X19.700       Y16.356    
   X19.103       Y16.435    
   X18.546       Y16.665    
   X18.068       Y17.032    
   X17.702       Y17.510    
   X17.471       Y18.067    
   X17.392       Y18.664    
   X17.471       Y19.261    
   X17.702       Y19.818    
   X18.068       Y20.296    
   X18.546       Y20.662    
   X19.103       Y20.893    
   X19.700       Y20.972    
   X20.297       Y20.893    
   X20.854       Y20.662    
   X21.332       Y20.296    
   X21.699       Y19.818    
(Pass: 9)
   Z-0.900    
   X21.929       Y19.261    
   X22.008       Y18.664    
   X21.929       Y18.067    
   X21.699       Y17.510    
   X21.332       Y17.032    
   X20.854       Y16.665    
   X20.297       Y16.435    
   X19.700       Y16.356    
   X19.103       Y16.435    
   X18.546       Y16.665    
   X18.068       Y17.032    
   X17.702       Y17.510    
   X17.471       Y18.067    
   X17.392       Y18.664    
   X17.471       Y19.261    
   X17.702       Y19.818    
   X18.068       Y20.296    
   X18.546       Y20.662    
   X19.103       Y20.893    
   X19.700       Y20.972    
   X20.297       Y20.893    
   X20.854       Y20.662    
   X21.332       Y20.296    
   X21.699       Y19.818    
(Pass: 10)
   Z-1.000    
   X21.929       Y19.261    
   X22.008       Y18.664    
   X21.929       Y18.067    
   X21.699       Y17.510    
   X21.332       Y17.032    
   X20.854       Y16.665    
   X20.297       Y16.435    
   X19.700       Y16.356    
   X19.103       Y16.435    
   X18.546       Y16.665    
   X18.068       Y17.032    
   X17.702       Y17.510    
   X17.471       Y18.067    
   X17.392       Y18.664    
   X17.471       Y19.261    
   X17.702       Y19.818    
   X18.068       Y20.296    
   X18.546       Y20.662    
   X19.103       Y20.893    
   X19.700       Y20.972    
   X20.297       Y20.893    
   X20.854       Y20.662    
   X21.332       Y20.296    
   X21.699       Y19.818    
(Pass: 11)
   Z-1.100    
   X21.929       Y19.261    
   X22.008       Y18.664    
   X21.929       Y18.067    
   X21.699       Y17.510    
   X21.332       Y17.032    
   X20.854       Y16.665    
   X20.297       Y16.435    
   X19.700       Y16.356    
   X19.103       Y16.435    
   X18.546       Y16.665    
   X18.068       Y17.032    
   X17.702       Y17.510    
   X17.471       Y18.067    
   X17.392       Y18.664    
   X17.471       Y19.261    
   X17.702       Y19.818    
   X18.068       Y20.296    
   X18.546       Y20.662    
   X19.103       Y20.893    
   X19.700       Y20.972    
   X20.297       Y20.893    
   X20.854       Y20.662    
   X21.332       Y20.296    
   X21.699       Y19.818    
(Pass: 12)
   Z-1.200    
   X21.929       Y19.261    
   X22.008       Y18.664    
   X21.929       Y18.067    
   X21.699       Y17.510    
   X21.332       Y17.032    
   X20.854       Y16.665    
   X20.297       Y16.435    
   X19.700       Y16.356    
   X19.103       Y16.435    
   X18.546       Y16.665    
   X18.068       Y17.032    
   X17.702       Y17.510    
   X17.471       Y18.067    
   X17.392       Y18.664    
   X17.471       Y19.261    
   X17.702       Y19.818    
   X18.068       Y20.296    
   X18.546       Y20.662    
   X19.103       Y20.893    
   X19.700       Y20.972    
   X20.297       Y20.893    
   X20.854       Y20.662    
   X21.332       Y20.296    
   X21.699       Y19.818    
(Pass: 13)
   Z-1.300    
   X21.929       Y19.261    
   X22.008       Y18.664    
   X21.929       Y18.067    
   X21.699       Y17.510    
   X21.332       Y17.032    
   X20.854       Y16.665    
   X20.297       Y16.435    
   X19.700       Y16.356    
   X19.103       Y16.435    
   X18.546       Y16.665    
   X18.068       Y17.032    
   X17.702       Y17.510    
   X17.471       Y18.067    
   X17.392       Y18.664    
   X17.471       Y19.261    
   X17.702       Y19.818    
   X18.068       Y20.296    
   X18.546       Y20.662    
   X19.103       Y20.893    
   X19.700       Y20.972    
   X20.297       Y20.893    
   X20.854       Y20.662    
   X21.332       Y20.296    
   X21.699       Y19.818    
(Pass: 14)
   Z-1.400    
   X21.929       Y19.261    
   X22.008       Y18.664    
   X21.929       Y18.067    
   X21.699       Y17.510    
   X21.332       Y17.032    
   X20.854       Y16.665    
   X20.297       Y16.435    
   X19.700       Y16.356    
   X19.103       Y16.435    
   X18.546       Y16.665    
   X18.068       Y17.032    
   X17.702       Y17.510    
   X17.471       Y18.067    
   X17.392       Y18.664    
   X17.471       Y19.261    
   X17.702       Y19.818    
   X18.068       Y20.296    
   X18.546       Y20.662    
   X19.103       Y20.893    
   X19.700       Y20.972    
   X20.297       Y20.893    
   X20.854       Y20.662    
   X21.332       Y20.296    
   X21.699       Y19.818    
(Pass: 15)
   Z-1.500    
   X21.929       Y19.261    
   X22.008       Y18.664    
   X21.929       Y18.067    
   X21.699       Y17.510    
   X21.332       Y17.032    
   X20.854       Y16.665    
   X20.297       Y16.435    
   X19.700       Y16.356    
   X19.103       Y16.435    
   X18.546       Y16.665    
   X18.068       Y17.032    
   X17.702       Y17.510    
   X17.471       Y18.067    
   X17.392       Y18.664    
   X17.471       Y19.261    
   X17.702       Y19.818    
   X18.068       Y20.296    
   X18.546       Y20.662    
   X19.103       Y20.893    
   X19.700       Y20.972    
   X20.297       Y20.893    
   X20.854       Y20.662    
   X21.332       Y20.296    
   X21.699       Y19.818    
(Pass: 16)
   Z-1.600    
   X21.929       Y19.261    
   X22.008       Y18.664    
   X21.929       Y18.067    
   X21.699       Y17.510    
   X21.332       Y17.032    
   X20.854       Y16.665    
   X20.297       Y16.435    
   X19.700       Y16.356    
   X19.103       Y16.435    
   X18.546       Y16.665    
   X18.068       Y17.032    
   X17.702       Y17.510    
   X17.471       Y18.067    
   X17.392       Y18.664    
   X17.471       Y19.261    
   X17.702       Y19.818    
   X18.068       Y20.296    
   X18.546       Y20.662    
   X19.103       Y20.893    
   X19.700       Y20.972    
   X20.297       Y20.893    
   X20.854       Y20.662    
   X21.332       Y20.296    
   X21.699       Y19.818    
(Pass: 17)
   Z-1.700    
   X21.929       Y19.261    
   X22.008       Y18.664    
   X21.929       Y18.067    
   X21.699       Y17.510    
   X21.332       Y17.032    
   X20.854       Y16.665    
   X20.297       Y16.435    
   X19.700       Y16.356    
   X19.103       Y16.435    
   X18.546       Y16.665    
   X18.068       Y17.032    
   X17.702       Y17.510    
   X17.471       Y18.067    
   X17.392       Y18.664    
   X17.471       Y19.261    
   X17.702       Y19.818    
   X18.068       Y20.296    
   X18.546       Y20.662    
   X19.103       Y20.893    
   X19.700       Y20.972    
   X20.297       Y20.893    
   X20.854       Y20.662    
   X21.332       Y20.296    
   X21.699       Y19.818    
(Pass: 18)
   Z-1.800    
   X21.929       Y19.261    
   X22.008       Y18.664    
   X21.929       Y18.067    
   X21.699       Y17.510    
   X21.332       Y17.032    
   X20.854       Y16.665    
   X20.297       Y16.435    
   X19.700       Y16.356    
   X19.103       Y16.435    
   X18.546       Y16.665    
   X18.068       Y17.032    
   X17.702       Y17.510    
   X17.471       Y18.067    
   X17.392       Y18.664    
   X17.471       Y19.261    
   X17.702       Y19.818    
   X18.068       Y20.296    
   X18.546       Y20.662    
   X19.103       Y20.893    
   X19.700       Y20.972    
   X20.297       Y20.893    
   X20.854       Y20.662    
   X21.332       Y20.296    
   X21.699       Y19.818    
(Pass: 19)
   Z-1.900    
   X21.929       Y19.261    
   X22.008       Y18.664    
   X21.929       Y18.067    
   X21.699       Y17.510    
   X21.332       Y17.032    
   X20.854       Y16.665    
   X20.297       Y16.435    
   X19.700       Y16.356    
   X19.103       Y16.435    
   X18.546       Y16.665    
   X18.068       Y17.032    
   X17.702       Y17.510    
   X17.471       Y18.067    
   X17.392       Y18.664    
   X17.471       Y19.261    
   X17.702       Y19.818    
   X18.068       Y20.296    
   X18.546       Y20.662    
   X19.103       Y20.893    
   X19.700       Y20.972    
   X20.297       Y20.893    
   X20.854       Y20.662    
   X21.332       Y20.296    
   X21.699       Y19.818    
(Pass: 20)
   Z-2.000    
   X21.929       Y19.261    
   X22.008       Y18.664    
   X21.929       Y18.067    
   X21.699       Y17.510    
   X21.332       Y17.032    
   X20.854       Y16.665    
   X20.297       Y16.435    
   X19.700       Y16.356    
   X19.103       Y16.435    
   X18.546       Y16.665    
   X18.068       Y17.032    
   X17.702       Y17.510    
   X17.471       Y18.067    
   X17.392       Y18.664    
   X17.471       Y19.261    
   X17.702       Y19.818    
   X18.068       Y20.296    
   X18.546       Y20.662    
   X19.103       Y20.893    
   X19.700       Y20.972    
   X20.297       Y20.893    
   X20.854       Y20.662    
   X21.332       Y20.296    
   X21.699       Y19.818    
(Pass: 21)
   Z-2.100    
   X21.929       Y19.261    
   X22.008       Y18.664    
   X21.929       Y18.067    
   X21.699       Y17.510    
   X21.332       Y17.032    
   X20.854       Y16.665    
   X20.297       Y16.435    
   X19.700       Y16.356    
   X19.103       Y16.435    
   X18.546       Y16.665    
   X18.068       Y17.032    
   X17.702       Y17.510    
   X17.471       Y18.067    
   X17.392       Y18.664    
   X17.471       Y19.261    
   X17.702       Y19.818    
   X18.068       Y20.296    
   X18.546       Y20.662    
   X19.103       Y20.893    
   X19.700       Y20.972    
   X20.297       Y20.893    
   X20.854       Y20.662    
   X21.332       Y20.296    
   X21.699       Y19.818    
(Pass: 22)
   Z-2.200    
   X21.929       Y19.261    
   X22.008       Y18.664    
   X21.929       Y18.067    
   X21.699       Y17.510    
   X21.332       Y17.032    
   X20.854       Y16.665    
   X20.297       Y16.435    
   X19.700       Y16.356    
   X19.103       Y16.435    
   X18.546       Y16.665    
   X18.068       Y17.032    
   X17.702       Y17.510    
   X17.471       Y18.067    
   X17.392       Y18.664    
   X17.471       Y19.261    
   X17.702       Y19.818    
   X18.068       Y20.296    
   X18.546       Y20.662    
   X19.103       Y20.893    
   X19.700       Y20.972    
   X20.297       Y20.893    
   X20.854       Y20.662    
   X21.332       Y20.296    
   X21.699       Y19.818    
(Pass: 23)
   Z-2.300    
   X21.929       Y19.261    
   X22.008       Y18.664    
   X21.929       Y18.067    
   X21.699       Y17.510    
   X21.332       Y17.032    
   X20.854       Y16.665    
   X20.297       Y16.435    
   X19.700       Y16.356    
   X19.103       Y16.435    
   X18.546       Y16.665    
   X18.068       Y17.032    
   X17.702       Y17.510    
   X17.471       Y18.067    
   X17.392       Y18.664    
   X17.471       Y19.261    
   X17.702       Y19.818    
   X18.068       Y20.296    
   X18.546       Y20.662    
   X19.103       Y20.893    
   X19.700       Y20.972    
   X20.297       Y20.893    
   X20.854       Y20.662    
   X21.332       Y20.296    
   X21.699       Y19.818    
(Pass: 24)
   Z-2.400    
   X21.929       Y19.261    
   X22.008       Y18.664    
   X21.929       Y18.067    
   X21.699       Y17.510    
   X21.332       Y17.032    
   X20.854       Y16.665    
   X20.297       Y16.435    
   X19.700       Y16.356    
   X19.103       Y16.435    
   X18.546       Y16.665    
   X18.068       Y17.032    
   X17.702       Y17.510    
   X17.471       Y18.067    
   X17.392       Y18.664    
   X17.471       Y19.261    
   X17.702       Y19.818    
   X18.068       Y20.296    
   X18.546       Y20.662    
   X19.103       Y20.893    
   X19.700       Y20.972    
   X20.297       Y20.893    
   X20.854       Y20.662    
   X21.332       Y20.296    
   X21.699       Y19.818    
(Pass: 25)
   Z-2.500    
   X21.929       Y19.261    
   X22.008       Y18.664    
   X21.929       Y18.067    
   X21.699       Y17.510    
   X21.332       Y17.032    
   X20.854       Y16.665    
   X20.297       Y16.435    
   X19.700       Y16.356    
   X19.103       Y16.435    
   X18.546       Y16.665    
   X18.068       Y17.032    
   X17.702       Y17.510    
   X17.471       Y18.067    
   X17.392       Y18.664    
   X17.471       Y19.261    
   X17.702       Y19.818    
   X18.068       Y20.296    
   X18.546       Y20.662    
   X19.103       Y20.893    
   X19.700       Y20.972    
   X20.297       Y20.893    
   X20.854       Y20.662    
   X21.332       Y20.296    
   X21.699       Y19.818    
(Pass: 26)
   Z-2.600    
   X21.929       Y19.261    
   X22.008       Y18.664    
   X21.929       Y18.067    
   X21.699       Y17.510    
   X21.332       Y17.032    
   X20.854       Y16.665    
   X20.297       Y16.435    
   X19.700       Y16.356    
   X19.103       Y16.435    
   X18.546       Y16.665    
   X18.068       Y17.032    
   X17.702       Y17.510    
   X17.471       Y18.067    
   X17.392       Y18.664    
   X17.471       Y19.261    
   X17.702       Y19.818    
   X18.068       Y20.296    
   X18.546       Y20.662    
   X19.103       Y20.893    
   X19.700       Y20.972    
   X20.297       Y20.893    
   X20.854       Y20.662    
   X21.332       Y20.296    
   X21.699       Y19.818    
(Pass: 27)
   Z-2.700    
   X21.929       Y19.261    
   X22.008       Y18.664    
   X21.929       Y18.067    
   X21.699       Y17.510    
   X21.332       Y17.032    
   X20.854       Y16.665    
   X20.297       Y16.435    
   X19.700       Y16.356    
   X19.103       Y16.435    
   X18.546       Y16.665    
   X18.068       Y17.032    
   X17.702       Y17.510    
   X17.471       Y18.067    
   X17.392       Y18.664    
   X17.471       Y19.261    
   X17.702       Y19.818    
   X18.068       Y20.296    
   X18.546       Y20.662    
   X19.103       Y20.893    
   X19.700       Y20.972    
   X20.297       Y20.893    
   X20.854       Y20.662    
   X21.332       Y20.296    
   X21.699       Y19.818    
(Pass: 28)
   Z-2.800    
   X21.929       Y19.261    
   X22.008       Y18.664    
   X21.929       Y18.067    
   X21.699       Y17.510    
   X21.332       Y17.032    
   X20.854       Y16.665    
   X20.297       Y16.435    
   X19.700       Y16.356    
   X19.103       Y16.435    
   X18.546       Y16.665    
   X18.068       Y17.032    
   X17.702       Y17.510    
   X17.471       Y18.067    
   X17.392       Y18.664    
   X17.471       Y19.261    
   X17.702       Y19.818    
   X18.068       Y20.296    
   X18.546       Y20.662    
   X19.103       Y20.893    
   X19.700       Y20.972    
   X20.297       Y20.893    
   X20.854       Y20.662    
   X21.332       Y20.296    
   X21.699       Y19.818    
(Pass: 29)
   Z-2.900    
   X21.929       Y19.261    
   X22.008       Y18.664    
   X21.929       Y18.067    
   X21.699       Y17.510    
   X21.332       Y17.032    
   X20.854       Y16.665    
   X20.297       Y16.435    
   X19.700       Y16.356    
   X19.103       Y16.435    
   X18.546       Y16.665    
   X18.068       Y17.032    
   X17.702       Y17.510    
   X17.471       Y18.067    
   X17.392       Y18.664    
   X17.471       Y19.261    
   X17.702       Y19.818    
   X18.068       Y20.296    
   X18.546       Y20.662    
   X19.103       Y20.893    
   X19.700       Y20.972    
   X20.297       Y20.893    
   X20.854       Y20.662    
   X21.332       Y20.296    
   X21.699       Y19.818    
(Pass: 30)
   Z-3.000    
   X21.929       Y19.261    
   X22.008       Y18.664    
   X21.929       Y18.067    
   X21.699       Y17.510    
   X21.332       Y17.032    
   X20.854       Y16.665    
   X20.297       Y16.435    
   X19.700       Y16.356    
   X19.103       Y16.435    
   X18.546       Y16.665    
   X18.068       Y17.032    
   X17.702       Y17.510    
   X17.471       Y18.067    
   X17.392       Y18.664    
   X17.471       Y19.261    
   X17.702       Y19.818    
   X18.068       Y20.296    
   X18.546       Y20.662    
   X19.103       Y20.893    
   X19.700       Y20.972    
   X20.297       Y20.893    
   X20.854       Y20.662    
   X21.332       Y20.296    
   X21.699       Y19.818    
(Pass: 31)
   Z-3.100    
   X21.929       Y19.261    
   X22.008       Y18.664    
   X21.929       Y18.067    
   X21.699       Y17.510    
   X21.332       Y17.032    
   X20.854       Y16.665    
   X20.297       Y16.435    
   X19.700       Y16.356    
   X19.103       Y16.435    
   X18.546       Y16.665    
   X18.068       Y17.032    
   X17.702       Y17.510    
   X17.471       Y18.067    
   X17.392       Y18.664    
   X17.471       Y19.261    
   X17.702       Y19.818    
   X18.068       Y20.296    
   X18.546       Y20.662    
   X19.103       Y20.893    
   X19.700       Y20.972    
   X20.297       Y20.893    
   X20.854       Y20.662    
   X21.332       Y20.296    
   X21.699       Y19.818    
(Pass: 32)
   Z-3.200    
   X21.929       Y19.261    
   X22.008       Y18.664    
   X21.929       Y18.067    
   X21.699       Y17.510    
   X21.332       Y17.032    
   X20.854       Y16.665    
   X20.297       Y16.435    
   X19.700       Y16.356    
   X19.103       Y16.435    
   X18.546       Y16.665    
   X18.068       Y17.032    
   X17.702       Y17.510    
   X17.471       Y18.067    
   X17.392       Y18.664    
   X17.471       Y19.261    
   X17.702       Y19.818    
   X18.068       Y20.296    
   X18.546       Y20.662    
   X19.103       Y20.893    
   X19.700       Y20.972    
   X20.297       Y20.893    
   X20.854       Y20.662    
   X21.332       Y20.296    
   X21.699       Y19.818    
(Pass: 33)
   Z-3.300    
   X21.929       Y19.261    
   X22.008       Y18.664    
   X21.929       Y18.067    
   X21.699       Y17.510    
   X21.332       Y17.032    
   X20.854       Y16.665    
   X20.297       Y16.435    
   X19.700       Y16.356    
   X19.103       Y16.435    
   X18.546       Y16.665    
   X18.068       Y17.032    
   X17.702       Y17.510    
   X17.471       Y18.067    
   X17.392       Y18.664    
   X17.471       Y19.261    
   X17.702       Y19.818    
   X18.068       Y20.296    
   X18.546       Y20.662    
   X19.103       Y20.893    
   X19.700       Y20.972    
   X20.297       Y20.893    
   X20.854       Y20.662    
   X21.332       Y20.296    
   X21.699       Y19.818    
(Pass: 34)
   Z-3.400    
   X21.929       Y19.261    
   X22.008       Y18.664    
   X21.929       Y18.067    
   X21.699       Y17.510    
   X21.332       Y17.032    
   X20.854       Y16.665    
   X20.297       Y16.435    
   X19.700       Y16.356    
   X19.103       Y16.435    
   X18.546       Y16.665    
   X18.068       Y17.032    
   X17.702       Y17.510    
   X17.471       Y18.067    
   X17.392       Y18.664    
   X17.471       Y19.261    
   X17.702       Y19.818    
   X18.068       Y20.296    
   X18.546       Y20.662    
   X19.103       Y20.893    
   X19.700       Y20.972    
   X20.297       Y20.893    
   X20.854       Y20.662    
   X21.332       Y20.296    
   X21.699       Y19.818    
(Pass: 35)
   Z-3.500    
   X21.929       Y19.261    
   X22.008       Y18.664    
   X21.929       Y18.067    
   X21.699       Y17.510    
   X21.332       Y17.032    
   X20.854       Y16.665    
   X20.297       Y16.435    
   X19.700       Y16.356    
   X19.103       Y16.435    
   X18.546       Y16.665    
   X18.068       Y17.032    
   X17.702       Y17.510    
   X17.471       Y18.067    
   X17.392       Y18.664    
   X17.471       Y19.261    
   X17.702       Y19.818    
   X18.068       Y20.296    
   X18.546       Y20.662    
   X19.103       Y20.893    
   X19.700       Y20.972    
   X20.297       Y20.893    
   X20.854       Y20.662    
   X21.332       Y20.296    
   X21.699       Y19.818    
(BREAK pass 35)
G0   Z6.000     
(Pass: 1)
   X112.712      Y18.664    
G1   Z-0.100     F500
   X112.791      Y19.261    
   X113.022      Y19.818    
   X113.388      Y20.296    
   X113.866      Y20.662    
   X114.423      Y20.893    
   X115.020      Y20.972    
   X115.617      Y20.893    
   X116.174      Y20.662    
   X116.652      Y20.296    
   X117.019      Y19.818    
   X117.249      Y19.261    
   X117.328      Y18.664    
   X117.249      Y18.067    
   X117.019      Y17.510    
   X116.652      Y17.032    
   X116.174      Y16.665    
   X115.617      Y16.435    
   X115.020      Y16.356    
   X114.423      Y16.435    
   X113.866      Y16.665    
   X113.388      Y17.032    
   X113.022      Y17.510    
   X112.791      Y18.067    
   X112.712      Y18.664    
(Pass: 2)
   Z-0.200    
   X112.791      Y19.261    
   X113.022      Y19.818    
   X113.388      Y20.296    
   X113.866      Y20.662    
   X114.423      Y20.893    
   X115.020      Y20.972    
   X115.617      Y20.893    
   X116.174      Y20.662    
   X116.652      Y20.296    
   X117.019      Y19.818    
   X117.249      Y19.261    
   X117.328      Y18.664    
   X117.249      Y18.067    
   X117.019      Y17.510    
   X116.652      Y17.032    
   X116.174      Y16.665    
   X115.617      Y16.435    
   X115.020      Y16.356    
   X114.423      Y16.435    
   X113.866      Y16.665    
   X113.388      Y17.032    
   X113.022      Y17.510    
   X112.791      Y18.067    
   X112.712      Y18.664    
(Pass: 3)
   Z-0.300    
   X112.791      Y19.261    
   X113.022      Y19.818    
   X113.388      Y20.296    
   X113.866      Y20.662    
   X114.423      Y20.893    
   X115.020      Y20.972    
   X115.617      Y20.893    
   X116.174      Y20.662    
   X116.652      Y20.296    
   X117.019      Y19.818    
   X117.249      Y19.261    
   X117.328      Y18.664    
   X117.249      Y18.067    
   X117.019      Y17.510    
   X116.652      Y17.032    
   X116.174      Y16.665    
   X115.617      Y16.435    
   X115.020      Y16.356    
   X114.423      Y16.435    
   X113.866      Y16.665    
   X113.388      Y17.032    
   X113.022      Y17.510    
   X112.791      Y18.067    
   X112.712      Y18.664    
(Pass: 4)
   Z-0.400    
   X112.791      Y19.261    
   X113.022      Y19.818    
   X113.388      Y20.296    
   X113.866      Y20.662    
   X114.423      Y20.893    
   X115.020      Y20.972    
   X115.617      Y20.893    
   X116.174      Y20.662    
   X116.652      Y20.296    
   X117.019      Y19.818    
   X117.249      Y19.261    
   X117.328      Y18.664    
   X117.249      Y18.067    
   X117.019      Y17.510    
   X116.652      Y17.032    
   X116.174      Y16.665    
   X115.617      Y16.435    
   X115.020      Y16.356    
   X114.423      Y16.435    
   X113.866      Y16.665    
   X113.388      Y17.032    
   X113.022      Y17.510    
   X112.791      Y18.067    
   X112.712      Y18.664    
(Pass: 5)
   Z-0.500    
   X112.791      Y19.261    
   X113.022      Y19.818    
   X113.388      Y20.296    
   X113.866      Y20.662    
   X114.423      Y20.893    
   X115.020      Y20.972    
   X115.617      Y20.893    
   X116.174      Y20.662    
   X116.652      Y20.296    
   X117.019      Y19.818    
   X117.249      Y19.261    
   X117.328      Y18.664    
   X117.249      Y18.067    
   X117.019      Y17.510    
   X116.652      Y17.032    
   X116.174      Y16.665    
   X115.617      Y16.435    
   X115.020      Y16.356    
   X114.423      Y16.435    
   X113.866      Y16.665    
   X113.388      Y17.032    
   X113.022      Y17.510    
   X112.791      Y18.067    
   X112.712      Y18.664    
(Pass: 6)
   Z-0.600    
   X112.791      Y19.261    
   X113.022      Y19.818    
   X113.388      Y20.296    
   X113.866      Y20.662    
   X114.423      Y20.893    
   X115.020      Y20.972    
   X115.617      Y20.893    
   X116.174      Y20.662    
   X116.652      Y20.296    
   X117.019      Y19.818    
   X117.249      Y19.261    
   X117.328      Y18.664    
   X117.249      Y18.067    
   X117.019      Y17.510    
   X116.652      Y17.032    
   X116.174      Y16.665    
   X115.617      Y16.435    
   X115.020      Y16.356    
   X114.423      Y16.435    
   X113.866      Y16.665    
   X113.388      Y17.032    
   X113.022      Y17.510    
   X112.791      Y18.067    
   X112.712      Y18.664    
(Pass: 7)
   Z-0.700    
   X112.791      Y19.261    
   X113.022      Y19.818    
   X113.388      Y20.296    
   X113.866      Y20.662    
   X114.423      Y20.893    
   X115.020      Y20.972    
   X115.617      Y20.893    
   X116.174      Y20.662    
   X116.652      Y20.296    
   X117.019      Y19.818    
   X117.249      Y19.261    
   X117.328      Y18.664    
   X117.249      Y18.067    
   X117.019      Y17.510    
   X116.652      Y17.032    
   X116.174      Y16.665    
   X115.617      Y16.435    
   X115.020      Y16.356    
   X114.423      Y16.435    
   X113.866      Y16.665    
   X113.388      Y17.032    
   X113.022      Y17.510    
   X112.791      Y18.067    
   X112.712      Y18.664    
(Pass: 8)
   Z-0.800    
   X112.791      Y19.261    
   X113.022      Y19.818    
   X113.388      Y20.296    
   X113.866      Y20.662    
   X114.423      Y20.893    
   X115.020      Y20.972    
   X115.617      Y20.893    
   X116.174      Y20.662    
   X116.652      Y20.296    
   X117.019      Y19.818    
   X117.249      Y19.261    
   X117.328      Y18.664    
   X117.249      Y18.067    
   X117.019      Y17.510    
   X116.652      Y17.032    
   X116.174      Y16.665    
   X115.617      Y16.435    
   X115.020      Y16.356    
   X114.423      Y16.435    
   X113.866      Y16.665    
   X113.388      Y17.032    
   X113.022      Y17.510    
   X112.791      Y18.067    
   X112.712      Y18.664    
(Pass: 9)
   Z-0.900    
   X112.791      Y19.261    
   X113.022      Y19.818    
   X113.388      Y20.296    
   X113.866      Y20.662    
   X114.423      Y20.893    
   X115.020      Y20.972    
   X115.617      Y20.893    
   X116.174      Y20.662    
   X116.652      Y20.296    
   X117.019      Y19.818    
   X117.249      Y19.261    
   X117.328      Y18.664    
   X117.249      Y18.067    
   X117.019      Y17.510    
   X116.652      Y17.032    
   X116.174      Y16.665    
   X115.617      Y16.435    
   X115.020      Y16.356    
   X114.423      Y16.435    
   X113.866      Y16.665    
   X113.388      Y17.032    
   X113.022      Y17.510    
   X112.791      Y18.067    
   X112.712      Y18.664    
(Pass: 10)
   Z-1.000    
   X112.791      Y19.261    
   X113.022      Y19.818    
   X113.388      Y20.296    
   X113.866      Y20.662    
   X114.423      Y20.893    
   X115.020      Y20.972    
   X115.617      Y20.893    
   X116.174      Y20.662    
   X116.652      Y20.296    
   X117.019      Y19.818    
   X117.249      Y19.261    
   X117.328      Y18.664    
   X117.249      Y18.067    
   X117.019      Y17.510    
   X116.652      Y17.032    
   X116.174      Y16.665    
   X115.617      Y16.435    
   X115.020      Y16.356    
   X114.423      Y16.435    
   X113.866      Y16.665    
   X113.388      Y17.032    
   X113.022      Y17.510    
   X112.791      Y18.067    
   X112.712      Y18.664    
(Pass: 11)
   Z-1.100    
   X112.791      Y19.261    
   X113.022      Y19.818    
   X113.388      Y20.296    
   X113.866      Y20.662    
   X114.423      Y20.893    
   X115.020      Y20.972    
   X115.617      Y20.893    
   X116.174      Y20.662    
   X116.652      Y20.296    
   X117.019      Y19.818    
   X117.249      Y19.261    
   X117.328      Y18.664    
   X117.249      Y18.067    
   X117.019      Y17.510    
   X116.652      Y17.032    
   X116.174      Y16.665    
   X115.617      Y16.435    
   X115.020      Y16.356    
   X114.423      Y16.435    
   X113.866      Y16.665    
   X113.388      Y17.032    
   X113.022      Y17.510    
   X112.791      Y18.067    
   X112.712      Y18.664    
(Pass: 12)
   Z-1.200    
   X112.791      Y19.261    
   X113.022      Y19.818    
   X113.388      Y20.296    
   X113.866      Y20.662    
   X114.423      Y20.893    
   X115.020      Y20.972    
   X115.617      Y20.893    
   X116.174      Y20.662    
   X116.652      Y20.296    
   X117.019      Y19.818    
   X117.249      Y19.261    
   X117.328      Y18.664    
   X117.249      Y18.067    
   X117.019      Y17.510    
   X116.652      Y17.032    
   X116.174      Y16.665    
   X115.617      Y16.435    
   X115.020      Y16.356    
   X114.423      Y16.435    
   X113.866      Y16.665    
   X113.388      Y17.032    
   X113.022      Y17.510    
   X112.791      Y18.067    
   X112.712      Y18.664    
(Pass: 13)
   Z-1.300    
   X112.791      Y19.261    
   X113.022      Y19.818    
   X113.388      Y20.296    
   X113.866      Y20.662    
   X114.423      Y20.893    
   X115.020      Y20.972    
   X115.617      Y20.893    
   X116.174      Y20.662    
   X116.652      Y20.296    
   X117.019      Y19.818    
   X117.249      Y19.261    
   X117.328      Y18.664    
   X117.249      Y18.067    
   X117.019      Y17.510    
   X116.652      Y17.032    
   X116.174      Y16.665    
   X115.617      Y16.435    
   X115.020      Y16.356    
   X114.423      Y16.435    
   X113.866      Y16.665    
   X113.388      Y17.032    
   X113.022      Y17.510    
   X112.791      Y18.067    
   X112.712      Y18.664    
(Pass: 14)
   Z-1.400    
   X112.791      Y19.261    
   X113.022      Y19.818    
   X113.388      Y20.296    
   X113.866      Y20.662    
   X114.423      Y20.893    
   X115.020      Y20.972    
   X115.617      Y20.893    
   X116.174      Y20.662    
   X116.652      Y20.296    
   X117.019      Y19.818    
   X117.249      Y19.261    
   X117.328      Y18.664    
   X117.249      Y18.067    
   X117.019      Y17.510    
   X116.652      Y17.032    
   X116.174      Y16.665    
   X115.617      Y16.435    
   X115.020      Y16.356    
   X114.423      Y16.435    
   X113.866      Y16.665    
   X113.388      Y17.032    
   X113.022      Y17.510    
   X112.791      Y18.067    
   X112.712      Y18.664    
(Pass: 15)
   Z-1.500    
   X112.791      Y19.261    
   X113.022      Y19.818    
   X113.388      Y20.296    
   X113.866      Y20.662    
   X114.423      Y20.893    
   X115.020      Y20.972    
   X115.617      Y20.893    
   X116.174      Y20.662    
   X116.652      Y20.296    
   X117.019      Y19.818    
   X117.249      Y19.261    
   X117.328      Y18.664    
   X117.249      Y18.067    
   X117.019      Y17.510    
   X116.652      Y17.032    
   X116.174      Y16.665    
   X115.617      Y16.435    
   X115.020      Y16.356    
   X114.423      Y16.435    
   X113.866      Y16.665    
   X113.388      Y17.032    
   X113.022      Y17.510    
   X112.791      Y18.067    
   X112.712      Y18.664    
(Pass: 16)
   Z-1.600    
   X112.791      Y19.261    
   X113.022      Y19.818    
   X113.388      Y20.296    
   X113.866      Y20.662    
   X114.423      Y20.893    
   X115.020      Y20.972    
   X115.617      Y20.893    
   X116.174      Y20.662    
   X116.652      Y20.296    
   X117.019      Y19.818    
   X117.249      Y19.261    
   X117.328      Y18.664    
   X117.249      Y18.067    
   X117.019      Y17.510    
   X116.652      Y17.032    
   X116.174      Y16.665    
   X115.617      Y16.435    
   X115.020      Y16.356    
   X114.423      Y16.435    
   X113.866      Y16.665    
   X113.388      Y17.032    
   X113.022      Y17.510    
   X112.791      Y18.067    
   X112.712      Y18.664    
(Pass: 17)
   Z-1.700    
   X112.791      Y19.261    
   X113.022      Y19.818    
   X113.388      Y20.296    
   X113.866      Y20.662    
   X114.423      Y20.893    
   X115.020      Y20.972    
   X115.617      Y20.893    
   X116.174      Y20.662    
   X116.652      Y20.296    
   X117.019      Y19.818    
   X117.249      Y19.261    
   X117.328      Y18.664    
   X117.249      Y18.067    
   X117.019      Y17.510    
   X116.652      Y17.032    
   X116.174      Y16.665    
   X115.617      Y16.435    
   X115.020      Y16.356    
   X114.423      Y16.435    
   X113.866      Y16.665    
   X113.388      Y17.032    
   X113.022      Y17.510    
   X112.791      Y18.067    
   X112.712      Y18.664    
(Pass: 18)
   Z-1.800    
   X112.791      Y19.261    
   X113.022      Y19.818    
   X113.388      Y20.296    
   X113.866      Y20.662    
   X114.423      Y20.893    
   X115.020      Y20.972    
   X115.617      Y20.893    
   X116.174      Y20.662    
   X116.652      Y20.296    
   X117.019      Y19.818    
   X117.249      Y19.261    
   X117.328      Y18.664    
   X117.249      Y18.067    
   X117.019      Y17.510    
   X116.652      Y17.032    
   X116.174      Y16.665    
   X115.617      Y16.435    
   X115.020      Y16.356    
   X114.423      Y16.435    
   X113.866      Y16.665    
   X113.388      Y17.032    
   X113.022      Y17.510    
   X112.791      Y18.067    
   X112.712      Y18.664    
(Pass: 19)
   Z-1.900    
   X112.791      Y19.261    
   X113.022      Y19.818    
   X113.388      Y20.296    
   X113.866      Y20.662    
   X114.423      Y20.893    
   X115.020      Y20.972    
   X115.617      Y20.893    
   X116.174      Y20.662    
   X116.652      Y20.296    
   X117.019      Y19.818    
   X117.249      Y19.261    
   X117.328      Y18.664    
   X117.249      Y18.067    
   X117.019      Y17.510    
   X116.652      Y17.032    
   X116.174      Y16.665    
   X115.617      Y16.435    
   X115.020      Y16.356    
   X114.423      Y16.435    
   X113.866      Y16.665    
   X113.388      Y17.032    
   X113.022      Y17.510    
   X112.791      Y18.067    
   X112.712      Y18.664    
(Pass: 20)
   Z-2.000    
   X112.791      Y19.261    
   X113.022      Y19.818    
   X113.388      Y20.296    
   X113.866      Y20.662    
   X114.423      Y20.893    
   X115.020      Y20.972    
   X115.617      Y20.893    
   X116.174      Y20.662    
   X116.652      Y20.296    
   X117.019      Y19.818    
   X117.249      Y19.261    
   X117.328      Y18.664    
   X117.249      Y18.067    
   X117.019      Y17.510    
   X116.652      Y17.032    
   X116.174      Y16.665    
   X115.617      Y16.435    
   X115.020      Y16.356    
   X114.423      Y16.435    
   X113.866      Y16.665    
   X113.388      Y17.032    
   X113.022      Y17.510    
   X112.791      Y18.067    
   X112.712      Y18.664    
(Pass: 21)
   Z-2.100    
   X112.791      Y19.261    
   X113.022      Y19.818    
   X113.388      Y20.296    
   X113.866      Y20.662    
   X114.423      Y20.893    
   X115.020      Y20.972    
   X115.617      Y20.893    
   X116.174      Y20.662    
   X116.652      Y20.296    
   X117.019      Y19.818    
   X117.249      Y19.261    
   X117.328      Y18.664    
   X117.249      Y18.067    
   X117.019      Y17.510    
   X116.652      Y17.032    
   X116.174      Y16.665    
   X115.617      Y16.435    
   X115.020      Y16.356    
   X114.423      Y16.435    
   X113.866      Y16.665    
   X113.388      Y17.032    
   X113.022      Y17.510    
   X112.791      Y18.067    
   X112.712      Y18.664    
(Pass: 22)
   Z-2.200    
   X112.791      Y19.261    
   X113.022      Y19.818    
   X113.388      Y20.296    
   X113.866      Y20.662    
   X114.423      Y20.893    
   X115.020      Y20.972    
   X115.617      Y20.893    
   X116.174      Y20.662    
   X116.652      Y20.296    
   X117.019      Y19.818    
   X117.249      Y19.261    
   X117.328      Y18.664    
   X117.249      Y18.067    
   X117.019      Y17.510    
   X116.652      Y17.032    
   X116.174      Y16.665    
   X115.617      Y16.435    
   X115.020      Y16.356    
   X114.423      Y16.435    
   X113.866      Y16.665    
   X113.388      Y17.032    
   X113.022      Y17.510    
   X112.791      Y18.067    
   X112.712      Y18.664    
(Pass: 23)
   Z-2.300    
   X112.791      Y19.261    
   X113.022      Y19.818    
   X113.388      Y20.296    
   X113.866      Y20.662    
   X114.423      Y20.893    
   X115.020      Y20.972    
   X115.617      Y20.893    
   X116.174      Y20.662    
   X116.652      Y20.296    
   X117.019      Y19.818    
   X117.249      Y19.261    
   X117.328      Y18.664    
   X117.249      Y18.067    
   X117.019      Y17.510    
   X116.652      Y17.032    
   X116.174      Y16.665    
   X115.617      Y16.435    
   X115.020      Y16.356    
   X114.423      Y16.435    
   X113.866      Y16.665    
   X113.388      Y17.032    
   X113.022      Y17.510    
   X112.791      Y18.067    
   X112.712      Y18.664    
(Pass: 24)
   Z-2.400    
   X112.791      Y19.261    
   X113.022      Y19.818    
   X113.388      Y20.296    
   X113.866      Y20.662    
   X114.423      Y20.893    
   X115.020      Y20.972    
   X115.617      Y20.893    
   X116.174      Y20.662    
   X116.652      Y20.296    
   X117.019      Y19.818    
   X117.249      Y19.261    
   X117.328      Y18.664    
   X117.249      Y18.067    
   X117.019      Y17.510    
   X116.652      Y17.032    
   X116.174      Y16.665    
   X115.617      Y16.435    
   X115.020      Y16.356    
   X114.423      Y16.435    
   X113.866      Y16.665    
   X113.388      Y17.032    
   X113.022      Y17.510    
   X112.791      Y18.067    
   X112.712      Y18.664    
(Pass: 25)
   Z-2.500    
   X112.791      Y19.261    
   X113.022      Y19.818    
   X113.388      Y20.296    
   X113.866      Y20.662    
   X114.423      Y20.893    
   X115.020      Y20.972    
   X115.617      Y20.893    
   X116.174      Y20.662    
   X116.652      Y20.296    
   X117.019      Y19.818    
   X117.249      Y19.261    
   X117.328      Y18.664    
   X117.249      Y18.067    
   X117.019      Y17.510    
   X116.652      Y17.032    
   X116.174      Y16.665    
   X115.617      Y16.435    
   X115.020      Y16.356    
   X114.423      Y16.435    
   X113.866      Y16.665    
   X113.388      Y17.032    
   X113.022      Y17.510    
   X112.791      Y18.067    
   X112.712      Y18.664    
(Pass: 26)
   Z-2.600    
   X112.791      Y19.261    
   X113.022      Y19.818    
   X113.388      Y20.296    
   X113.866      Y20.662    
   X114.423      Y20.893    
   X115.020      Y20.972    
   X115.617      Y20.893    
   X116.174      Y20.662    
   X116.652      Y20.296    
   X117.019      Y19.818    
   X117.249      Y19.261    
   X117.328      Y18.664    
   X117.249      Y18.067    
   X117.019      Y17.510    
   X116.652      Y17.032    
   X116.174      Y16.665    
   X115.617      Y16.435    
   X115.020      Y16.356    
   X114.423      Y16.435    
   X113.866      Y16.665    
   X113.388      Y17.032    
   X113.022      Y17.510    
   X112.791      Y18.067    
   X112.712      Y18.664    
(Pass: 27)
   Z-2.700    
   X112.791      Y19.261    
   X113.022      Y19.818    
   X113.388      Y20.296    
   X113.866      Y20.662    
   X114.423      Y20.893    
   X115.020      Y20.972    
   X115.617      Y20.893    
   X116.174      Y20.662    
   X116.652      Y20.296    
   X117.019      Y19.818    
   X117.249      Y19.261    
   X117.328      Y18.664    
   X117.249      Y18.067    
   X117.019      Y17.510    
   X116.652      Y17.032    
   X116.174      Y16.665    
   X115.617      Y16.435    
   X115.020      Y16.356    
   X114.423      Y16.435    
   X113.866      Y16.665    
   X113.388      Y17.032    
   X113.022      Y17.510    
   X112.791      Y18.067    
   X112.712      Y18.664    
(Pass: 28)
   Z-2.800    
   X112.791      Y19.261    
   X113.022      Y19.818    
   X113.388      Y20.296    
   X113.866      Y20.662    
   X114.423      Y20.893    
   X115.020      Y20.972    
   X115.617      Y20.893    
   X116.174      Y20.662    
   X116.652      Y20.296    
   X117.019      Y19.818    
   X117.249      Y19.261    
   X117.328      Y18.664    
   X117.249      Y18.067    
   X117.019      Y17.510    
   X116.652      Y17.032    
   X116.174      Y16.665    
   X115.617      Y16.435    
   X115.020      Y16.356    
   X114.423      Y16.435    
   X113.866      Y16.665    
   X113.388      Y17.032    
   X113.022      Y17.510    
   X112.791      Y18.067    
   X112.712      Y18.664    
(Pass: 29)
   Z-2.900    
   X112.791      Y19.261    
   X113.022      Y19.818    
   X113.388      Y20.296    
   X113.866      Y20.662    
   X114.423      Y20.893    
   X115.020      Y20.972    
   X115.617      Y20.893    
   X116.174      Y20.662    
   X116.652      Y20.296    
   X117.019      Y19.818    
   X117.249      Y19.261    
   X117.328      Y18.664    
   X117.249      Y18.067    
   X117.019      Y17.510    
   X116.652      Y17.032    
   X116.174      Y16.665    
   X115.617      Y16.435    
   X115.020      Y16.356    
   X114.423      Y16.435    
   X113.866      Y16.665    
   X113.388      Y17.032    
   X113.022      Y17.510    
   X112.791      Y18.067    
   X112.712      Y18.664    
(Pass: 30)
   Z-3.000    
   X112.791      Y19.261    
   X113.022      Y19.818    
   X113.388      Y20.296    
   X113.866      Y20.662    
   X114.423      Y20.893    
   X115.020      Y20.972    
   X115.617      Y20.893    
   X116.174      Y20.662    
   X116.652      Y20.296    
   X117.019      Y19.818    
   X117.249      Y19.261    
   X117.328      Y18.664    
   X117.249      Y18.067    
   X117.019      Y17.510    
   X116.652      Y17.032    
   X116.174      Y16.665    
   X115.617      Y16.435    
   X115.020      Y16.356    
   X114.423      Y16.435    
   X113.866      Y16.665    
   X113.388      Y17.032    
   X113.022      Y17.510    
   X112.791      Y18.067    
   X112.712      Y18.664    
(Pass: 31)
   Z-3.100    
   X112.791      Y19.261    
   X113.022      Y19.818    
   X113.388      Y20.296    
   X113.866      Y20.662    
   X114.423      Y20.893    
   X115.020      Y20.972    
   X115.617      Y20.893    
   X116.174      Y20.662    
   X116.652      Y20.296    
   X117.019      Y19.818    
   X117.249      Y19.261    
   X117.328      Y18.664    
   X117.249      Y18.067    
   X117.019      Y17.510    
   X116.652      Y17.032    
   X116.174      Y16.665    
   X115.617      Y16.435    
   X115.020      Y16.356    
   X114.423      Y16.435    
   X113.866      Y16.665    
   X113.388      Y17.032    
   X113.022      Y17.510    
   X112.791      Y18.067    
   X112.712      Y18.664    
(Pass: 32)
   Z-3.200    
   X112.791      Y19.261    
   X113.022      Y19.818    
   X113.388      Y20.296    
   X113.866      Y20.662    
   X114.423      Y20.893    
   X115.020      Y20.972    
   X115.617      Y20.893    
   X116.174      Y20.662    
   X116.652      Y20.296    
   X117.019      Y19.818    
   X117.249      Y19.261    
   X117.328      Y18.664    
   X117.249      Y18.067    
   X117.019      Y17.510    
   X116.652      Y17.032    
   X116.174      Y16.665    
   X115.617      Y16.435    
   X115.020      Y16.356    
   X114.423      Y16.435    
   X113.866      Y16.665    
   X113.388      Y17.032    
   X113.022      Y17.510    
   X112.791      Y18.067    
   X112.712      Y18.664    
(Pass: 33)
   Z-3.300    
   X112.791      Y19.261    
   X113.022      Y19.818    
   X113.388      Y20.296    
   X113.866      Y20.662    
   X114.423      Y20.893    
   X115.020      Y20.972    
   X115.617      Y20.893    
   X116.174      Y20.662    
   X116.652      Y20.296    
   X117.019      Y19.818    
   X117.249      Y19.261    
   X117.328      Y18.664    
   X117.249      Y18.067    
   X117.019      Y17.510    
   X116.652      Y17.032    
   X116.174      Y16.665    
   X115.617      Y16.435    
   X115.020      Y16.356    
   X114.423      Y16.435    
   X113.866      Y16.665    
   X113.388      Y17.032    
   X113.022      Y17.510    
   X112.791      Y18.067    
   X112.712      Y18.664    
(Pass: 34)
   Z-3.400    
   X112.791      Y19.261    
   X113.022      Y19.818    
   X113.388      Y20.296    
   X113.866      Y20.662    
   X114.423      Y20.893    
   X115.020      Y20.972    
   X115.617      Y20.893    
   X116.174      Y20.662    
   X116.652      Y20.296    
   X117.019      Y19.818    
   X117.249      Y19.261    
   X117.328      Y18.664    
   X117.249      Y18.067    
   X117.019      Y17.510    
   X116.652      Y17.032    
   X116.174      Y16.665    
   X115.617      Y16.435    
   X115.020      Y16.356    
   X114.423      Y16.435    
   X113.866      Y16.665    
   X113.388      Y17.032    
   X113.022      Y17.510    
   X112.791      Y18.067    
   X112.712      Y18.664    
(Pass: 35)
   Z-3.500    
   X112.791      Y19.261    
   X113.022      Y19.818    
   X113.388      Y20.296    
   X113.866      Y20.662    
   X114.423      Y20.893    
   X115.020      Y20.972    
   X115.617      Y20.893    
   X116.174      Y20.662    
   X116.652      Y20.296    
   X117.019      Y19.818    
   X117.249      Y19.261    
   X117.328      Y18.664    
   X117.249      Y18.067    
   X117.019      Y17.510    
   X116.652      Y17.032    
   X116.174      Y16.665    
   X115.617      Y16.435    
   X115.020      Y16.356    
   X114.423      Y16.435    
   X113.866      Y16.665    
   X113.388      Y17.032    
   X113.022      Y17.510    
   X112.791      Y18.067    
   X112.712      Y18.664    
(BREAK pass 35)
G0   Z6.000     
(Pass: 1)
   X91.739       Y103.970   
G1   Z-0.100     F500
   X91.408       Y103.927   
   X91.077       Y103.970   
   X90.769       Y104.098   
   X90.504       Y104.301   
   X90.300       Y104.566   
   X90.173       Y104.875   
   X90.118       Y105.288   
   Y114.124   
   X90.173       Y114.537   
   X90.300       Y114.846   
   X90.504       Y115.111   
   X90.769       Y115.314   
   X91.077       Y115.442   
   X91.408       Y115.485   
   X91.739       Y115.442   
   X92.048       Y115.314   
   X92.313       Y115.111   
   X92.516       Y114.846   
   X92.644       Y114.537   
   X92.698       Y114.124   
   Y105.288   
   X92.644       Y104.875   
   X92.516       Y104.566   
   X92.313       Y104.302   
   X92.048       Y104.098   
   X91.739       Y103.970   
(Pass: 2)
   Z-0.200    
   X91.408       Y103.927   
   X91.077       Y103.970   
   X90.769       Y104.098   
   X90.504       Y104.301   
   X90.300       Y104.566   
   X90.173       Y104.875   
   X90.118       Y105.288   
   Y114.124   
   X90.173       Y114.537   
   X90.300       Y114.846   
   X90.504       Y115.111   
   X90.769       Y115.314   
   X91.077       Y115.442   
   X91.408       Y115.485   
   X91.739       Y115.442   
   X92.048       Y115.314   
   X92.313       Y115.111   
   X92.516       Y114.846   
   X92.644       Y114.537   
   X92.698       Y114.124   
   Y105.288   
   X92.644       Y104.875   
   X92.516       Y104.566   
   X92.313       Y104.302   
   X92.048       Y104.098   
   X91.739       Y103.970   
(Pass: 3)
   Z-0.300    
   X91.408       Y103.927   
   X91.077       Y103.970   
   X90.769       Y104.098   
   X90.504       Y104.301   
   X90.300       Y104.566   
   X90.173       Y104.875   
   X90.118       Y105.288   
   Y114.124   
   X90.173       Y114.537   
   X90.300       Y114.846   
   X90.504       Y115.111   
   X90.769       Y115.314   
   X91.077       Y115.442   
   X91.408       Y115.485   
   X91.739       Y115.442   
   X92.048       Y115.314   
   X92.313       Y115.111   
   X92.516       Y114.846   
   X92.644       Y114.537   
   X92.698       Y114.124   
   Y105.288   
   X92.644       Y104.875   
   X92.516       Y104.566   
   X92.313       Y104.302   
   X92.048       Y104.098   
   X91.739       Y103.970   
(Pass: 4)
   Z-0.400    
   X91.408       Y103.927   
   X91.077       Y103.970   
   X90.769       Y104.098   
   X90.504       Y104.301   
   X90.300       Y104.566   
   X90.173       Y104.875   
   X90.118       Y105.288   
   Y114.124   
   X90.173       Y114.537   
   X90.300       Y114.846   
   X90.504       Y115.111   
   X90.769       Y115.314   
   X91.077       Y115.442   
   X91.408       Y115.485   
   X91.739       Y115.442   
   X92.048       Y115.314   
   X92.313       Y115.111   
   X92.516       Y114.846   
   X92.644       Y114.537   
   X92.698       Y114.124   
   Y105.288   
   X92.644       Y104.875   
   X92.516       Y104.566   
   X92.313       Y104.302   
   X92.048       Y104.098   
   X91.739       Y103.970   
(Pass: 5)
   Z-0.500    
   X91.408       Y103.927   
   X91.077       Y103.970   
   X90.769       Y104.098   
   X90.504       Y104.301   
   X90.300       Y104.566   
   X90.173       Y104.875   
   X90.118       Y105.288   
   Y114.124   
   X90.173       Y114.537   
   X90.300       Y114.846   
   X90.504       Y115.111   
   X90.769       Y115.314   
   X91.077       Y115.442   
   X91.408       Y115.485   
   X91.739       Y115.442   
   X92.048       Y115.314   
   X92.313       Y115.111   
   X92.516       Y114.846   
   X92.644       Y114.537   
   X92.698       Y114.124   
   Y105.288   
   X92.644       Y104.875   
   X92.516       Y104.566   
   X92.313       Y104.302   
   X92.048       Y104.098   
   X91.739       Y103.970   
(Pass: 6)
   Z-0.600    
   X91.408       Y103.927   
   X91.077       Y103.970   
   X90.769       Y104.098   
   X90.504       Y104.301   
   X90.300       Y104.566   
   X90.173       Y104.875   
   X90.118       Y105.288   
   Y114.124   
   X90.173       Y114.537   
   X90.300       Y114.846   
   X90.504       Y115.111   
   X90.769       Y115.314   
   X91.077       Y115.442   
   X91.408       Y115.485   
   X91.739       Y115.442   
   X92.048       Y115.314   
   X92.313       Y115.111   
   X92.516       Y114.846   
   X92.644       Y114.537   
   X92.698       Y114.124   
   Y105.288   
   X92.644       Y104.875   
   X92.516       Y104.566   
   X92.313       Y104.302   
   X92.048       Y104.098   
   X91.739       Y103.970   
(Pass: 7)
   Z-0.700    
   X91.408       Y103.927   
   X91.077       Y103.970   
   X90.769       Y104.098   
   X90.504       Y104.301   
   X90.300       Y104.566   
   X90.173       Y104.875   
   X90.118       Y105.288   
   Y114.124   
   X90.173       Y114.537   
   X90.300       Y114.846   
   X90.504       Y115.111   
   X90.769       Y115.314   
   X91.077       Y115.442   
   X91.408       Y115.485   
   X91.739       Y115.442   
   X92.048       Y115.314   
   X92.313       Y115.111   
   X92.516       Y114.846   
   X92.644       Y114.537   
   X92.698       Y114.124   
   Y105.288   
   X92.644       Y104.875   
   X92.516       Y104.566   
   X92.313       Y104.302   
   X92.048       Y104.098   
   X91.739       Y103.970   
(Pass: 8)
   Z-0.800    
   X91.408       Y103.927   
   X91.077       Y103.970   
   X90.769       Y104.098   
   X90.504       Y104.301   
   X90.300       Y104.566   
   X90.173       Y104.875   
   X90.118       Y105.288   
   Y114.124   
   X90.173       Y114.537   
   X90.300       Y114.846   
   X90.504       Y115.111   
   X90.769       Y115.314   
   X91.077       Y115.442   
   X91.408       Y115.485   
   X91.739       Y115.442   
   X92.048       Y115.314   
   X92.313       Y115.111   
   X92.516       Y114.846   
   X92.644       Y114.537   
   X92.698       Y114.124   
   Y105.288   
   X92.644       Y104.875   
   X92.516       Y104.566   
   X92.313       Y104.302   
   X92.048       Y104.098   
   X91.739       Y103.970   
(Pass: 9)
   Z-0.900    
   X91.408       Y103.927   
   X91.077       Y103.970   
   X90.769       Y104.098   
   X90.504       Y104.301   
   X90.300       Y104.566   
   X90.173       Y104.875   
   X90.118       Y105.288   
   Y114.124   
   X90.173       Y114.537   
   X90.300       Y114.846   
   X90.504       Y115.111   
   X90.769       Y115.314   
   X91.077       Y115.442   
   X91.408       Y115.485   
   X91.739       Y115.442   
   X92.048       Y115.314   
   X92.313       Y115.111   
   X92.516       Y114.846   
   X92.644       Y114.537   
   X92.698       Y114.124   
   Y105.288   
   X92.644       Y104.875   
   X92.516       Y104.566   
   X92.313       Y104.302   
   X92.048       Y104.098   
   X91.739       Y103.970   
(Pass: 10)
   Z-1.000    
   X91.408       Y103.927   
   X91.077       Y103.970   
   X90.769       Y104.098   
   X90.504       Y104.301   
   X90.300       Y104.566   
   X90.173       Y104.875   
   X90.118       Y105.288   
   Y114.124   
   X90.173       Y114.537   
   X90.300       Y114.846   
   X90.504       Y115.111   
   X90.769       Y115.314   
   X91.077       Y115.442   
   X91.408       Y115.485   
   X91.739       Y115.442   
   X92.048       Y115.314   
   X92.313       Y115.111   
   X92.516       Y114.846   
   X92.644       Y114.537   
   X92.698       Y114.124   
   Y105.288   
   X92.644       Y104.875   
   X92.516       Y104.566   
   X92.313       Y104.302   
   X92.048       Y104.098   
   X91.739       Y103.970   
(Pass: 11)
   Z-1.100    
   X91.408       Y103.927   
   X91.077       Y103.970   
   X90.769       Y104.098   
   X90.504       Y104.301   
   X90.300       Y104.566   
   X90.173       Y104.875   
   X90.118       Y105.288   
   Y114.124   
   X90.173       Y114.537   
   X90.300       Y114.846   
   X90.504       Y115.111   
   X90.769       Y115.314   
   X91.077       Y115.442   
   X91.408       Y115.485   
   X91.739       Y115.442   
   X92.048       Y115.314   
   X92.313       Y115.111   
   X92.516       Y114.846   
   X92.644       Y114.537   
   X92.698       Y114.124   
   Y105.288   
   X92.644       Y104.875   
   X92.516       Y104.566   
   X92.313       Y104.302   
   X92.048       Y104.098   
   X91.739       Y103.970   
(Pass: 12)
   Z-1.200    
   X91.408       Y103.927   
   X91.077       Y103.970   
   X90.769       Y104.098   
   X90.504       Y104.301   
   X90.300       Y104.566   
   X90.173       Y104.875   
   X90.118       Y105.288   
   Y114.124   
   X90.173       Y114.537   
   X90.300       Y114.846   
   X90.504       Y115.111   
   X90.769       Y115.314   
   X91.077       Y115.442   
   X91.408       Y115.485   
   X91.739       Y115.442   
   X92.048       Y115.314   
   X92.313       Y115.111   
   X92.516       Y114.846   
   X92.644       Y114.537   
   X92.698       Y114.124   
   Y105.288   
   X92.644       Y104.875   
   X92.516       Y104.566   
   X92.313       Y104.302   
   X92.048       Y104.098   
   X91.739       Y103.970   
(Pass: 13)
   Z-1.300    
   X91.408       Y103.927   
   X91.077       Y103.970   
   X90.769       Y104.098   
   X90.504       Y104.301   
   X90.300       Y104.566   
   X90.173       Y104.875   
   X90.118       Y105.288   
   Y114.124   
   X90.173       Y114.537   
   X90.300       Y114.846   
   X90.504       Y115.111   
   X90.769       Y115.314   
   X91.077       Y115.442   
   X91.408       Y115.485   
   X91.739       Y115.442   
   X92.048       Y115.314   
   X92.313       Y115.111   
   X92.516       Y114.846   
   X92.644       Y114.537   
   X92.698       Y114.124   
   Y105.288   
   X92.644       Y104.875   
   X92.516       Y104.566   
   X92.313       Y104.302   
   X92.048       Y104.098   
   X91.739       Y103.970   
(Pass: 14)
   Z-1.400    
   X91.408       Y103.927   
   X91.077       Y103.970   
   X90.769       Y104.098   
   X90.504       Y104.301   
   X90.300       Y104.566   
   X90.173       Y104.875   
   X90.118       Y105.288   
   Y114.124   
   X90.173       Y114.537   
   X90.300       Y114.846   
   X90.504       Y115.111   
   X90.769       Y115.314   
   X91.077       Y115.442   
   X91.408       Y115.485   
   X91.739       Y115.442   
   X92.048       Y115.314   
   X92.313       Y115.111   
   X92.516       Y114.846   
   X92.644       Y114.537   
   X92.698       Y114.124   
   Y105.288   
   X92.644       Y104.875   
   X92.516       Y104.566   
   X92.313       Y104.302   
   X92.048       Y104.098   
   X91.739       Y103.970   
(Pass: 15)
   Z-1.500    
   X91.408       Y103.927   
   X91.077       Y103.970   
   X90.769       Y104.098   
   X90.504       Y104.301   
   X90.300       Y104.566   
   X90.173       Y104.875   
   X90.118       Y105.288   
   Y114.124   
   X90.173       Y114.537   
   X90.300       Y114.846   
   X90.504       Y115.111   
   X90.769       Y115.314   
   X91.077       Y115.442   
   X91.408       Y115.485   
   X91.739       Y115.442   
   X92.048       Y115.314   
   X92.313       Y115.111   
   X92.516       Y114.846   
   X92.644       Y114.537   
   X92.698       Y114.124   
   Y105.288   
   X92.644       Y104.875   
   X92.516       Y104.566   
   X92.313       Y104.302   
   X92.048       Y104.098   
   X91.739       Y103.970   
(Pass: 16)
   Z-1.600    
   X91.408       Y103.927   
   X91.077       Y103.970   
   X90.769       Y104.098   
   X90.504       Y104.301   
   X90.300       Y104.566   
   X90.173       Y104.875   
   X90.118       Y105.288   
   Y114.124   
   X90.173       Y114.537   
   X90.300       Y114.846   
   X90.504       Y115.111   
   X90.769       Y115.314   
   X91.077       Y115.442   
   X91.408       Y115.485   
   X91.739       Y115.442   
   X92.048       Y115.314   
   X92.313       Y115.111   
   X92.516       Y114.846   
   X92.644       Y114.537   
   X92.698       Y114.124   
   Y105.288   
   X92.644       Y104.875   
   X92.516       Y104.566   
   X92.313       Y104.302   
   X92.048       Y104.098   
   X91.739       Y103.970   
(Pass: 17)
   Z-1.700    
   X91.408       Y103.927   
   X91.077       Y103.970   
   X90.769       Y104.098   
   X90.504       Y104.301   
   X90.300       Y104.566   
   X90.173       Y104.875   
   X90.118       Y105.288   
   Y114.124   
   X90.173       Y114.537   
   X90.300       Y114.846   
   X90.504       Y115.111   
   X90.769       Y115.314   
   X91.077       Y115.442   
   X91.408       Y115.485   
   X91.739       Y115.442   
   X92.048       Y115.314   
   X92.313       Y115.111   
   X92.516       Y114.846   
   X92.644       Y114.537   
   X92.698       Y114.124   
   Y105.288   
   X92.644       Y104.875   
   X92.516       Y104.566   
   X92.313       Y104.302   
   X92.048       Y104.098   
   X91.739       Y103.970   
(Pass: 18)
   Z-1.800    
   X91.408       Y103.927   
   X91.077       Y103.970   
   X90.769       Y104.098   
   X90.504       Y104.301   
   X90.300       Y104.566   
   X90.173       Y104.875   
   X90.118       Y105.288   
   Y114.124   
   X90.173       Y114.537   
   X90.300       Y114.846   
   X90.504       Y115.111   
   X90.769       Y115.314   
   X91.077       Y115.442   
   X91.408       Y115.485   
   X91.739       Y115.442   
   X92.048       Y115.314   
   X92.313       Y115.111   
   X92.516       Y114.846   
   X92.644       Y114.537   
   X92.698       Y114.124   
   Y105.288   
   X92.644       Y104.875   
   X92.516       Y104.566   
   X92.313       Y104.302   
   X92.048       Y104.098   
   X91.739       Y103.970   
(Pass: 19)
   Z-1.900    
   X91.408       Y103.927   
   X91.077       Y103.970   
   X90.769       Y104.098   
   X90.504       Y104.301   
   X90.300       Y104.566   
   X90.173       Y104.875   
   X90.118       Y105.288   
   Y114.124   
   X90.173       Y114.537   
   X90.300       Y114.846   
   X90.504       Y115.111   
   X90.769       Y115.314   
   X91.077       Y115.442   
   X91.408       Y115.485   
   X91.739       Y115.442   
   X92.048       Y115.314   
   X92.313       Y115.111   
   X92.516       Y114.846   
   X92.644       Y114.537   
   X92.698       Y114.124   
   Y105.288   
   X92.644       Y104.875   
   X92.516       Y104.566   
   X92.313       Y104.302   
   X92.048       Y104.098   
   X91.739       Y103.970   
(Pass: 20)
   Z-2.000    
   X91.408       Y103.927   
   X91.077       Y103.970   
   X90.769       Y104.098   
   X90.504       Y104.301   
   X90.300       Y104.566   
   X90.173       Y104.875   
   X90.118       Y105.288   
   Y114.124   
   X90.173       Y114.537   
   X90.300       Y114.846   
   X90.504       Y115.111   
   X90.769       Y115.314   
   X91.077       Y115.442   
   X91.408       Y115.485   
   X91.739       Y115.442   
   X92.048       Y115.314   
   X92.313       Y115.111   
   X92.516       Y114.846   
   X92.644       Y114.537   
   X92.698       Y114.124   
   Y105.288   
   X92.644       Y104.875   
   X92.516       Y104.566   
   X92.313       Y104.302   
   X92.048       Y104.098   
   X91.739       Y103.970   
(Pass: 21)
   Z-2.100    
   X91.408       Y103.927   
   X91.077       Y103.970   
   X90.769       Y104.098   
   X90.504       Y104.301   
   X90.300       Y104.566   
   X90.173       Y104.875   
   X90.118       Y105.288   
   Y114.124   
   X90.173       Y114.537   
   X90.300       Y114.846   
   X90.504       Y115.111   
   X90.769       Y115.314   
   X91.077       Y115.442   
   X91.408       Y115.485   
   X91.739       Y115.442   
   X92.048       Y115.314   
   X92.313       Y115.111   
   X92.516       Y114.846   
   X92.644       Y114.537   
   X92.698       Y114.124   
   Y105.288   
   X92.644       Y104.875   
   X92.516       Y104.566   
   X92.313       Y104.302   
   X92.048       Y104.098   
   X91.739       Y103.970   
(Pass: 22)
   Z-2.200    
   X91.408       Y103.927   
   X91.077       Y103.970   
   X90.769       Y104.098   
   X90.504       Y104.301   
   X90.300       Y104.566   
   X90.173       Y104.875   
   X90.118       Y105.288   
   Y114.124   
   X90.173       Y114.537   
   X90.300       Y114.846   
   X90.504       Y115.111   
   X90.769       Y115.314   
   X91.077       Y115.442   
   X91.408       Y115.485   
   X91.739       Y115.442   
   X92.048       Y115.314   
   X92.313       Y115.111   
   X92.516       Y114.846   
   X92.644       Y114.537   
   X92.698       Y114.124   
   Y105.288   
   X92.644       Y104.875   
   X92.516       Y104.566   
   X92.313       Y104.302   
   X92.048       Y104.098   
   X91.739       Y103.970   
(Pass: 23)
   Z-2.300    
   X91.408       Y103.927   
   X91.077       Y103.970   
   X90.769       Y104.098   
   X90.504       Y104.301   
   X90.300       Y104.566   
   X90.173       Y104.875   
   X90.118       Y105.288   
   Y114.124   
   X90.173       Y114.537   
   X90.300       Y114.846   
   X90.504       Y115.111   
   X90.769       Y115.314   
   X91.077       Y115.442   
   X91.408       Y115.485   
   X91.739       Y115.442   
   X92.048       Y115.314   
   X92.313       Y115.111   
   X92.516       Y114.846   
   X92.644       Y114.537   
   X92.698       Y114.124   
   Y105.288   
   X92.644       Y104.875   
   X92.516       Y104.566   
   X92.313       Y104.302   
   X92.048       Y104.098   
   X91.739       Y103.970   
(Pass: 24)
   Z-2.400    
   X91.408       Y103.927   
   X91.077       Y103.970   
   X90.769       Y104.098   
   X90.504       Y104.301   
   X90.300       Y104.566   
   X90.173       Y104.875   
   X90.118       Y105.288   
   Y114.124   
   X90.173       Y114.537   
   X90.300       Y114.846   
   X90.504       Y115.111   
   X90.769       Y115.314   
   X91.077       Y115.442   
   X91.408       Y115.485   
   X91.739       Y115.442   
   X92.048       Y115.314   
   X92.313       Y115.111   
   X92.516       Y114.846   
   X92.644       Y114.537   
   X92.698       Y114.124   
   Y105.288   
   X92.644       Y104.875   
   X92.516       Y104.566   
   X92.313       Y104.302   
   X92.048       Y104.098   
   X91.739       Y103.970   
(Pass: 25)
   Z-2.500    
   X91.408       Y103.927   
   X91.077       Y103.970   
   X90.769       Y104.098   
   X90.504       Y104.301   
   X90.300       Y104.566   
   X90.173       Y104.875   
   X90.118       Y105.288   
   Y114.124   
   X90.173       Y114.537   
   X90.300       Y114.846   
   X90.504       Y115.111   
   X90.769       Y115.314   
   X91.077       Y115.442   
   X91.408       Y115.485   
   X91.739       Y115.442   
   X92.048       Y115.314   
   X92.313       Y115.111   
   X92.516       Y114.846   
   X92.644       Y114.537   
   X92.698       Y114.124   
   Y105.288   
   X92.644       Y104.875   
   X92.516       Y104.566   
   X92.313       Y104.302   
   X92.048       Y104.098   
   X91.739       Y103.970   
(Pass: 26)
   Z-2.600    
   X91.408       Y103.927   
   X91.077       Y103.970   
   X90.769       Y104.098   
   X90.504       Y104.301   
   X90.300       Y104.566   
   X90.173       Y104.875   
   X90.118       Y105.288   
   Y114.124   
   X90.173       Y114.537   
   X90.300       Y114.846   
   X90.504       Y115.111   
   X90.769       Y115.314   
   X91.077       Y115.442   
   X91.408       Y115.485   
   X91.739       Y115.442   
   X92.048       Y115.314   
   X92.313       Y115.111   
   X92.516       Y114.846   
   X92.644       Y114.537   
   X92.698       Y114.124   
   Y105.288   
   X92.644       Y104.875   
   X92.516       Y104.566   
   X92.313       Y104.302   
   X92.048       Y104.098   
   X91.739       Y103.970   
(Pass: 27)
   Z-2.700    
   X91.408       Y103.927   
   X91.077       Y103.970   
   X90.769       Y104.098   
   X90.504       Y104.301   
   X90.300       Y104.566   
   X90.173       Y104.875   
   X90.118       Y105.288   
   Y114.124   
   X90.173       Y114.537   
   X90.300       Y114.846   
   X90.504       Y115.111   
   X90.769       Y115.314   
   X91.077       Y115.442   
   X91.408       Y115.485   
   X91.739       Y115.442   
   X92.048       Y115.314   
   X92.313       Y115.111   
   X92.516       Y114.846   
   X92.644       Y114.537   
   X92.698       Y114.124   
   Y105.288   
   X92.644       Y104.875   
   X92.516       Y104.566   
   X92.313       Y104.302   
   X92.048       Y104.098   
   X91.739       Y103.970   
(Pass: 28)
   Z-2.800    
   X91.408       Y103.927   
   X91.077       Y103.970   
   X90.769       Y104.098   
   X90.504       Y104.301   
   X90.300       Y104.566   
   X90.173       Y104.875   
   X90.118       Y105.288   
   Y114.124   
   X90.173       Y114.537   
   X90.300       Y114.846   
   X90.504       Y115.111   
   X90.769       Y115.314   
   X91.077       Y115.442   
   X91.408       Y115.485   
   X91.739       Y115.442   
   X92.048       Y115.314   
   X92.313       Y115.111   
   X92.516       Y114.846   
   X92.644       Y114.537   
   X92.698       Y114.124   
   Y105.288   
   X92.644       Y104.875   
   X92.516       Y104.566   
   X92.313       Y104.302   
   X92.048       Y104.098   
   X91.739       Y103.970   
(Pass: 29)
   Z-2.900    
   X91.408       Y103.927   
   X91.077       Y103.970   
   X90.769       Y104.098   
   X90.504       Y104.301   
   X90.300       Y104.566   
   X90.173       Y104.875   
   X90.118       Y105.288   
   Y114.124   
   X90.173       Y114.537   
   X90.300       Y114.846   
   X90.504       Y115.111   
   X90.769       Y115.314   
   X91.077       Y115.442   
   X91.408       Y115.485   
   X91.739       Y115.442   
   X92.048       Y115.314   
   X92.313       Y115.111   
   X92.516       Y114.846   
   X92.644       Y114.537   
   X92.698       Y114.124   
   Y105.288   
   X92.644       Y104.875   
   X92.516       Y104.566   
   X92.313       Y104.302   
   X92.048       Y104.098   
   X91.739       Y103.970   
(Pass: 30)
   Z-3.000    
   X91.408       Y103.927   
   X91.077       Y103.970   
   X90.769       Y104.098   
   X90.504       Y104.301   
   X90.300       Y104.566   
   X90.173       Y104.875   
   X90.118       Y105.288   
   Y114.124   
   X90.173       Y114.537   
   X90.300       Y114.846   
   X90.504       Y115.111   
   X90.769       Y115.314   
   X91.077       Y115.442   
   X91.408       Y115.485   
   X91.739       Y115.442   
   X92.048       Y115.314   
   X92.313       Y115.111   
   X92.516       Y114.846   
   X92.644       Y114.537   
   X92.698       Y114.124   
   Y105.288   
   X92.644       Y104.875   
   X92.516       Y104.566   
   X92.313       Y104.302   
   X92.048       Y104.098   
   X91.739       Y103.970   
(Pass: 31)
   Z-3.100    
   X91.408       Y103.927   
   X91.077       Y103.970   
   X90.769       Y104.098   
   X90.504       Y104.301   
   X90.300       Y104.566   
   X90.173       Y104.875   
   X90.118       Y105.288   
   Y114.124   
   X90.173       Y114.537   
   X90.300       Y114.846   
   X90.504       Y115.111   
   X90.769       Y115.314   
   X91.077       Y115.442   
   X91.408       Y115.485   
   X91.739       Y115.442   
   X92.048       Y115.314   
   X92.313       Y115.111   
   X92.516       Y114.846   
   X92.644       Y114.537   
   X92.698       Y114.124   
   Y105.288   
   X92.644       Y104.875   
   X92.516       Y104.566   
   X92.313       Y104.302   
   X92.048       Y104.098   
   X91.739       Y103.970   
(Pass: 32)
   Z-3.200    
   X91.408       Y103.927   
   X91.077       Y103.970   
   X90.769       Y104.098   
   X90.504       Y104.301   
   X90.300       Y104.566   
   X90.173       Y104.875   
   X90.118       Y105.288   
   Y114.124   
   X90.173       Y114.537   
   X90.300       Y114.846   
   X90.504       Y115.111   
   X90.769       Y115.314   
   X91.077       Y115.442   
   X91.408       Y115.485   
   X91.739       Y115.442   
   X92.048       Y115.314   
   X92.313       Y115.111   
   X92.516       Y114.846   
   X92.644       Y114.537   
   X92.698       Y114.124   
   Y105.288   
   X92.644       Y104.875   
   X92.516       Y104.566   
   X92.313       Y104.302   
   X92.048       Y104.098   
   X91.739       Y103.970   
(Pass: 33)
   Z-3.300    
   X91.408       Y103.927   
   X91.077       Y103.970   
   X90.769       Y104.098   
   X90.504       Y104.301   
   X90.300       Y104.566   
   X90.173       Y104.875   
   X90.118       Y105.288   
   Y114.124   
   X90.173       Y114.537   
   X90.300       Y114.846   
   X90.504       Y115.111   
   X90.769       Y115.314   
   X91.077       Y115.442   
   X91.408       Y115.485   
   X91.739       Y115.442   
   X92.048       Y115.314   
   X92.313       Y115.111   
   X92.516       Y114.846   
   X92.644       Y114.537   
   X92.698       Y114.124   
   Y105.288   
   X92.644       Y104.875   
   X92.516       Y104.566   
   X92.313       Y104.302   
   X92.048       Y104.098   
   X91.739       Y103.970   
(Pass: 34)
   Z-3.400    
   X91.408       Y103.927   
   X91.077       Y103.970   
   X90.769       Y104.098   
   X90.504       Y104.301   
   X90.300       Y104.566   
   X90.173       Y104.875   
   X90.118       Y105.288   
   Y114.124   
   X90.173       Y114.537   
   X90.300       Y114.846   
   X90.504       Y115.111   
   X90.769       Y115.314   
   X91.077       Y115.442   
   X91.408       Y115.485   
   X91.739       Y115.442   
   X92.048       Y115.314   
   X92.313       Y115.111   
   X92.516       Y114.846   
   X92.644       Y114.537   
   X92.698       Y114.124   
   Y105.288   
   X92.644       Y104.875   
   X92.516       Y104.566   
   X92.313       Y104.302   
   X92.048       Y104.098   
   X91.739       Y103.970   
(Pass: 35)
   Z-3.500    
   X91.408       Y103.927   
   X91.077       Y103.970   
   X90.769       Y104.098   
   X90.504       Y104.301   
   X90.300       Y104.566   
   X90.173       Y104.875   
   X90.118       Y105.288   
   Y114.124   
   X90.173       Y114.537   
   X90.300       Y114.846   
   X90.504       Y115.111   
   X90.769       Y115.314   
   X91.077       Y115.442   
   X91.408       Y115.485   
   X91.739       Y115.442   
   X92.048       Y115.314   
   X92.313       Y115.111   
   X92.516       Y114.846   
   X92.644       Y114.537   
   X92.698       Y114.124   
   Y105.288   
   X92.644       Y104.875   
   X92.516       Y104.566   
   X92.313       Y104.302   
   X92.048       Y104.098   
   X91.739       Y103.970   
(BREAK pass 35)
G0   Z6.000     
(Pass: 1)
   X80.576       Y117.149   
G1   Z-0.100     F500
   X80.320       Y116.952   
   X80.021       Y116.828   
   X79.700       Y116.786   
   X79.379       Y116.828   
   X79.080       Y116.952   
   X78.824       Y117.149   
   X78.627       Y117.406   
   X78.503       Y117.705   
   X78.461       Y118.025   
   X78.503       Y118.346   
   X78.627       Y118.645   
   X78.824       Y118.902   
   X79.080       Y119.098   
   X79.379       Y119.222   
   X79.700       Y119.265   
   X80.021       Y119.222   
   X80.320       Y119.098   
   X80.576       Y118.902   
   X80.773       Y118.645   
   X80.897       Y118.346   
   X80.939       Y118.025   
   X80.897       Y117.705   
   X80.773       Y117.406   
   X80.576       Y117.149   
(Pass: 2)
   Z-0.200    
   X80.320       Y116.952   
   X80.021       Y116.828   
   X79.700       Y116.786   
   X79.379       Y116.828   
   X79.080       Y116.952   
   X78.824       Y117.149   
   X78.627       Y117.406   
   X78.503       Y117.705   
   X78.461       Y118.025   
   X78.503       Y118.346   
   X78.627       Y118.645   
   X78.824       Y118.902   
   X79.080       Y119.098   
   X79.379       Y119.222   
   X79.700       Y119.265   
   X80.021       Y119.222   
   X80.320       Y119.098   
   X80.576       Y118.902   
   X80.773       Y118.645   
   X80.897       Y118.346   
   X80.939       Y118.025   
   X80.897       Y117.705   
   X80.773       Y117.406   
   X80.576       Y117.149   
(Pass: 3)
   Z-0.300    
   X80.320       Y116.952   
   X80.021       Y116.828   
   X79.700       Y116.786   
   X79.379       Y116.828   
   X79.080       Y116.952   
   X78.824       Y117.149   
   X78.627       Y117.406   
   X78.503       Y117.705   
   X78.461       Y118.025   
   X78.503       Y118.346   
   X78.627       Y118.645   
   X78.824       Y118.902   
   X79.080       Y119.098   
   X79.379       Y119.222   
   X79.700       Y119.265   
   X80.021       Y119.222   
   X80.320       Y119.098   
   X80.576       Y118.902   
   X80.773       Y118.645   
   X80.897       Y118.346   
   X80.939       Y118.025   
   X80.897       Y117.705   
   X80.773       Y117.406   
   X80.576       Y117.149   
(Pass: 4)
   Z-0.400    
   X80.320       Y116.952   
   X80.021       Y116.828   
   X79.700       Y116.786   
   X79.379       Y116.828   
   X79.080       Y116.952   
   X78.824       Y117.149   
   X78.627       Y117.406   
   X78.503       Y117.705   
   X78.461       Y118.025   
   X78.503       Y118.346   
   X78.627       Y118.645   
   X78.824       Y118.902   
   X79.080       Y119.098   
   X79.379       Y119.222   
   X79.700       Y119.265   
   X80.021       Y119.222   
   X80.320       Y119.098   
   X80.576       Y118.902   
   X80.773       Y118.645   
   X80.897       Y118.346   
   X80.939       Y118.025   
   X80.897       Y117.705   
   X80.773       Y117.406   
   X80.576       Y117.149   
(Pass: 5)
   Z-0.500    
   X80.320       Y116.952   
   X80.021       Y116.828   
   X79.700       Y116.786   
   X79.379       Y116.828   
   X79.080       Y116.952   
   X78.824       Y117.149   
   X78.627       Y117.406   
   X78.503       Y117.705   
   X78.461       Y118.025   
   X78.503       Y118.346   
   X78.627       Y118.645   
   X78.824       Y118.902   
   X79.080       Y119.098   
   X79.379       Y119.222   
   X79.700       Y119.265   
   X80.021       Y119.222   
   X80.320       Y119.098   
   X80.576       Y118.902   
   X80.773       Y118.645   
   X80.897       Y118.346   
   X80.939       Y118.025   
   X80.897       Y117.705   
   X80.773       Y117.406   
   X80.576       Y117.149   
(Pass: 6)
   Z-0.600    
   X80.320       Y116.952   
   X80.021       Y116.828   
   X79.700       Y116.786   
   X79.379       Y116.828   
   X79.080       Y116.952   
   X78.824       Y117.149   
   X78.627       Y117.406   
   X78.503       Y117.705   
   X78.461       Y118.025   
   X78.503       Y118.346   
   X78.627       Y118.645   
   X78.824       Y118.902   
   X79.080       Y119.098   
   X79.379       Y119.222   
   X79.700       Y119.265   
   X80.021       Y119.222   
   X80.320       Y119.098   
   X80.576       Y118.902   
   X80.773       Y118.645   
   X80.897       Y118.346   
   X80.939       Y118.025   
   X80.897       Y117.705   
   X80.773       Y117.406   
   X80.576       Y117.149   
(Pass: 7)
   Z-0.700    
   X80.320       Y116.952   
   X80.021       Y116.828   
   X79.700       Y116.786   
   X79.379       Y116.828   
   X79.080       Y116.952   
   X78.824       Y117.149   
   X78.627       Y117.406   
   X78.503       Y117.705   
   X78.461       Y118.025   
   X78.503       Y118.346   
   X78.627       Y118.645   
   X78.824       Y118.902   
   X79.080       Y119.098   
   X79.379       Y119.222   
   X79.700       Y119.265   
   X80.021       Y119.222   
   X80.320       Y119.098   
   X80.576       Y118.902   
   X80.773       Y118.645   
   X80.897       Y118.346   
   X80.939       Y118.025   
   X80.897       Y117.705   
   X80.773       Y117.406   
   X80.576       Y117.149   
(Pass: 8)
   Z-0.800    
   X80.320       Y116.952   
   X80.021       Y116.828   
   X79.700       Y116.786   
   X79.379       Y116.828   
   X79.080       Y116.952   
   X78.824       Y117.149   
   X78.627       Y117.406   
   X78.503       Y117.705   
   X78.461       Y118.025   
   X78.503       Y118.346   
   X78.627       Y118.645   
   X78.824       Y118.902   
   X79.080       Y119.098   
   X79.379       Y119.222   
   X79.700       Y119.265   
   X80.021       Y119.222   
   X80.320       Y119.098   
   X80.576       Y118.902   
   X80.773       Y118.645   
   X80.897       Y118.346   
   X80.939       Y118.025   
   X80.897       Y117.705   
   X80.773       Y117.406   
   X80.576       Y117.149   
(Pass: 9)
   Z-0.900    
   X80.320       Y116.952   
   X80.021       Y116.828   
   X79.700       Y116.786   
   X79.379       Y116.828   
   X79.080       Y116.952   
   X78.824       Y117.149   
   X78.627       Y117.406   
   X78.503       Y117.705   
   X78.461       Y118.025   
   X78.503       Y118.346   
   X78.627       Y118.645   
   X78.824       Y118.902   
   X79.080       Y119.098   
   X79.379       Y119.222   
   X79.700       Y119.265   
   X80.021       Y119.222   
   X80.320       Y119.098   
   X80.576       Y118.902   
   X80.773       Y118.645   
   X80.897       Y118.346   
   X80.939       Y118.025   
   X80.897       Y117.705   
   X80.773       Y117.406   
   X80.576       Y117.149   
(Pass: 10)
   Z-1.000    
   X80.320       Y116.952   
   X80.021       Y116.828   
   X79.700       Y116.786   
   X79.379       Y116.828   
   X79.080       Y116.952   
   X78.824       Y117.149   
   X78.627       Y117.406   
   X78.503       Y117.705   
   X78.461       Y118.025   
   X78.503       Y118.346   
   X78.627       Y118.645   
   X78.824       Y118.902   
   X79.080       Y119.098   
   X79.379       Y119.222   
   X79.700       Y119.265   
   X80.021       Y119.222   
   X80.320       Y119.098   
   X80.576       Y118.902   
   X80.773       Y118.645   
   X80.897       Y118.346   
   X80.939       Y118.025   
   X80.897       Y117.705   
   X80.773       Y117.406   
   X80.576       Y117.149   
(Pass: 11)
   Z-1.100    
   X80.320       Y116.952   
   X80.021       Y116.828   
   X79.700       Y116.786   
   X79.379       Y116.828   
   X79.080       Y116.952   
   X78.824       Y117.149   
   X78.627       Y117.406   
   X78.503       Y117.705   
   X78.461       Y118.025   
   X78.503       Y118.346   
   X78.627       Y118.645   
   X78.824       Y118.902   
   X79.080       Y119.098   
   X79.379       Y119.222   
   X79.700       Y119.265   
   X80.021       Y119.222   
   X80.320       Y119.098   
   X80.576       Y118.902   
   X80.773       Y118.645   
   X80.897       Y118.346   
   X80.939       Y118.025   
   X80.897       Y117.705   
   X80.773       Y117.406   
   X80.576       Y117.149   
(Pass: 12)
   Z-1.200    
   X80.320       Y116.952   
   X80.021       Y116.828   
   X79.700       Y116.786   
   X79.379       Y116.828   
   X79.080       Y116.952   
   X78.824       Y117.149   
   X78.627       Y117.406   
   X78.503       Y117.705   
   X78.461       Y118.025   
   X78.503       Y118.346   
   X78.627       Y118.645   
   X78.824       Y118.902   
   X79.080       Y119.098   
   X79.379       Y119.222   
   X79.700       Y119.265   
   X80.021       Y119.222   
   X80.320       Y119.098   
   X80.576       Y118.902   
   X80.773       Y118.645   
   X80.897       Y118.346   
   X80.939       Y118.025   
   X80.897       Y117.705   
   X80.773       Y117.406   
   X80.576       Y117.149   
(Pass: 13)
   Z-1.300    
   X80.320       Y116.952   
   X80.021       Y116.828   
   X79.700       Y116.786   
   X79.379       Y116.828   
   X79.080       Y116.952   
   X78.824       Y117.149   
   X78.627       Y117.406   
   X78.503       Y117.705   
   X78.461       Y118.025   
   X78.503       Y118.346   
   X78.627       Y118.645   
   X78.824       Y118.902   
   X79.080       Y119.098   
   X79.379       Y119.222   
   X79.700       Y119.265   
   X80.021       Y119.222   
   X80.320       Y119.098   
   X80.576       Y118.902   
   X80.773       Y118.645   
   X80.897       Y118.346   
   X80.939       Y118.025   
   X80.897       Y117.705   
   X80.773       Y117.406   
   X80.576       Y117.149   
(Pass: 14)
   Z-1.400    
   X80.320       Y116.952   
   X80.021       Y116.828   
   X79.700       Y116.786   
   X79.379       Y116.828   
   X79.080       Y116.952   
   X78.824       Y117.149   
   X78.627       Y117.406   
   X78.503       Y117.705   
   X78.461       Y118.025   
   X78.503       Y118.346   
   X78.627       Y118.645   
   X78.824       Y118.902   
   X79.080       Y119.098   
   X79.379       Y119.222   
   X79.700       Y119.265   
   X80.021       Y119.222   
   X80.320       Y119.098   
   X80.576       Y118.902   
   X80.773       Y118.645   
   X80.897       Y118.346   
   X80.939       Y118.025   
   X80.897       Y117.705   
   X80.773       Y117.406   
   X80.576       Y117.149   
(Pass: 15)
   Z-1.500    
   X80.320       Y116.952   
   X80.021       Y116.828   
   X79.700       Y116.786   
   X79.379       Y116.828   
   X79.080       Y116.952   
   X78.824       Y117.149   
   X78.627       Y117.406   
   X78.503       Y117.705   
   X78.461       Y118.025   
   X78.503       Y118.346   
   X78.627       Y118.645   
   X78.824       Y118.902   
   X79.080       Y119.098   
   X79.379       Y119.222   
   X79.700       Y119.265   
   X80.021       Y119.222   
   X80.320       Y119.098   
   X80.576       Y118.902   
   X80.773       Y118.645   
   X80.897       Y118.346   
   X80.939       Y118.025   
   X80.897       Y117.705   
   X80.773       Y117.406   
   X80.576       Y117.149   
(Pass: 16)
   Z-1.600    
   X80.320       Y116.952   
   X80.021       Y116.828   
   X79.700       Y116.786   
   X79.379       Y116.828   
   X79.080       Y116.952   
   X78.824       Y117.149   
   X78.627       Y117.406   
   X78.503       Y117.705   
   X78.461       Y118.025   
   X78.503       Y118.346   
   X78.627       Y118.645   
