%
(Generated by SketchUcam {1.2b1})
(Bit diameter: 2.5mm)
(Feed rate: 1000.0mm/min)
(Material Thickness: 3.2mm)
(Material length: 600.0mm X width: 300.0mm)
(Overhead Gantry: true)
(Retract feed rate NOT limited to plunge feed rate)
(Multipass enabled, Depth = 0.1mm)
(Optimization is ON)
(www.PhlatBoyz.com)
G90 G21 G49 
M3 S11000
G0   Z6.000     
(Pass: 1)
   X7.938        Y27.163    
G1   Z-0.100     F1000
G17 G2   X7.7238       Y27.2075      R0.8500    
   X7.5281       Y27.3060      R0.8500    
   X7.3646       Y27.4518      R0.8500    
   X7.2444       Y27.6349      R0.8500    
   X7.1756       Y27.8429      R0.8500    
   X7.1631       Y28.0617      R0.8500    
   X7.2075       Y28.2762      R0.8500    
   X7.3060       Y28.4719      R0.8500    
   X7.4518       Y28.6354      R0.8500    
   X7.6349       Y28.7556      R0.8500    
   X7.8429       Y28.8244      R0.8500    
   X8.0617       Y28.8369      R0.8500    
   X8.2762       Y28.7925      R0.8500    
   X8.4719       Y28.6940      R0.8500    
   X8.6354       Y28.5482      R0.8500    
   X8.7556       Y28.3651      R0.8500    
   X8.8244       Y28.1571      R0.8500    
   X8.8369       Y27.9383      R0.8500    
   X8.7925       Y27.7238      R0.8500    
   X8.6940       Y27.5281      R0.8500    
   X8.5482       Y27.3646      R0.8500    
   X8.3651       Y27.2444      R0.8500    
   X8.1571       Y27.1756      R0.8500    
   X7.9383       Y27.1631      R0.8500    
(Pass: 2)
G1   Z-0.200    
G17 G2   X7.7238       Y27.2075      R0.8500    
   X7.5281       Y27.3060      R0.8500    
   X7.3646       Y27.4518      R0.8500    
   X7.2444       Y27.6349      R0.8500    
   X7.1756       Y27.8429      R0.8500    
   X7.1631       Y28.0617      R0.8500    
   X7.2075       Y28.2762      R0.8500    
   X7.3060       Y28.4719      R0.8500    
   X7.4518       Y28.6354      R0.8500    
   X7.6349       Y28.7556      R0.8500    
   X7.8429       Y28.8244      R0.8500    
   X8.0617       Y28.8369      R0.8500    
   X8.2762       Y28.7925      R0.8500    
   X8.4719       Y28.6940      R0.8500    
   X8.6354       Y28.5482      R0.8500    
   X8.7556       Y28.3651      R0.8500    
   X8.8244       Y28.1571      R0.8500    
   X8.8369       Y27.9383      R0.8500    
   X8.7925       Y27.7238      R0.8500    
   X8.6940       Y27.5281      R0.8500    
   X8.5482       Y27.3646      R0.8500    
   X8.3651       Y27.2444      R0.8500    
   X8.1571       Y27.1756      R0.8500    
   X7.9383       Y27.1631      R0.8500    
(Pass: 3)
G1   Z-0.300    
G17 G2   X7.7238       Y27.2075      R0.8500    
   X7.5281       Y27.3060      R0.8500    
   X7.3646       Y27.4518      R0.8500    
   X7.2444       Y27.6349      R0.8500    
   X7.1756       Y27.8429      R0.8500    
   X7.1631       Y28.0617      R0.8500    
   X7.2075       Y28.2762      R0.8500    
   X7.3060       Y28.4719      R0.8500    
   X7.4518       Y28.6354      R0.8500    
   X7.6349       Y28.7556      R0.8500    
   X7.8429       Y28.8244      R0.8500    
   X8.0617       Y28.8369      R0.8500    
   X8.2762       Y28.7925      R0.8500    
   X8.4719       Y28.6940      R0.8500    
   X8.6354       Y28.5482      R0.8500    
   X8.7556       Y28.3651      R0.8500    
   X8.8244       Y28.1571      R0.8500    
   X8.8369       Y27.9383      R0.8500    
   X8.7925       Y27.7238      R0.8500    
   X8.6940       Y27.5281      R0.8500    
   X8.5482       Y27.3646      R0.8500    
   X8.3651       Y27.2444      R0.8500    
   X8.1571       Y27.1756      R0.8500    
   X7.9383       Y27.1631      R0.8500    
(Pass: 4)
G1   Z-0.400    
G17 G2   X7.7238       Y27.2075      R0.8500    
   X7.5281       Y27.3060      R0.8500    
   X7.3646       Y27.4518      R0.8500    
   X7.2444       Y27.6349      R0.8500    
   X7.1756       Y27.8429      R0.8500    
   X7.1631       Y28.0617      R0.8500    
   X7.2075       Y28.2762      R0.8500    
   X7.3060       Y28.4719      R0.8500    
   X7.4518       Y28.6354      R0.8500    
   X7.6349       Y28.7556      R0.8500    
   X7.8429       Y28.8244      R0.8500    
   X8.0617       Y28.8369      R0.8500    
   X8.2762       Y28.7925      R0.8500    
   X8.4719       Y28.6940      R0.8500    
   X8.6354       Y28.5482      R0.8500    
   X8.7556       Y28.3651      R0.8500    
   X8.8244       Y28.1571      R0.8500    
   X8.8369       Y27.9383      R0.8500    
   X8.7925       Y27.7238      R0.8500    
   X8.6940       Y27.5281      R0.8500    
   X8.5482       Y27.3646      R0.8500    
   X8.3651       Y27.2444      R0.8500    
   X8.1571       Y27.1756      R0.8500    
   X7.9383       Y27.1631      R0.8500    
(Pass: 5)
G1   Z-0.500    
G17 G2   X7.7238       Y27.2075      R0.8500    
   X7.5281       Y27.3060      R0.8500    
   X7.3646       Y27.4518      R0.8500    
   X7.2444       Y27.6349      R0.8500    
   X7.1756       Y27.8429      R0.8500    
   X7.1631       Y28.0617      R0.8500    
   X7.2075       Y28.2762      R0.8500    
   X7.3060       Y28.4719      R0.8500    
   X7.4518       Y28.6354      R0.8500    
   X7.6349       Y28.7556      R0.8500    
   X7.8429       Y28.8244      R0.8500    
   X8.0617       Y28.8369      R0.8500    
   X8.2762       Y28.7925      R0.8500    
   X8.4719       Y28.6940      R0.8500    
   X8.6354       Y28.5482      R0.8500    
   X8.7556       Y28.3651      R0.8500    
   X8.8244       Y28.1571      R0.8500    
   X8.8369       Y27.9383      R0.8500    
   X8.7925       Y27.7238      R0.8500    
   X8.6940       Y27.5281      R0.8500    
   X8.5482       Y27.3646      R0.8500    
   X8.3651       Y27.2444      R0.8500    
   X8.1571       Y27.1756      R0.8500    
   X7.9383       Y27.1631      R0.8500    
(Pass: 6)
G1   Z-0.600    
G17 G2   X7.7238       Y27.2075      R0.8500    
   X7.5281       Y27.3060      R0.8500    
   X7.3646       Y27.4518      R0.8500    
   X7.2444       Y27.6349      R0.8500    
   X7.1756       Y27.8429      R0.8500    
   X7.1631       Y28.0617      R0.8500    
   X7.2075       Y28.2762      R0.8500    
   X7.3060       Y28.4719      R0.8500    
   X7.4518       Y28.6354      R0.8500    
   X7.6349       Y28.7556      R0.8500    
   X7.8429       Y28.8244      R0.8500    
   X8.0617       Y28.8369      R0.8500    
   X8.2762       Y28.7925      R0.8500    
   X8.4719       Y28.6940      R0.8500    
   X8.6354       Y28.5482      R0.8500    
   X8.7556       Y28.3651      R0.8500    
   X8.8244       Y28.1571      R0.8500    
   X8.8369       Y27.9383      R0.8500    
   X8.7925       Y27.7238      R0.8500    
   X8.6940       Y27.5281      R0.8500    
   X8.5482       Y27.3646      R0.8500    
   X8.3651       Y27.2444      R0.8500    
   X8.1571       Y27.1756      R0.8500    
   X7.9383       Y27.1631      R0.8500    
(Pass: 7)
G1   Z-0.700    
G17 G2   X7.7238       Y27.2075      R0.8500    
   X7.5281       Y27.3060      R0.8500    
   X7.3646       Y27.4518      R0.8500    
   X7.2444       Y27.6349      R0.8500    
   X7.1756       Y27.8429      R0.8500    
   X7.1631       Y28.0617      R0.8500    
   X7.2075       Y28.2762      R0.8500    
   X7.3060       Y28.4719      R0.8500    
   X7.4518       Y28.6354      R0.8500    
   X7.6349       Y28.7556      R0.8500    
   X7.8429       Y28.8244      R0.8500    
   X8.0617       Y28.8369      R0.8500    
   X8.2762       Y28.7925      R0.8500    
   X8.4719       Y28.6940      R0.8500    
   X8.6354       Y28.5482      R0.8500    
   X8.7556       Y28.3651      R0.8500    
   X8.8244       Y28.1571      R0.8500    
   X8.8369       Y27.9383      R0.8500    
   X8.7925       Y27.7238      R0.8500    
   X8.6940       Y27.5281      R0.8500    
   X8.5482       Y27.3646      R0.8500    
   X8.3651       Y27.2444      R0.8500    
   X8.1571       Y27.1756      R0.8500    
   X7.9383       Y27.1631      R0.8500    
(Pass: 8)
G1   Z-0.800    
G17 G2   X7.7238       Y27.2075      R0.8500    
   X7.5281       Y27.3060      R0.8500    
   X7.3646       Y27.4518      R0.8500    
   X7.2444       Y27.6349      R0.8500    
   X7.1756       Y27.8429      R0.8500    
   X7.1631       Y28.0617      R0.8500    
   X7.2075       Y28.2762      R0.8500    
   X7.3060       Y28.4719      R0.8500    
   X7.4518       Y28.6354      R0.8500    
   X7.6349       Y28.7556      R0.8500    
   X7.8429       Y28.8244      R0.8500    
   X8.0617       Y28.8369      R0.8500    
   X8.2762       Y28.7925      R0.8500    
   X8.4719       Y28.6940      R0.8500    
   X8.6354       Y28.5482      R0.8500    
   X8.7556       Y28.3651      R0.8500    
   X8.8244       Y28.1571      R0.8500    
   X8.8369       Y27.9383      R0.8500    
   X8.7925       Y27.7238      R0.8500    
   X8.6940       Y27.5281      R0.8500    
   X8.5482       Y27.3646      R0.8500    
   X8.3651       Y27.2444      R0.8500    
   X8.1571       Y27.1756      R0.8500    
   X7.9383       Y27.1631      R0.8500    
(Pass: 9)
G1   Z-0.900    
G17 G2   X7.7238       Y27.2075      R0.8500    
   X7.5281       Y27.3060      R0.8500    
   X7.3646       Y27.4518      R0.8500    
   X7.2444       Y27.6349      R0.8500    
   X7.1756       Y27.8429      R0.8500    
   X7.1631       Y28.0617      R0.8500    
   X7.2075       Y28.2762      R0.8500    
   X7.3060       Y28.4719      R0.8500    
   X7.4518       Y28.6354      R0.8500    
   X7.6349       Y28.7556      R0.8500    
   X7.8429       Y28.8244      R0.8500    
   X8.0617       Y28.8369      R0.8500    
   X8.2762       Y28.7925      R0.8500    
   X8.4719       Y28.6940      R0.8500    
   X8.6354       Y28.5482      R0.8500    
   X8.7556       Y28.3651      R0.8500    
   X8.8244       Y28.1571      R0.8500    
   X8.8369       Y27.9383      R0.8500    
   X8.7925       Y27.7238      R0.8500    
   X8.6940       Y27.5281      R0.8500    
   X8.5482       Y27.3646      R0.8500    
   X8.3651       Y27.2444      R0.8500    
   X8.1571       Y27.1756      R0.8500    
   X7.9383       Y27.1631      R0.8500    
(Pass: 10)
G1   Z-1.000    
G17 G2   X7.7238       Y27.2075      R0.8500    
   X7.5281       Y27.3060      R0.8500    
   X7.3646       Y27.4518      R0.8500    
   X7.2444       Y27.6349      R0.8500    
   X7.1756       Y27.8429      R0.8500    
   X7.1631       Y28.0617      R0.8500    
   X7.2075       Y28.2762      R0.8500    
   X7.3060       Y28.4719      R0.8500    
   X7.4518       Y28.6354      R0.8500    
   X7.6349       Y28.7556      R0.8500    
   X7.8429       Y28.8244      R0.8500    
   X8.0617       Y28.8369      R0.8500    
   X8.2762       Y28.7925      R0.8500    
   X8.4719       Y28.6940      R0.8500    
   X8.6354       Y28.5482      R0.8500    
   X8.7556       Y28.3651      R0.8500    
   X8.8244       Y28.1571      R0.8500    
   X8.8369       Y27.9383      R0.8500    
   X8.7925       Y27.7238      R0.8500    
   X8.6940       Y27.5281      R0.8500    
   X8.5482       Y27.3646      R0.8500    
   X8.3651       Y27.2444      R0.8500    
   X8.1571       Y27.1756      R0.8500    
   X7.9383       Y27.1631      R0.8500    
(Pass: 11)
G1   Z-1.100    
G17 G2   X7.7238       Y27.2075      R0.8500    
   X7.5281       Y27.3060      R0.8500    
   X7.3646       Y27.4518      R0.8500    
   X7.2444       Y27.6349      R0.8500    
   X7.1756       Y27.8429      R0.8500    
   X7.1631       Y28.0617      R0.8500    
   X7.2075       Y28.2762      R0.8500    
   X7.3060       Y28.4719      R0.8500    
   X7.4518       Y28.6354      R0.8500    
   X7.6349       Y28.7556      R0.8500    
   X7.8429       Y28.8244      R0.8500    
   X8.0617       Y28.8369      R0.8500    
   X8.2762       Y28.7925      R0.8500    
   X8.4719       Y28.6940      R0.8500    
   X8.6354       Y28.5482      R0.8500    
   X8.7556       Y28.3651      R0.8500    
   X8.8244       Y28.1571      R0.8500    
   X8.8369       Y27.9383      R0.8500    
   X8.7925       Y27.7238      R0.8500    
   X8.6940       Y27.5281      R0.8500    
   X8.5482       Y27.3646      R0.8500    
   X8.3651       Y27.2444      R0.8500    
   X8.1571       Y27.1756      R0.8500    
   X7.9383       Y27.1631      R0.8500    
(Pass: 12)
G1   Z-1.200    
G17 G2   X7.7238       Y27.2075      R0.8500    
   X7.5281       Y27.3060      R0.8500    
   X7.3646       Y27.4518      R0.8500    
   X7.2444       Y27.6349      R0.8500    
   X7.1756       Y27.8429      R0.8500    
   X7.1631       Y28.0617      R0.8500    
   X7.2075       Y28.2762      R0.8500    
   X7.3060       Y28.4719      R0.8500    
   X7.4518       Y28.6354      R0.8500    
   X7.6349       Y28.7556      R0.8500    
   X7.8429       Y28.8244      R0.8500    
   X8.0617       Y28.8369      R0.8500    
   X8.2762       Y28.7925      R0.8500    
   X8.4719       Y28.6940      R0.8500    
   X8.6354       Y28.5482      R0.8500    
   X8.7556       Y28.3651      R0.8500    
   X8.8244       Y28.1571      R0.8500    
   X8.8369       Y27.9383      R0.8500    
   X8.7925       Y27.7238      R0.8500    
   X8.6940       Y27.5281      R0.8500    
   X8.5482       Y27.3646      R0.8500    
   X8.3651       Y27.2444      R0.8500    
   X8.1571       Y27.1756      R0.8500    
   X7.9383       Y27.1631      R0.8500    
(Pass: 13)
G1   Z-1.300    
G17 G2   X7.7238       Y27.2075      R0.8500    
   X7.5281       Y27.3060      R0.8500    
   X7.3646       Y27.4518      R0.8500    
   X7.2444       Y27.6349      R0.8500    
   X7.1756       Y27.8429      R0.8500    
   X7.1631       Y28.0617      R0.8500    
   X7.2075       Y28.2762      R0.8500    
   X7.3060       Y28.4719      R0.8500    
   X7.4518       Y28.6354      R0.8500    
   X7.6349       Y28.7556      R0.8500    
   X7.8429       Y28.8244      R0.8500    
   X8.0617       Y28.8369      R0.8500    
   X8.2762       Y28.7925      R0.8500    
   X8.4719       Y28.6940      R0.8500    
   X8.6354       Y28.5482      R0.8500    
   X8.7556       Y28.3651      R0.8500    
   X8.8244       Y28.1571      R0.8500    
   X8.8369       Y27.9383      R0.8500    
   X8.7925       Y27.7238      R0.8500    
   X8.6940       Y27.5281      R0.8500    
   X8.5482       Y27.3646      R0.8500    
   X8.3651       Y27.2444      R0.8500    
   X8.1571       Y27.1756      R0.8500    
   X7.9383       Y27.1631      R0.8500    
(Pass: 14)
G1   Z-1.400    
G17 G2   X7.7238       Y27.2075      R0.8500    
   X7.5281       Y27.3060      R0.8500    
   X7.3646       Y27.4518      R0.8500    
   X7.2444       Y27.6349      R0.8500    
   X7.1756       Y27.8429      R0.8500    
   X7.1631       Y28.0617      R0.8500    
   X7.2075       Y28.2762      R0.8500    
   X7.3060       Y28.4719      R0.8500    
   X7.4518       Y28.6354      R0.8500    
   X7.6349       Y28.7556      R0.8500    
   X7.8429       Y28.8244      R0.8500    
   X8.0617       Y28.8369      R0.8500    
   X8.2762       Y28.7925      R0.8500    
   X8.4719       Y28.6940      R0.8500    
   X8.6354       Y28.5482      R0.8500    
   X8.7556       Y28.3651      R0.8500    
   X8.8244       Y28.1571      R0.8500    
   X8.8369       Y27.9383      R0.8500    
   X8.7925       Y27.7238      R0.8500    
   X8.6940       Y27.5281      R0.8500    
   X8.5482       Y27.3646      R0.8500    
   X8.3651       Y27.2444      R0.8500    
   X8.1571       Y27.1756      R0.8500    
   X7.9383       Y27.1631      R0.8500    
(Pass: 15)
G1   Z-1.500    
G17 G2   X7.7238       Y27.2075      R0.8500    
   X7.5281       Y27.3060      R0.8500    
   X7.3646       Y27.4518      R0.8500    
   X7.2444       Y27.6349      R0.8500    
   X7.1756       Y27.8429      R0.8500    
   X7.1631       Y28.0617      R0.8500    
   X7.2075       Y28.2762      R0.8500    
   X7.3060       Y28.4719      R0.8500    
   X7.4518       Y28.6354      R0.8500    
   X7.6349       Y28.7556      R0.8500    
   X7.8429       Y28.8244      R0.8500    
   X8.0617       Y28.8369      R0.8500    
   X8.2762       Y28.7925      R0.8500    
   X8.4719       Y28.6940      R0.8500    
   X8.6354       Y28.5482      R0.8500    
   X8.7556       Y28.3651      R0.8500    
   X8.8244       Y28.1571      R0.8500    
   X8.8369       Y27.9383      R0.8500    
   X8.7925       Y27.7238      R0.8500    
   X8.6940       Y27.5281      R0.8500    
   X8.5482       Y27.3646      R0.8500    
   X8.3651       Y27.2444      R0.8500    
   X8.1571       Y27.1756      R0.8500    
   X7.9383       Y27.1631      R0.8500    
(Pass: 16)
G1   Z-1.600    
G17 G2   X7.7238       Y27.2075      R0.8500    
   X7.5281       Y27.3060      R0.8500    
   X7.3646       Y27.4518      R0.8500    
   X7.2444       Y27.6349      R0.8500    
   X7.1756       Y27.8429      R0.8500    
   X7.1631       Y28.0617      R0.8500    
   X7.2075       Y28.2762      R0.8500    
   X7.3060       Y28.4719      R0.8500    
   X7.4518       Y28.6354      R0.8500    
   X7.6349       Y28.7556      R0.8500    
   X7.8429       Y28.8244      R0.8500    
   X8.0617       Y28.8369      R0.8500    
   X8.2762       Y28.7925      R0.8500    
   X8.4719       Y28.6940      R0.8500    
   X8.6354       Y28.5482      R0.8500    
   X8.7556       Y28.3651      R0.8500    
   X8.8244       Y28.1571      R0.8500    
   X8.8369       Y27.9383      R0.8500    
   X8.7925       Y27.7238      R0.8500    
   X8.6940       Y27.5281      R0.8500    
   X8.5482       Y27.3646      R0.8500    
   X8.3651       Y27.2444      R0.8500    
   X8.1571       Y27.1756      R0.8500    
   X7.9383       Y27.1631      R0.8500    
(Pass: 17)
G1   Z-1.700    
G17 G2   X7.7238       Y27.2075      R0.8500    
   X7.5281       Y27.3060      R0.8500    
   X7.3646       Y27.4518      R0.8500    
   X7.2444       Y27.6349      R0.8500    
   X7.1756       Y27.8429      R0.8500    
   X7.1631       Y28.0617      R0.8500    
   X7.2075       Y28.2762      R0.8500    
   X7.3060       Y28.4719      R0.8500    
   X7.4518       Y28.6354      R0.8500    
   X7.6349       Y28.7556      R0.8500    
   X7.8429       Y28.8244      R0.8500    
   X8.0617       Y28.8369      R0.8500    
   X8.2762       Y28.7925      R0.8500    
   X8.4719       Y28.6940      R0.8500    
   X8.6354       Y28.5482      R0.8500    
   X8.7556       Y28.3651      R0.8500    
   X8.8244       Y28.1571      R0.8500    
   X8.8369       Y27.9383      R0.8500    
   X8.7925       Y27.7238      R0.8500    
   X8.6940       Y27.5281      R0.8500    
   X8.5482       Y27.3646      R0.8500    
   X8.3651       Y27.2444      R0.8500    
   X8.1571       Y27.1756      R0.8500    
   X7.9383       Y27.1631      R0.8500    
(Pass: 18)
G1   Z-1.800    
G17 G2   X7.7238       Y27.2075      R0.8500    
   X7.5281       Y27.3060      R0.8500    
   X7.3646       Y27.4518      R0.8500    
   X7.2444       Y27.6349      R0.8500    
   X7.1756       Y27.8429      R0.8500    
   X7.1631       Y28.0617      R0.8500    
   X7.2075       Y28.2762      R0.8500    
   X7.3060       Y28.4719      R0.8500    
   X7.4518       Y28.6354      R0.8500    
   X7.6349       Y28.7556      R0.8500    
   X7.8429       Y28.8244      R0.8500    
   X8.0617       Y28.8369      R0.8500    
   X8.2762       Y28.7925      R0.8500    
   X8.4719       Y28.6940      R0.8500    
   X8.6354       Y28.5482      R0.8500    
   X8.7556       Y28.3651      R0.8500    
   X8.8244       Y28.1571      R0.8500    
   X8.8369       Y27.9383      R0.8500    
   X8.7925       Y27.7238      R0.8500    
   X8.6940       Y27.5281      R0.8500    
   X8.5482       Y27.3646      R0.8500    
   X8.3651       Y27.2444      R0.8500    
   X8.1571       Y27.1756      R0.8500    
   X7.9383       Y27.1631      R0.8500    
(Pass: 19)
G1   Z-1.900    
G17 G2   X7.7238       Y27.2075      R0.8500    
   X7.5281       Y27.3060      R0.8500    
   X7.3646       Y27.4518      R0.8500    
   X7.2444       Y27.6349      R0.8500    
   X7.1756       Y27.8429      R0.8500    
   X7.1631       Y28.0617      R0.8500    
   X7.2075       Y28.2762      R0.8500    
   X7.3060       Y28.4719      R0.8500    
   X7.4518       Y28.6354      R0.8500    
   X7.6349       Y28.7556      R0.8500    
   X7.8429       Y28.8244      R0.8500    
   X8.0617       Y28.8369      R0.8500    
   X8.2762       Y28.7925      R0.8500    
   X8.4719       Y28.6940      R0.8500    
   X8.6354       Y28.5482      R0.8500    
   X8.7556       Y28.3651      R0.8500    
   X8.8244       Y28.1571      R0.8500    
   X8.8369       Y27.9383      R0.8500    
   X8.7925       Y27.7238      R0.8500    
   X8.6940       Y27.5281      R0.8500    
   X8.5482       Y27.3646      R0.8500    
   X8.3651       Y27.2444      R0.8500    
   X8.1571       Y27.1756      R0.8500    
   X7.9383       Y27.1631      R0.8500    
(Pass: 20)
G1   Z-2.000    
G17 G2   X7.7238       Y27.2075      R0.8500    
   X7.5281       Y27.3060      R0.8500    
   X7.3646       Y27.4518      R0.8500    
   X7.2444       Y27.6349      R0.8500    
   X7.1756       Y27.8429      R0.8500    
   X7.1631       Y28.0617      R0.8500    
   X7.2075       Y28.2762      R0.8500    
   X7.3060       Y28.4719      R0.8500    
   X7.4518       Y28.6354      R0.8500    
   X7.6349       Y28.7556      R0.8500    
   X7.8429       Y28.8244      R0.8500    
   X8.0617       Y28.8369      R0.8500    
   X8.2762       Y28.7925      R0.8500    
   X8.4719       Y28.6940      R0.8500    
   X8.6354       Y28.5482      R0.8500    
   X8.7556       Y28.3651      R0.8500    
   X8.8244       Y28.1571      R0.8500    
   X8.8369       Y27.9383      R0.8500    
   X8.7925       Y27.7238      R0.8500    
   X8.6940       Y27.5281      R0.8500    
   X8.5482       Y27.3646      R0.8500    
   X8.3651       Y27.2444      R0.8500    
   X8.1571       Y27.1756      R0.8500    
   X7.9383       Y27.1631      R0.8500    
(Pass: 21)
G1   Z-2.100    
G17 G2   X7.7238       Y27.2075      R0.8500    
   X7.5281       Y27.3060      R0.8500    
   X7.3646       Y27.4518      R0.8500    
   X7.2444       Y27.6349      R0.8500    
   X7.1756       Y27.8429      R0.8500    
   X7.1631       Y28.0617      R0.8500    
   X7.2075       Y28.2762      R0.8500    
   X7.3060       Y28.4719      R0.8500    
   X7.4518       Y28.6354      R0.8500    
   X7.6349       Y28.7556      R0.8500    
   X7.8429       Y28.8244      R0.8500    
   X8.0617       Y28.8369      R0.8500    
   X8.2762       Y28.7925      R0.8500    
   X8.4719       Y28.6940      R0.8500    
   X8.6354       Y28.5482      R0.8500    
   X8.7556       Y28.3651      R0.8500    
   X8.8244       Y28.1571      R0.8500    
   X8.8369       Y27.9383      R0.8500    
   X8.7925       Y27.7238      R0.8500    
   X8.6940       Y27.5281      R0.8500    
   X8.5482       Y27.3646      R0.8500    
   X8.3651       Y27.2444      R0.8500    
   X8.1571       Y27.1756      R0.8500    
   X7.9383       Y27.1631      R0.8500    
(Pass: 22)
G1   Z-2.200    
G17 G2   X7.7238       Y27.2075      R0.8500    
   X7.5281       Y27.3060      R0.8500    
   X7.3646       Y27.4518      R0.8500    
   X7.2444       Y27.6349      R0.8500    
   X7.1756       Y27.8429      R0.8500    
   X7.1631       Y28.0617      R0.8500    
   X7.2075       Y28.2762      R0.8500    
   X7.3060       Y28.4719      R0.8500    
   X7.4518       Y28.6354      R0.8500    
   X7.6349       Y28.7556      R0.8500    
   X7.8429       Y28.8244      R0.8500    
   X8.0617       Y28.8369      R0.8500    
   X8.2762       Y28.7925      R0.8500    
   X8.4719       Y28.6940      R0.8500    
   X8.6354       Y28.5482      R0.8500    
   X8.7556       Y28.3651      R0.8500    
   X8.8244       Y28.1571      R0.8500    
   X8.8369       Y27.9383      R0.8500    
   X8.7925       Y27.7238      R0.8500    
   X8.6940       Y27.5281      R0.8500    
   X8.5482       Y27.3646      R0.8500    
   X8.3651       Y27.2444      R0.8500    
   X8.1571       Y27.1756      R0.8500    
   X7.9383       Y27.1631      R0.8500    
(Pass: 23)
G1   Z-2.300    
G17 G2   X7.7238       Y27.2075      R0.8500    
   X7.5281       Y27.3060      R0.8500    
   X7.3646       Y27.4518      R0.8500    
   X7.2444       Y27.6349      R0.8500    
   X7.1756       Y27.8429      R0.8500    
   X7.1631       Y28.0617      R0.8500    
   X7.2075       Y28.2762      R0.8500    
   X7.3060       Y28.4719      R0.8500    
   X7.4518       Y28.6354      R0.8500    
   X7.6349       Y28.7556      R0.8500    
   X7.8429       Y28.8244      R0.8500    
   X8.0617       Y28.8369      R0.8500    
   X8.2762       Y28.7925      R0.8500    
   X8.4719       Y28.6940      R0.8500    
   X8.6354       Y28.5482      R0.8500    
   X8.7556       Y28.3651      R0.8500    
   X8.8244       Y28.1571      R0.8500    
   X8.8369       Y27.9383      R0.8500    
   X8.7925       Y27.7238      R0.8500    
   X8.6940       Y27.5281      R0.8500    
   X8.5482       Y27.3646      R0.8500    
   X8.3651       Y27.2444      R0.8500    
   X8.1571       Y27.1756      R0.8500    
   X7.9383       Y27.1631      R0.8500    
(Pass: 24)
G1   Z-2.400    
G17 G2   X7.7238       Y27.2075      R0.8500    
   X7.5281       Y27.3060      R0.8500    
   X7.3646       Y27.4518      R0.8500    
   X7.2444       Y27.6349      R0.8500    
   X7.1756       Y27.8429      R0.8500    
   X7.1631       Y28.0617      R0.8500    
   X7.2075       Y28.2762      R0.8500    
   X7.3060       Y28.4719      R0.8500    
   X7.4518       Y28.6354      R0.8500    
   X7.6349       Y28.7556      R0.8500    
   X7.8429       Y28.8244      R0.8500    
   X8.0617       Y28.8369      R0.8500    
   X8.2762       Y28.7925      R0.8500    
   X8.4719       Y28.6940      R0.8500    
   X8.6354       Y28.5482      R0.8500    
   X8.7556       Y28.3651      R0.8500    
   X8.8244       Y28.1571      R0.8500    
   X8.8369       Y27.9383      R0.8500    
   X8.7925       Y27.7238      R0.8500    
   X8.6940       Y27.5281      R0.8500    
   X8.5482       Y27.3646      R0.8500    
   X8.3651       Y27.2444      R0.8500    
   X8.1571       Y27.1756      R0.8500    
   X7.9383       Y27.1631      R0.8500    
(Pass: 25)
G1   Z-2.500    
G17 G2   X7.7238       Y27.2075      R0.8500    
   X7.5281       Y27.3060      R0.8500    
   X7.3646       Y27.4518      R0.8500    
   X7.2444       Y27.6349      R0.8500    
   X7.1756       Y27.8429      R0.8500    
   X7.1631       Y28.0617      R0.8500    
   X7.2075       Y28.2762      R0.8500    
   X7.3060       Y28.4719      R0.8500    
   X7.4518       Y28.6354      R0.8500    
   X7.6349       Y28.7556      R0.8500    
   X7.8429       Y28.8244      R0.8500    
   X8.0617       Y28.8369      R0.8500    
   X8.2762       Y28.7925      R0.8500    
   X8.4719       Y28.6940      R0.8500    
   X8.6354       Y28.5482      R0.8500    
   X8.7556       Y28.3651      R0.8500    
   X8.8244       Y28.1571      R0.8500    
   X8.8369       Y27.9383      R0.8500    
   X8.7925       Y27.7238      R0.8500    
   X8.6940       Y27.5281      R0.8500    
   X8.5482       Y27.3646      R0.8500    
   X8.3651       Y27.2444      R0.8500    
   X8.1571       Y27.1756      R0.8500    
   X7.9383       Y27.1631      R0.8500    
(Pass: 26)
G1   Z-2.600    
G17 G2   X7.7238       Y27.2075      R0.8500    
   X7.5281       Y27.3060      R0.8500    
   X7.3646       Y27.4518      R0.8500    
   X7.2444       Y27.6349      R0.8500    
   X7.1756       Y27.8429      R0.8500    
   X7.1631       Y28.0617      R0.8500    
   X7.2075       Y28.2762      R0.8500    
   X7.3060       Y28.4719      R0.8500    
   X7.4518       Y28.6354      R0.8500    
   X7.6349       Y28.7556      R0.8500    
   X7.8429       Y28.8244      R0.8500    
   X8.0617       Y28.8369      R0.8500    
   X8.2762       Y28.7925      R0.8500    
   X8.4719       Y28.6940      R0.8500    
   X8.6354       Y28.5482      R0.8500    
   X8.7556       Y28.3651      R0.8500    
   X8.8244       Y28.1571      R0.8500    
   X8.8369       Y27.9383      R0.8500    
   X8.7925       Y27.7238      R0.8500    
   X8.6940       Y27.5281      R0.8500    
   X8.5482       Y27.3646      R0.8500    
   X8.3651       Y27.2444      R0.8500    
   X8.1571       Y27.1756      R0.8500    
   X7.9383       Y27.1631      R0.8500    
(Pass: 27)
G1   Z-2.700    
G17 G2   X7.7238       Y27.2075      R0.8500    
   X7.5281       Y27.3060      R0.8500    
   X7.3646       Y27.4518      R0.8500    
   X7.2444       Y27.6349      R0.8500    
   X7.1756       Y27.8429      R0.8500    
   X7.1631       Y28.0617      R0.8500    
   X7.2075       Y28.2762      R0.8500    
   X7.3060       Y28.4719      R0.8500    
   X7.4518       Y28.6354      R0.8500    
   X7.6349       Y28.7556      R0.8500    
   X7.8429       Y28.8244      R0.8500    
   X8.0617       Y28.8369      R0.8500    
   X8.2762       Y28.7925      R0.8500    
   X8.4719       Y28.6940      R0.8500    
   X8.6354       Y28.5482      R0.8500    
   X8.7556       Y28.3651      R0.8500    
   X8.8244       Y28.1571      R0.8500    
   X8.8369       Y27.9383      R0.8500    
   X8.7925       Y27.7238      R0.8500    
   X8.6940       Y27.5281      R0.8500    
   X8.5482       Y27.3646      R0.8500    
   X8.3651       Y27.2444      R0.8500    
   X8.1571       Y27.1756      R0.8500    
   X7.9383       Y27.1631      R0.8500    
(Pass: 28)
G1   Z-2.800    
G17 G2   X7.7238       Y27.2075      R0.8500    
   X7.5281       Y27.3060      R0.8500    
   X7.3646       Y27.4518      R0.8500    
   X7.2444       Y27.6349      R0.8500    
   X7.1756       Y27.8429      R0.8500    
   X7.1631       Y28.0617      R0.8500    
   X7.2075       Y28.2762      R0.8500    
   X7.3060       Y28.4719      R0.8500    
   X7.4518       Y28.6354      R0.8500    
   X7.6349       Y28.7556      R0.8500    
   X7.8429       Y28.8244      R0.8500    
   X8.0617       Y28.8369      R0.8500    
   X8.2762       Y28.7925      R0.8500    
   X8.4719       Y28.6940      R0.8500    
   X8.6354       Y28.5482      R0.8500    
   X8.7556       Y28.3651      R0.8500    
   X8.8244       Y28.1571      R0.8500    
   X8.8369       Y27.9383      R0.8500    
   X8.7925       Y27.7238      R0.8500    
   X8.6940       Y27.5281      R0.8500    
   X8.5482       Y27.3646      R0.8500    
   X8.3651       Y27.2444      R0.8500    
   X8.1571       Y27.1756      R0.8500    
   X7.9383       Y27.1631      R0.8500    
(Pass: 29)
G1   Z-2.900    
G17 G2   X7.7238       Y27.2075      R0.8500    
   X7.5281       Y27.3060      R0.8500    
   X7.3646       Y27.4518      R0.8500    
   X7.2444       Y27.6349      R0.8500    
   X7.1756       Y27.8429      R0.8500    
   X7.1631       Y28.0617      R0.8500    
   X7.2075       Y28.2762      R0.8500    
   X7.3060       Y28.4719      R0.8500    
   X7.4518       Y28.6354      R0.8500    
   X7.6349       Y28.7556      R0.8500    
   X7.8429       Y28.8244      R0.8500    
   X8.0617       Y28.8369      R0.8500    
   X8.2762       Y28.7925      R0.8500    
   X8.4719       Y28.6940      R0.8500    
   X8.6354       Y28.5482      R0.8500    
   X8.7556       Y28.3651      R0.8500    
   X8.8244       Y28.1571      R0.8500    
   X8.8369       Y27.9383      R0.8500    
   X8.7925       Y27.7238      R0.8500    
   X8.6940       Y27.5281      R0.8500    
   X8.5482       Y27.3646      R0.8500    
   X8.3651       Y27.2444      R0.8500    
   X8.1571       Y27.1756      R0.8500    
   X7.9383       Y27.1631      R0.8500    
(Pass: 30)
G1   Z-3.000    
G17 G2   X7.7238       Y27.2075      R0.8500    
   X7.5281       Y27.3060      R0.8500    
   X7.3646       Y27.4518      R0.8500    
   X7.2444       Y27.6349      R0.8500    
   X7.1756       Y27.8429      R0.8500    
   X7.1631       Y28.0617      R0.8500    
   X7.2075       Y28.2762      R0.8500    
   X7.3060       Y28.4719      R0.8500    
   X7.4518       Y28.6354      R0.8500    
   X7.6349       Y28.7556      R0.8500    
   X7.8429       Y28.8244      R0.8500    
   X8.0617       Y28.8369      R0.8500    
   X8.2762       Y28.7925      R0.8500    
   X8.4719       Y28.6940      R0.8500    
   X8.6354       Y28.5482      R0.8500    
   X8.7556       Y28.3651      R0.8500    
   X8.8244       Y28.1571      R0.8500    
   X8.8369       Y27.9383      R0.8500    
   X8.7925       Y27.7238      R0.8500    
   X8.6940       Y27.5281      R0.8500    
   X8.5482       Y27.3646      R0.8500    
   X8.3651       Y27.2444      R0.8500    
   X8.1571       Y27.1756      R0.8500    
   X7.9383       Y27.1631      R0.8500    
(Pass: 31)
G1   Z-3.100    
G17 G2   X7.7238       Y27.2075      R0.8500    
   X7.5281       Y27.3060      R0.8500    
   X7.3646       Y27.4518      R0.8500    
   X7.2444       Y27.6349      R0.8500    
   X7.1756       Y27.8429      R0.8500    
   X7.1631       Y28.0617      R0.8500    
   X7.2075       Y28.2762      R0.8500    
   X7.3060       Y28.4719      R0.8500    
   X7.4518       Y28.6354      R0.8500    
   X7.6349       Y28.7556      R0.8500    
   X7.8429       Y28.8244      R0.8500    
   X8.0617       Y28.8369      R0.8500    
   X8.2762       Y28.7925      R0.8500    
   X8.4719       Y28.6940      R0.8500    
   X8.6354       Y28.5482      R0.8500    
   X8.7556       Y28.3651      R0.8500    
   X8.8244       Y28.1571      R0.8500    
   X8.8369       Y27.9383      R0.8500    
   X8.7925       Y27.7238      R0.8500    
   X8.6940       Y27.5281      R0.8500    
   X8.5482       Y27.3646      R0.8500    
   X8.3651       Y27.2444      R0.8500    
   X8.1571       Y27.1756      R0.8500    
   X7.9383       Y27.1631      R0.8500    
(Pass: 32)
G1   Z-3.200    
G17 G2   X7.7238       Y27.2075      R0.8500    
   X7.5281       Y27.3060      R0.8500    
   X7.3646       Y27.4518      R0.8500    
   X7.2444       Y27.6349      R0.8500    
   X7.1756       Y27.8429      R0.8500    
   X7.1631       Y28.0617      R0.8500    
   X7.2075       Y28.2762      R0.8500    
   X7.3060       Y28.4719      R0.8500    
   X7.4518       Y28.6354      R0.8500    
   X7.6349       Y28.7556      R0.8500    
   X7.8429       Y28.8244      R0.8500    
   X8.0617       Y28.8369      R0.8500    
   X8.2762       Y28.7925      R0.8500    
   X8.4719       Y28.6940      R0.8500    
   X8.6354       Y28.5482      R0.8500    
   X8.7556       Y28.3651      R0.8500    
   X8.8244       Y28.1571      R0.8500    
   X8.8369       Y27.9383      R0.8500    
   X8.7925       Y27.7238      R0.8500    
   X8.6940       Y27.5281      R0.8500    
   X8.5482       Y27.3646      R0.8500    
   X8.3651       Y27.2444      R0.8500    
   X8.1571       Y27.1756      R0.8500    
   X7.9383       Y27.1631      R0.8500    
(Pass: 33)
G1   Z-3.300    
G17 G2   X7.7238       Y27.2075      R0.8500    
   X7.5281       Y27.3060      R0.8500    
   X7.3646       Y27.4518      R0.8500    
   X7.2444       Y27.6349      R0.8500    
   X7.1756       Y27.8429      R0.8500    
   X7.1631       Y28.0617      R0.8500    
   X7.2075       Y28.2762      R0.8500    
   X7.3060       Y28.4719      R0.8500    
   X7.4518       Y28.6354      R0.8500    
   X7.6349       Y28.7556      R0.8500    
   X7.8429       Y28.8244      R0.8500    
   X8.0617       Y28.8369      R0.8500    
   X8.2762       Y28.7925      R0.8500    
   X8.4719       Y28.6940      R0.8500    
   X8.6354       Y28.5482      R0.8500    
   X8.7556       Y28.3651      R0.8500    
   X8.8244       Y28.1571      R0.8500    
   X8.8369       Y27.9383      R0.8500    
   X8.7925       Y27.7238      R0.8500    
   X8.6940       Y27.5281      R0.8500    
   X8.5482       Y27.3646      R0.8500    
   X8.3651       Y27.2444      R0.8500    
   X8.1571       Y27.1756      R0.8500    
   X7.9383       Y27.1631      R0.8500    
(Pass: 34)
G1   Z-3.400    
G17 G2   X7.7238       Y27.2075      R0.8500    
   X7.5281       Y27.3060      R0.8500    
   X7.3646       Y27.4518      R0.8500    
   X7.2444       Y27.6349      R0.8500    
   X7.1756       Y27.8429      R0.8500    
   X7.1631       Y28.0617      R0.8500    
   X7.2075       Y28.2762      R0.8500    
   X7.3060       Y28.4719      R0.8500    
   X7.4518       Y28.6354      R0.8500    
   X7.6349       Y28.7556      R0.8500    
   X7.8429       Y28.8244      R0.8500    
   X8.0617       Y28.8369      R0.8500    
   X8.2762       Y28.7925      R0.8500    
   X8.4719       Y28.6940      R0.8500    
   X8.6354       Y28.5482      R0.8500    
   X8.7556       Y28.3651      R0.8500    
   X8.8244       Y28.1571      R0.8500    
   X8.8369       Y27.9383      R0.8500    
   X8.7925       Y27.7238      R0.8500    
   X8.6940       Y27.5281      R0.8500    
   X8.5482       Y27.3646      R0.8500    
   X8.3651       Y27.2444      R0.8500    
   X8.1571       Y27.1756      R0.8500    
   X7.9383       Y27.1631      R0.8500    
(BREAK pass 34)
G0   Z6.000     
(Pass: 1)
   X56.772       Y23.168    
G1   Z-0.100     F1000
G17 G2   X56.8577      Y23.4803      R1.2500    
   X57.0209      Y23.7596      R1.2500    
   X57.2509      Y23.9872      R1.2500    
   X57.5319      Y24.1474      R1.2500    
   X57.8448      Y24.2295      R1.2500    
   X58.1683      Y24.2277      R1.2500    
   X58.4803      Y24.1423      R1.2500    
   X58.7596      Y23.9791      R1.2500    
   X58.9872      Y23.7491      R1.2500    
   X59.1474      Y23.4681      R1.2500    
   X59.2295      Y23.1552      R1.2500    
   X59.2277      Y22.8317      R1.2500    
   X59.1423      Y22.5197      R1.2500    
   X58.9791      Y22.2404      R1.2500    
   X58.7491      Y22.0128      R1.2500    
   X58.4681      Y21.8526      R1.2500    
   X58.1552      Y21.7705      R1.2500    
   X57.8317      Y21.7723      R1.2500    
   X57.5197      Y21.8577      R1.2500    
   X57.2404      Y22.0209      R1.2500    
   X57.0128      Y22.2509      R1.2500    
   X56.8526      Y22.5319      R1.2500    
   X56.7705      Y22.8448      R1.2500    
   X56.7723      Y23.1683      R1.2500    
(Pass: 2)
G1   Z-0.200    
G17 G2   X56.8577      Y23.4803      R1.2500    
   X57.0209      Y23.7596      R1.2500    
   X57.2509      Y23.9872      R1.2500    
   X57.5319      Y24.1474      R1.2500    
   X57.8448      Y24.2295      R1.2500    
   X58.1683      Y24.2277      R1.2500    
   X58.4803      Y24.1423      R1.2500    
   X58.7596      Y23.9791      R1.2500    
   X58.9872      Y23.7491      R1.2500    
   X59.1474      Y23.4681      R1.2500    
   X59.2295      Y23.1552      R1.2500    
   X59.2277      Y22.8317      R1.2500    
   X59.1423      Y22.5197      R1.2500    
   X58.9791      Y22.2404      R1.2500    
   X58.7491      Y22.0128      R1.2500    
   X58.4681      Y21.8526      R1.2500    
   X58.1552      Y21.7705      R1.2500    
   X57.8317      Y21.7723      R1.2500    
   X57.5197      Y21.8577      R1.2500    
   X57.2404      Y22.0209      R1.2500    
   X57.0128      Y22.2509      R1.2500    
   X56.8526      Y22.5319      R1.2500    
   X56.7705      Y22.8448      R1.2500    
   X56.7723      Y23.1683      R1.2500    
(Pass: 3)
G1   Z-0.300    
G17 G2   X56.8577      Y23.4803      R1.2500    
   X57.0209      Y23.7596      R1.2500    
   X57.2509      Y23.9872      R1.2500    
   X57.5319      Y24.1474      R1.2500    
   X57.8448      Y24.2295      R1.2500    
   X58.1683      Y24.2277      R1.2500    
   X58.4803      Y24.1423      R1.2500    
   X58.7596      Y23.9791      R1.2500    
   X58.9872      Y23.7491      R1.2500    
   X59.1474      Y23.4681      R1.2500    
   X59.2295      Y23.1552      R1.2500    
   X59.2277      Y22.8317      R1.2500    
   X59.1423      Y22.5197      R1.2500    
   X58.9791      Y22.2404      R1.2500    
   X58.7491      Y22.0128      R1.2500    
   X58.4681      Y21.8526      R1.2500    
   X58.1552      Y21.7705      R1.2500    
   X57.8317      Y21.7723      R1.2500    
   X57.5197      Y21.8577      R1.2500    
   X57.2404      Y22.0209      R1.2500    
   X57.0128      Y22.2509      R1.2500    
   X56.8526      Y22.5319      R1.2500    
   X56.7705      Y22.8448      R1.2500    
   X56.7723      Y23.1683      R1.2500    
(Pass: 4)
G1   Z-0.400    
G17 G2   X56.8577      Y23.4803      R1.2500    
   X57.0209      Y23.7596      R1.2500    
   X57.2509      Y23.9872      R1.2500    
   X57.5319      Y24.1474      R1.2500    
   X57.8448      Y24.2295      R1.2500    
   X58.1683      Y24.2277      R1.2500    
   X58.4803      Y24.1423      R1.2500    
   X58.7596      Y23.9791      R1.2500    
   X58.9872      Y23.7491      R1.2500    
   X59.1474      Y23.4681      R1.2500    
   X59.2295      Y23.1552      R1.2500    
   X59.2277      Y22.8317      R1.2500    
   X59.1423      Y22.5197      R1.2500    
   X58.9791      Y22.2404      R1.2500    
   X58.7491      Y22.0128      R1.2500    
   X58.4681      Y21.8526      R1.2500    
   X58.1552      Y21.7705      R1.2500    
   X57.8317      Y21.7723      R1.2500    
   X57.5197      Y21.8577      R1.2500    
   X57.2404      Y22.0209      R1.2500    
   X57.0128      Y22.2509      R1.2500    
   X56.8526      Y22.5319      R1.2500    
   X56.7705      Y22.8448      R1.2500    
   X56.7723      Y23.1683      R1.2500    
(Pass: 5)
G1   Z-0.500    
G17 G2   X56.8577      Y23.4803      R1.2500    
   X57.0209      Y23.7596      R1.2500    
   X57.2509      Y23.9872      R1.2500    
   X57.5319      Y24.1474      R1.2500    
   X57.8448      Y24.2295      R1.2500    
   X58.1683      Y24.2277      R1.2500    
   X58.4803      Y24.1423      R1.2500    
   X58.7596      Y23.9791      R1.2500    
   X58.9872      Y23.7491      R1.2500    
   X59.1474      Y23.4681      R1.2500    
   X59.2295      Y23.1552      R1.2500    
   X59.2277      Y22.8317      R1.2500    
   X59.1423      Y22.5197      R1.2500    
   X58.9791      Y22.2404      R1.2500    
   X58.7491      Y22.0128      R1.2500    
   X58.4681      Y21.8526      R1.2500    
   X58.1552      Y21.7705      R1.2500    
   X57.8317      Y21.7723      R1.2500    
   X57.5197      Y21.8577      R1.2500    
   X57.2404      Y22.0209      R1.2500    
   X57.0128      Y22.2509      R1.2500    
   X56.8526      Y22.5319      R1.2500    
   X56.7705      Y22.8448      R1.2500    
   X56.7723      Y23.1683      R1.2500    
(Pass: 6)
G1   Z-0.600    
G17 G2   X56.8577      Y23.4803      R1.2500    
   X57.0209      Y23.7596      R1.2500    
   X57.2509      Y23.9872      R1.2500    
   X57.5319      Y24.1474      R1.2500    
   X57.8448      Y24.2295      R1.2500    
   X58.1683      Y24.2277      R1.2500    
   X58.4803      Y24.1423      R1.2500    
   X58.7596      Y23.9791      R1.2500    
   X58.9872      Y23.7491      R1.2500    
   X59.1474      Y23.4681      R1.2500    
   X59.2295      Y23.1552      R1.2500    
   X59.2277      Y22.8317      R1.2500    
   X59.1423      Y22.5197      R1.2500    
   X58.9791      Y22.2404      R1.2500    
   X58.7491      Y22.0128      R1.2500    
   X58.4681      Y21.8526      R1.2500    
   X58.1552      Y21.7705      R1.2500    
   X57.8317      Y21.7723      R1.2500    
   X57.5197      Y21.8577      R1.2500    
   X57.2404      Y22.0209      R1.2500    
   X57.0128      Y22.2509      R1.2500    
   X56.8526      Y22.5319      R1.2500    
   X56.7705      Y22.8448      R1.2500    
   X56.7723      Y23.1683      R1.2500    
(Pass: 7)
G1   Z-0.700    
G17 G2   X56.8577      Y23.4803      R1.2500    
   X57.0209      Y23.7596      R1.2500    
   X57.2509      Y23.9872      R1.2500    
   X57.5319      Y24.1474      R1.2500    
   X57.8448      Y24.2295      R1.2500    
   X58.1683      Y24.2277      R1.2500    
   X58.4803      Y24.1423      R1.2500    
   X58.7596      Y23.9791      R1.2500    
   X58.9872      Y23.7491      R1.2500    
   X59.1474      Y23.4681      R1.2500    
   X59.2295      Y23.1552      R1.2500    
   X59.2277      Y22.8317      R1.2500    
   X59.1423      Y22.5197      R1.2500    
   X58.9791      Y22.2404      R1.2500    
   X58.7491      Y22.0128      R1.2500    
   X58.4681      Y21.8526      R1.2500    
   X58.1552      Y21.7705      R1.2500    
   X57.8317      Y21.7723      R1.2500    
   X57.5197      Y21.8577      R1.2500    
   X57.2404      Y22.0209      R1.2500    
   X57.0128      Y22.2509      R1.2500    
   X56.8526      Y22.5319      R1.2500    
   X56.7705      Y22.8448      R1.2500    
   X56.7723      Y23.1683      R1.2500    
(Pass: 8)
G1   Z-0.800    
G17 G2   X56.8577      Y23.4803      R1.2500    
   X57.0209      Y23.7596      R1.2500    
   X57.2509      Y23.9872      R1.2500    
   X57.5319      Y24.1474      R1.2500    
   X57.8448      Y24.2295      R1.2500    
   X58.1683      Y24.2277      R1.2500    
   X58.4803      Y24.1423      R1.2500    
   X58.7596      Y23.9791      R1.2500    
   X58.9872      Y23.7491      R1.2500    
   X59.1474      Y23.4681      R1.2500    
   X59.2295      Y23.1552      R1.2500    
   X59.2277      Y22.8317      R1.2500    
   X59.1423      Y22.5197      R1.2500    
   X58.9791      Y22.2404      R1.2500    
   X58.7491      Y22.0128      R1.2500    
   X58.4681      Y21.8526      R1.2500    
   X58.1552      Y21.7705      R1.2500    
   X57.8317      Y21.7723      R1.2500    
   X57.5197      Y21.8577      R1.2500    
   X57.2404      Y22.0209      R1.2500    
   X57.0128      Y22.2509      R1.2500    
   X56.8526      Y22.5319      R1.2500    
   X56.7705      Y22.8448      R1.2500    
   X56.7723      Y23.1683      R1.2500    
(Pass: 9)
G1   Z-0.900    
G17 G2   X56.8577      Y23.4803      R1.2500    
   X57.0209      Y23.7596      R1.2500    
   X57.2509      Y23.9872      R1.2500    
   X57.5319      Y24.1474      R1.2500    
   X57.8448      Y24.2295      R1.2500    
   X58.1683      Y24.2277      R1.2500    
   X58.4803      Y24.1423      R1.2500    
   X58.7596      Y23.9791      R1.2500    
   X58.9872      Y23.7491      R1.2500    
   X59.1474      Y23.4681      R1.2500    
   X59.2295      Y23.1552      R1.2500    
   X59.2277      Y22.8317      R1.2500    
   X59.1423      Y22.5197      R1.2500    
   X58.9791      Y22.2404      R1.2500    
   X58.7491      Y22.0128      R1.2500    
   X58.4681      Y21.8526      R1.2500    
   X58.1552      Y21.7705      R1.2500    
   X57.8317      Y21.7723      R1.2500    
   X57.5197      Y21.8577      R1.2500    
   X57.2404      Y22.0209      R1.2500    
   X57.0128      Y22.2509      R1.2500    
   X56.8526      Y22.5319      R1.2500    
   X56.7705      Y22.8448      R1.2500    
   X56.7723      Y23.1683      R1.2500    
(Pass: 10)
G1   Z-1.000    
G17 G2   X56.8577      Y23.4803      R1.2500    
   X57.0209      Y23.7596      R1.2500    
   X57.2509      Y23.9872      R1.2500    
   X57.5319      Y24.1474      R1.2500    
   X57.8448      Y24.2295      R1.2500    
   X58.1683      Y24.2277      R1.2500    
   X58.4803      Y24.1423      R1.2500    
   X58.7596      Y23.9791      R1.2500    
   X58.9872      Y23.7491      R1.2500    
   X59.1474      Y23.4681      R1.2500    
   X59.2295      Y23.1552      R1.2500    
   X59.2277      Y22.8317      R1.2500    
   X59.1423      Y22.5197      R1.2500    
   X58.9791      Y22.2404      R1.2500    
   X58.7491      Y22.0128      R1.2500    
   X58.4681      Y21.8526      R1.2500    
   X58.1552      Y21.7705      R1.2500    
   X57.8317      Y21.7723      R1.2500    
   X57.5197      Y21.8577      R1.2500    
   X57.2404      Y22.0209      R1.2500    
   X57.0128      Y22.2509      R1.2500    
   X56.8526      Y22.5319      R1.2500    
   X56.7705      Y22.8448      R1.2500    
   X56.7723      Y23.1683      R1.2500    
(Pass: 11)
G1   Z-1.100    
G17 G2   X56.8577      Y23.4803      R1.2500    
   X57.0209      Y23.7596      R1.2500    
   X57.2509      Y23.9872      R1.2500    
   X57.5319      Y24.1474      R1.2500    
   X57.8448      Y24.2295      R1.2500    
   X58.1683      Y24.2277      R1.2500    
   X58.4803      Y24.1423      R1.2500    
   X58.7596      Y23.9791      R1.2500    
   X58.9872      Y23.7491      R1.2500    
   X59.1474      Y23.4681      R1.2500    
   X59.2295      Y23.1552      R1.2500    
   X59.2277      Y22.8317      R1.2500    
   X59.1423      Y22.5197      R1.2500    
   X58.9791      Y22.2404      R1.2500    
   X58.7491      Y22.0128      R1.2500    
   X58.4681      Y21.8526      R1.2500    
   X58.1552      Y21.7705      R1.2500    
   X57.8317      Y21.7723      R1.2500    
   X57.5197      Y21.8577      R1.2500    
   X57.2404      Y22.0209      R1.2500    
   X57.0128      Y22.2509      R1.2500    
   X56.8526      Y22.5319      R1.2500    
   X56.7705      Y22.8448      R1.2500    
   X56.7723      Y23.1683      R1.2500    
(Pass: 12)
G1   Z-1.200    
G17 G2   X56.8577      Y23.4803      R1.2500    
   X57.0209      Y23.7596      R1.2500    
   X57.2509      Y23.9872      R1.2500    
   X57.5319      Y24.1474      R1.2500    
   X57.8448      Y24.2295      R1.2500    
   X58.1683      Y24.2277      R1.2500    
   X58.4803      Y24.1423      R1.2500    
   X58.7596      Y23.9791      R1.2500    
   X58.9872      Y23.7491      R1.2500    
   X59.1474      Y23.4681      R1.2500    
   X59.2295      Y23.1552      R1.2500    
   X59.2277      Y22.8317      R1.2500    
   X59.1423      Y22.5197      R1.2500    
   X58.9791      Y22.2404      R1.2500    
   X58.7491      Y22.0128      R1.2500    
   X58.4681      Y21.8526      R1.2500    
   X58.1552      Y21.7705      R1.2500    
   X57.8317      Y21.7723      R1.2500    
   X57.5197      Y21.8577      R1.2500    
   X57.2404      Y22.0209      R1.2500    
   X57.0128      Y22.2509      R1.2500    
   X56.8526      Y22.5319      R1.2500    
   X56.7705      Y22.8448      R1.2500    
   X56.7723      Y23.1683      R1.2500    
(Pass: 13)
G1   Z-1.300    
G17 G2   X56.8577      Y23.4803      R1.2500    
   X57.0209      Y23.7596      R1.2500    
   X57.2509      Y23.9872      R1.2500    
   X57.5319      Y24.1474      R1.2500    
   X57.8448      Y24.2295      R1.2500    
   X58.1683      Y24.2277      R1.2500    
   X58.4803      Y24.1423      R1.2500    
   X58.7596      Y23.9791      R1.2500    
   X58.9872      Y23.7491      R1.2500    
   X59.1474      Y23.4681      R1.2500    
   X59.2295      Y23.1552      R1.2500    
   X59.2277      Y22.8317      R1.2500    
   X59.1423      Y22.5197      R1.2500    
   X58.9791      Y22.2404      R1.2500    
   X58.7491      Y22.0128      R1.2500    
   X58.4681      Y21.8526      R1.2500    
   X58.1552      Y21.7705      R1.2500    
   X57.8317      Y21.7723      R1.2500    
   X57.5197      Y21.8577      R1.2500    
   X57.2404      Y22.0209      R1.2500    
   X57.0128      Y22.2509      R1.2500    
   X56.8526      Y22.5319      R1.2500    
   X56.7705      Y22.8448      R1.2500    
   X56.7723      Y23.1683      R1.2500    
(Pass: 14)
G1   Z-1.400    
G17 G2   X56.8577      Y23.4803      R1.2500    
   X57.0209      Y23.7596      R1.2500    
   X57.2509      Y23.9872      R1.2500    
   X57.5319      Y24.1474      R1.2500    
   X57.8448      Y24.2295      R1.2500    
   X58.1683      Y24.2277      R1.2500    
   X58.4803      Y24.1423      R1.2500    
   X58.7596      Y23.9791      R1.2500    
   X58.9872      Y23.7491      R1.2500    
   X59.1474      Y23.4681      R1.2500    
   X59.2295      Y23.1552      R1.2500    
   X59.2277      Y22.8317      R1.2500    
   X59.1423      Y22.5197      R1.2500    
   X58.9791      Y22.2404      R1.2500    
   X58.7491      Y22.0128      R1.2500    
   X58.4681      Y21.8526      R1.2500    
   X58.1552      Y21.7705      R1.2500    
   X57.8317      Y21.7723      R1.2500    
   X57.5197      Y21.8577      R1.2500    
   X57.2404      Y22.0209      R1.2500    
   X57.0128      Y22.2509      R1.2500    
   X56.8526      Y22.5319      R1.2500    
   X56.7705      Y22.8448      R1.2500    
   X56.7723      Y23.1683      R1.2500    
(Pass: 15)
G1   Z-1.500    
G17 G2   X56.8577      Y23.4803      R1.2500    
   X57.0209      Y23.7596      R1.2500    
   X57.2509      Y23.9872      R1.2500    
   X57.5319      Y24.1474      R1.2500    
   X57.8448      Y24.2295      R1.2500    
   X58.1683      Y24.2277      R1.2500    
   X58.4803      Y24.1423      R1.2500    
   X58.7596      Y23.9791      R1.2500    
   X58.9872      Y23.7491      R1.2500    
   X59.1474      Y23.4681      R1.2500    
   X59.2295      Y23.1552      R1.2500    
   X59.2277      Y22.8317      R1.2500    
   X59.1423      Y22.5197      R1.2500    
   X58.9791      Y22.2404      R1.2500    
   X58.7491      Y22.0128      R1.2500    
   X58.4681      Y21.8526      R1.2500    
   X58.1552      Y21.7705      R1.2500    
   X57.8317      Y21.7723      R1.2500    
   X57.5197      Y21.8577      R1.2500    
   X57.2404      Y22.0209      R1.2500    
   X57.0128      Y22.2509      R1.2500    
   X56.8526      Y22.5319      R1.2500    
   X56.7705      Y22.8448      R1.2500    
   X56.7723      Y23.1683      R1.2500    
(Pass: 16)
G1   Z-1.600    
G17 G2   X56.8577      Y23.4803      R1.2500    
   X57.0209      Y23.7596      R1.2500    
   X57.2509      Y23.9872      R1.2500    
   X57.5319      Y24.1474      R1.2500    
   X57.8448      Y24.2295      R1.2500    
   X58.1683      Y24.2277      R1.2500    
   X58.4803      Y24.1423      R1.2500    
   X58.7596      Y23.9791      R1.2500    
   X58.9872      Y23.7491      R1.2500    
   X59.1474      Y23.4681      R1.2500    
   X59.2295      Y23.1552      R1.2500    
   X59.2277      Y22.8317      R1.2500    
   X59.1423      Y22.5197      R1.2500    
   X58.9791      Y22.2404      R1.2500    
   X58.7491      Y22.0128      R1.2500    
   X58.4681      Y21.8526      R1.2500    
   X58.1552      Y21.7705      R1.2500    
   X57.8317      Y21.7723      R1.2500    
   X57.5197      Y21.8577      R1.2500    
   X57.2404      Y22.0209      R1.2500    
   X57.0128      Y22.2509      R1.2500    
   X56.8526      Y22.5319      R1.2500    
   X56.7705      Y22.8448      R1.2500    
   X56.7723      Y23.1683      R1.2500    
(Pass: 17)
G1   Z-1.700    
G17 G2   X56.8577      Y23.4803      R1.2500    
   X57.0209      Y23.7596      R1.2500    
   X57.2509      Y23.9872      R1.2500    
   X57.5319      Y24.1474      R1.2500    
   X57.8448      Y24.2295      R1.2500    
   X58.1683      Y24.2277      R1.2500    
   X58.4803      Y24.1423      R1.2500    
   X58.7596      Y23.9791      R1.2500    
   X58.9872      Y23.7491      R1.2500    
   X59.1474      Y23.4681      R1.2500    
   X59.2295      Y23.1552      R1.2500    
   X59.2277      Y22.8317      R1.2500    
   X59.1423      Y22.5197      R1.2500    
   X58.9791      Y22.2404      R1.2500    
   X58.7491      Y22.0128      R1.2500    
   X58.4681      Y21.8526      R1.2500    
   X58.1552      Y21.7705      R1.2500    
   X57.8317      Y21.7723      R1.2500    
   X57.5197      Y21.8577      R1.2500    
   X57.2404      Y22.0209      R1.2500    
   X57.0128      Y22.2509      R1.2500    
   X56.8526      Y22.5319      R1.2500    
   X56.7705      Y22.8448      R1.2500    
   X56.7723      Y23.1683      R1.2500    
(Pass: 18)
G1   Z-1.800    
G17 G2   X56.8577      Y23.4803      R1.2500    
   X57.0209      Y23.7596      R1.2500    
   X57.2509      Y23.9872      R1.2500    
   X57.5319      Y24.1474      R1.2500    
   X57.8448      Y24.2295      R1.2500    
   X58.1683      Y24.2277      R1.2500    
   X58.4803      Y24.1423      R1.2500    
   X58.7596      Y23.9791      R1.2500    
   X58.9872      Y23.7491      R1.2500    
   X59.1474      Y23.4681      R1.2500    
   X59.2295      Y23.1552      R1.2500    
   X59.2277      Y22.8317      R1.2500    
   X59.1423      Y22.5197      R1.2500    
   X58.9791      Y22.2404      R1.2500    
   X58.7491      Y22.0128      R1.2500    
   X58.4681      Y21.8526      R1.2500    
   X58.1552      Y21.7705      R1.2500    
   X57.8317      Y21.7723      R1.2500    
   X57.5197      Y21.8577      R1.2500    
   X57.2404      Y22.0209      R1.2500    
   X57.0128      Y22.2509      R1.2500    
   X56.8526      Y22.5319      R1.2500    
   X56.7705      Y22.8448      R1.2500    
   X56.7723      Y23.1683      R1.2500    
(Pass: 19)
G1   Z-1.900    
G17 G2   X56.8577      Y23.4803      R1.2500    
   X57.0209      Y23.7596      R1.2500    
   X57.2509      Y23.9872      R1.2500    
   X57.5319      Y24.1474      R1.2500    
   X57.8448      Y24.2295      R1.2500    
   X58.1683      Y24.2277      R1.2500    
   X58.4803      Y24.1423      R1.2500    
   X58.7596      Y23.9791      R1.2500    
   X58.9872      Y23.7491      R1.2500    
   X59.1474      Y23.4681      R1.2500    
   X59.2295      Y23.1552      R1.2500    
   X59.2277      Y22.8317      R1.2500    
   X59.1423      Y22.5197      R1.2500    
   X58.9791      Y22.2404      R1.2500    
   X58.7491      Y22.0128      R1.2500    
   X58.4681      Y21.8526      R1.2500    
   X58.1552      Y21.7705      R1.2500    
   X57.8317      Y21.7723      R1.2500    
   X57.5197      Y21.8577      R1.2500    
   X57.2404      Y22.0209      R1.2500    
   X57.0128      Y22.2509      R1.2500    
   X56.8526      Y22.5319      R1.2500    
   X56.7705      Y22.8448      R1.2500    
   X56.7723      Y23.1683      R1.2500    
(Pass: 20)
G1   Z-2.000    
G17 G2   X56.8577      Y23.4803      R1.2500    
   X57.0209      Y23.7596      R1.2500    
   X57.2509      Y23.9872      R1.2500    
   X57.5319      Y24.1474      R1.2500    
   X57.8448      Y24.2295      R1.2500    
   X58.1683      Y24.2277      R1.2500    
   X58.4803      Y24.1423      R1.2500    
   X58.7596      Y23.9791      R1.2500    
   X58.9872      Y23.7491      R1.2500    
   X59.1474      Y23.4681      R1.2500    
   X59.2295      Y23.1552      R1.2500    
   X59.2277      Y22.8317      R1.2500    
   X59.1423      Y22.5197      R1.2500    
   X58.9791      Y22.2404      R1.2500    
   X58.7491      Y22.0128      R1.2500    
   X58.4681      Y21.8526      R1.2500    
   X58.1552      Y21.7705      R1.2500    
   X57.8317      Y21.7723      R1.2500    
   X57.5197      Y21.8577      R1.2500    
   X57.2404      Y22.0209      R1.2500    
   X57.0128      Y22.2509      R1.2500    
   X56.8526      Y22.5319      R1.2500    
   X56.7705      Y22.8448      R1.2500    
   X56.7723      Y23.1683      R1.2500    
(Pass: 21)
G1   Z-2.100    
G17 G2   X56.8577      Y23.4803      R1.2500    
   X57.0209      Y23.7596      R1.2500    
   X57.2509      Y23.9872      R1.2500    
   X57.5319      Y24.1474      R1.2500    
   X57.8448      Y24.2295      R1.2500    
   X58.1683      Y24.2277      R1.2500    
   X58.4803      Y24.1423      R1.2500    
   X58.7596      Y23.9791      R1.2500    
   X58.9872      Y23.7491      R1.2500    
   X59.1474      Y23.4681      R1.2500    
   X59.2295      Y23.1552      R1.2500    
   X59.2277      Y22.8317      R1.2500    
   X59.1423      Y22.5197      R1.2500    
   X58.9791      Y22.2404      R1.2500    
   X58.7491      Y22.0128      R1.2500    
   X58.4681      Y21.8526      R1.2500    
   X58.1552      Y21.7705      R1.2500    
   X57.8317      Y21.7723      R1.2500    
   X57.5197      Y21.8577      R1.2500    
   X57.2404      Y22.0209      R1.2500    
   X57.0128      Y22.2509      R1.2500    
   X56.8526      Y22.5319      R1.2500    
   X56.7705      Y22.8448      R1.2500    
   X56.7723      Y23.1683      R1.2500    
(Pass: 22)
G1   Z-2.200    
G17 G2   X56.8577      Y23.4803      R1.2500    
   X57.0209      Y23.7596      R1.2500    
   X57.2509      Y23.9872      R1.2500    
   X57.5319      Y24.1474      R1.2500    
   X57.8448      Y24.2295      R1.2500    
   X58.1683      Y24.2277      R1.2500    
   X58.4803      Y24.1423      R1.2500    
   X58.7596      Y23.9791      R1.2500    
   X58.9872      Y23.7491      R1.2500    
   X59.1474      Y23.4681      R1.2500    
   X59.2295      Y23.1552      R1.2500    
   X59.2277      Y22.8317      R1.2500    
   X59.1423      Y22.5197      R1.2500    
   X58.9791      Y22.2404      R1.2500    
   X58.7491      Y22.0128      R1.2500    
   X58.4681      Y21.8526      R1.2500    
   X58.1552      Y21.7705      R1.2500    
   X57.8317      Y21.7723      R1.2500    
   X57.5197      Y21.8577      R1.2500    
   X57.2404      Y22.0209      R1.2500    
   X57.0128      Y22.2509      R1.2500    
   X56.8526      Y22.5319      R1.2500    
   X56.7705      Y22.8448      R1.2500    
   X56.7723      Y23.1683      R1.2500    
(Pass: 23)
G1   Z-2.300    
G17 G2   X56.8577      Y23.4803      R1.2500    
   X57.0209      Y23.7596      R1.2500    
   X57.2509      Y23.9872      R1.2500    
   X57.5319      Y24.1474      R1.2500    
   X57.8448      Y24.2295      R1.2500    
   X58.1683      Y24.2277      R1.2500    
   X58.4803      Y24.1423      R1.2500    
   X58.7596      Y23.9791      R1.2500    
   X58.9872      Y23.7491      R1.2500    
   X59.1474      Y23.4681      R1.2500    
   X59.2295      Y23.1552      R1.2500    
   X59.2277      Y22.8317      R1.2500    
   X59.1423      Y22.5197      R1.2500    
   X58.9791      Y22.2404      R1.2500    
   X58.7491      Y22.0128      R1.2500    
   X58.4681      Y21.8526      R1.2500    
   X58.1552      Y21.7705      R1.2500    
   X57.8317      Y21.7723      R1.2500    
   X57.5197      Y21.8577      R1.2500    
   X57.2404      Y22.0209      R1.2500    
   X57.0128      Y22.2509      R1.2500    
   X56.8526      Y22.5319      R1.2500    
   X56.7705      Y22.8448      R1.2500    
   X56.7723      Y23.1683      R1.2500    
(Pass: 24)
G1   Z-2.400    
G17 G2   X56.8577      Y23.4803      R1.2500    
   X57.0209      Y23.7596      R1.2500    
   X57.2509      Y23.9872      R1.2500    
   X57.5319      Y24.1474      R1.2500    
   X57.8448      Y24.2295      R1.2500    
   X58.1683      Y24.2277      R1.2500    
   X58.4803      Y24.1423      R1.2500    
   X58.7596      Y23.9791      R1.2500    
   X58.9872      Y23.7491      R1.2500    
   X59.1474      Y23.4681      R1.2500    
   X59.2295      Y23.1552      R1.2500    
   X59.2277      Y22.8317      R1.2500    
   X59.1423      Y22.5197      R1.2500    
   X58.9791      Y22.2404      R1.2500    
   X58.7491      Y22.0128      R1.2500    
   X58.4681      Y21.8526      R1.2500    
   X58.1552      Y21.7705      R1.2500    
   X57.8317      Y21.7723      R1.2500    
   X57.5197      Y21.8577      R1.2500    
   X57.2404      Y22.0209      R1.2500    
   X57.0128      Y22.2509      R1.2500    
   X56.8526      Y22.5319      R1.2500    
   X56.7705      Y22.8448      R1.2500    
   X56.7723      Y23.1683      R1.2500    
(Pass: 25)
G1   Z-2.500    
G17 G2   X56.8577      Y23.4803      R1.2500    
   X57.0209      Y23.7596      R1.2500    
   X57.2509      Y23.9872      R1.2500    
   X57.5319      Y24.1474      R1.2500    
   X57.8448      Y24.2295      R1.2500    
   X58.1683      Y24.2277      R1.2500    
   X58.4803      Y24.1423      R1.2500    
   X58.7596      Y23.9791      R1.2500    
   X58.9872      Y23.7491      R1.2500    
   X59.1474      Y23.4681      R1.2500    
   X59.2295      Y23.1552      R1.2500    
   X59.2277      Y22.8317      R1.2500    
   X59.1423      Y22.5197      R1.2500    
   X58.9791      Y22.2404      R1.2500    
   X58.7491      Y22.0128      R1.2500    
   X58.4681      Y21.8526      R1.2500    
   X58.1552      Y21.7705      R1.2500    
   X57.8317      Y21.7723      R1.2500    
   X57.5197      Y21.8577      R1.2500    
   X57.2404      Y22.0209      R1.2500    
   X57.0128      Y22.2509      R1.2500    
   X56.8526      Y22.5319      R1.2500    
   X56.7705      Y22.8448      R1.2500    
   X56.7723      Y23.1683      R1.2500    
(Pass: 26)
G1   Z-2.600    
G17 G2   X56.8577      Y23.4803      R1.2500    
   X57.0209      Y23.7596      R1.2500    
   X57.2509      Y23.9872      R1.2500    
   X57.5319      Y24.1474      R1.2500    
   X57.8448      Y24.2295      R1.2500    
   X58.1683      Y24.2277      R1.2500    
   X58.4803      Y24.1423      R1.2500    
   X58.7596      Y23.9791      R1.2500    
   X58.9872      Y23.7491      R1.2500    
   X59.1474      Y23.4681      R1.2500    
   X59.2295      Y23.1552      R1.2500    
   X59.2277      Y22.8317      R1.2500    
   X59.1423      Y22.5197      R1.2500    
   X58.9791      Y22.2404      R1.2500    
   X58.7491      Y22.0128      R1.2500    
   X58.4681      Y21.8526      R1.2500    
   X58.1552      Y21.7705      R1.2500    
   X57.8317      Y21.7723      R1.2500    
   X57.5197      Y21.8577      R1.2500    
   X57.2404      Y22.0209      R1.2500    
   X57.0128      Y22.2509      R1.2500    
   X56.8526      Y22.5319      R1.2500    
   X56.7705      Y22.8448      R1.2500    
   X56.7723      Y23.1683      R1.2500    
(Pass: 27)
G1   Z-2.700    
G17 G2   X56.8577      Y23.4803      R1.2500    
   X57.0209      Y23.7596      R1.2500    
   X57.2509      Y23.9872      R1.2500    
   X57.5319      Y24.1474      R1.2500    
   X57.8448      Y24.2295      R1.2500    
   X58.1683      Y24.2277      R1.2500    
   X58.4803      Y24.1423      R1.2500    
   X58.7596      Y23.9791      R1.2500    
   X58.9872      Y23.7491      R1.2500    
   X59.1474      Y23.4681      R1.2500    
   X59.2295      Y23.1552      R1.2500    
   X59.2277      Y22.8317      R1.2500    
   X59.1423      Y22.5197      R1.2500    
   X58.9791      Y22.2404      R1.2500    
   X58.7491      Y22.0128      R1.2500    
   X58.4681      Y21.8526      R1.2500    
   X58.1552      Y21.7705      R1.2500    
   X57.8317      Y21.7723      R1.2500    
   X57.5197      Y21.8577      R1.2500    
   X57.2404      Y22.0209      R1.2500    
   X57.0128      Y22.2509      R1.2500    
   X56.8526      Y22.5319      R1.2500    
   X56.7705      Y22.8448      R1.2500    
   X56.7723      Y23.1683      R1.2500    
(Pass: 28)
G1   Z-2.800    
G17 G2   X56.8577      Y23.4803      R1.2500    
   X57.0209      Y23.7596      R1.2500    
   X57.2509      Y23.9872      R1.2500    
   X57.5319      Y24.1474      R1.2500    
   X57.8448      Y24.2295      R1.2500    
   X58.1683      Y24.2277      R1.2500    
   X58.4803      Y24.1423      R1.2500    
   X58.7596      Y23.9791      R1.2500    
   X58.9872      Y23.7491      R1.2500    
   X59.1474      Y23.4681      R1.2500    
   X59.2295      Y23.1552      R1.2500    
   X59.2277      Y22.8317      R1.2500    
   X59.1423      Y22.5197      R1.2500    
   X58.9791      Y22.2404      R1.2500    
   X58.7491      Y22.0128      R1.2500    
   X58.4681      Y21.8526      R1.2500    
   X58.1552      Y21.7705      R1.2500    
   X57.8317      Y21.7723      R1.2500    
   X57.5197      Y21.8577      R1.2500    
   X57.2404      Y22.0209      R1.2500    
   X57.0128      Y22.2509      R1.2500    
   X56.8526      Y22.5319      R1.2500    
   X56.7705      Y22.8448      R1.2500    
   X56.7723      Y23.1683      R1.2500    
(Pass: 29)
G1   Z-2.900    
G17 G2   X56.8577      Y23.4803      R1.2500    
   X57.0209      Y23.7596      R1.2500    
   X57.2509      Y23.9872      R1.2500    
   X57.5319      Y24.1474      R1.2500    
   X57.8448      Y24.2295      R1.2500    
   X58.1683      Y24.2277      R1.2500    
   X58.4803      Y24.1423      R1.2500    
   X58.7596      Y23.9791      R1.2500    
   X58.9872      Y23.7491      R1.2500    
   X59.1474      Y23.4681      R1.2500    
   X59.2295      Y23.1552      R1.2500    
   X59.2277      Y22.8317      R1.2500    
   X59.1423      Y22.5197      R1.2500    
   X58.9791      Y22.2404      R1.2500    
   X58.7491      Y22.0128      R1.2500    
   X58.4681      Y21.8526      R1.2500    
   X58.1552      Y21.7705      R1.2500    
   X57.8317      Y21.7723      R1.2500    
   X57.5197      Y21.8577      R1.2500    
   X57.2404      Y22.0209      R1.2500    
   X57.0128      Y22.2509      R1.2500    
   X56.8526      Y22.5319      R1.2500    
   X56.7705      Y22.8448      R1.2500    
   X56.7723      Y23.1683      R1.2500    
(Pass: 30)
G1   Z-3.000    
G17 G2   X56.8577      Y23.4803      R1.2500    
   X57.0209      Y23.7596      R1.2500    
   X57.2509      Y23.9872      R1.2500    
   X57.5319      Y24.1474      R1.2500    
   X57.8448      Y24.2295      R1.2500    
   X58.1683      Y24.2277      R1.2500    
   X58.4803      Y24.1423      R1.2500    
   X58.7596      Y23.9791      R1.2500    
   X58.9872      Y23.7491      R1.2500    
   X59.1474      Y23.4681      R1.2500    
   X59.2295      Y23.1552      R1.2500    
   X59.2277      Y22.8317      R1.2500    
   X59.1423      Y22.5197      R1.2500    
   X58.9791      Y22.2404      R1.2500    
   X58.7491      Y22.0128      R1.2500    
   X58.4681      Y21.8526      R1.2500    
   X58.1552      Y21.7705      R1.2500    
   X57.8317      Y21.7723      R1.2500    
   X57.5197      Y21.8577      R1.2500    
   X57.2404      Y22.0209      R1.2500    
   X57.0128      Y22.2509      R1.2500    
   X56.8526      Y22.5319      R1.2500    
   X56.7705      Y22.8448      R1.2500    
   X56.7723      Y23.1683      R1.2500    
(Pass: 31)
G1   Z-3.100    
G17 G2   X56.8577      Y23.4803      R1.2500    
   X57.0209      Y23.7596      R1.2500    
   X57.2509      Y23.9872      R1.2500    
   X57.5319      Y24.1474      R1.2500    
   X57.8448      Y24.2295      R1.2500    
   X58.1683      Y24.2277      R1.2500    
   X58.4803      Y24.1423      R1.2500    
   X58.7596      Y23.9791      R1.2500    
   X58.9872      Y23.7491      R1.2500    
   X59.1474      Y23.4681      R1.2500    
   X59.2295      Y23.1552      R1.2500    
   X59.2277      Y22.8317      R1.2500    
   X59.1423      Y22.5197      R1.2500    
   X58.9791      Y22.2404      R1.2500    
   X58.7491      Y22.0128      R1.2500    
   X58.4681      Y21.8526      R1.2500    
   X58.1552      Y21.7705      R1.2500    
   X57.8317      Y21.7723      R1.2500    
   X57.5197      Y21.8577      R1.2500    
   X57.2404      Y22.0209      R1.2500    
   X57.0128      Y22.2509      R1.2500    
   X56.8526      Y22.5319      R1.2500    
   X56.7705      Y22.8448      R1.2500    
   X56.7723      Y23.1683      R1.2500    
(Pass: 32)
G1   Z-3.200    
G17 G2   X56.8577      Y23.4803      R1.2500    
   X57.0209      Y23.7596      R1.2500    
   X57.2509      Y23.9872      R1.2500    
   X57.5319      Y24.1474      R1.2500    
   X57.8448      Y24.2295      R1.2500    
   X58.1683      Y24.2277      R1.2500    
   X58.4803      Y24.1423      R1.2500    
   X58.7596      Y23.9791      R1.2500    
   X58.9872      Y23.7491      R1.2500    
   X59.1474      Y23.4681      R1.2500    
   X59.2295      Y23.1552      R1.2500    
   X59.2277      Y22.8317      R1.2500    
   X59.1423      Y22.5197      R1.2500    
   X58.9791      Y22.2404      R1.2500    
   X58.7491      Y22.0128      R1.2500    
   X58.4681      Y21.8526      R1.2500    
   X58.1552      Y21.7705      R1.2500    
   X57.8317      Y21.7723      R1.2500    
   X57.5197      Y21.8577      R1.2500    
   X57.2404      Y22.0209      R1.2500    
   X57.0128      Y22.2509      R1.2500    
   X56.8526      Y22.5319      R1.2500    
   X56.7705      Y22.8448      R1.2500    
   X56.7723      Y23.1683      R1.2500    
(Pass: 33)
G1   Z-3.300    
G17 G2   X56.8577      Y23.4803      R1.2500    
   X57.0209      Y23.7596      R1.2500    
   X57.2509      Y23.9872      R1.2500    
   X57.5319      Y24.1474      R1.2500    
   X57.8448      Y24.2295      R1.2500    
   X58.1683      Y24.2277      R1.2500    
   X58.4803      Y24.1423      R1.2500    
   X58.7596      Y23.9791      R1.2500    
   X58.9872      Y23.7491      R1.2500    
   X59.1474      Y23.4681      R1.2500    
   X59.2295      Y23.1552      R1.2500    
   X59.2277      Y22.8317      R1.2500    
   X59.1423      Y22.5197      R1.2500    
   X58.9791      Y22.2404      R1.2500    
   X58.7491      Y22.0128      R1.2500    
   X58.4681      Y21.8526      R1.2500    
   X58.1552      Y21.7705      R1.2500    
   X57.8317      Y21.7723      R1.2500    
   X57.5197      Y21.8577      R1.2500    
   X57.2404      Y22.0209      R1.2500    
   X57.0128      Y22.2509      R1.2500    
   X56.8526      Y22.5319      R1.2500    
   X56.7705      Y22.8448      R1.2500    
   X56.7723      Y23.1683      R1.2500    
(Pass: 34)
G1   Z-3.400    
G17 G2   X56.8577      Y23.4803      R1.2500    
   X57.0209      Y23.7596      R1.2500    
   X57.2509      Y23.9872      R1.2500    
   X57.5319      Y24.1474      R1.2500    
   X57.8448      Y24.2295      R1.2500    
   X58.1683      Y24.2277      R1.2500    
   X58.4803      Y24.1423      R1.2500    
   X58.7596      Y23.9791      R1.2500    
   X58.9872      Y23.7491      R1.2500    
   X59.1474      Y23.4681      R1.2500    
   X59.2295      Y23.1552      R1.2500    
   X59.2277      Y22.8317      R1.2500    
   X59.1423      Y22.5197      R1.2500    
   X58.9791      Y22.2404      R1.2500    
   X58.7491      Y22.0128      R1.2500    
   X58.4681      Y21.8526      R1.2500    
   X58.1552      Y21.7705      R1.2500    
   X57.8317      Y21.7723      R1.2500    
   X57.5197      Y21.8577      R1.2500    
   X57.2404      Y22.0209      R1.2500    
   X57.0128      Y22.2509      R1.2500    
   X56.8526      Y22.5319      R1.2500    
   X56.7705      Y22.8448      R1.2500    
   X56.7723      Y23.1683      R1.2500    
(BREAK pass 34)
G0   Z6.000     
(Pass: 1)
   X57.784       Y14.220    
G1   Z-0.100     F1000
G17 G2   X58.1068      Y14.2346      R1.2500    
   X58.4227      Y14.1649      R1.2500    
   X58.7098      Y14.0158      R1.2500    
   X58.9485      Y13.7975      R1.2500    
   X59.1226      Y13.5248      R1.2500    
   X59.2202      Y13.2164      R1.2500    
   X59.2346      Y12.8932      R1.2500    
   X59.1649      Y12.5773      R1.2500    
   X59.0158      Y12.2902      R1.2500    
   X58.7975      Y12.0515      R1.2500    
   X58.5248      Y11.8774      R1.2500    
   X58.2164      Y11.7798      R1.2500    
   X57.8932      Y11.7654      R1.2500    
   X57.5773      Y11.8351      R1.2500    
   X57.2902      Y11.9842      R1.2500    
   X57.0515      Y12.2025      R1.2500    
   X56.8774      Y12.4752      R1.2500    
   X56.7798      Y12.7836      R1.2500    
   X56.7654      Y13.1068      R1.2500    
   X56.8351      Y13.4227      R1.2500    
   X56.9842      Y13.7098      R1.2500    
   X57.2025      Y13.9485      R1.2500    
   X57.4752      Y14.1226      R1.2500    
   X57.7836      Y14.2202      R1.2500    
(Pass: 2)
G1   Z-0.200    
G17 G2   X58.1068      Y14.2346      R1.2500    
   X58.4227      Y14.1649      R1.2500    
   X58.7098      Y14.0158      R1.2500    
   X58.9485      Y13.7975      R1.2500    
   X59.1226      Y13.5248      R1.2500    
   X59.2202      Y13.2164      R1.2500    
   X59.2346      Y12.8932      R1.2500    
   X59.1649      Y12.5773      R1.2500    
   X59.0158      Y12.2902      R1.2500    
   X58.7975      Y12.0515      R1.2500    
   X58.5248      Y11.8774      R1.2500    
   X58.2164      Y11.7798      R1.2500    
   X57.8932      Y11.7654      R1.2500    
   X57.5773      Y11.8351      R1.2500    
   X57.2902      Y11.9842      R1.2500    
   X57.0515      Y12.2025      R1.2500    
   X56.8774      Y12.4752      R1.2500    
   X56.7798      Y12.7836      R1.2500    
   X56.7654      Y13.1068      R1.2500    
   X56.8351      Y13.4227      R1.2500    
   X56.9842      Y13.7098      R1.2500    
   X57.2025      Y13.9485      R1.2500    
   X57.4752      Y14.1226      R1.2500    
   X57.7836      Y14.2202      R1.2500    
(Pass: 3)
G1   Z-0.300    
G17 G2   X58.1068      Y14.2346      R1.2500    
   X58.4227      Y14.1649      R1.2500    
   X58.7098      Y14.0158      R1.2500    
   X58.9485      Y13.7975      R1.2500    
   X59.1226      Y13.5248      R1.2500    
   X59.2202      Y13.2164      R1.2500    
   X59.2346      Y12.8932      R1.2500    
   X59.1649      Y12.5773      R1.2500    
   X59.0158      Y12.2902      R1.2500    
   X58.7975      Y12.0515      R1.2500    
   X58.5248      Y11.8774      R1.2500    
   X58.2164      Y11.7798      R1.2500    
   X57.8932      Y11.7654      R1.2500    
   X57.5773      Y11.8351      R1.2500    
   X57.2902      Y11.9842      R1.2500    
   X57.0515      Y12.2025      R1.2500    
   X56.8774      Y12.4752      R1.2500    
   X56.7798      Y12.7836      R1.2500    
   X56.7654      Y13.1068      R1.2500    
   X56.8351      Y13.4227      R1.2500    
   X56.9842      Y13.7098      R1.2500    
   X57.2025      Y13.9485      R1.2500    
   X57.4752      Y14.1226      R1.2500    
   X57.7836      Y14.2202      R1.2500    
(Pass: 4)
G1   Z-0.400    
G17 G2   X58.1068      Y14.2346      R1.2500    
   X58.4227      Y14.1649      R1.2500    
   X58.7098      Y14.0158      R1.2500    
   X58.9485      Y13.7975      R1.2500    
   X59.1226      Y13.5248      R1.2500    
   X59.2202      Y13.2164      R1.2500    
   X59.2346      Y12.8932      R1.2500    
   X59.1649      Y12.5773      R1.2500    
   X59.0158      Y12.2902      R1.2500    
   X58.7975      Y12.0515      R1.2500    
   X58.5248      Y11.8774      R1.2500    
   X58.2164      Y11.7798      R1.2500    
   X57.8932      Y11.7654      R1.2500    
   X57.5773      Y11.8351      R1.2500    
   X57.2902      Y11.9842      R1.2500    
   X57.0515      Y12.2025      R1.2500    
   X56.8774      Y12.4752      R1.2500    
   X56.7798      Y12.7836      R1.2500    
   X56.7654      Y13.1068      R1.2500    
   X56.8351      Y13.4227      R1.2500    
   X56.9842      Y13.7098      R1.2500    
   X57.2025      Y13.9485      R1.2500    
   X57.4752      Y14.1226      R1.2500    
   X57.7836      Y14.2202      R1.2500    
(Pass: 5)
G1   Z-0.500    
G17 G2   X58.1068      Y14.2346      R1.2500    
   X58.4227      Y14.1649      R1.2500    
   X58.7098      Y14.0158      R1.2500    
   X58.9485      Y13.7975      R1.2500    
   X59.1226      Y13.5248      R1.2500    
   X59.2202      Y13.2164      R1.2500    
   X59.2346      Y12.8932      R1.2500    
   X59.1649      Y12.5773      R1.2500    
   X59.0158      Y12.2902      R1.2500    
   X58.7975      Y12.0515      R1.2500    
   X58.5248      Y11.8774      R1.2500    
   X58.2164      Y11.7798      R1.2500    
   X57.8932      Y11.7654      R1.2500    
   X57.5773      Y11.8351      R1.2500    
   X57.2902      Y11.9842      R1.2500    
   X57.0515      Y12.2025      R1.2500    
   X56.8774      Y12.4752      R1.2500    
   X56.7798      Y12.7836      R1.2500    
   X56.7654      Y13.1068      R1.2500    
   X56.8351      Y13.4227      R1.2500    
   X56.9842      Y13.7098      R1.2500    
   X57.2025      Y13.9485      R1.2500    
   X57.4752      Y14.1226      R1.2500    
   X57.7836      Y14.2202      R1.2500    
(Pass: 6)
G1   Z-0.600    
G17 G2   X58.1068      Y14.2346      R1.2500    
   X58.4227      Y14.1649      R1.2500    
   X58.7098      Y14.0158      R1.2500    
   X58.9485      Y13.7975      R1.2500    
   X59.1226      Y13.5248      R1.2500    
   X59.2202      Y13.2164      R1.2500    
   X59.2346      Y12.8932      R1.2500    
   X59.1649      Y12.5773      R1.2500    
   X59.0158      Y12.2902      R1.2500    
   X58.7975      Y12.0515      R1.2500    
   X58.5248      Y11.8774      R1.2500    
   X58.2164      Y11.7798      R1.2500    
   X57.8932      Y11.7654      R1.2500    
   X57.5773      Y11.8351      R1.2500    
   X57.2902      Y11.9842      R1.2500    
   X57.0515      Y12.2025      R1.2500    
   X56.8774      Y12.4752      R1.2500    
   X56.7798      Y12.7836      R1.2500    
   X56.7654      Y13.1068      R1.2500    
   X56.8351      Y13.4227      R1.2500    
   X56.9842      Y13.7098      R1.2500    
   X57.2025      Y13.9485      R1.2500    
   X57.4752      Y14.1226      R1.2500    
   X57.7836      Y14.2202      R1.2500    
(Pass: 7)
G1   Z-0.700    
G17 G2   X58.1068      Y14.2346      R1.2500    
   X58.4227      Y14.1649      R1.2500    
   X58.7098      Y14.0158      R1.2500    
   X58.9485      Y13.7975      R1.2500    
   X59.1226      Y13.5248      R1.2500    
   X59.2202      Y13.2164      R1.2500    
   X59.2346      Y12.8932      R1.2500    
   X59.1649      Y12.5773      R1.2500    
   X59.0158      Y12.2902      R1.2500    
   X58.7975      Y12.0515      R1.2500    
   X58.5248      Y11.8774      R1.2500    
   X58.2164      Y11.7798      R1.2500    
   X57.8932      Y11.7654      R1.2500    
   X57.5773      Y11.8351      R1.2500    
   X57.2902      Y11.9842      R1.2500    
   X57.0515      Y12.2025      R1.2500    
   X56.8774      Y12.4752      R1.2500    
   X56.7798      Y12.7836      R1.2500    
   X56.7654      Y13.1068      R1.2500    
   X56.8351      Y13.4227      R1.2500    
   X56.9842      Y13.7098      R1.2500    
   X57.2025      Y13.9485      R1.2500    
   X57.4752      Y14.1226      R1.2500    
   X57.7836      Y14.2202      R1.2500    
(Pass: 8)
G1   Z-0.800    
G17 G2   X58.1068      Y14.2346      R1.2500    
   X58.4227      Y14.1649      R1.2500    
   X58.7098      Y14.0158      R1.2500    
   X58.9485      Y13.7975      R1.2500    
   X59.1226      Y13.5248      R1.2500    
   X59.2202      Y13.2164      R1.2500    
   X59.2346      Y12.8932      R1.2500    
   X59.1649      Y12.5773      R1.2500    
   X59.0158      Y12.2902      R1.2500    
   X58.7975      Y12.0515      R1.2500    
   X58.5248      Y11.8774      R1.2500    
   X58.2164      Y11.7798      R1.2500    
   X57.8932      Y11.7654      R1.2500    
   X57.5773      Y11.8351      R1.2500    
   X57.2902      Y11.9842      R1.2500    
   X57.0515      Y12.2025      R1.2500    
   X56.8774      Y12.4752      R1.2500    
   X56.7798      Y12.7836      R1.2500    
   X56.7654      Y13.1068      R1.2500    
   X56.8351      Y13.4227      R1.2500    
   X56.9842      Y13.7098      R1.2500    
   X57.2025      Y13.9485      R1.2500    
   X57.4752      Y14.1226      R1.2500    
   X57.7836      Y14.2202      R1.2500    
(Pass: 9)
G1   Z-0.900    
G17 G2   X58.1068      Y14.2346      R1.2500    
   X58.4227      Y14.1649      R1.2500    
   X58.7098      Y14.0158      R1.2500    
   X58.9485      Y13.7975      R1.2500    
   X59.1226      Y13.5248      R1.2500    
   X59.2202      Y13.2164      R1.2500    
   X59.2346      Y12.8932      R1.2500    
   X59.1649      Y12.5773      R1.2500    
   X59.0158      Y12.2902      R1.2500    
   X58.7975      Y12.0515      R1.2500    
   X58.5248      Y11.8774      R1.2500    
   X58.2164      Y11.7798      R1.2500    
   X57.8932      Y11.7654      R1.2500    
   X57.5773      Y11.8351      R1.2500    
   X57.2902      Y11.9842      R1.2500    
   X57.0515      Y12.2025      R1.2500    
   X56.8774      Y12.4752      R1.2500    
   X56.7798      Y12.7836      R1.2500    
   X56.7654      Y13.1068      R1.2500    
   X56.8351      Y13.4227      R1.2500    
   X56.9842      Y13.7098      R1.2500    
   X57.2025      Y13.9485      R1.2500    
   X57.4752      Y14.1226      R1.2500    
   X57.7836      Y14.2202      R1.2500    
(Pass: 10)
G1   Z-1.000    
G17 G2   X58.1068      Y14.2346      R1.2500    
   X58.4227      Y14.1649      R1.2500    
   X58.7098      Y14.0158      R1.2500    
   X58.9485      Y13.7975      R1.2500    
   X59.1226      Y13.5248      R1.2500    
   X59.2202      Y13.2164      R1.2500    
   X59.2346      Y12.8932      R1.2500    
   X59.1649      Y12.5773      R1.2500    
   X59.0158      Y12.2902      R1.2500    
   X58.7975      Y12.0515      R1.2500    
   X58.5248      Y11.8774      R1.2500    
   X58.2164      Y11.7798      R1.2500    
   X57.8932      Y11.7654      R1.2500    
   X57.5773      Y11.8351      R1.2500    
   X57.2902      Y11.9842      R1.2500    
   X57.0515      Y12.2025      R1.2500    
   X56.8774      Y12.4752      R1.2500    
   X56.7798      Y12.7836      R1.2500    
   X56.7654      Y13.1068      R1.2500    
   X56.8351      Y13.4227      R1.2500    
   X56.9842      Y13.7098      R1.2500    
   X57.2025      Y13.9485      R1.2500    
   X57.4752      Y14.1226      R1.2500    
   X57.7836      Y14.2202      R1.2500    
(Pass: 11)
G1   Z-1.100    
G17 G2   X58.1068      Y14.2346      R1.2500    
   X58.4227      Y14.1649      R1.2500    
   X58.7098      Y14.0158      R1.2500    
   X58.9485      Y13.7975      R1.2500    
   X59.1226      Y13.5248      R1.2500    
   X59.2202      Y13.2164      R1.2500    
   X59.2346      Y12.8932      R1.2500    
   X59.1649      Y12.5773      R1.2500    
   X59.0158      Y12.2902      R1.2500    
   X58.7975      Y12.0515      R1.2500    
   X58.5248      Y11.8774      R1.2500    
   X58.2164      Y11.7798      R1.2500    
   X57.8932      Y11.7654      R1.2500    
   X57.5773      Y11.8351      R1.2500    
   X57.2902      Y11.9842      R1.2500    
   X57.0515      Y12.2025      R1.2500    
   X56.8774      Y12.4752      R1.2500    
   X56.7798      Y12.7836      R1.2500    
   X56.7654      Y13.1068      R1.2500    
   X56.8351      Y13.4227      R1.2500    
   X56.9842      Y13.7098      R1.2500    
   X57.2025      Y13.9485      R1.2500    
   X57.4752      Y14.1226      R1.2500    
   X57.7836      Y14.2202      R1.2500    
(Pass: 12)
G1   Z-1.200    
G17 G2   X58.1068      Y14.2346      R1.2500    
   X58.4227      Y14.1649      R1.2500    
   X58.7098      Y14.0158      R1.2500    
   X58.9485      Y13.7975      R1.2500    
   X59.1226      Y13.5248      R1.2500    
   X59.2202      Y13.2164      R1.2500    
   X59.2346      Y12.8932      R1.2500    
   X59.1649      Y12.5773      R1.2500    
   X59.0158      Y12.2902      R1.2500    
   X58.7975      Y12.0515      R1.2500    
   X58.5248      Y11.8774      R1.2500    
   X58.2164      Y11.7798      R1.2500    
   X57.8932      Y11.7654      R1.2500    
   X57.5773      Y11.8351      R1.2500    
   X57.2902      Y11.9842      R1.2500    
   X57.0515      Y12.2025      R1.2500    
   X56.8774      Y12.4752      R1.2500    
   X56.7798      Y12.7836      R1.2500    
   X56.7654      Y13.1068      R1.2500    
   X56.8351      Y13.4227      R1.2500    
   X56.9842      Y13.7098      R1.2500    
   X57.2025      Y13.9485      R1.2500    
   X57.4752      Y14.1226      R1.2500    
   X57.7836      Y14.2202      R1.2500    
(Pass: 13)
G1   Z-1.300    
G17 G2   X58.1068      Y14.2346      R1.2500    
   X58.4227      Y14.1649      R1.2500    
   X58.7098      Y14.0158      R1.2500    
   X58.9485      Y13.7975      R1.2500    
   X59.1226      Y13.5248      R1.2500    
   X59.2202      Y13.2164      R1.2500    
   X59.2346      Y12.8932      R1.2500    
   X59.1649      Y12.5773      R1.2500    
   X59.0158      Y12.2902      R1.2500    
   X58.7975      Y12.0515      R1.2500    
   X58.5248      Y11.8774      R1.2500    
   X58.2164      Y11.7798      R1.2500    
   X57.8932      Y11.7654      R1.2500    
   X57.5773      Y11.8351      R1.2500    
   X57.2902      Y11.9842      R1.2500    
   X57.0515      Y12.2025      R1.2500    
   X56.8774      Y12.4752      R1.2500    
   X56.7798      Y12.7836      R1.2500    
   X56.7654      Y13.1068      R1.2500    
   X56.8351      Y13.4227      R1.2500    
   X56.9842      Y13.7098      R1.2500    
   X57.2025      Y13.9485      R1.2500    
   X57.4752      Y14.1226      R1.2500    
   X57.7836      Y14.2202      R1.2500    
(Pass: 14)
G1   Z-1.400    
G17 G2   X58.1068      Y14.2346      R1.2500    
   X58.4227      Y14.1649      R1.2500    
   X58.7098      Y14.0158      R1.2500    
   X58.9485      Y13.7975      R1.2500    
   X59.1226      Y13.5248      R1.2500    
   X59.2202      Y13.2164      R1.2500    
   X59.2346      Y12.8932      R1.2500    
   X59.1649      Y12.5773      R1.2500    
   X59.0158      Y12.2902      R1.2500    
   X58.7975      Y12.0515      R1.2500    
   X58.5248      Y11.8774      R1.2500    
   X58.2164      Y11.7798      R1.2500    
   X57.8932      Y11.7654      R1.2500    
   X57.5773      Y11.8351      R1.2500    
   X57.2902      Y11.9842      R1.2500    
   X57.0515      Y12.2025      R1.2500    
   X56.8774      Y12.4752      R1.2500    
   X56.7798      Y12.7836      R1.2500    
   X56.7654      Y13.1068      R1.2500    
   X56.8351      Y13.4227      R1.2500    
   X56.9842      Y13.7098      R1.2500    
   X57.2025      Y13.9485      R1.2500    
   X57.4752      Y14.1226      R1.2500    
   X57.7836      Y14.2202      R1.2500    
(Pass: 15)
G1   Z-1.500    
G17 G2   X58.1068      Y14.2346      R1.2500    
   X58.4227      Y14.1649      R1.2500    
   X58.7098      Y14.0158      R1.2500    
   X58.9485      Y13.7975      R1.2500    
   X59.1226      Y13.5248      R1.2500    
   X59.2202      Y13.2164      R1.2500    
   X59.2346      Y12.8932      R1.2500    
   X59.1649      Y12.5773      R1.2500    
   X59.0158      Y12.2902      R1.2500    
   X58.7975      Y12.0515      R1.2500    
   X58.5248      Y11.8774      R1.2500    
   X58.2164      Y11.7798      R1.2500    
   X57.8932      Y11.7654      R1.2500    
   X57.5773      Y11.8351      R1.2500    
   X57.2902      Y11.9842      R1.2500    
   X57.0515      Y12.2025      R1.2500    
   X56.8774      Y12.4752      R1.2500    
   X56.7798      Y12.7836      R1.2500    
   X56.7654      Y13.1068      R1.2500    
   X56.8351      Y13.4227      R1.2500    
   X56.9842      Y13.7098      R1.2500    
   X57.2025      Y13.9485      R1.2500    
   X57.4752      Y14.1226      R1.2500    
   X57.7836      Y14.2202      R1.2500    
(Pass: 16)
G1   Z-1.600    
G17 G2   X58.1068      Y14.2346      R1.2500    
   X58.4227      Y14.1649      R1.2500    
   X58.7098      Y14.0158      R1.2500    
   X58.9485      Y13.7975      R1.2500    
   X59.1226      Y13.5248      R1.2500    
   X59.2202      Y13.2164      R1.2500    
   X59.2346      Y12.8932      R1.2500    
   X59.1649      Y12.5773      R1.2500    
   X59.0158      Y12.2902      R1.2500    
   X58.7975      Y12.0515      R1.2500    
   X58.5248      Y11.8774      R1.2500    
   X58.2164      Y11.7798      R1.2500    
   X57.8932      Y11.7654      R1.2500    
   X57.5773      Y11.8351      R1.2500    
   X57.2902      Y11.9842      R1.2500    
   X57.0515      Y12.2025      R1.2500    
   X56.8774      Y12.4752      R1.2500    
   X56.7798      Y12.7836      R1.2500    
   X56.7654      Y13.1068      R1.2500    
   X56.8351      Y13.4227      R1.2500    
   X56.9842      Y13.7098      R1.2500    
   X57.2025      Y13.9485      R1.2500    
   X57.4752      Y14.1226      R1.2500    
   X57.7836      Y14.2202      R1.2500    
(Pass: 17)
G1   Z-1.700    
G17 G2   X58.1068      Y14.2346      R1.2500    
   X58.4227      Y14.1649      R1.2500    
   X58.7098      Y14.0158      R1.2500    
   X58.9485      Y13.7975      R1.2500    
   X59.1226      Y13.5248      R1.2500    
   X59.2202      Y13.2164      R1.2500    
   X59.2346      Y12.8932      R1.2500    
   X59.1649      Y12.5773      R1.2500    
   X59.0158      Y12.2902      R1.2500    
   X58.7975      Y12.0515      R1.2500    
   X58.5248      Y11.8774      R1.2500    
   X58.2164      Y11.7798      R1.2500    
   X57.8932      Y11.7654      R1.2500    
   X57.5773      Y11.8351      R1.2500    
   X57.2902      Y11.9842      R1.2500    
   X57.0515      Y12.2025      R1.2500    
   X56.8774      Y12.4752      R1.2500    
   X56.7798      Y12.7836      R1.2500    
   X56.7654      Y13.1068      R1.2500    
   X56.8351      Y13.4227      R1.2500    
   X56.9842      Y13.7098      R1.2500    
   X57.2025      Y13.9485      R1.2500    
   X57.4752      Y14.1226      R1.2500    
   X57.7836      Y14.2202      R1.2500    
(Pass: 18)
G1   Z-1.800    
G17 G2   X58.1068      Y14.2346      R1.2500    
   X58.4227      Y14.1649      R1.2500    
   X58.7098      Y14.0158      R1.2500    
   X58.9485      Y13.7975      R1.2500    
   X59.1226      Y13.5248      R1.2500    
   X59.2202      Y13.2164      R1.2500    
   X59.2346      Y12.8932      R1.2500    
   X59.1649      Y12.5773      R1.2500    
   X59.0158      Y12.2902      R1.2500    
   X58.7975      Y12.0515      R1.2500    
   X58.5248      Y11.8774      R1.2500    
   X58.2164      Y11.7798      R1.2500    
   X57.8932      Y11.7654      R1.2500    
   X57.5773      Y11.8351      R1.2500    
   X57.2902      Y11.9842      R1.2500    
   X57.0515      Y12.2025      R1.2500    
   X56.8774      Y12.4752      R1.2500    
   X56.7798      Y12.7836      R1.2500    
   X56.7654      Y13.1068      R1.2500    
   X56.8351      Y13.4227      R1.2500    
   X56.9842      Y13.7098      R1.2500    
   X57.2025      Y13.9485      R1.2500    
   X57.4752      Y14.1226      R1.2500    
   X57.7836      Y14.2202      R1.2500    
(Pass: 19)
G1   Z-1.900    
G17 G2   X58.1068      Y14.2346      R1.2500    
   X58.4227      Y14.1649      R1.2500    
   X58.7098      Y14.0158      R1.2500    
   X58.9485      Y13.7975      R1.2500    
   X59.1226      Y13.5248      R1.2500    
   X59.2202      Y13.2164      R1.2500    
   X59.2346      Y12.8932      R1.2500    
   X59.1649      Y12.5773      R1.2500    
   X59.0158      Y12.2902      R1.2500    
   X58.7975      Y12.0515      R1.2500    
   X58.5248      Y11.8774      R1.2500    
   X58.2164      Y11.7798      R1.2500    
   X57.8932      Y11.7654      R1.2500    
   X57.5773      Y11.8351      R1.2500    
   X57.2902      Y11.9842      R1.2500    
   X57.0515      Y12.2025      R1.2500    
   X56.8774      Y12.4752      R1.2500    
   X56.7798      Y12.7836      R1.2500    
   X56.7654      Y13.1068      R1.2500    
   X56.8351      Y13.4227      R1.2500    
   X56.9842      Y13.7098      R1.2500    
   X57.2025      Y13.9485      R1.2500    
   X57.4752      Y14.1226      R1.2500    
   X57.7836      Y14.2202      R1.2500    
(Pass: 20)
G1   Z-2.000    
G17 G2   X58.1068      Y14.2346      R1.2500    
   X58.4227      Y14.1649      R1.2500    
   X58.7098      Y14.0158      R1.2500    
   X58.9485      Y13.7975      R1.2500    
   X59.1226      Y13.5248      R1.2500    
   X59.2202      Y13.2164      R1.2500    
   X59.2346      Y12.8932      R1.2500    
   X59.1649      Y12.5773      R1.2500    
   X59.0158      Y12.2902      R1.2500    
   X58.7975      Y12.0515      R1.2500    
   X58.5248      Y11.8774      R1.2500    
   X58.2164      Y11.7798      R1.2500    
   X57.8932      Y11.7654      R1.2500    
   X57.5773      Y11.8351      R1.2500    
   X57.2902      Y11.9842      R1.2500    
   X57.0515      Y12.2025      R1.2500    
   X56.8774      Y12.4752      R1.2500    
   X56.7798      Y12.7836      R1.2500    
   X56.7654      Y13.1068      R1.2500    
   X56.8351      Y13.4227      R1.2500    
   X56.9842      Y13.7098      R1.2500    
   X57.2025      Y13.9485      R1.2500    
   X57.4752      Y14.1226      R1.2500    
   X57.7836      Y14.2202      R1.2500    
(Pass: 21)
G1   Z-2.100    
G17 G2   X58.1068      Y14.2346      R1.2500    
   X58.4227      Y14.1649      R1.2500    
   X58.7098      Y14.0158      R1.2500    
   X58.9485      Y13.7975      R1.2500    
   X59.1226      Y13.5248      R1.2500    
   X59.2202      Y13.2164      R1.2500    
   X59.2346      Y12.8932      R1.2500    
   X59.1649      Y12.5773      R1.2500    
   X59.0158      Y12.2902      R1.2500    
   X58.7975      Y12.0515      R1.2500    
   X58.5248      Y11.8774      R1.2500    
   X58.2164      Y11.7798      R1.2500    
   X57.8932      Y11.7654      R1.2500    
   X57.5773      Y11.8351      R1.2500    
   X57.2902      Y11.9842      R1.2500    
   X57.0515      Y12.2025      R1.2500    
   X56.8774      Y12.4752      R1.2500    
   X56.7798      Y12.7836      R1.2500    
   X56.7654      Y13.1068      R1.2500    
   X56.8351      Y13.4227      R1.2500    
   X56.9842      Y13.7098      R1.2500    
   X57.2025      Y13.9485      R1.2500    
   X57.4752      Y14.1226      R1.2500    
   X57.7836      Y14.2202      R1.2500    
(Pass: 22)
G1   Z-2.200    
G17 G2   X58.1068      Y14.2346      R1.2500    
   X58.4227      Y14.1649      R1.2500    
   X58.7098      Y14.0158      R1.2500    
   X58.9485      Y13.7975      R1.2500    
   X59.1226      Y13.5248      R1.2500    
   X59.2202      Y13.2164      R1.2500    
   X59.2346      Y12.8932      R1.2500    
   X59.1649      Y12.5773      R1.2500    
   X59.0158      Y12.2902      R1.2500    
   X58.7975      Y12.0515      R1.2500    
   X58.5248      Y11.8774      R1.2500    
   X58.2164      Y11.7798      R1.2500    
   X57.8932      Y11.7654      R1.2500    
   X57.5773      Y11.8351      R1.2500    
   X57.2902      Y11.9842      R1.2500    
   X57.0515      Y12.2025      R1.2500    
   X56.8774      Y12.4752      R1.2500    
   X56.7798      Y12.7836      R1.2500    
   X56.7654      Y13.1068      R1.2500    
   X56.8351      Y13.4227      R1.2500    
   X56.9842      Y13.7098      R1.2500    
   X57.2025      Y13.9485      R1.2500    
   X57.4752      Y14.1226      R1.2500    
   X57.7836      Y14.2202      R1.2500    
(Pass: 23)
G1   Z-2.300    
G17 G2   X58.1068      Y14.2346      R1.2500    
   X58.4227      Y14.1649      R1.2500    
   X58.7098      Y14.0158      R1.2500    
   X58.9485      Y13.7975      R1.2500    
   X59.1226      Y13.5248      R1.2500    
   X59.2202      Y13.2164      R1.2500    
   X59.2346      Y12.8932      R1.2500    
   X59.1649      Y12.5773      R1.2500    
   X59.0158      Y12.2902      R1.2500    
   X58.7975      Y12.0515      R1.2500    
   X58.5248      Y11.8774      R1.2500    
   X58.2164      Y11.7798      R1.2500    
   X57.8932      Y11.7654      R1.2500    
   X57.5773      Y11.8351      R1.2500    
   X57.2902      Y11.9842      R1.2500    
   X57.0515      Y12.2025      R1.2500    
   X56.8774      Y12.4752      R1.2500    
   X56.7798      Y12.7836      R1.2500    
   X56.7654      Y13.1068      R1.2500    
   X56.8351      Y13.4227      R1.2500    
   X56.9842      Y13.7098      R1.2500    
   X57.2025      Y13.9485      R1.2500    
   X57.4752      Y14.1226      R1.2500    
   X57.7836      Y14.2202      R1.2500    
(Pass: 24)
G1   Z-2.400    
G17 G2   X58.1068      Y14.2346      R1.2500    
   X58.4227      Y14.1649      R1.2500    
   X58.7098      Y14.0158      R1.2500    
   X58.9485      Y13.7975      R1.2500    
   X59.1226      Y13.5248      R1.2500    
   X59.2202      Y13.2164      R1.2500    
   X59.2346      Y12.8932      R1.2500    
   X59.1649      Y12.5773      R1.2500    
   X59.0158      Y12.2902      R1.2500    
   X58.7975      Y12.0515      R1.2500    
   X58.5248      Y11.8774      R1.2500    
   X58.2164      Y11.7798      R1.2500    
   X57.8932      Y11.7654      R1.2500    
   X57.5773      Y11.8351      R1.2500    
   X57.2902      Y11.9842      R1.2500    
   X57.0515      Y12.2025      R1.2500    
   X56.8774      Y12.4752      R1.2500    
   X56.7798      Y12.7836      R1.2500    
   X56.7654      Y13.1068      R1.2500    
   X56.8351      Y13.4227      R1.2500    
   X56.9842      Y13.7098      R1.2500    
   X57.2025      Y13.9485      R1.2500    
   X57.4752      Y14.1226      R1.2500    
   X57.7836      Y14.2202      R1.2500    
(Pass: 25)
G1   Z-2.500    
G17 G2   X58.1068      Y14.2346      R1.2500    
   X58.4227      Y14.1649      R1.2500    
   X58.7098      Y14.0158      R1.2500    
   X58.9485      Y13.7975      R1.2500    
   X59.1226      Y13.5248      R1.2500    
   X59.2202      Y13.2164      R1.2500    
   X59.2346      Y12.8932      R1.2500    
   X59.1649      Y12.5773      R1.2500    
   X59.0158      Y12.2902      R1.2500    
   X58.7975      Y12.0515      R1.2500    
   X58.5248      Y11.8774      R1.2500    
   X58.2164      Y11.7798      R1.2500    
   X57.8932      Y11.7654      R1.2500    
   X57.5773      Y11.8351      R1.2500    
   X57.2902      Y11.9842      R1.2500    
   X57.0515      Y12.2025      R1.2500    
   X56.8774      Y12.4752      R1.2500    
   X56.7798      Y12.7836      R1.2500    
   X56.7654      Y13.1068      R1.2500    
   X56.8351      Y13.4227      R1.2500    
   X56.9842      Y13.7098      R1.2500    
   X57.2025      Y13.9485      R1.2500    
   X57.4752      Y14.1226      R1.2500    
   X57.7836      Y14.2202      R1.2500    
(Pass: 26)
G1   Z-2.600    
G17 G2   X58.1068      Y14.2346      R1.2500    
   X58.4227      Y14.1649      R1.2500    
   X58.7098      Y14.0158      R1.2500    
   X58.9485      Y13.7975      R1.2500    
   X59.1226      Y13.5248      R1.2500    
   X59.2202      Y13.2164      R1.2500    
   X59.2346      Y12.8932      R1.2500    
