%
(Generated by SketchUcam {1.2b1})
(File: ZAxisCarriage.skp)
(Bit diameter: 2.5mm)
(Feed rate: 1000.0mm/min)
(Material Thickness: 3.2mm)
(Material length: 600.0mm X width: 300.0mm)
(Overhead Gantry: true)
(Retract feed rate NOT limited to plunge feed rate)
(Multipass enabled, Depth = 0.1mm)
(Optimization is ON)
(www.PhlatBoyz.com)
G90 G21 G49 
M3 S11000
G0   Z6.000     
(Pass: 1)
   X7.324        Y8.324     
G1   Z-0.100     F1000
G17 G2   X7.5804       Y8.1268       R3.7500    
   X7.8793       Y8.0030       R3.7500    
   X8.2000       Y7.9608       R3.7500    
   X8.5207       Y8.0030       R3.7500    
   X8.8196       Y8.1268       R3.7500    
   X9.0763       Y8.3237       R3.7500    
   X9.2732       Y8.5804       R3.7500    
   X9.3970       Y8.8793       R3.7500    
   X9.4392       Y9.2000       R3.7500    
   X9.3970       Y9.5207       R3.7500    
   X9.2732       Y9.8196       R3.7500    
   X9.0763       Y10.0763      R3.7500    
   X8.8196       Y10.2732      R3.7500    
   X8.5207       Y10.3970      R3.7500    
   X8.2000       Y10.4392      R3.7500    
   X7.8793       Y10.3970      R3.7500    
   X7.5804       Y10.2732      R3.7500    
   X7.3237       Y10.0763      R3.7500    
   X7.1268       Y9.8196       R3.7500    
   X7.0030       Y9.5207       R3.7500    
   X6.9608       Y9.2000       R3.7500    
   X7.0030       Y8.8793       R3.7500    
   X7.1268       Y8.5804       R3.7500    
   X7.3237       Y8.3237       R3.7500    
(Pass: 2)
G1   Z-0.200    
G17 G2   X7.5804       Y8.1268       R3.7500    
   X7.8793       Y8.0030       R3.7500    
   X8.2000       Y7.9608       R3.7500    
   X8.5207       Y8.0030       R3.7500    
   X8.8196       Y8.1268       R3.7500    
   X9.0763       Y8.3237       R3.7500    
   X9.2732       Y8.5804       R3.7500    
   X9.3970       Y8.8793       R3.7500    
   X9.4392       Y9.2000       R3.7500    
   X9.3970       Y9.5207       R3.7500    
   X9.2732       Y9.8196       R3.7500    
   X9.0763       Y10.0763      R3.7500    
   X8.8196       Y10.2732      R3.7500    
   X8.5207       Y10.3970      R3.7500    
   X8.2000       Y10.4392      R3.7500    
   X7.8793       Y10.3970      R3.7500    
   X7.5804       Y10.2732      R3.7500    
   X7.3237       Y10.0763      R3.7500    
   X7.1268       Y9.8196       R3.7500    
   X7.0030       Y9.5207       R3.7500    
   X6.9608       Y9.2000       R3.7500    
   X7.0030       Y8.8793       R3.7500    
   X7.1268       Y8.5804       R3.7500    
   X7.3237       Y8.3237       R3.7500    
(Pass: 3)
G1   Z-0.300    
G17 G2   X7.5804       Y8.1268       R3.7500    
   X7.8793       Y8.0030       R3.7500    
   X8.2000       Y7.9608       R3.7500    
   X8.5207       Y8.0030       R3.7500    
   X8.8196       Y8.1268       R3.7500    
   X9.0763       Y8.3237       R3.7500    
   X9.2732       Y8.5804       R3.7500    
   X9.3970       Y8.8793       R3.7500    
   X9.4392       Y9.2000       R3.7500    
   X9.3970       Y9.5207       R3.7500    
   X9.2732       Y9.8196       R3.7500    
   X9.0763       Y10.0763      R3.7500    
   X8.8196       Y10.2732      R3.7500    
   X8.5207       Y10.3970      R3.7500    
   X8.2000       Y10.4392      R3.7500    
   X7.8793       Y10.3970      R3.7500    
   X7.5804       Y10.2732      R3.7500    
   X7.3237       Y10.0763      R3.7500    
   X7.1268       Y9.8196       R3.7500    
   X7.0030       Y9.5207       R3.7500    
   X6.9608       Y9.2000       R3.7500    
   X7.0030       Y8.8793       R3.7500    
   X7.1268       Y8.5804       R3.7500    
   X7.3237       Y8.3237       R3.7500    
(Pass: 4)
G1   Z-0.400    
G17 G2   X7.5804       Y8.1268       R3.7500    
   X7.8793       Y8.0030       R3.7500    
   X8.2000       Y7.9608       R3.7500    
   X8.5207       Y8.0030       R3.7500    
   X8.8196       Y8.1268       R3.7500    
   X9.0763       Y8.3237       R3.7500    
   X9.2732       Y8.5804       R3.7500    
   X9.3970       Y8.8793       R3.7500    
   X9.4392       Y9.2000       R3.7500    
   X9.3970       Y9.5207       R3.7500    
   X9.2732       Y9.8196       R3.7500    
   X9.0763       Y10.0763      R3.7500    
   X8.8196       Y10.2732      R3.7500    
   X8.5207       Y10.3970      R3.7500    
   X8.2000       Y10.4392      R3.7500    
   X7.8793       Y10.3970      R3.7500    
   X7.5804       Y10.2732      R3.7500    
   X7.3237       Y10.0763      R3.7500    
   X7.1268       Y9.8196       R3.7500    
   X7.0030       Y9.5207       R3.7500    
   X6.9608       Y9.2000       R3.7500    
   X7.0030       Y8.8793       R3.7500    
   X7.1268       Y8.5804       R3.7500    
   X7.3237       Y8.3237       R3.7500    
(Pass: 5)
G1   Z-0.500    
G17 G2   X7.5804       Y8.1268       R3.7500    
   X7.8793       Y8.0030       R3.7500    
   X8.2000       Y7.9608       R3.7500    
   X8.5207       Y8.0030       R3.7500    
   X8.8196       Y8.1268       R3.7500    
   X9.0763       Y8.3237       R3.7500    
   X9.2732       Y8.5804       R3.7500    
   X9.3970       Y8.8793       R3.7500    
   X9.4392       Y9.2000       R3.7500    
   X9.3970       Y9.5207       R3.7500    
   X9.2732       Y9.8196       R3.7500    
   X9.0763       Y10.0763      R3.7500    
   X8.8196       Y10.2732      R3.7500    
   X8.5207       Y10.3970      R3.7500    
   X8.2000       Y10.4392      R3.7500    
   X7.8793       Y10.3970      R3.7500    
   X7.5804       Y10.2732      R3.7500    
   X7.3237       Y10.0763      R3.7500    
   X7.1268       Y9.8196       R3.7500    
   X7.0030       Y9.5207       R3.7500    
   X6.9608       Y9.2000       R3.7500    
   X7.0030       Y8.8793       R3.7500    
   X7.1268       Y8.5804       R3.7500    
   X7.3237       Y8.3237       R3.7500    
(Pass: 6)
G1   Z-0.600    
G17 G2   X7.5804       Y8.1268       R3.7500    
   X7.8793       Y8.0030       R3.7500    
   X8.2000       Y7.9608       R3.7500    
   X8.5207       Y8.0030       R3.7500    
   X8.8196       Y8.1268       R3.7500    
   X9.0763       Y8.3237       R3.7500    
   X9.2732       Y8.5804       R3.7500    
   X9.3970       Y8.8793       R3.7500    
   X9.4392       Y9.2000       R3.7500    
   X9.3970       Y9.5207       R3.7500    
   X9.2732       Y9.8196       R3.7500    
   X9.0763       Y10.0763      R3.7500    
   X8.8196       Y10.2732      R3.7500    
   X8.5207       Y10.3970      R3.7500    
   X8.2000       Y10.4392      R3.7500    
   X7.8793       Y10.3970      R3.7500    
   X7.5804       Y10.2732      R3.7500    
   X7.3237       Y10.0763      R3.7500    
   X7.1268       Y9.8196       R3.7500    
   X7.0030       Y9.5207       R3.7500    
   X6.9608       Y9.2000       R3.7500    
   X7.0030       Y8.8793       R3.7500    
   X7.1268       Y8.5804       R3.7500    
   X7.3237       Y8.3237       R3.7500    
(Pass: 7)
G1   Z-0.700    
G17 G2   X7.5804       Y8.1268       R3.7500    
   X7.8793       Y8.0030       R3.7500    
   X8.2000       Y7.9608       R3.7500    
   X8.5207       Y8.0030       R3.7500    
   X8.8196       Y8.1268       R3.7500    
   X9.0763       Y8.3237       R3.7500    
   X9.2732       Y8.5804       R3.7500    
   X9.3970       Y8.8793       R3.7500    
   X9.4392       Y9.2000       R3.7500    
   X9.3970       Y9.5207       R3.7500    
   X9.2732       Y9.8196       R3.7500    
   X9.0763       Y10.0763      R3.7500    
   X8.8196       Y10.2732      R3.7500    
   X8.5207       Y10.3970      R3.7500    
   X8.2000       Y10.4392      R3.7500    
   X7.8793       Y10.3970      R3.7500    
   X7.5804       Y10.2732      R3.7500    
   X7.3237       Y10.0763      R3.7500    
   X7.1268       Y9.8196       R3.7500    
   X7.0030       Y9.5207       R3.7500    
   X6.9608       Y9.2000       R3.7500    
   X7.0030       Y8.8793       R3.7500    
   X7.1268       Y8.5804       R3.7500    
   X7.3237       Y8.3237       R3.7500    
(Pass: 8)
G1   Z-0.800    
G17 G2   X7.5804       Y8.1268       R3.7500    
   X7.8793       Y8.0030       R3.7500    
   X8.2000       Y7.9608       R3.7500    
   X8.5207       Y8.0030       R3.7500    
   X8.8196       Y8.1268       R3.7500    
   X9.0763       Y8.3237       R3.7500    
   X9.2732       Y8.5804       R3.7500    
   X9.3970       Y8.8793       R3.7500    
   X9.4392       Y9.2000       R3.7500    
   X9.3970       Y9.5207       R3.7500    
   X9.2732       Y9.8196       R3.7500    
   X9.0763       Y10.0763      R3.7500    
   X8.8196       Y10.2732      R3.7500    
   X8.5207       Y10.3970      R3.7500    
   X8.2000       Y10.4392      R3.7500    
   X7.8793       Y10.3970      R3.7500    
   X7.5804       Y10.2732      R3.7500    
   X7.3237       Y10.0763      R3.7500    
   X7.1268       Y9.8196       R3.7500    
   X7.0030       Y9.5207       R3.7500    
   X6.9608       Y9.2000       R3.7500    
   X7.0030       Y8.8793       R3.7500    
   X7.1268       Y8.5804       R3.7500    
   X7.3237       Y8.3237       R3.7500    
(Pass: 9)
G1   Z-0.900    
G17 G2   X7.5804       Y8.1268       R3.7500    
   X7.8793       Y8.0030       R3.7500    
   X8.2000       Y7.9608       R3.7500    
   X8.5207       Y8.0030       R3.7500    
   X8.8196       Y8.1268       R3.7500    
   X9.0763       Y8.3237       R3.7500    
   X9.2732       Y8.5804       R3.7500    
   X9.3970       Y8.8793       R3.7500    
   X9.4392       Y9.2000       R3.7500    
   X9.3970       Y9.5207       R3.7500    
   X9.2732       Y9.8196       R3.7500    
   X9.0763       Y10.0763      R3.7500    
   X8.8196       Y10.2732      R3.7500    
   X8.5207       Y10.3970      R3.7500    
   X8.2000       Y10.4392      R3.7500    
   X7.8793       Y10.3970      R3.7500    
   X7.5804       Y10.2732      R3.7500    
   X7.3237       Y10.0763      R3.7500    
   X7.1268       Y9.8196       R3.7500    
   X7.0030       Y9.5207       R3.7500    
   X6.9608       Y9.2000       R3.7500    
   X7.0030       Y8.8793       R3.7500    
   X7.1268       Y8.5804       R3.7500    
   X7.3237       Y8.3237       R3.7500    
(Pass: 10)
G1   Z-1.000    
G17 G2   X7.5804       Y8.1268       R3.7500    
   X7.8793       Y8.0030       R3.7500    
   X8.2000       Y7.9608       R3.7500    
   X8.5207       Y8.0030       R3.7500    
   X8.8196       Y8.1268       R3.7500    
   X9.0763       Y8.3237       R3.7500    
   X9.2732       Y8.5804       R3.7500    
   X9.3970       Y8.8793       R3.7500    
   X9.4392       Y9.2000       R3.7500    
   X9.3970       Y9.5207       R3.7500    
   X9.2732       Y9.8196       R3.7500    
   X9.0763       Y10.0763      R3.7500    
   X8.8196       Y10.2732      R3.7500    
   X8.5207       Y10.3970      R3.7500    
   X8.2000       Y10.4392      R3.7500    
   X7.8793       Y10.3970      R3.7500    
   X7.5804       Y10.2732      R3.7500    
   X7.3237       Y10.0763      R3.7500    
   X7.1268       Y9.8196       R3.7500    
   X7.0030       Y9.5207       R3.7500    
   X6.9608       Y9.2000       R3.7500    
   X7.0030       Y8.8793       R3.7500    
   X7.1268       Y8.5804       R3.7500    
   X7.3237       Y8.3237       R3.7500    
(Pass: 11)
G1   Z-1.100    
G17 G2   X7.5804       Y8.1268       R3.7500    
   X7.8793       Y8.0030       R3.7500    
   X8.2000       Y7.9608       R3.7500    
   X8.5207       Y8.0030       R3.7500    
   X8.8196       Y8.1268       R3.7500    
   X9.0763       Y8.3237       R3.7500    
   X9.2732       Y8.5804       R3.7500    
   X9.3970       Y8.8793       R3.7500    
   X9.4392       Y9.2000       R3.7500    
   X9.3970       Y9.5207       R3.7500    
   X9.2732       Y9.8196       R3.7500    
   X9.0763       Y10.0763      R3.7500    
   X8.8196       Y10.2732      R3.7500    
   X8.5207       Y10.3970      R3.7500    
   X8.2000       Y10.4392      R3.7500    
   X7.8793       Y10.3970      R3.7500    
   X7.5804       Y10.2732      R3.7500    
   X7.3237       Y10.0763      R3.7500    
   X7.1268       Y9.8196       R3.7500    
   X7.0030       Y9.5207       R3.7500    
   X6.9608       Y9.2000       R3.7500    
   X7.0030       Y8.8793       R3.7500    
   X7.1268       Y8.5804       R3.7500    
   X7.3237       Y8.3237       R3.7500    
(Pass: 12)
G1   Z-1.200    
G17 G2   X7.5804       Y8.1268       R3.7500    
   X7.8793       Y8.0030       R3.7500    
   X8.2000       Y7.9608       R3.7500    
   X8.5207       Y8.0030       R3.7500    
   X8.8196       Y8.1268       R3.7500    
   X9.0763       Y8.3237       R3.7500    
   X9.2732       Y8.5804       R3.7500    
   X9.3970       Y8.8793       R3.7500    
   X9.4392       Y9.2000       R3.7500    
   X9.3970       Y9.5207       R3.7500    
   X9.2732       Y9.8196       R3.7500    
   X9.0763       Y10.0763      R3.7500    
   X8.8196       Y10.2732      R3.7500    
   X8.5207       Y10.3970      R3.7500    
   X8.2000       Y10.4392      R3.7500    
   X7.8793       Y10.3970      R3.7500    
   X7.5804       Y10.2732      R3.7500    
   X7.3237       Y10.0763      R3.7500    
   X7.1268       Y9.8196       R3.7500    
   X7.0030       Y9.5207       R3.7500    
   X6.9608       Y9.2000       R3.7500    
   X7.0030       Y8.8793       R3.7500    
   X7.1268       Y8.5804       R3.7500    
   X7.3237       Y8.3237       R3.7500    
(Pass: 13)
G1   Z-1.300    
G17 G2   X7.5804       Y8.1268       R3.7500    
   X7.8793       Y8.0030       R3.7500    
   X8.2000       Y7.9608       R3.7500    
   X8.5207       Y8.0030       R3.7500    
   X8.8196       Y8.1268       R3.7500    
   X9.0763       Y8.3237       R3.7500    
   X9.2732       Y8.5804       R3.7500    
   X9.3970       Y8.8793       R3.7500    
   X9.4392       Y9.2000       R3.7500    
   X9.3970       Y9.5207       R3.7500    
   X9.2732       Y9.8196       R3.7500    
   X9.0763       Y10.0763      R3.7500    
   X8.8196       Y10.2732      R3.7500    
   X8.5207       Y10.3970      R3.7500    
   X8.2000       Y10.4392      R3.7500    
   X7.8793       Y10.3970      R3.7500    
   X7.5804       Y10.2732      R3.7500    
   X7.3237       Y10.0763      R3.7500    
   X7.1268       Y9.8196       R3.7500    
   X7.0030       Y9.5207       R3.7500    
   X6.9608       Y9.2000       R3.7500    
   X7.0030       Y8.8793       R3.7500    
   X7.1268       Y8.5804       R3.7500    
   X7.3237       Y8.3237       R3.7500    
(Pass: 14)
G1   Z-1.400    
G17 G2   X7.5804       Y8.1268       R3.7500    
   X7.8793       Y8.0030       R3.7500    
   X8.2000       Y7.9608       R3.7500    
   X8.5207       Y8.0030       R3.7500    
   X8.8196       Y8.1268       R3.7500    
   X9.0763       Y8.3237       R3.7500    
   X9.2732       Y8.5804       R3.7500    
   X9.3970       Y8.8793       R3.7500    
   X9.4392       Y9.2000       R3.7500    
   X9.3970       Y9.5207       R3.7500    
   X9.2732       Y9.8196       R3.7500    
   X9.0763       Y10.0763      R3.7500    
   X8.8196       Y10.2732      R3.7500    
   X8.5207       Y10.3970      R3.7500    
   X8.2000       Y10.4392      R3.7500    
   X7.8793       Y10.3970      R3.7500    
   X7.5804       Y10.2732      R3.7500    
   X7.3237       Y10.0763      R3.7500    
   X7.1268       Y9.8196       R3.7500    
   X7.0030       Y9.5207       R3.7500    
   X6.9608       Y9.2000       R3.7500    
   X7.0030       Y8.8793       R3.7500    
   X7.1268       Y8.5804       R3.7500    
   X7.3237       Y8.3237       R3.7500    
(Pass: 15)
G1   Z-1.500    
G17 G2   X7.5804       Y8.1268       R3.7500    
   X7.8793       Y8.0030       R3.7500    
   X8.2000       Y7.9608       R3.7500    
   X8.5207       Y8.0030       R3.7500    
   X8.8196       Y8.1268       R3.7500    
   X9.0763       Y8.3237       R3.7500    
   X9.2732       Y8.5804       R3.7500    
   X9.3970       Y8.8793       R3.7500    
   X9.4392       Y9.2000       R3.7500    
   X9.3970       Y9.5207       R3.7500    
   X9.2732       Y9.8196       R3.7500    
   X9.0763       Y10.0763      R3.7500    
   X8.8196       Y10.2732      R3.7500    
   X8.5207       Y10.3970      R3.7500    
   X8.2000       Y10.4392      R3.7500    
   X7.8793       Y10.3970      R3.7500    
   X7.5804       Y10.2732      R3.7500    
   X7.3237       Y10.0763      R3.7500    
   X7.1268       Y9.8196       R3.7500    
   X7.0030       Y9.5207       R3.7500    
   X6.9608       Y9.2000       R3.7500    
   X7.0030       Y8.8793       R3.7500    
   X7.1268       Y8.5804       R3.7500    
   X7.3237       Y8.3237       R3.7500    
(Pass: 16)
G1   Z-1.600    
G17 G2   X7.5804       Y8.1268       R3.7500    
   X7.8793       Y8.0030       R3.7500    
   X8.2000       Y7.9608       R3.7500    
   X8.5207       Y8.0030       R3.7500    
   X8.8196       Y8.1268       R3.7500    
   X9.0763       Y8.3237       R3.7500    
   X9.2732       Y8.5804       R3.7500    
   X9.3970       Y8.8793       R3.7500    
   X9.4392       Y9.2000       R3.7500    
   X9.3970       Y9.5207       R3.7500    
   X9.2732       Y9.8196       R3.7500    
   X9.0763       Y10.0763      R3.7500    
   X8.8196       Y10.2732      R3.7500    
   X8.5207       Y10.3970      R3.7500    
   X8.2000       Y10.4392      R3.7500    
   X7.8793       Y10.3970      R3.7500    
   X7.5804       Y10.2732      R3.7500    
   X7.3237       Y10.0763      R3.7500    
   X7.1268       Y9.8196       R3.7500    
   X7.0030       Y9.5207       R3.7500    
   X6.9608       Y9.2000       R3.7500    
   X7.0030       Y8.8793       R3.7500    
   X7.1268       Y8.5804       R3.7500    
   X7.3237       Y8.3237       R3.7500    
(Pass: 17)
G1   Z-1.700    
G17 G2   X7.5804       Y8.1268       R3.7500    
   X7.8793       Y8.0030       R3.7500    
   X8.2000       Y7.9608       R3.7500    
   X8.5207       Y8.0030       R3.7500    
   X8.8196       Y8.1268       R3.7500    
   X9.0763       Y8.3237       R3.7500    
   X9.2732       Y8.5804       R3.7500    
   X9.3970       Y8.8793       R3.7500    
   X9.4392       Y9.2000       R3.7500    
   X9.3970       Y9.5207       R3.7500    
   X9.2732       Y9.8196       R3.7500    
   X9.0763       Y10.0763      R3.7500    
   X8.8196       Y10.2732      R3.7500    
   X8.5207       Y10.3970      R3.7500    
   X8.2000       Y10.4392      R3.7500    
   X7.8793       Y10.3970      R3.7500    
   X7.5804       Y10.2732      R3.7500    
   X7.3237       Y10.0763      R3.7500    
   X7.1268       Y9.8196       R3.7500    
   X7.0030       Y9.5207       R3.7500    
   X6.9608       Y9.2000       R3.7500    
   X7.0030       Y8.8793       R3.7500    
   X7.1268       Y8.5804       R3.7500    
   X7.3237       Y8.3237       R3.7500    
(Pass: 18)
G1   Z-1.800    
G17 G2   X7.5804       Y8.1268       R3.7500    
   X7.8793       Y8.0030       R3.7500    
   X8.2000       Y7.9608       R3.7500    
   X8.5207       Y8.0030       R3.7500    
   X8.8196       Y8.1268       R3.7500    
   X9.0763       Y8.3237       R3.7500    
   X9.2732       Y8.5804       R3.7500    
   X9.3970       Y8.8793       R3.7500    
   X9.4392       Y9.2000       R3.7500    
   X9.3970       Y9.5207       R3.7500    
   X9.2732       Y9.8196       R3.7500    
   X9.0763       Y10.0763      R3.7500    
   X8.8196       Y10.2732      R3.7500    
   X8.5207       Y10.3970      R3.7500    
   X8.2000       Y10.4392      R3.7500    
   X7.8793       Y10.3970      R3.7500    
   X7.5804       Y10.2732      R3.7500    
   X7.3237       Y10.0763      R3.7500    
   X7.1268       Y9.8196       R3.7500    
   X7.0030       Y9.5207       R3.7500    
   X6.9608       Y9.2000       R3.7500    
   X7.0030       Y8.8793       R3.7500    
   X7.1268       Y8.5804       R3.7500    
   X7.3237       Y8.3237       R3.7500    
(Pass: 19)
G1   Z-1.900    
G17 G2   X7.5804       Y8.1268       R3.7500    
   X7.8793       Y8.0030       R3.7500    
   X8.2000       Y7.9608       R3.7500    
   X8.5207       Y8.0030       R3.7500    
   X8.8196       Y8.1268       R3.7500    
   X9.0763       Y8.3237       R3.7500    
   X9.2732       Y8.5804       R3.7500    
   X9.3970       Y8.8793       R3.7500    
   X9.4392       Y9.2000       R3.7500    
   X9.3970       Y9.5207       R3.7500    
   X9.2732       Y9.8196       R3.7500    
   X9.0763       Y10.0763      R3.7500    
   X8.8196       Y10.2732      R3.7500    
   X8.5207       Y10.3970      R3.7500    
   X8.2000       Y10.4392      R3.7500    
   X7.8793       Y10.3970      R3.7500    
   X7.5804       Y10.2732      R3.7500    
   X7.3237       Y10.0763      R3.7500    
   X7.1268       Y9.8196       R3.7500    
   X7.0030       Y9.5207       R3.7500    
   X6.9608       Y9.2000       R3.7500    
   X7.0030       Y8.8793       R3.7500    
   X7.1268       Y8.5804       R3.7500    
   X7.3237       Y8.3237       R3.7500    
(Pass: 20)
G1   Z-2.000    
G17 G2   X7.5804       Y8.1268       R3.7500    
   X7.8793       Y8.0030       R3.7500    
   X8.2000       Y7.9608       R3.7500    
   X8.5207       Y8.0030       R3.7500    
   X8.8196       Y8.1268       R3.7500    
   X9.0763       Y8.3237       R3.7500    
   X9.2732       Y8.5804       R3.7500    
   X9.3970       Y8.8793       R3.7500    
   X9.4392       Y9.2000       R3.7500    
   X9.3970       Y9.5207       R3.7500    
   X9.2732       Y9.8196       R3.7500    
   X9.0763       Y10.0763      R3.7500    
   X8.8196       Y10.2732      R3.7500    
   X8.5207       Y10.3970      R3.7500    
   X8.2000       Y10.4392      R3.7500    
   X7.8793       Y10.3970      R3.7500    
   X7.5804       Y10.2732      R3.7500    
   X7.3237       Y10.0763      R3.7500    
   X7.1268       Y9.8196       R3.7500    
   X7.0030       Y9.5207       R3.7500    
   X6.9608       Y9.2000       R3.7500    
   X7.0030       Y8.8793       R3.7500    
   X7.1268       Y8.5804       R3.7500    
   X7.3237       Y8.3237       R3.7500    
(Pass: 21)
G1   Z-2.100    
G17 G2   X7.5804       Y8.1268       R3.7500    
   X7.8793       Y8.0030       R3.7500    
   X8.2000       Y7.9608       R3.7500    
   X8.5207       Y8.0030       R3.7500    
   X8.8196       Y8.1268       R3.7500    
   X9.0763       Y8.3237       R3.7500    
   X9.2732       Y8.5804       R3.7500    
   X9.3970       Y8.8793       R3.7500    
   X9.4392       Y9.2000       R3.7500    
   X9.3970       Y9.5207       R3.7500    
   X9.2732       Y9.8196       R3.7500    
   X9.0763       Y10.0763      R3.7500    
   X8.8196       Y10.2732      R3.7500    
   X8.5207       Y10.3970      R3.7500    
   X8.2000       Y10.4392      R3.7500    
   X7.8793       Y10.3970      R3.7500    
   X7.5804       Y10.2732      R3.7500    
   X7.3237       Y10.0763      R3.7500    
   X7.1268       Y9.8196       R3.7500    
   X7.0030       Y9.5207       R3.7500    
   X6.9608       Y9.2000       R3.7500    
   X7.0030       Y8.8793       R3.7500    
   X7.1268       Y8.5804       R3.7500    
   X7.3237       Y8.3237       R3.7500    
(Pass: 22)
G1   Z-2.200    
G17 G2   X7.5804       Y8.1268       R3.7500    
   X7.8793       Y8.0030       R3.7500    
   X8.2000       Y7.9608       R3.7500    
   X8.5207       Y8.0030       R3.7500    
   X8.8196       Y8.1268       R3.7500    
   X9.0763       Y8.3237       R3.7500    
   X9.2732       Y8.5804       R3.7500    
   X9.3970       Y8.8793       R3.7500    
   X9.4392       Y9.2000       R3.7500    
   X9.3970       Y9.5207       R3.7500    
   X9.2732       Y9.8196       R3.7500    
   X9.0763       Y10.0763      R3.7500    
   X8.8196       Y10.2732      R3.7500    
   X8.5207       Y10.3970      R3.7500    
   X8.2000       Y10.4392      R3.7500    
   X7.8793       Y10.3970      R3.7500    
   X7.5804       Y10.2732      R3.7500    
   X7.3237       Y10.0763      R3.7500    
   X7.1268       Y9.8196       R3.7500    
   X7.0030       Y9.5207       R3.7500    
   X6.9608       Y9.2000       R3.7500    
   X7.0030       Y8.8793       R3.7500    
   X7.1268       Y8.5804       R3.7500    
   X7.3237       Y8.3237       R3.7500    
(Pass: 23)
G1   Z-2.300    
G17 G2   X7.5804       Y8.1268       R3.7500    
   X7.8793       Y8.0030       R3.7500    
   X8.2000       Y7.9608       R3.7500    
   X8.5207       Y8.0030       R3.7500    
   X8.8196       Y8.1268       R3.7500    
   X9.0763       Y8.3237       R3.7500    
   X9.2732       Y8.5804       R3.7500    
   X9.3970       Y8.8793       R3.7500    
   X9.4392       Y9.2000       R3.7500    
   X9.3970       Y9.5207       R3.7500    
   X9.2732       Y9.8196       R3.7500    
   X9.0763       Y10.0763      R3.7500    
   X8.8196       Y10.2732      R3.7500    
   X8.5207       Y10.3970      R3.7500    
   X8.2000       Y10.4392      R3.7500    
   X7.8793       Y10.3970      R3.7500    
   X7.5804       Y10.2732      R3.7500    
   X7.3237       Y10.0763      R3.7500    
   X7.1268       Y9.8196       R3.7500    
   X7.0030       Y9.5207       R3.7500    
   X6.9608       Y9.2000       R3.7500    
   X7.0030       Y8.8793       R3.7500    
   X7.1268       Y8.5804       R3.7500    
   X7.3237       Y8.3237       R3.7500    
(Pass: 24)
G1   Z-2.400    
G17 G2   X7.5804       Y8.1268       R3.7500    
   X7.8793       Y8.0030       R3.7500    
   X8.2000       Y7.9608       R3.7500    
   X8.5207       Y8.0030       R3.7500    
   X8.8196       Y8.1268       R3.7500    
   X9.0763       Y8.3237       R3.7500    
   X9.2732       Y8.5804       R3.7500    
   X9.3970       Y8.8793       R3.7500    
   X9.4392       Y9.2000       R3.7500    
   X9.3970       Y9.5207       R3.7500    
   X9.2732       Y9.8196       R3.7500    
   X9.0763       Y10.0763      R3.7500    
   X8.8196       Y10.2732      R3.7500    
   X8.5207       Y10.3970      R3.7500    
   X8.2000       Y10.4392      R3.7500    
   X7.8793       Y10.3970      R3.7500    
   X7.5804       Y10.2732      R3.7500    
   X7.3237       Y10.0763      R3.7500    
   X7.1268       Y9.8196       R3.7500    
   X7.0030       Y9.5207       R3.7500    
   X6.9608       Y9.2000       R3.7500    
   X7.0030       Y8.8793       R3.7500    
   X7.1268       Y8.5804       R3.7500    
   X7.3237       Y8.3237       R3.7500    
(Pass: 25)
G1   Z-2.500    
G17 G2   X7.5804       Y8.1268       R3.7500    
   X7.8793       Y8.0030       R3.7500    
   X8.2000       Y7.9608       R3.7500    
   X8.5207       Y8.0030       R3.7500    
   X8.8196       Y8.1268       R3.7500    
   X9.0763       Y8.3237       R3.7500    
   X9.2732       Y8.5804       R3.7500    
   X9.3970       Y8.8793       R3.7500    
   X9.4392       Y9.2000       R3.7500    
   X9.3970       Y9.5207       R3.7500    
   X9.2732       Y9.8196       R3.7500    
   X9.0763       Y10.0763      R3.7500    
   X8.8196       Y10.2732      R3.7500    
   X8.5207       Y10.3970      R3.7500    
   X8.2000       Y10.4392      R3.7500    
   X7.8793       Y10.3970      R3.7500    
   X7.5804       Y10.2732      R3.7500    
   X7.3237       Y10.0763      R3.7500    
   X7.1268       Y9.8196       R3.7500    
   X7.0030       Y9.5207       R3.7500    
   X6.9608       Y9.2000       R3.7500    
   X7.0030       Y8.8793       R3.7500    
   X7.1268       Y8.5804       R3.7500    
   X7.3237       Y8.3237       R3.7500    
(Pass: 26)
G1   Z-2.600    
G17 G2   X7.5804       Y8.1268       R3.7500    
   X7.8793       Y8.0030       R3.7500    
   X8.2000       Y7.9608       R3.7500    
   X8.5207       Y8.0030       R3.7500    
   X8.8196       Y8.1268       R3.7500    
   X9.0763       Y8.3237       R3.7500    
   X9.2732       Y8.5804       R3.7500    
   X9.3970       Y8.8793       R3.7500    
   X9.4392       Y9.2000       R3.7500    
   X9.3970       Y9.5207       R3.7500    
   X9.2732       Y9.8196       R3.7500    
   X9.0763       Y10.0763      R3.7500    
   X8.8196       Y10.2732      R3.7500    
   X8.5207       Y10.3970      R3.7500    
   X8.2000       Y10.4392      R3.7500    
   X7.8793       Y10.3970      R3.7500    
   X7.5804       Y10.2732      R3.7500    
   X7.3237       Y10.0763      R3.7500    
   X7.1268       Y9.8196       R3.7500    
   X7.0030       Y9.5207       R3.7500    
   X6.9608       Y9.2000       R3.7500    
   X7.0030       Y8.8793       R3.7500    
   X7.1268       Y8.5804       R3.7500    
   X7.3237       Y8.3237       R3.7500    
(Pass: 27)
G1   Z-2.700    
G17 G2   X7.5804       Y8.1268       R3.7500    
   X7.8793       Y8.0030       R3.7500    
   X8.2000       Y7.9608       R3.7500    
   X8.5207       Y8.0030       R3.7500    
   X8.8196       Y8.1268       R3.7500    
   X9.0763       Y8.3237       R3.7500    
   X9.2732       Y8.5804       R3.7500    
   X9.3970       Y8.8793       R3.7500    
   X9.4392       Y9.2000       R3.7500    
   X9.3970       Y9.5207       R3.7500    
   X9.2732       Y9.8196       R3.7500    
   X9.0763       Y10.0763      R3.7500    
   X8.8196       Y10.2732      R3.7500    
   X8.5207       Y10.3970      R3.7500    
   X8.2000       Y10.4392      R3.7500    
   X7.8793       Y10.3970      R3.7500    
   X7.5804       Y10.2732      R3.7500    
   X7.3237       Y10.0763      R3.7500    
   X7.1268       Y9.8196       R3.7500    
   X7.0030       Y9.5207       R3.7500    
   X6.9608       Y9.2000       R3.7500    
   X7.0030       Y8.8793       R3.7500    
   X7.1268       Y8.5804       R3.7500    
   X7.3237       Y8.3237       R3.7500    
(Pass: 28)
G1   Z-2.800    
G17 G2   X7.5804       Y8.1268       R3.7500    
   X7.8793       Y8.0030       R3.7500    
   X8.2000       Y7.9608       R3.7500    
   X8.5207       Y8.0030       R3.7500    
   X8.8196       Y8.1268       R3.7500    
   X9.0763       Y8.3237       R3.7500    
   X9.2732       Y8.5804       R3.7500    
   X9.3970       Y8.8793       R3.7500    
   X9.4392       Y9.2000       R3.7500    
   X9.3970       Y9.5207       R3.7500    
   X9.2732       Y9.8196       R3.7500    
   X9.0763       Y10.0763      R3.7500    
   X8.8196       Y10.2732      R3.7500    
   X8.5207       Y10.3970      R3.7500    
   X8.2000       Y10.4392      R3.7500    
   X7.8793       Y10.3970      R3.7500    
   X7.5804       Y10.2732      R3.7500    
   X7.3237       Y10.0763      R3.7500    
   X7.1268       Y9.8196       R3.7500    
   X7.0030       Y9.5207       R3.7500    
   X6.9608       Y9.2000       R3.7500    
   X7.0030       Y8.8793       R3.7500    
   X7.1268       Y8.5804       R3.7500    
   X7.3237       Y8.3237       R3.7500    
(Pass: 29)
G1   Z-2.900    
G17 G2   X7.5804       Y8.1268       R3.7500    
   X7.8793       Y8.0030       R3.7500    
   X8.2000       Y7.9608       R3.7500    
   X8.5207       Y8.0030       R3.7500    
   X8.8196       Y8.1268       R3.7500    
   X9.0763       Y8.3237       R3.7500    
   X9.2732       Y8.5804       R3.7500    
   X9.3970       Y8.8793       R3.7500    
   X9.4392       Y9.2000       R3.7500    
   X9.3970       Y9.5207       R3.7500    
   X9.2732       Y9.8196       R3.7500    
   X9.0763       Y10.0763      R3.7500    
   X8.8196       Y10.2732      R3.7500    
   X8.5207       Y10.3970      R3.7500    
   X8.2000       Y10.4392      R3.7500    
   X7.8793       Y10.3970      R3.7500    
   X7.5804       Y10.2732      R3.7500    
   X7.3237       Y10.0763      R3.7500    
   X7.1268       Y9.8196       R3.7500    
   X7.0030       Y9.5207       R3.7500    
   X6.9608       Y9.2000       R3.7500    
   X7.0030       Y8.8793       R3.7500    
   X7.1268       Y8.5804       R3.7500    
   X7.3237       Y8.3237       R3.7500    
(Pass: 30)
G1   Z-3.000    
G17 G2   X7.5804       Y8.1268       R3.7500    
   X7.8793       Y8.0030       R3.7500    
   X8.2000       Y7.9608       R3.7500    
   X8.5207       Y8.0030       R3.7500    
   X8.8196       Y8.1268       R3.7500    
   X9.0763       Y8.3237       R3.7500    
   X9.2732       Y8.5804       R3.7500    
   X9.3970       Y8.8793       R3.7500    
   X9.4392       Y9.2000       R3.7500    
   X9.3970       Y9.5207       R3.7500    
   X9.2732       Y9.8196       R3.7500    
   X9.0763       Y10.0763      R3.7500    
   X8.8196       Y10.2732      R3.7500    
   X8.5207       Y10.3970      R3.7500    
   X8.2000       Y10.4392      R3.7500    
   X7.8793       Y10.3970      R3.7500    
   X7.5804       Y10.2732      R3.7500    
   X7.3237       Y10.0763      R3.7500    
   X7.1268       Y9.8196       R3.7500    
   X7.0030       Y9.5207       R3.7500    
   X6.9608       Y9.2000       R3.7500    
   X7.0030       Y8.8793       R3.7500    
   X7.1268       Y8.5804       R3.7500    
   X7.3237       Y8.3237       R3.7500    
(Pass: 31)
G1   Z-3.100    
G17 G2   X7.5804       Y8.1268       R3.7500    
   X7.8793       Y8.0030       R3.7500    
   X8.2000       Y7.9608       R3.7500    
   X8.5207       Y8.0030       R3.7500    
   X8.8196       Y8.1268       R3.7500    
   X9.0763       Y8.3237       R3.7500    
   X9.2732       Y8.5804       R3.7500    
   X9.3970       Y8.8793       R3.7500    
   X9.4392       Y9.2000       R3.7500    
   X9.3970       Y9.5207       R3.7500    
   X9.2732       Y9.8196       R3.7500    
   X9.0763       Y10.0763      R3.7500    
   X8.8196       Y10.2732      R3.7500    
   X8.5207       Y10.3970      R3.7500    
   X8.2000       Y10.4392      R3.7500    
   X7.8793       Y10.3970      R3.7500    
   X7.5804       Y10.2732      R3.7500    
   X7.3237       Y10.0763      R3.7500    
   X7.1268       Y9.8196       R3.7500    
   X7.0030       Y9.5207       R3.7500    
   X6.9608       Y9.2000       R3.7500    
   X7.0030       Y8.8793       R3.7500    
   X7.1268       Y8.5804       R3.7500    
   X7.3237       Y8.3237       R3.7500    
(Pass: 32)
G1   Z-3.200    
G17 G2   X7.5804       Y8.1268       R3.7500    
   X7.8793       Y8.0030       R3.7500    
   X8.2000       Y7.9608       R3.7500    
   X8.5207       Y8.0030       R3.7500    
   X8.8196       Y8.1268       R3.7500    
   X9.0763       Y8.3237       R3.7500    
   X9.2732       Y8.5804       R3.7500    
   X9.3970       Y8.8793       R3.7500    
   X9.4392       Y9.2000       R3.7500    
   X9.3970       Y9.5207       R3.7500    
   X9.2732       Y9.8196       R3.7500    
   X9.0763       Y10.0763      R3.7500    
   X8.8196       Y10.2732      R3.7500    
   X8.5207       Y10.3970      R3.7500    
   X8.2000       Y10.4392      R3.7500    
   X7.8793       Y10.3970      R3.7500    
   X7.5804       Y10.2732      R3.7500    
   X7.3237       Y10.0763      R3.7500    
   X7.1268       Y9.8196       R3.7500    
   X7.0030       Y9.5207       R3.7500    
   X6.9608       Y9.2000       R3.7500    
   X7.0030       Y8.8793       R3.7500    
   X7.1268       Y8.5804       R3.7500    
   X7.3237       Y8.3237       R3.7500    
(Pass: 33)
G1   Z-3.300    
G17 G2   X7.5804       Y8.1268       R3.7500    
   X7.8793       Y8.0030       R3.7500    
   X8.2000       Y7.9608       R3.7500    
   X8.5207       Y8.0030       R3.7500    
   X8.8196       Y8.1268       R3.7500    
   X9.0763       Y8.3237       R3.7500    
   X9.2732       Y8.5804       R3.7500    
   X9.3970       Y8.8793       R3.7500    
   X9.4392       Y9.2000       R3.7500    
   X9.3970       Y9.5207       R3.7500    
   X9.2732       Y9.8196       R3.7500    
   X9.0763       Y10.0763      R3.7500    
   X8.8196       Y10.2732      R3.7500    
   X8.5207       Y10.3970      R3.7500    
   X8.2000       Y10.4392      R3.7500    
   X7.8793       Y10.3970      R3.7500    
   X7.5804       Y10.2732      R3.7500    
   X7.3237       Y10.0763      R3.7500    
   X7.1268       Y9.8196       R3.7500    
   X7.0030       Y9.5207       R3.7500    
   X6.9608       Y9.2000       R3.7500    
   X7.0030       Y8.8793       R3.7500    
   X7.1268       Y8.5804       R3.7500    
   X7.3237       Y8.3237       R3.7500    
(Pass: 34)
G1   Z-3.400    
G17 G2   X7.5804       Y8.1268       R3.7500    
   X7.8793       Y8.0030       R3.7500    
   X8.2000       Y7.9608       R3.7500    
   X8.5207       Y8.0030       R3.7500    
   X8.8196       Y8.1268       R3.7500    
   X9.0763       Y8.3237       R3.7500    
   X9.2732       Y8.5804       R3.7500    
   X9.3970       Y8.8793       R3.7500    
   X9.4392       Y9.2000       R3.7500    
   X9.3970       Y9.5207       R3.7500    
   X9.2732       Y9.8196       R3.7500    
   X9.0763       Y10.0763      R3.7500    
   X8.8196       Y10.2732      R3.7500    
   X8.5207       Y10.3970      R3.7500    
   X8.2000       Y10.4392      R3.7500    
   X7.8793       Y10.3970      R3.7500    
   X7.5804       Y10.2732      R3.7500    
   X7.3237       Y10.0763      R3.7500    
   X7.1268       Y9.8196       R3.7500    
   X7.0030       Y9.5207       R3.7500    
   X6.9608       Y9.2000       R3.7500    
   X7.0030       Y8.8793       R3.7500    
   X7.1268       Y8.5804       R3.7500    
   X7.3237       Y8.3237       R3.7500    
(BREAK pass 34)
G0   Z6.000     
(Pass: 1)
   X8.200        Y37.961    
G1   Z-0.100     F1000
G17 G2   X8.5207       Y38.0030      R3.7500    
   X8.8196       Y38.1268      R3.7500    
   X9.0763       Y38.3237      R3.7500    
   X9.2732       Y38.5804      R3.7500    
   X9.3970       Y38.8793      R3.7500    
   X9.4392       Y39.2000      R3.7500    
   X9.3970       Y39.5207      R3.7500    
   X9.2732       Y39.8196      R3.7500    
   X9.0763       Y40.0763      R3.7500    
   X8.8196       Y40.2732      R3.7500    
   X8.5207       Y40.3970      R3.7500    
   X8.2000       Y40.4392      R3.7500    
   X7.8793       Y40.3970      R3.7500    
   X7.5804       Y40.2732      R3.7500    
   X7.3237       Y40.0763      R3.7500    
   X7.1268       Y39.8196      R3.7500    
   X7.0030       Y39.5207      R3.7500    
   X6.9608       Y39.2000      R3.7500    
   X7.0030       Y38.8793      R3.7500    
   X7.1268       Y38.5804      R3.7500    
   X7.3237       Y38.3237      R3.7500    
   X7.5804       Y38.1268      R3.7500    
   X7.8793       Y38.0030      R3.7500    
   X8.2000       Y37.9608      R3.7500    
(Pass: 2)
G1   Z-0.200    
G17 G2   X8.5207       Y38.0030      R3.7500    
   X8.8196       Y38.1268      R3.7500    
   X9.0763       Y38.3237      R3.7500    
   X9.2732       Y38.5804      R3.7500    
   X9.3970       Y38.8793      R3.7500    
   X9.4392       Y39.2000      R3.7500    
   X9.3970       Y39.5207      R3.7500    
   X9.2732       Y39.8196      R3.7500    
   X9.0763       Y40.0763      R3.7500    
   X8.8196       Y40.2732      R3.7500    
   X8.5207       Y40.3970      R3.7500    
   X8.2000       Y40.4392      R3.7500    
   X7.8793       Y40.3970      R3.7500    
   X7.5804       Y40.2732      R3.7500    
   X7.3237       Y40.0763      R3.7500    
   X7.1268       Y39.8196      R3.7500    
   X7.0030       Y39.5207      R3.7500    
   X6.9608       Y39.2000      R3.7500    
   X7.0030       Y38.8793      R3.7500    
   X7.1268       Y38.5804      R3.7500    
   X7.3237       Y38.3237      R3.7500    
   X7.5804       Y38.1268      R3.7500    
   X7.8793       Y38.0030      R3.7500    
   X8.2000       Y37.9608      R3.7500    
(Pass: 3)
G1   Z-0.300    
G17 G2   X8.5207       Y38.0030      R3.7500    
   X8.8196       Y38.1268      R3.7500    
   X9.0763       Y38.3237      R3.7500    
   X9.2732       Y38.5804      R3.7500    
   X9.3970       Y38.8793      R3.7500    
   X9.4392       Y39.2000      R3.7500    
   X9.3970       Y39.5207      R3.7500    
   X9.2732       Y39.8196      R3.7500    
   X9.0763       Y40.0763      R3.7500    
   X8.8196       Y40.2732      R3.7500    
   X8.5207       Y40.3970      R3.7500    
   X8.2000       Y40.4392      R3.7500    
   X7.8793       Y40.3970      R3.7500    
   X7.5804       Y40.2732      R3.7500    
   X7.3237       Y40.0763      R3.7500    
   X7.1268       Y39.8196      R3.7500    
   X7.0030       Y39.5207      R3.7500    
   X6.9608       Y39.2000      R3.7500    
   X7.0030       Y38.8793      R3.7500    
   X7.1268       Y38.5804      R3.7500    
   X7.3237       Y38.3237      R3.7500    
   X7.5804       Y38.1268      R3.7500    
   X7.8793       Y38.0030      R3.7500    
   X8.2000       Y37.9608      R3.7500    
(Pass: 4)
G1   Z-0.400    
G17 G2   X8.5207       Y38.0030      R3.7500    
   X8.8196       Y38.1268      R3.7500    
   X9.0763       Y38.3237      R3.7500    
   X9.2732       Y38.5804      R3.7500    
   X9.3970       Y38.8793      R3.7500    
   X9.4392       Y39.2000      R3.7500    
   X9.3970       Y39.5207      R3.7500    
   X9.2732       Y39.8196      R3.7500    
   X9.0763       Y40.0763      R3.7500    
   X8.8196       Y40.2732      R3.7500    
   X8.5207       Y40.3970      R3.7500    
   X8.2000       Y40.4392      R3.7500    
   X7.8793       Y40.3970      R3.7500    
   X7.5804       Y40.2732      R3.7500    
   X7.3237       Y40.0763      R3.7500    
   X7.1268       Y39.8196      R3.7500    
   X7.0030       Y39.5207      R3.7500    
   X6.9608       Y39.2000      R3.7500    
   X7.0030       Y38.8793      R3.7500    
   X7.1268       Y38.5804      R3.7500    
   X7.3237       Y38.3237      R3.7500    
   X7.5804       Y38.1268      R3.7500    
   X7.8793       Y38.0030      R3.7500    
   X8.2000       Y37.9608      R3.7500    
(Pass: 5)
G1   Z-0.500    
G17 G2   X8.5207       Y38.0030      R3.7500    
   X8.8196       Y38.1268      R3.7500    
   X9.0763       Y38.3237      R3.7500    
   X9.2732       Y38.5804      R3.7500    
   X9.3970       Y38.8793      R3.7500    
   X9.4392       Y39.2000      R3.7500    
   X9.3970       Y39.5207      R3.7500    
   X9.2732       Y39.8196      R3.7500    
   X9.0763       Y40.0763      R3.7500    
   X8.8196       Y40.2732      R3.7500    
   X8.5207       Y40.3970      R3.7500    
   X8.2000       Y40.4392      R3.7500    
   X7.8793       Y40.3970      R3.7500    
   X7.5804       Y40.2732      R3.7500    
   X7.3237       Y40.0763      R3.7500    
   X7.1268       Y39.8196      R3.7500    
   X7.0030       Y39.5207      R3.7500    
   X6.9608       Y39.2000      R3.7500    
   X7.0030       Y38.8793      R3.7500    
   X7.1268       Y38.5804      R3.7500    
   X7.3237       Y38.3237      R3.7500    
   X7.5804       Y38.1268      R3.7500    
   X7.8793       Y38.0030      R3.7500    
   X8.2000       Y37.9608      R3.7500    
(Pass: 6)
G1   Z-0.600    
G17 G2   X8.5207       Y38.0030      R3.7500    
   X8.8196       Y38.1268      R3.7500    
   X9.0763       Y38.3237      R3.7500    
   X9.2732       Y38.5804      R3.7500    
   X9.3970       Y38.8793      R3.7500    
   X9.4392       Y39.2000      R3.7500    
   X9.3970       Y39.5207      R3.7500    
   X9.2732       Y39.8196      R3.7500    
   X9.0763       Y40.0763      R3.7500    
   X8.8196       Y40.2732      R3.7500    
   X8.5207       Y40.3970      R3.7500    
   X8.2000       Y40.4392      R3.7500    
   X7.8793       Y40.3970      R3.7500    
   X7.5804       Y40.2732      R3.7500    
   X7.3237       Y40.0763      R3.7500    
   X7.1268       Y39.8196      R3.7500    
   X7.0030       Y39.5207      R3.7500    
   X6.9608       Y39.2000      R3.7500    
   X7.0030       Y38.8793      R3.7500    
   X7.1268       Y38.5804      R3.7500    
   X7.3237       Y38.3237      R3.7500    
   X7.5804       Y38.1268      R3.7500    
   X7.8793       Y38.0030      R3.7500    
   X8.2000       Y37.9608      R3.7500    
(Pass: 7)
G1   Z-0.700    
G17 G2   X8.5207       Y38.0030      R3.7500    
   X8.8196       Y38.1268      R3.7500    
   X9.0763       Y38.3237      R3.7500    
   X9.2732       Y38.5804      R3.7500    
   X9.3970       Y38.8793      R3.7500    
   X9.4392       Y39.2000      R3.7500    
   X9.3970       Y39.5207      R3.7500    
   X9.2732       Y39.8196      R3.7500    
   X9.0763       Y40.0763      R3.7500    
   X8.8196       Y40.2732      R3.7500    
   X8.5207       Y40.3970      R3.7500    
   X8.2000       Y40.4392      R3.7500    
   X7.8793       Y40.3970      R3.7500    
   X7.5804       Y40.2732      R3.7500    
   X7.3237       Y40.0763      R3.7500    
   X7.1268       Y39.8196      R3.7500    
   X7.0030       Y39.5207      R3.7500    
   X6.9608       Y39.2000      R3.7500    
   X7.0030       Y38.8793      R3.7500    
   X7.1268       Y38.5804      R3.7500    
   X7.3237       Y38.3237      R3.7500    
   X7.5804       Y38.1268      R3.7500    
   X7.8793       Y38.0030      R3.7500    
   X8.2000       Y37.9608      R3.7500    
(Pass: 8)
G1   Z-0.800    
G17 G2   X8.5207       Y38.0030      R3.7500    
   X8.8196       Y38.1268      R3.7500    
   X9.0763       Y38.3237      R3.7500    
   X9.2732       Y38.5804      R3.7500    
   X9.3970       Y38.8793      R3.7500    
   X9.4392       Y39.2000      R3.7500    
   X9.3970       Y39.5207      R3.7500    
   X9.2732       Y39.8196      R3.7500    
   X9.0763       Y40.0763      R3.7500    
   X8.8196       Y40.2732      R3.7500    
   X8.5207       Y40.3970      R3.7500    
   X8.2000       Y40.4392      R3.7500    
   X7.8793       Y40.3970      R3.7500    
   X7.5804       Y40.2732      R3.7500    
   X7.3237       Y40.0763      R3.7500    
   X7.1268       Y39.8196      R3.7500    
   X7.0030       Y39.5207      R3.7500    
   X6.9608       Y39.2000      R3.7500    
   X7.0030       Y38.8793      R3.7500    
   X7.1268       Y38.5804      R3.7500    
   X7.3237       Y38.3237      R3.7500    
   X7.5804       Y38.1268      R3.7500    
   X7.8793       Y38.0030      R3.7500    
   X8.2000       Y37.9608      R3.7500    
(Pass: 9)
G1   Z-0.900    
G17 G2   X8.5207       Y38.0030      R3.7500    
   X8.8196       Y38.1268      R3.7500    
   X9.0763       Y38.3237      R3.7500    
   X9.2732       Y38.5804      R3.7500    
   X9.3970       Y38.8793      R3.7500    
   X9.4392       Y39.2000      R3.7500    
   X9.3970       Y39.5207      R3.7500    
   X9.2732       Y39.8196      R3.7500    
   X9.0763       Y40.0763      R3.7500    
   X8.8196       Y40.2732      R3.7500    
   X8.5207       Y40.3970      R3.7500    
   X8.2000       Y40.4392      R3.7500    
   X7.8793       Y40.3970      R3.7500    
   X7.5804       Y40.2732      R3.7500    
   X7.3237       Y40.0763      R3.7500    
   X7.1268       Y39.8196      R3.7500    
   X7.0030       Y39.5207      R3.7500    
   X6.9608       Y39.2000      R3.7500    
   X7.0030       Y38.8793      R3.7500    
   X7.1268       Y38.5804      R3.7500    
   X7.3237       Y38.3237      R3.7500    
   X7.5804       Y38.1268      R3.7500    
   X7.8793       Y38.0030      R3.7500    
   X8.2000       Y37.9608      R3.7500    
(Pass: 10)
G1   Z-1.000    
G17 G2   X8.5207       Y38.0030      R3.7500    
   X8.8196       Y38.1268      R3.7500    
   X9.0763       Y38.3237      R3.7500    
   X9.2732       Y38.5804      R3.7500    
   X9.3970       Y38.8793      R3.7500    
   X9.4392       Y39.2000      R3.7500    
   X9.3970       Y39.5207      R3.7500    
   X9.2732       Y39.8196      R3.7500    
   X9.0763       Y40.0763      R3.7500    
   X8.8196       Y40.2732      R3.7500    
   X8.5207       Y40.3970      R3.7500    
   X8.2000       Y40.4392      R3.7500    
   X7.8793       Y40.3970      R3.7500    
   X7.5804       Y40.2732      R3.7500    
   X7.3237       Y40.0763      R3.7500    
   X7.1268       Y39.8196      R3.7500    
   X7.0030       Y39.5207      R3.7500    
   X6.9608       Y39.2000      R3.7500    
   X7.0030       Y38.8793      R3.7500    
   X7.1268       Y38.5804      R3.7500    
   X7.3237       Y38.3237      R3.7500    
   X7.5804       Y38.1268      R3.7500    
   X7.8793       Y38.0030      R3.7500    
   X8.2000       Y37.9608      R3.7500    
(Pass: 11)
G1   Z-1.100    
G17 G2   X8.5207       Y38.0030      R3.7500    
   X8.8196       Y38.1268      R3.7500    
   X9.0763       Y38.3237      R3.7500    
   X9.2732       Y38.5804      R3.7500    
   X9.3970       Y38.8793      R3.7500    
   X9.4392       Y39.2000      R3.7500    
   X9.3970       Y39.5207      R3.7500    
   X9.2732       Y39.8196      R3.7500    
   X9.0763       Y40.0763      R3.7500    
   X8.8196       Y40.2732      R3.7500    
   X8.5207       Y40.3970      R3.7500    
   X8.2000       Y40.4392      R3.7500    
   X7.8793       Y40.3970      R3.7500    
   X7.5804       Y40.2732      R3.7500    
   X7.3237       Y40.0763      R3.7500    
   X7.1268       Y39.8196      R3.7500    
   X7.0030       Y39.5207      R3.7500    
   X6.9608       Y39.2000      R3.7500    
   X7.0030       Y38.8793      R3.7500    
   X7.1268       Y38.5804      R3.7500    
   X7.3237       Y38.3237      R3.7500    
   X7.5804       Y38.1268      R3.7500    
   X7.8793       Y38.0030      R3.7500    
   X8.2000       Y37.9608      R3.7500    
(Pass: 12)
G1   Z-1.200    
G17 G2   X8.5207       Y38.0030      R3.7500    
   X8.8196       Y38.1268      R3.7500    
   X9.0763       Y38.3237      R3.7500    
   X9.2732       Y38.5804      R3.7500    
   X9.3970       Y38.8793      R3.7500    
   X9.4392       Y39.2000      R3.7500    
   X9.3970       Y39.5207      R3.7500    
   X9.2732       Y39.8196      R3.7500    
   X9.0763       Y40.0763      R3.7500    
   X8.8196       Y40.2732      R3.7500    
   X8.5207       Y40.3970      R3.7500    
   X8.2000       Y40.4392      R3.7500    
   X7.8793       Y40.3970      R3.7500    
   X7.5804       Y40.2732      R3.7500    
   X7.3237       Y40.0763      R3.7500    
   X7.1268       Y39.8196      R3.7500    
   X7.0030       Y39.5207      R3.7500    
   X6.9608       Y39.2000      R3.7500    
   X7.0030       Y38.8793      R3.7500    
   X7.1268       Y38.5804      R3.7500    
   X7.3237       Y38.3237      R3.7500    
   X7.5804       Y38.1268      R3.7500    
   X7.8793       Y38.0030      R3.7500    
   X8.2000       Y37.9608      R3.7500    
(Pass: 13)
G1   Z-1.300    
G17 G2   X8.5207       Y38.0030      R3.7500    
   X8.8196       Y38.1268      R3.7500    
   X9.0763       Y38.3237      R3.7500    
   X9.2732       Y38.5804      R3.7500    
   X9.3970       Y38.8793      R3.7500    
   X9.4392       Y39.2000      R3.7500    
   X9.3970       Y39.5207      R3.7500    
   X9.2732       Y39.8196      R3.7500    
   X9.0763       Y40.0763      R3.7500    
   X8.8196       Y40.2732      R3.7500    
   X8.5207       Y40.3970      R3.7500    
   X8.2000       Y40.4392      R3.7500    
   X7.8793       Y40.3970      R3.7500    
   X7.5804       Y40.2732      R3.7500    
   X7.3237       Y40.0763      R3.7500    
   X7.1268       Y39.8196      R3.7500    
   X7.0030       Y39.5207      R3.7500    
   X6.9608       Y39.2000      R3.7500    
   X7.0030       Y38.8793      R3.7500    
   X7.1268       Y38.5804      R3.7500    
   X7.3237       Y38.3237      R3.7500    
   X7.5804       Y38.1268      R3.7500    
   X7.8793       Y38.0030      R3.7500    
   X8.2000       Y37.9608      R3.7500    
(Pass: 14)
G1   Z-1.400    
G17 G2   X8.5207       Y38.0030      R3.7500    
   X8.8196       Y38.1268      R3.7500    
   X9.0763       Y38.3237      R3.7500    
   X9.2732       Y38.5804      R3.7500    
   X9.3970       Y38.8793      R3.7500    
   X9.4392       Y39.2000      R3.7500    
   X9.3970       Y39.5207      R3.7500    
   X9.2732       Y39.8196      R3.7500    
   X9.0763       Y40.0763      R3.7500    
   X8.8196       Y40.2732      R3.7500    
   X8.5207       Y40.3970      R3.7500    
   X8.2000       Y40.4392      R3.7500    
   X7.8793       Y40.3970      R3.7500    
   X7.5804       Y40.2732      R3.7500    
   X7.3237       Y40.0763      R3.7500    
   X7.1268       Y39.8196      R3.7500    
   X7.0030       Y39.5207      R3.7500    
   X6.9608       Y39.2000      R3.7500    
   X7.0030       Y38.8793      R3.7500    
   X7.1268       Y38.5804      R3.7500    
   X7.3237       Y38.3237      R3.7500    
   X7.5804       Y38.1268      R3.7500    
   X7.8793       Y38.0030      R3.7500    
   X8.2000       Y37.9608      R3.7500    
(Pass: 15)
G1   Z-1.500    
G17 G2   X8.5207       Y38.0030      R3.7500    
   X8.8196       Y38.1268      R3.7500    
   X9.0763       Y38.3237      R3.7500    
   X9.2732       Y38.5804      R3.7500    
   X9.3970       Y38.8793      R3.7500    
   X9.4392       Y39.2000      R3.7500    
   X9.3970       Y39.5207      R3.7500    
   X9.2732       Y39.8196      R3.7500    
   X9.0763       Y40.0763      R3.7500    
   X8.8196       Y40.2732      R3.7500    
   X8.5207       Y40.3970      R3.7500    
   X8.2000       Y40.4392      R3.7500    
   X7.8793       Y40.3970      R3.7500    
   X7.5804       Y40.2732      R3.7500    
   X7.3237       Y40.0763      R3.7500    
   X7.1268       Y39.8196      R3.7500    
   X7.0030       Y39.5207      R3.7500    
   X6.9608       Y39.2000      R3.7500    
   X7.0030       Y38.8793      R3.7500    
   X7.1268       Y38.5804      R3.7500    
   X7.3237       Y38.3237      R3.7500    
   X7.5804       Y38.1268      R3.7500    
   X7.8793       Y38.0030      R3.7500    
   X8.2000       Y37.9608      R3.7500    
(Pass: 16)
G1   Z-1.600    
G17 G2   X8.5207       Y38.0030      R3.7500    
   X8.8196       Y38.1268      R3.7500    
   X9.0763       Y38.3237      R3.7500    
   X9.2732       Y38.5804      R3.7500    
   X9.3970       Y38.8793      R3.7500    
   X9.4392       Y39.2000      R3.7500    
   X9.3970       Y39.5207      R3.7500    
   X9.2732       Y39.8196      R3.7500    
   X9.0763       Y40.0763      R3.7500    
   X8.8196       Y40.2732      R3.7500    
   X8.5207       Y40.3970      R3.7500    
   X8.2000       Y40.4392      R3.7500    
   X7.8793       Y40.3970      R3.7500    
   X7.5804       Y40.2732      R3.7500    
   X7.3237       Y40.0763      R3.7500    
   X7.1268       Y39.8196      R3.7500    
   X7.0030       Y39.5207      R3.7500    
   X6.9608       Y39.2000      R3.7500    
   X7.0030       Y38.8793      R3.7500    
   X7.1268       Y38.5804      R3.7500    
   X7.3237       Y38.3237      R3.7500    
   X7.5804       Y38.1268      R3.7500    
   X7.8793       Y38.0030      R3.7500    
   X8.2000       Y37.9608      R3.7500    
(Pass: 17)
G1   Z-1.700    
G17 G2   X8.5207       Y38.0030      R3.7500    
   X8.8196       Y38.1268      R3.7500    
   X9.0763       Y38.3237      R3.7500    
   X9.2732       Y38.5804      R3.7500    
   X9.3970       Y38.8793      R3.7500    
   X9.4392       Y39.2000      R3.7500    
   X9.3970       Y39.5207      R3.7500    
   X9.2732       Y39.8196      R3.7500    
   X9.0763       Y40.0763      R3.7500    
   X8.8196       Y40.2732      R3.7500    
   X8.5207       Y40.3970      R3.7500    
   X8.2000       Y40.4392      R3.7500    
   X7.8793       Y40.3970      R3.7500    
   X7.5804       Y40.2732      R3.7500    
   X7.3237       Y40.0763      R3.7500    
   X7.1268       Y39.8196      R3.7500    
   X7.0030       Y39.5207      R3.7500    
   X6.9608       Y39.2000      R3.7500    
   X7.0030       Y38.8793      R3.7500    
   X7.1268       Y38.5804      R3.7500    
   X7.3237       Y38.3237      R3.7500    
   X7.5804       Y38.1268      R3.7500    
   X7.8793       Y38.0030      R3.7500    
   X8.2000       Y37.9608      R3.7500    
(Pass: 18)
G1   Z-1.800    
G17 G2   X8.5207       Y38.0030      R3.7500    
   X8.8196       Y38.1268      R3.7500    
   X9.0763       Y38.3237      R3.7500    
   X9.2732       Y38.5804      R3.7500    
   X9.3970       Y38.8793      R3.7500    
   X9.4392       Y39.2000      R3.7500    
   X9.3970       Y39.5207      R3.7500    
   X9.2732       Y39.8196      R3.7500    
   X9.0763       Y40.0763      R3.7500    
   X8.8196       Y40.2732      R3.7500    
   X8.5207       Y40.3970      R3.7500    
   X8.2000       Y40.4392      R3.7500    
   X7.8793       Y40.3970      R3.7500    
   X7.5804       Y40.2732      R3.7500    
   X7.3237       Y40.0763      R3.7500    
   X7.1268       Y39.8196      R3.7500    
   X7.0030       Y39.5207      R3.7500    
   X6.9608       Y39.2000      R3.7500    
   X7.0030       Y38.8793      R3.7500    
   X7.1268       Y38.5804      R3.7500    
   X7.3237       Y38.3237      R3.7500    
   X7.5804       Y38.1268      R3.7500    
   X7.8793       Y38.0030      R3.7500    
   X8.2000       Y37.9608      R3.7500    
(Pass: 19)
G1   Z-1.900    
G17 G2   X8.5207       Y38.0030      R3.7500    
   X8.8196       Y38.1268      R3.7500    
   X9.0763       Y38.3237      R3.7500    
   X9.2732       Y38.5804      R3.7500    
   X9.3970       Y38.8793      R3.7500    
   X9.4392       Y39.2000      R3.7500    
   X9.3970       Y39.5207      R3.7500    
   X9.2732       Y39.8196      R3.7500    
   X9.0763       Y40.0763      R3.7500    
   X8.8196       Y40.2732      R3.7500    
   X8.5207       Y40.3970      R3.7500    
   X8.2000       Y40.4392      R3.7500    
   X7.8793       Y40.3970      R3.7500    
   X7.5804       Y40.2732      R3.7500    
   X7.3237       Y40.0763      R3.7500    
   X7.1268       Y39.8196      R3.7500    
   X7.0030       Y39.5207      R3.7500    
   X6.9608       Y39.2000      R3.7500    
   X7.0030       Y38.8793      R3.7500    
   X7.1268       Y38.5804      R3.7500    
   X7.3237       Y38.3237      R3.7500    
   X7.5804       Y38.1268      R3.7500    
   X7.8793       Y38.0030      R3.7500    
   X8.2000       Y37.9608      R3.7500    
(Pass: 20)
G1   Z-2.000    
G17 G2   X8.5207       Y38.0030      R3.7500    
   X8.8196       Y38.1268      R3.7500    
   X9.0763       Y38.3237      R3.7500    
   X9.2732       Y38.5804      R3.7500    
   X9.3970       Y38.8793      R3.7500    
   X9.4392       Y39.2000      R3.7500    
   X9.3970       Y39.5207      R3.7500    
   X9.2732       Y39.8196      R3.7500    
   X9.0763       Y40.0763      R3.7500    
   X8.8196       Y40.2732      R3.7500    
   X8.5207       Y40.3970      R3.7500    
   X8.2000       Y40.4392      R3.7500    
   X7.8793       Y40.3970      R3.7500    
   X7.5804       Y40.2732      R3.7500    
   X7.3237       Y40.0763      R3.7500    
   X7.1268       Y39.8196      R3.7500    
   X7.0030       Y39.5207      R3.7500    
   X6.9608       Y39.2000      R3.7500    
   X7.0030       Y38.8793      R3.7500    
   X7.1268       Y38.5804      R3.7500    
   X7.3237       Y38.3237      R3.7500    
   X7.5804       Y38.1268      R3.7500    
   X7.8793       Y38.0030      R3.7500    
   X8.2000       Y37.9608      R3.7500    
(Pass: 21)
G1   Z-2.100    
G17 G2   X8.5207       Y38.0030      R3.7500    
   X8.8196       Y38.1268      R3.7500    
   X9.0763       Y38.3237      R3.7500    
   X9.2732       Y38.5804      R3.7500    
   X9.3970       Y38.8793      R3.7500    
   X9.4392       Y39.2000      R3.7500    
   X9.3970       Y39.5207      R3.7500    
   X9.2732       Y39.8196      R3.7500    
   X9.0763       Y40.0763      R3.7500    
   X8.8196       Y40.2732      R3.7500    
   X8.5207       Y40.3970      R3.7500    
   X8.2000       Y40.4392      R3.7500    
   X7.8793       Y40.3970      R3.7500    
   X7.5804       Y40.2732      R3.7500    
   X7.3237       Y40.0763      R3.7500    
   X7.1268       Y39.8196      R3.7500    
   X7.0030       Y39.5207      R3.7500    
   X6.9608       Y39.2000      R3.7500    
   X7.0030       Y38.8793      R3.7500    
   X7.1268       Y38.5804      R3.7500    
   X7.3237       Y38.3237      R3.7500    
   X7.5804       Y38.1268      R3.7500    
   X7.8793       Y38.0030      R3.7500    
   X8.2000       Y37.9608      R3.7500    
(Pass: 22)
G1   Z-2.200    
G17 G2   X8.5207       Y38.0030      R3.7500    
   X8.8196       Y38.1268      R3.7500    
   X9.0763       Y38.3237      R3.7500    
   X9.2732       Y38.5804      R3.7500    
   X9.3970       Y38.8793      R3.7500    
   X9.4392       Y39.2000      R3.7500    
   X9.3970       Y39.5207      R3.7500    
   X9.2732       Y39.8196      R3.7500    
   X9.0763       Y40.0763      R3.7500    
   X8.8196       Y40.2732      R3.7500    
   X8.5207       Y40.3970      R3.7500    
   X8.2000       Y40.4392      R3.7500    
   X7.8793       Y40.3970      R3.7500    
   X7.5804       Y40.2732      R3.7500    
   X7.3237       Y40.0763      R3.7500    
   X7.1268       Y39.8196      R3.7500    
   X7.0030       Y39.5207      R3.7500    
   X6.9608       Y39.2000      R3.7500    
   X7.0030       Y38.8793      R3.7500    
   X7.1268       Y38.5804      R3.7500    
   X7.3237       Y38.3237      R3.7500    
   X7.5804       Y38.1268      R3.7500    
   X7.8793       Y38.0030      R3.7500    
   X8.2000       Y37.9608      R3.7500    
(Pass: 23)
G1   Z-2.300    
G17 G2   X8.5207       Y38.0030      R3.7500    
   X8.8196       Y38.1268      R3.7500    
   X9.0763       Y38.3237      R3.7500    
   X9.2732       Y38.5804      R3.7500    
   X9.3970       Y38.8793      R3.7500    
   X9.4392       Y39.2000      R3.7500    
   X9.3970       Y39.5207      R3.7500    
   X9.2732       Y39.8196      R3.7500    
   X9.0763       Y40.0763      R3.7500    
   X8.8196       Y40.2732      R3.7500    
   X8.5207       Y40.3970      R3.7500    
   X8.2000       Y40.4392      R3.7500    
   X7.8793       Y40.3970      R3.7500    
   X7.5804       Y40.2732      R3.7500    
   X7.3237       Y40.0763      R3.7500    
   X7.1268       Y39.8196      R3.7500    
   X7.0030       Y39.5207      R3.7500    
   X6.9608       Y39.2000      R3.7500    
   X7.0030       Y38.8793      R3.7500    
   X7.1268       Y38.5804      R3.7500    
   X7.3237       Y38.3237      R3.7500    
   X7.5804       Y38.1268      R3.7500    
   X7.8793       Y38.0030      R3.7500    
   X8.2000       Y37.9608      R3.7500    
(Pass: 24)
G1   Z-2.400    
G17 G2   X8.5207       Y38.0030      R3.7500    
   X8.8196       Y38.1268      R3.7500    
   X9.0763       Y38.3237      R3.7500    
   X9.2732       Y38.5804      R3.7500    
   X9.3970       Y38.8793      R3.7500    
   X9.4392       Y39.2000      R3.7500    
   X9.3970       Y39.5207      R3.7500    
   X9.2732       Y39.8196      R3.7500    
   X9.0763       Y40.0763      R3.7500    
   X8.8196       Y40.2732      R3.7500    
   X8.5207       Y40.3970      R3.7500    
   X8.2000       Y40.4392      R3.7500    
   X7.8793       Y40.3970      R3.7500    
   X7.5804       Y40.2732      R3.7500    
   X7.3237       Y40.0763      R3.7500    
   X7.1268       Y39.8196      R3.7500    
   X7.0030       Y39.5207      R3.7500    
   X6.9608       Y39.2000      R3.7500    
   X7.0030       Y38.8793      R3.7500    
   X7.1268       Y38.5804      R3.7500    
   X7.3237       Y38.3237      R3.7500    
   X7.5804       Y38.1268      R3.7500    
   X7.8793       Y38.0030      R3.7500    
   X8.2000       Y37.9608      R3.7500    
(Pass: 25)
G1   Z-2.500    
G17 G2   X8.5207       Y38.0030      R3.7500    
   X8.8196       Y38.1268      R3.7500    
   X9.0763       Y38.3237      R3.7500    
   X9.2732       Y38.5804      R3.7500    
   X9.3970       Y38.8793      R3.7500    
   X9.4392       Y39.2000      R3.7500    
   X9.3970       Y39.5207      R3.7500    
   X9.2732       Y39.8196      R3.7500    
   X9.0763       Y40.0763      R3.7500    
   X8.8196       Y40.2732      R3.7500    
   X8.5207       Y40.3970      R3.7500    
   X8.2000       Y40.4392      R3.7500    
   X7.8793       Y40.3970      R3.7500    
   X7.5804       Y40.2732      R3.7500    
   X7.3237       Y40.0763      R3.7500    
   X7.1268       Y39.8196      R3.7500    
   X7.0030       Y39.5207      R3.7500    
   X6.9608       Y39.2000      R3.7500    
   X7.0030       Y38.8793      R3.7500    
   X7.1268       Y38.5804      R3.7500    
   X7.3237       Y38.3237      R3.7500    
   X7.5804       Y38.1268      R3.7500    
   X7.8793       Y38.0030      R3.7500    
   X8.2000       Y37.9608      R3.7500    
(Pass: 26)
G1   Z-2.600    
G17 G2   X8.5207       Y38.0030      R3.7500    
   X8.8196       Y38.1268      R3.7500    
   X9.0763       Y38.3237      R3.7500    
   X9.2732       Y38.5804      R3.7500    
   X9.3970       Y38.8793      R3.7500    
   X9.4392       Y39.2000      R3.7500    
   X9.3970       Y39.5207      R3.7500    
   X9.2732       Y39.8196      R3.7500    
   X9.0763       Y40.0763      R3.7500    
   X8.8196       Y40.2732      R3.7500    
   X8.5207       Y40.3970      R3.7500    
   X8.2000       Y40.4392      R3.7500    
   X7.8793       Y40.3970      R3.7500    
   X7.5804       Y40.2732      R3.7500    
   X7.3237       Y40.0763      R3.7500    
   X7.1268       Y39.8196      R3.7500    
   X7.0030       Y39.5207      R3.7500    
   X6.9608       Y39.2000      R3.7500    
   X7.0030       Y38.8793      R3.7500    
   X7.1268       Y38.5804      R3.7500    
   X7.3237       Y38.3237      R3.7500    
   X7.5804       Y38.1268      R3.7500    
   X7.8793       Y38.0030      R3.7500    
   X8.2000       Y37.9608      R3.7500    
(Pass: 27)
G1   Z-2.700    
G17 G2   X8.5207       Y38.0030      R3.7500    
   X8.8196       Y38.1268      R3.7500    
   X9.0763       Y38.3237      R3.7500    
   X9.2732       Y38.5804      R3.7500    
   X9.3970       Y38.8793      R3.7500    
   X9.4392       Y39.2000      R3.7500    
   X9.3970       Y39.5207      R3.7500    
   X9.2732       Y39.8196      R3.7500    
   X9.0763       Y40.0763      R3.7500    
   X8.8196       Y40.2732      R3.7500    
   X8.5207       Y40.3970      R3.7500    
   X8.2000       Y40.4392      R3.7500    
   X7.8793       Y40.3970      R3.7500    
   X7.5804       Y40.2732      R3.7500    
   X7.3237       Y40.0763      R3.7500    
   X7.1268       Y39.8196      R3.7500    
   X7.0030       Y39.5207      R3.7500    
   X6.9608       Y39.2000      R3.7500    
   X7.0030       Y38.8793      R3.7500    
   X7.1268       Y38.5804      R3.7500    
   X7.3237       Y38.3237      R3.7500    
   X7.5804       Y38.1268      R3.7500    
   X7.8793       Y38.0030      R3.7500    
   X8.2000       Y37.9608      R3.7500    
(Pass: 28)
G1   Z-2.800    
G17 G2   X8.5207       Y38.0030      R3.7500    
   X8.8196       Y38.1268      R3.7500    
   X9.0763       Y38.3237      R3.7500    
   X9.2732       Y38.5804      R3.7500    
   X9.3970       Y38.8793      R3.7500    
   X9.4392       Y39.2000      R3.7500    
   X9.3970       Y39.5207      R3.7500    
   X9.2732       Y39.8196      R3.7500    
   X9.0763       Y40.0763      R3.7500    
   X8.8196       Y40.2732      R3.7500    
   X8.5207       Y40.3970      R3.7500    
   X8.2000       Y40.4392      R3.7500    
   X7.8793       Y40.3970      R3.7500    
   X7.5804       Y40.2732      R3.7500    
   X7.3237       Y40.0763      R3.7500    
   X7.1268       Y39.8196      R3.7500    
   X7.0030       Y39.5207      R3.7500    
   X6.9608       Y39.2000      R3.7500    
   X7.0030       Y38.8793      R3.7500    
   X7.1268       Y38.5804      R3.7500    
   X7.3237       Y38.3237      R3.7500    
   X7.5804       Y38.1268      R3.7500    
   X7.8793       Y38.0030      R3.7500    
   X8.2000       Y37.9608      R3.7500    
(Pass: 29)
G1   Z-2.900    
G17 G2   X8.5207       Y38.0030      R3.7500    
   X8.8196       Y38.1268      R3.7500    
   X9.0763       Y38.3237      R3.7500    
   X9.2732       Y38.5804      R3.7500    
   X9.3970       Y38.8793      R3.7500    
   X9.4392       Y39.2000      R3.7500    
   X9.3970       Y39.5207      R3.7500    
   X9.2732       Y39.8196      R3.7500    
   X9.0763       Y40.0763      R3.7500    
   X8.8196       Y40.2732      R3.7500    
   X8.5207       Y40.3970      R3.7500    
   X8.2000       Y40.4392      R3.7500    
   X7.8793       Y40.3970      R3.7500    
   X7.5804       Y40.2732      R3.7500    
   X7.3237       Y40.0763      R3.7500    
   X7.1268       Y39.8196      R3.7500    
   X7.0030       Y39.5207      R3.7500    
   X6.9608       Y39.2000      R3.7500    
   X7.0030       Y38.8793      R3.7500    
   X7.1268       Y38.5804      R3.7500    
   X7.3237       Y38.3237      R3.7500    
   X7.5804       Y38.1268      R3.7500    
   X7.8793       Y38.0030      R3.7500    
   X8.2000       Y37.9608      R3.7500    
(Pass: 30)
G1   Z-3.000    
G17 G2   X8.5207       Y38.0030      R3.7500    
   X8.8196       Y38.1268      R3.7500    
   X9.0763       Y38.3237      R3.7500    
   X9.2732       Y38.5804      R3.7500    
   X9.3970       Y38.8793      R3.7500    
   X9.4392       Y39.2000      R3.7500    
   X9.3970       Y39.5207      R3.7500    
   X9.2732       Y39.8196      R3.7500    
   X9.0763       Y40.0763      R3.7500    
   X8.8196       Y40.2732      R3.7500    
   X8.5207       Y40.3970      R3.7500    
   X8.2000       Y40.4392      R3.7500    
   X7.8793       Y40.3970      R3.7500    
   X7.5804       Y40.2732      R3.7500    
   X7.3237       Y40.0763      R3.7500    
   X7.1268       Y39.8196      R3.7500    
   X7.0030       Y39.5207      R3.7500    
   X6.9608       Y39.2000      R3.7500    
   X7.0030       Y38.8793      R3.7500    
   X7.1268       Y38.5804      R3.7500    
   X7.3237       Y38.3237      R3.7500    
   X7.5804       Y38.1268      R3.7500    
   X7.8793       Y38.0030      R3.7500    
   X8.2000       Y37.9608      R3.7500    
(Pass: 31)
G1   Z-3.100    
G17 G2   X8.5207       Y38.0030      R3.7500    
   X8.8196       Y38.1268      R3.7500    
   X9.0763       Y38.3237      R3.7500    
   X9.2732       Y38.5804      R3.7500    
   X9.3970       Y38.8793      R3.7500    
   X9.4392       Y39.2000      R3.7500    
   X9.3970       Y39.5207      R3.7500    
   X9.2732       Y39.8196      R3.7500    
   X9.0763       Y40.0763      R3.7500    
   X8.8196       Y40.2732      R3.7500    
   X8.5207       Y40.3970      R3.7500    
   X8.2000       Y40.4392      R3.7500    
   X7.8793       Y40.3970      R3.7500    
   X7.5804       Y40.2732      R3.7500    
   X7.3237       Y40.0763      R3.7500    
   X7.1268       Y39.8196      R3.7500    
   X7.0030       Y39.5207      R3.7500    
   X6.9608       Y39.2000      R3.7500    
   X7.0030       Y38.8793      R3.7500    
   X7.1268       Y38.5804      R3.7500    
   X7.3237       Y38.3237      R3.7500    
   X7.5804       Y38.1268      R3.7500    
   X7.8793       Y38.0030      R3.7500    
   X8.2000       Y37.9608      R3.7500    
(Pass: 32)
G1   Z-3.200    
G17 G2   X8.5207       Y38.0030      R3.7500    
   X8.8196       Y38.1268      R3.7500    
   X9.0763       Y38.3237      R3.7500    
   X9.2732       Y38.5804      R3.7500    
   X9.3970       Y38.8793      R3.7500    
   X9.4392       Y39.2000      R3.7500    
   X9.3970       Y39.5207      R3.7500    
   X9.2732       Y39.8196      R3.7500    
   X9.0763       Y40.0763      R3.7500    
   X8.8196       Y40.2732      R3.7500    
   X8.5207       Y40.3970      R3.7500    
   X8.2000       Y40.4392      R3.7500    
   X7.8793       Y40.3970      R3.7500    
   X7.5804       Y40.2732      R3.7500    
   X7.3237       Y40.0763      R3.7500    
   X7.1268       Y39.8196      R3.7500    
   X7.0030       Y39.5207      R3.7500    
   X6.9608       Y39.2000      R3.7500    
   X7.0030       Y38.8793      R3.7500    
   X7.1268       Y38.5804      R3.7500    
   X7.3237       Y38.3237      R3.7500    
   X7.5804       Y38.1268      R3.7500    
   X7.8793       Y38.0030      R3.7500    
   X8.2000       Y37.9608      R3.7500    
(Pass: 33)
G1   Z-3.300    
G17 G2   X8.5207       Y38.0030      R3.7500    
   X8.8196       Y38.1268      R3.7500    
   X9.0763       Y38.3237      R3.7500    
   X9.2732       Y38.5804      R3.7500    
   X9.3970       Y38.8793      R3.7500    
   X9.4392       Y39.2000      R3.7500    
   X9.3970       Y39.5207      R3.7500    
   X9.2732       Y39.8196      R3.7500    
   X9.0763       Y40.0763      R3.7500    
   X8.8196       Y40.2732      R3.7500    
   X8.5207       Y40.3970      R3.7500    
   X8.2000       Y40.4392      R3.7500    
   X7.8793       Y40.3970      R3.7500    
   X7.5804       Y40.2732      R3.7500    
   X7.3237       Y40.0763      R3.7500    
   X7.1268       Y39.8196      R3.7500    
   X7.0030       Y39.5207      R3.7500    
   X6.9608       Y39.2000      R3.7500    
   X7.0030       Y38.8793      R3.7500    
   X7.1268       Y38.5804      R3.7500    
   X7.3237       Y38.3237      R3.7500    
   X7.5804       Y38.1268      R3.7500    
   X7.8793       Y38.0030      R3.7500    
   X8.2000       Y37.9608      R3.7500    
(Pass: 34)
G1   Z-3.400    
G17 G2   X8.5207       Y38.0030      R3.7500    
   X8.8196       Y38.1268      R3.7500    
   X9.0763       Y38.3237      R3.7500    
   X9.2732       Y38.5804      R3.7500    
   X9.3970       Y38.8793      R3.7500    
   X9.4392       Y39.2000      R3.7500    
   X9.3970       Y39.5207      R3.7500    
   X9.2732       Y39.8196      R3.7500    
   X9.0763       Y40.0763      R3.7500    
   X8.8196       Y40.2732      R3.7500    
   X8.5207       Y40.3970      R3.7500    
   X8.2000       Y40.4392      R3.7500    
   X7.8793       Y40.3970      R3.7500    
   X7.5804       Y40.2732      R3.7500    
   X7.3237       Y40.0763      R3.7500    
   X7.1268       Y39.8196      R3.7500    
   X7.0030       Y39.5207      R3.7500    
   X6.9608       Y39.2000      R3.7500    
   X7.0030       Y38.8793      R3.7500    
   X7.1268       Y38.5804      R3.7500    
   X7.3237       Y38.3237      R3.7500    
   X7.5804       Y38.1268      R3.7500    
   X7.8793       Y38.0030      R3.7500    
   X8.2000       Y37.9608      R3.7500    
(BREAK pass 34)
G0   Z6.000     
(Pass: 1)
   X38.961       Y39.200    
G1   Z-0.100     F1000
G17 G2   X39.0030      Y38.8793      R3.7500    
   X39.1268      Y38.5804      R3.7500    
   X39.3237      Y38.3237      R3.7500    
   X39.5804      Y38.1268      R3.7500    
   X39.8793      Y38.0030      R3.7500    
   X40.2000      Y37.9608      R3.7500    
   X40.5207      Y38.0030      R3.7500    
   X40.8196      Y38.1268      R3.7500    
   X41.0763      Y38.3237      R3.7500    
   X41.2732      Y38.5804      R3.7500    
   X41.3970      Y38.8793      R3.7500    
   X41.4392      Y39.2000      R3.7500    
   X41.3970      Y39.5207      R3.7500    
   X41.2732      Y39.8196      R3.7500    
   X41.0763      Y40.0763      R3.7500    
   X40.8196      Y40.2732      R3.7500    
   X40.5207      Y40.3970      R3.7500    
   X40.2000      Y40.4392      R3.7500    
   X39.8793      Y40.3970      R3.7500    
   X39.5804      Y40.2732      R3.7500    
   X39.3237      Y40.0763      R3.7500    
   X39.1268      Y39.8196      R3.7500    
   X39.0030      Y39.5207      R3.7500    
   X38.9608      Y39.2000      R3.7500    
(Pass: 2)
G1   Z-0.200    
G17 G2   X39.0030      Y38.8793      R3.7500    
   X39.1268      Y38.5804      R3.7500    
   X39.3237      Y38.3237      R3.7500    
   X39.5804      Y38.1268      R3.7500    
   X39.8793      Y38.0030      R3.7500    
   X40.2000      Y37.9608      R3.7500    
   X40.5207      Y38.0030      R3.7500    
   X40.8196      Y38.1268      R3.7500    
   X41.0763      Y38.3237      R3.7500    
   X41.2732      Y38.5804      R3.7500    
   X41.3970      Y38.8793      R3.7500    
   X41.4392      Y39.2000      R3.7500    
   X41.3970      Y39.5207      R3.7500    
   X41.2732      Y39.8196      R3.7500    
   X41.0763      Y40.0763      R3.7500    
   X40.8196      Y40.2732      R3.7500    
   X40.5207      Y40.3970      R3.7500    
   X40.2000      Y40.4392      R3.7500    
   X39.8793      Y40.3970      R3.7500    
   X39.5804      Y40.2732      R3.7500    
   X39.3237      Y40.0763      R3.7500    
   X39.1268      Y39.8196      R3.7500    
   X39.0030      Y39.5207      R3.7500    
   X38.9608      Y39.2000      R3.7500    
(Pass: 3)
G1   Z-0.300    
G17 G2   X39.0030      Y38.8793      R3.7500    
   X39.1268      Y38.5804      R3.7500    
   X39.3237      Y38.3237      R3.7500    
   X39.5804      Y38.1268      R3.7500    
   X39.8793      Y38.0030      R3.7500    
   X40.2000      Y37.9608      R3.7500    
   X40.5207      Y38.0030      R3.7500    
   X40.8196      Y38.1268      R3.7500    
   X41.0763      Y38.3237      R3.7500    
   X41.2732      Y38.5804      R3.7500    
   X41.3970      Y38.8793      R3.7500    
   X41.4392      Y39.2000      R3.7500    
   X41.3970      Y39.5207      R3.7500    
   X41.2732      Y39.8196      R3.7500    
   X41.0763      Y40.0763      R3.7500    
   X40.8196      Y40.2732      R3.7500    
   X40.5207      Y40.3970      R3.7500    
   X40.2000      Y40.4392      R3.7500    
   X39.8793      Y40.3970      R3.7500    
   X39.5804      Y40.2732      R3.7500    
   X39.3237      Y40.0763      R3.7500    
   X39.1268      Y39.8196      R3.7500    
   X39.0030      Y39.5207      R3.7500    
   X38.9608      Y39.2000      R3.7500    
(Pass: 4)
G1   Z-0.400    
G17 G2   X39.0030      Y38.8793      R3.7500    
   X39.1268      Y38.5804      R3.7500    
   X39.3237      Y38.3237      R3.7500    
   X39.5804      Y38.1268      R3.7500    
   X39.8793      Y38.0030      R3.7500    
   X40.2000      Y37.9608      R3.7500    
   X40.5207      Y38.0030      R3.7500    
   X40.8196      Y38.1268      R3.7500    
   X41.0763      Y38.3237      R3.7500    
   X41.2732      Y38.5804      R3.7500    
   X41.3970      Y38.8793      R3.7500    
   X41.4392      Y39.2000      R3.7500    
   X41.3970      Y39.5207      R3.7500    
   X41.2732      Y39.8196      R3.7500    
   X41.0763      Y40.0763      R3.7500    
   X40.8196      Y40.2732      R3.7500    
   X40.5207      Y40.3970      R3.7500    
   X40.2000      Y40.4392      R3.7500    
   X39.8793      Y40.3970      R3.7500    
   X39.5804      Y40.2732      R3.7500    
   X39.3237      Y40.0763      R3.7500    
   X39.1268      Y39.8196      R3.7500    
   X39.0030      Y39.5207      R3.7500    
   X38.9608      Y39.2000      R3.7500    
(Pass: 5)
G1   Z-0.500    
G17 G2   X39.0030      Y38.8793      R3.7500    
   X39.1268      Y38.5804      R3.7500    
   X39.3237      Y38.3237      R3.7500    
   X39.5804      Y38.1268      R3.7500    
   X39.8793      Y38.0030      R3.7500    
   X40.2000      Y37.9608      R3.7500    
   X40.5207      Y38.0030      R3.7500    
   X40.8196      Y38.1268      R3.7500    
   X41.0763      Y38.3237      R3.7500    
   X41.2732      Y38.5804      R3.7500    
   X41.3970      Y38.8793      R3.7500    
   X41.4392      Y39.2000      R3.7500    
   X41.3970      Y39.5207      R3.7500    
   X41.2732      Y39.8196      R3.7500    
   X41.0763      Y40.0763      R3.7500    
   X40.8196      Y40.2732      R3.7500    
   X40.5207      Y40.3970      R3.7500    
   X40.2000      Y40.4392      R3.7500    
   X39.8793      Y40.3970      R3.7500    
   X39.5804      Y40.2732      R3.7500    
   X39.3237      Y40.0763      R3.7500    
   X39.1268      Y39.8196      R3.7500    
   X39.0030      Y39.5207      R3.7500    
   X38.9608      Y39.2000      R3.7500    
(Pass: 6)
G1   Z-0.600    
G17 G2   X39.0030      Y38.8793      R3.7500    
   X39.1268      Y38.5804      R3.7500    
   X39.3237      Y38.3237      R3.7500    
   X39.5804      Y38.1268      R3.7500    
   X39.8793      Y38.0030      R3.7500    
   X40.2000      Y37.9608      R3.7500    
   X40.5207      Y38.0030      R3.7500    
   X40.8196      Y38.1268      R3.7500    
   X41.0763      Y38.3237      R3.7500    
   X41.2732      Y38.5804      R3.7500    
   X41.3970      Y38.8793      R3.7500    
   X41.4392      Y39.2000      R3.7500    
   X41.3970      Y39.5207      R3.7500    
   X41.2732      Y39.8196      R3.7500    
   X41.0763      Y40.0763      R3.7500    
   X40.8196      Y40.2732      R3.7500    
   X40.5207      Y40.3970      R3.7500    
   X40.2000      Y40.4392      R3.7500    
   X39.8793      Y40.3970      R3.7500    
   X39.5804      Y40.2732      R3.7500    
   X39.3237      Y40.0763      R3.7500    
   X39.1268      Y39.8196      R3.7500    
   X39.0030      Y39.5207      R3.7500    
   X38.9608      Y39.2000      R3.7500    
(Pass: 7)
G1   Z-0.700    
G17 G2   X39.0030      Y38.8793      R3.7500    
   X39.1268      Y38.5804      R3.7500    
   X39.3237      Y38.3237      R3.7500    
   X39.5804      Y38.1268      R3.7500    
   X39.8793      Y38.0030      R3.7500    
   X40.2000      Y37.9608      R3.7500    
   X40.5207      Y38.0030      R3.7500    
   X40.8196      Y38.1268      R3.7500    
   X41.0763      Y38.3237      R3.7500    
   X41.2732      Y38.5804      R3.7500    
   X41.3970      Y38.8793      R3.7500    
   X41.4392      Y39.2000      R3.7500    
   X41.3970      Y39.5207      R3.7500    
   X41.2732      Y39.8196      R3.7500    
   X41.0763      Y40.0763      R3.7500    
   X40.8196      Y40.2732      R3.7500    
   X40.5207      Y40.3970      R3.7500    
   X40.2000      Y40.4392      R3.7500    
   X39.8793      Y40.3970      R3.7500    
   X39.5804      Y40.2732      R3.7500    
   X39.3237      Y40.0763      R3.7500    
   X39.1268      Y39.8196      R3.7500    
   X39.0030      Y39.5207      R3.7500    
   X38.9608      Y39.2000      R3.7500    
(Pass: 8)
G1   Z-0.800    
G17 G2   X39.0030      Y38.8793      R3.7500    
   X39.1268      Y38.5804      R3.7500    
   X39.3237      Y38.3237      R3.7500    
   X39.5804      Y38.1268      R3.7500    
   X39.8793      Y38.0030      R3.7500    
   X40.2000      Y37.9608      R3.7500    
   X40.5207      Y38.0030      R3.7500    
   X40.8196      Y38.1268      R3.7500    
   X41.0763      Y38.3237      R3.7500    
   X41.2732      Y38.5804      R3.7500    
   X41.3970      Y38.8793      R3.7500    
   X41.4392      Y39.2000      R3.7500    
   X41.3970      Y39.5207      R3.7500    
   X41.2732      Y39.8196      R3.7500    
   X41.0763      Y40.0763      R3.7500    
   X40.8196      Y40.2732      R3.7500    
   X40.5207      Y40.3970      R3.7500    
   X40.2000      Y40.4392      R3.7500    
   X39.8793      Y40.3970      R3.7500    
   X39.5804      Y40.2732      R3.7500    
   X39.3237      Y40.0763      R3.7500    
   X39.1268      Y39.8196      R3.7500    
   X39.0030      Y39.5207      R3.7500    
   X38.9608      Y39.2000      R3.7500    
(Pass: 9)
G1   Z-0.900    
G17 G2   X39.0030      Y38.8793      R3.7500    
   X39.1268      Y38.5804      R3.7500    
   X39.3237      Y38.3237      R3.7500    
   X39.5804      Y38.1268      R3.7500    
   X39.8793      Y38.0030      R3.7500    
   X40.2000      Y37.9608      R3.7500    
   X40.5207      Y38.0030      R3.7500    
   X40.8196      Y38.1268      R3.7500    
   X41.0763      Y38.3237      R3.7500    
   X41.2732      Y38.5804      R3.7500    
   X41.3970      Y38.8793      R3.7500    
   X41.4392      Y39.2000      R3.7500    
   X41.3970      Y39.5207      R3.7500    
   X41.2732      Y39.8196      R3.7500    
   X41.0763      Y40.0763      R3.7500    
   X40.8196      Y40.2732      R3.7500    
   X40.5207      Y40.3970      R3.7500    
   X40.2000      Y40.4392      R3.7500    
   X39.8793      Y40.3970      R3.7500    
   X39.5804      Y40.2732      R3.7500    
   X39.3237      Y40.0763      R3.7500    
   X39.1268      Y39.8196      R3.7500    
   X39.0030      Y39.5207      R3.7500    
   X38.9608      Y39.2000      R3.7500    
(Pass: 10)
G1   Z-1.000    
G17 G2   X39.0030      Y38.8793      R3.7500    
   X39.1268      Y38.5804      R3.7500    
   X39.3237      Y38.3237      R3.7500    
   X39.5804      Y38.1268      R3.7500    
   X39.8793      Y38.0030      R3.7500    
   X40.2000      Y37.9608      R3.7500    
   X40.5207      Y38.0030      R3.7500    
   X40.8196      Y38.1268      R3.7500    
   X41.0763      Y38.3237      R3.7500    
   X41.2732      Y38.5804      R3.7500    
   X41.3970      Y38.8793      R3.7500    
   X41.4392      Y39.2000      R3.7500    
   X41.3970      Y39.5207      R3.7500    
   X41.2732      Y39.8196      R3.7500    
   X41.0763      Y40.0763      R3.7500    
   X40.8196      Y40.2732      R3.7500    
   X40.5207      Y40.3970      R3.7500    
   X40.2000      Y40.4392      R3.7500    
   X39.8793      Y40.3970      R3.7500    
   X39.5804      Y40.2732      R3.7500    
   X39.3237      Y40.0763      R3.7500    
   X39.1268      Y39.8196      R3.7500    
   X39.0030      Y39.5207      R3.7500    
   X38.9608      Y39.2000      R3.7500    
(Pass: 11)
G1   Z-1.100    
G17 G2   X39.0030      Y38.8793      R3.7500    
   X39.1268      Y38.5804      R3.7500    
   X39.3237      Y38.3237      R3.7500    
   X39.5804      Y38.1268      R3.7500    
   X39.8793      Y38.0030      R3.7500    
   X40.2000      Y37.9608      R3.7500    
   X40.5207      Y38.0030      R3.7500    
   X40.8196      Y38.1268      R3.7500    
   X41.0763      Y38.3237      R3.7500    
   X41.2732      Y38.5804      R3.7500    
   X41.3970      Y38.8793      R3.7500    
   X41.4392      Y39.2000      R3.7500    
   X41.3970      Y39.5207      R3.7500    
   X41.2732      Y39.8196      R3.7500    
   X41.0763      Y40.0763      R3.7500    
   X40.8196      Y40.2732      R3.7500    
   X40.5207      Y40.3970      R3.7500    
   X40.2000      Y40.4392      R3.7500    
   X39.8793      Y40.3970      R3.7500    
   X39.5804      Y40.2732      R3.7500    
   X39.3237      Y40.0763      R3.7500    
   X39.1268      Y39.8196      R3.7500    
   X39.0030      Y39.5207      R3.7500    
   X38.9608      Y39.2000      R3.7500    
(Pass: 12)
G1   Z-1.200    
G17 G2   X39.0030      Y38.8793      R3.7500    
   X39.1268      Y38.5804      R3.7500    
   X39.3237      Y38.3237      R3.7500    
   X39.5804      Y38.1268      R3.7500    
   X39.8793      Y38.0030      R3.7500    
   X40.2000      Y37.9608      R3.7500    
   X40.5207      Y38.0030      R3.7500    
   X40.8196      Y38.1268      R3.7500    
   X41.0763      Y38.3237      R3.7500    
   X41.2732      Y38.5804      R3.7500    
   X41.3970      Y38.8793      R3.7500    
   X41.4392      Y39.2000      R3.7500    
   X41.3970      Y39.5207      R3.7500    
   X41.2732      Y39.8196      R3.7500    
   X41.0763      Y40.0763      R3.7500    
   X40.8196      Y40.2732      R3.7500    
   X40.5207      Y40.3970      R3.7500    
   X40.2000      Y40.4392      R3.7500    
   X39.8793      Y40.3970      R3.7500    
   X39.5804      Y40.2732      R3.7500    
   X39.3237      Y40.0763      R3.7500    
   X39.1268      Y39.8196      R3.7500    
   X39.0030      Y39.5207      R3.7500    
   X38.9608      Y39.2000      R3.7500    
(Pass: 13)
G1   Z-1.300    
G17 G2   X39.0030      Y38.8793      R3.7500    
   X39.1268      Y38.5804      R3.7500    
   X39.3237      Y38.3237      R3.7500    
   X39.5804      Y38.1268      R3.7500    
   X39.8793      Y38.0030      R3.7500    
   X40.2000      Y37.9608      R3.7500    
   X40.5207      Y38.0030      R3.7500    
   X40.8196      Y38.1268      R3.7500    
   X41.0763      Y38.3237      R3.7500    
   X41.2732      Y38.5804      R3.7500    
   X41.3970      Y38.8793      R3.7500    
   X41.4392      Y39.2000      R3.7500    
   X41.3970      Y39.5207      R3.7500    
   X41.2732      Y39.8196      R3.7500    
   X41.0763      Y40.0763      R3.7500    
   X40.8196      Y40.2732      R3.7500    
   X40.5207      Y40.3970      R3.7500    
   X40.2000      Y40.4392      R3.7500    
   X39.8793      Y40.3970      R3.7500    
   X39.5804      Y40.2732      R3.7500    
   X39.3237      Y40.0763      R3.7500    
   X39.1268      Y39.8196      R3.7500    
   X39.0030      Y39.5207      R3.7500    
   X38.9608      Y39.2000      R3.7500    
(Pass: 14)
G1   Z-1.400    
G17 G2   X39.0030      Y38.8793      R3.7500    
   X39.1268      Y38.5804      R3.7500    
   X39.3237      Y38.3237      R3.7500    
   X39.5804      Y38.1268      R3.7500    
   X39.8793      Y38.0030      R3.7500    
   X40.2000      Y37.9608      R3.7500    
   X40.5207      Y38.0030      R3.7500    
   X40.8196      Y38.1268      R3.7500    
   X41.0763      Y38.3237      R3.7500    
   X41.2732      Y38.5804      R3.7500    
   X41.3970      Y38.8793      R3.7500    
   X41.4392      Y39.2000      R3.7500    
   X41.3970      Y39.5207      R3.7500    
   X41.2732      Y39.8196      R3.7500    
   X41.0763      Y40.0763      R3.7500    
   X40.8196      Y40.2732      R3.7500    
   X40.5207      Y40.3970      R3.7500    
   X40.2000      Y40.4392      R3.7500    
   X39.8793      Y40.3970      R3.7500    
   X39.5804      Y40.2732      R3.7500    
   X39.3237      Y40.0763      R3.7500    
   X39.1268      Y39.8196      R3.7500    
   X39.0030      Y39.5207      R3.7500    
   X38.9608      Y39.2000      R3.7500    
(Pass: 15)
G1   Z-1.500    
G17 G2   X39.0030      Y38.8793      R3.7500    
   X39.1268      Y38.5804      R3.7500    
   X39.3237      Y38.3237      R3.7500    
   X39.5804      Y38.1268      R3.7500    
   X39.8793      Y38.0030      R3.7500    
   X40.2000      Y37.9608      R3.7500    
   X40.5207      Y38.0030      R3.7500    
   X40.8196      Y38.1268      R3.7500    
   X41.0763      Y38.3237      R3.7500    
   X41.2732      Y38.5804      R3.7500    
   X41.3970      Y38.8793      R3.7500    
   X41.4392      Y39.2000      R3.7500    
   X41.3970      Y39.5207      R3.7500    
   X41.2732      Y39.8196      R3.7500    
   X41.0763      Y40.0763      R3.7500    
   X40.8196      Y40.2732      R3.7500    
   X40.5207      Y40.3970      R3.7500    
   X40.2000      Y40.4392      R3.7500    
   X39.8793      Y40.3970      R3.7500    
   X39.5804      Y40.2732      R3.7500    
   X39.3237      Y40.0763      R3.7500    
   X39.1268      Y39.8196      R3.7500    
   X39.0030      Y39.5207      R3.7500    
   X38.9608      Y39.2000      R3.7500    
(Pass: 16)
G1   Z-1.600    
G17 G2   X39.0030      Y38.8793      R3.7500    
   X39.1268      Y38.5804      R3.7500    
   X39.3237      Y38.3237      R3.7500    
   X39.5804      Y38.1268      R3.7500    
   X39.8793      Y38.0030      R3.7500    
   X40.2000      Y37.9608      R3.7500    
   X40.5207      Y38.0030      R3.7500    
   X40.8196      Y38.1268      R3.7500    
   X41.0763      Y38.3237      R3.7500    
   X41.2732      Y38.5804      R3.7500    
   X41.3970      Y38.8793      R3.7500    
   X41.4392      Y39.2000      R3.7500    
   X41.3970      Y39.5207      R3.7500    
   X41.2732      Y39.8196      R3.7500    
   X41.0763      Y40.0763      R3.7500    
   X40.8196      Y40.2732      R3.7500    
   X40.5207      Y40.3970      R3.7500    
   X40.2000      Y40.4392      R3.7500    
   X39.8793      Y40.3970      R3.7500    
   X39.5804      Y40.2732      R3.7500    
   X39.3237      Y40.0763      R3.7500    
   X39.1268      Y39.8196      R3.7500    
   X39.0030      Y39.5207      R3.7500    
   X38.9608      Y39.2000      R3.7500    
(Pass: 17)
G1   Z-1.700    
G17 G2   X39.0030      Y38.8793      R3.7500    
   X39.1268      Y38.5804      R3.7500    
   X39.3237      Y38.3237      R3.7500    
   X39.5804      Y38.1268      R3.7500    
   X39.8793      Y38.0030      R3.7500    
   X40.2000      Y37.9608      R3.7500    
   X40.5207      Y38.0030      R3.7500    
   X40.8196      Y38.1268      R3.7500    
   X41.0763      Y38.3237      R3.7500    
   X41.2732      Y38.5804      R3.7500    
   X41.3970      Y38.8793      R3.7500    
   X41.4392      Y39.2000      R3.7500    
   X41.3970      Y39.5207      R3.7500    
   X41.2732      Y39.8196      R3.7500    
   X41.0763      Y40.0763      R3.7500    
   X40.8196      Y40.2732      R3.7500    
   X40.5207      Y40.3970      R3.7500    
   X40.2000      Y40.4392      R3.7500    
   X39.8793      Y40.3970      R3.7500    
   X39.5804      Y40.2732      R3.7500    
   X39.3237      Y40.0763      R3.7500    
   X39.1268      Y39.8196      R3.7500    
   X39.0030      Y39.5207      R3.7500    
   X38.9608      Y39.2000      R3.7500    
(Pass: 18)
G1   Z-1.800    
G17 G2   X39.0030      Y38.8793      R3.7500    
   X39.1268      Y38.5804      R3.7500    
   X39.3237      Y38.3237      R3.7500    
   X39.5804      Y38.1268      R3.7500    
   X39.8793      Y38.0030      R3.7500    
   X40.2000      Y37.9608      R3.7500    
   X40.5207      Y38.0030      R3.7500    
   X40.8196      Y38.1268      R3.7500    
   X41.0763      Y38.3237      R3.7500    
   X41.2732      Y38.5804      R3.7500    
   X41.3970      Y38.8793      R3.7500    
   X41.4392      Y39.2000      R3.7500    
   X41.3970      Y39.5207      R3.7500    
   X41.2732      Y39.8196      R3.7500    
   X41.0763      Y40.0763      R3.7500    
   X40.8196      Y40.2732      R3.7500    
   X40.5207      Y40.3970      R3.7500    
   X40.2000      Y40.4392      R3.7500    
   X39.8793      Y40.3970      R3.7500    
   X39.5804      Y40.2732      R3.7500    
   X39.3237      Y40.0763      R3.7500    
   X39.1268      Y39.8196      R3.7500    
   X39.0030      Y39.5207      R3.7500    
   X38.9608      Y39.2000      R3.7500    
(Pass: 19)
G1   Z-1.900    
G17 G2   X39.0030      Y38.8793      R3.7500    
   X39.1268      Y38.5804      R3.7500    
   X39.3237      Y38.3237      R3.7500    
   X39.5804      Y38.1268      R3.7500    
   X39.8793      Y38.0030      R3.7500    
   X40.2000      Y37.9608      R3.7500    
   X40.5207      Y38.0030      R3.7500    
   X40.8196      Y38.1268      R3.7500    
   X41.0763      Y38.3237      R3.7500    
   X41.2732      Y38.5804      R3.7500    
   X41.3970      Y38.8793      R3.7500    
   X41.4392      Y39.2000      R3.7500    
   X41.3970      Y39.5207      R3.7500    
   X41.2732      Y39.8196      R3.7500    
   X41.0763      Y40.0763      R3.7500    
   X40.8196      Y40.2732      R3.7500    
   X40.5207      Y40.3970      R3.7500    
   X40.2000      Y40.4392      R3.7500    
   X39.8793      Y40.3970      R3.7500    
   X39.5804      Y40.2732      R3.7500    
   X39.3237      Y40.0763      R3.7500    
   X39.1268      Y39.8196      R3.7500    
   X39.0030      Y39.5207      R3.7500    
   X38.9608      Y39.2000      R3.7500    
(Pass: 20)
G1   Z-2.000    
G17 G2   X39.0030      Y38.8793      R3.7500    
   X39.1268      Y38.5804      R3.7500    
   X39.3237      Y38.3237      R3.7500    
   X39.5804      Y38.1268      R3.7500    
   X39.8793      Y38.0030      R3.7500    
   X40.2000      Y37.9608      R3.7500    
   X40.5207      Y38.0030      R3.7500    
   X40.8196      Y38.1268      R3.7500    
   X41.0763      Y38.3237      R3.7500    
   X41.2732      Y38.5804      R3.7500    
   X41.3970      Y38.8793      R3.7500    
   X41.4392      Y39.2000      R3.7500    
   X41.3970      Y39.5207      R3.7500    
   X41.2732      Y39.8196      R3.7500    
   X41.0763      Y40.0763      R3.7500    
   X40.8196      Y40.2732      R3.7500    
   X40.5207      Y40.3970      R3.7500    
   X40.2000      Y40.4392      R3.7500    
   X39.8793      Y40.3970      R3.7500    
   X39.5804      Y40.2732      R3.7500    
   X39.3237      Y40.0763      R3.7500    
   X39.1268      Y39.8196      R3.7500    
   X39.0030      Y39.5207      R3.7500    
   X38.9608      Y39.2000      R3.7500    
(Pass: 21)
G1   Z-2.100    
G17 G2   X39.0030      Y38.8793      R3.7500    
   X39.1268      Y38.5804      R3.7500    
   X39.3237      Y38.3237      R3.7500    
   X39.5804      Y38.1268      R3.7500    
   X39.8793      Y38.0030      R3.7500    
   X40.2000      Y37.9608      R3.7500    
   X40.5207      Y38.0030      R3.7500    
   X40.8196      Y38.1268      R3.7500    
   X41.0763      Y38.3237      R3.7500    
   X41.2732      Y38.5804      R3.7500    
   X41.3970      Y38.8793      R3.7500    
   X41.4392      Y39.2000      R3.7500    
   X41.3970      Y39.5207      R3.7500    
   X41.2732      Y39.8196      R3.7500    
   X41.0763      Y40.0763      R3.7500    
   X40.8196      Y40.2732      R3.7500    
   X40.5207      Y40.3970      R3.7500    
   X40.2000      Y40.4392      R3.7500    
   X39.8793      Y40.3970      R3.7500    
   X39.5804      Y40.2732      R3.7500    
   X39.3237      Y40.0763      R3.7500    
   X39.1268      Y39.8196      R3.7500    
   X39.0030      Y39.5207      R3.7500    
   X38.9608      Y39.2000      R3.7500    
(Pass: 22)
G1   Z-2.200    
G17 G2   X39.0030      Y38.8793      R3.7500    
   X39.1268      Y38.5804      R3.7500    
   X39.3237      Y38.3237      R3.7500    
   X39.5804      Y38.1268      R3.7500    
   X39.8793      Y38.0030      R3.7500    
   X40.2000      Y37.9608      R3.7500    
   X40.5207      Y38.0030      R3.7500    
   X40.8196      Y38.1268      R3.7500    
   X41.0763      Y38.3237      R3.7500    
   X41.2732      Y38.5804      R3.7500    
   X41.3970      Y38.8793      R3.7500    
   X41.4392      Y39.2000      R3.7500    
   X41.3970      Y39.5207      R3.7500    
   X41.2732      Y39.8196      R3.7500    
   X41.0763      Y40.0763      R3.7500    
   X40.8196      Y40.2732      R3.7500    
   X40.5207      Y40.3970      R3.7500    
   X40.2000      Y40.4392      R3.7500    
   X39.8793      Y40.3970      R3.7500    
   X39.5804      Y40.2732      R3.7500    
   X39.3237      Y40.0763      R3.7500    
   X39.1268      Y39.8196      R3.7500    
   X39.0030      Y39.5207      R3.7500    
   X38.9608      Y39.2000      R3.7500    
(Pass: 23)
G1   Z-2.300    
G17 G2   X39.0030      Y38.8793      R3.7500    
   X39.1268      Y38.5804      R3.7500    
   X39.3237      Y38.3237      R3.7500    
   X39.5804      Y38.1268      R3.7500    
   X39.8793      Y38.0030      R3.7500    
   X40.2000      Y37.9608      R3.7500    
   X40.5207      Y38.0030      R3.7500    
   X40.8196      Y38.1268      R3.7500    
   X41.0763      Y38.3237      R3.7500    
   X41.2732      Y38.5804      R3.7500    
   X41.3970      Y38.8793      R3.7500    
   X41.4392      Y39.2000      R3.7500    
   X41.3970      Y39.5207      R3.7500    
   X41.2732      Y39.8196      R3.7500    
   X41.0763      Y40.0763      R3.7500    
   X40.8196      Y40.2732      R3.7500    
   X40.5207      Y40.3970      R3.7500    
   X40.2000      Y40.4392      R3.7500    
   X39.8793      Y40.3970      R3.7500    
   X39.5804      Y40.2732      R3.7500    
   X39.3237      Y40.0763      R3.7500    
   X39.1268      Y39.8196      R3.7500    
   X39.0030      Y39.5207      R3.7500    
   X38.9608      Y39.2000      R3.7500    
(Pass: 24)
G1   Z-2.400    
G17 G2   X39.0030      Y38.8793      R3.7500    
   X39.1268      Y38.5804      R3.7500    
   X39.3237      Y38.3237      R3.7500    
   X39.5804      Y38.1268      R3.7500    
   X39.8793      Y38.0030      R3.7500    
   X40.2000      Y37.9608      R3.7500    
   X40.5207      Y38.0030      R3.7500    
   X40.8196      Y38.1268      R3.7500    
   X41.0763      Y38.3237      R3.7500    
   X41.2732      Y38.5804      R3.7500    
   X41.3970      Y38.8793      R3.7500    
   X41.4392      Y39.2000      R3.7500    
   X41.3970      Y39.5207      R3.7500    
   X41.2732      Y39.8196      R3.7500    
   X41.0763      Y40.0763      R3.7500    
   X40.8196      Y40.2732      R3.7500    
   X40.5207      Y40.3970      R3.7500    
   X40.2000      Y40.4392      R3.7500    
   X39.8793      Y40.3970      R3.7500    
   X39.5804      Y40.2732      R3.7500    
   X39.3237      Y40.0763      R3.7500    
   X39.1268      Y39.8196      R3.7500    
   X39.0030      Y39.5207      R3.7500    
   X38.9608      Y39.2000      R3.7500    
(Pass: 25)
G1   Z-2.500    
G17 G2   X39.0030      Y38.8793      R3.7500    
   X39.1268      Y38.5804      R3.7500    
   X39.3237      Y38.3237      R3.7500    
   X39.5804      Y38.1268      R3.7500    
   X39.8793      Y38.0030      R3.7500    
   X40.2000      Y37.9608      R3.7500    
   X40.5207      Y38.0030      R3.7500    
   X40.8196      Y38.1268      R3.7500    
   X41.0763      Y38.3237      R3.7500    
   X41.2732      Y38.5804      R3.7500    
   X41.3970      Y38.8793      R3.7500    
   X41.4392      Y39.2000      R3.7500    
   X41.3970      Y39.5207      R3.7500    
   X41.2732      Y39.8196      R3.7500    
   X41.0763      Y40.0763      R3.7500    
   X40.8196      Y40.2732      R3.7500    
   X40.5207      Y40.3970      R3.7500    
   X40.2000      Y40.4392      R3.7500    
   X39.8793      Y40.3970      R3.7500    
   X39.5804      Y40.2732      R3.7500    
   X39.3237      Y40.0763      R3.7500    
   X39.1268      Y39.8196      R3.7500    
   X39.0030      Y39.5207      R3.7500    
   X38.9608      Y39.2000      R3.7500    
(Pass: 26)
G1   Z-2.600    
G17 G2   X39.0030      Y38.8793      R3.7500    
   X39.1268      Y38.5804      R3.7500    
   X39.3237      Y38.3237      R3.7500    
   X39.5804      Y38.1268      R3.7500    
   X39.8793      Y38.0030      R3.7500    
   X40.2000      Y37.9608      R3.7500    
   X40.5207      Y38.0030      R3.7500    
