%
(Generated by SketchUcam {1.2a})
(File: 4040CasterPlates.skp)
(Bit diameter: 6.0mm)
(Feed rate: 200.0mm/min)
(Material Thickness: 3.1mm)
(Material length: 558.8mm X width: 1066.8mm)
(Overhead Gantry: true)
(Retract feed rate NOT limited to plunge feed rate)
(Multipass enabled, Depth = 0.5mm)
(Optimization is ON)
(www.PhlatBoyz.com)
G90 G21 G49 
M3 S20000
G0   Z6.000     
(Pass: 1)
   X15.000       Y15.000    
(plungebore    depth=3.410         diam=6.000     )
G00   Z2.000     
G01   Z-0.500     F200 
G00   z2.000     
G01   Z-1.000    
G00   z2.000     
G01   Z-1.500    
G00   z2.000     
G01   Z-2.000    
G00   z2.000     
G01   Z-2.500    
G00   z2.000     
G01   Z-3.000    
G00   z2.000     
G01   Z-3.410    
G00   z2.000     
G00   Y15.000        Z6.000     
(plungebore end)
(Pass: 1)
G0   X35.000    
(plungebore    depth=3.410         diam=6.000     )
G00   Z2.000     
G01   Z-0.500     F200 
G00   z2.000     
G01   Z-1.000    
G00   z2.000     
G01   Z-1.500    
G00   z2.000     
G01   Z-2.000    
G00   z2.000     
G01   Z-2.500    
G00   z2.000     
G01   Z-3.000    
G00   z2.000     
G01   Z-3.410    
G00   z2.000     
G00   Y15.000        Z6.000     
(plungebore end)
(Pass: 1)
G0   Y35.000    
(plungebore    depth=3.410         diam=6.000     )
G00   Z2.000     
G01   Z-0.500     F200 
G00   z2.000     
G01   Z-1.000    
G00   z2.000     
G01   Z-1.500    
G00   z2.000     
G01   Z-2.000    
G00   z2.000     
G01   Z-2.500    
G00   z2.000     
G01   Z-3.000    
G00   z2.000     
G01   Z-3.410    
G00   z2.000     
G00   Y35.000        Z6.000     
(plungebore end)
(Pass: 1)
G0   X15.000    
(plungebore    depth=3.410         diam=6.000     )
G00   Z2.000     
G01   Z-0.500     F200 
G00   z2.000     
G01   Z-1.000    
G00   z2.000     
G01   Z-1.500    
G00   z2.000     
G01   Z-2.000    
G00   z2.000     
G01   Z-2.500    
G00   z2.000     
G01   Z-3.000    
G00   z2.000     
G01   Z-3.410    
G00   z2.000     
G00   Y35.000        Z6.000     
(plungebore end)
(Pass: 1)
G0   X14.902       Y48.000    
G1   Z-0.500     F200 
G17 G3   X13.3023      Y47.8952      R13.0000   
   X11.6337      Y47.5633      R13.0000   
   X10.0227      Y47.0164      R13.0000   
   X8.4968       Y46.2639      R13.0000   
   X7.0822       Y45.3187      R13.0000   
   X5.8031       Y44.1969      R13.0000   
   X4.6813       Y42.9178      R13.0000   
   X3.7361       Y41.5032      R13.0000   
   X2.9836       Y39.9773      R13.0000   
   X2.4367       Y38.3663      R13.0000   
   X2.1048       Y36.6977      R13.0000   
   X2.0000       Y35.0982      R13.0000   
G1   Y14.902    
G17 G3   X2.1048       Y13.3023      R13.0000   
   X2.4367       Y11.6337      R13.0000   
   X2.9836       Y10.0227      R13.0000   
   X3.7361       Y8.4968       R13.0000   
   X4.6813       Y7.0822       R13.0000   
   X5.8031       Y5.8031       R13.0000   
   X7.0822       Y4.6813       R13.0000   
   X8.4968       Y3.7361       R13.0000   
   X10.0227      Y2.9836       R13.0000   
   X11.6337      Y2.4367       R13.0000   
   X13.3023      Y2.1048       R13.0000   
   X14.9018      Y2.0000       R13.0000   
G1   X35.098    
G17 G3   X36.6977      Y2.1048       R13.0000   
   X38.3663      Y2.4367       R13.0000   
   X39.9773      Y2.9836       R13.0000   
   X41.5032      Y3.7361       R13.0000   
   X42.9178      Y4.6813       R13.0000   
   X44.1969      Y5.8031       R13.0000   
   X45.3187      Y7.0822       R13.0000   
   X46.2639      Y8.4968       R13.0000   
   X47.0164      Y10.0227      R13.0000   
   X47.5633      Y11.6337      R13.0000   
   X47.8952      Y13.3023      R13.0000   
   X48.0000      Y14.9018      R13.0000   
G1   Y35.098    
G17 G3   X47.8952      Y36.6977      R13.0000   
   X47.5633      Y38.3663      R13.0000   
   X47.0164      Y39.9773      R13.0000   
   X46.2639      Y41.5032      R13.0000   
   X45.3187      Y42.9178      R13.0000   
   X44.1969      Y44.1969      R13.0000   
   X42.9178      Y45.3187      R13.0000   
   X41.5032      Y46.2639      R13.0000   
   X39.9773      Y47.0164      R13.0000   
   X38.3663      Y47.5633      R13.0000   
   X36.6977      Y47.8952      R13.0000   
   X35.0982      Y48.0000      R13.0000   
G1   X14.902    
(Pass: 2)
   Z-1.000    
G17 G3   X13.3023      Y47.8952      R13.0000   
   X11.6337      Y47.5633      R13.0000   
   X10.0227      Y47.0164      R13.0000   
   X8.4968       Y46.2639      R13.0000   
   X7.0822       Y45.3187      R13.0000   
   X5.8031       Y44.1969      R13.0000   
   X4.6813       Y42.9178      R13.0000   
   X3.7361       Y41.5032      R13.0000   
   X2.9836       Y39.9773      R13.0000   
   X2.4367       Y38.3663      R13.0000   
   X2.1048       Y36.6977      R13.0000   
   X2.0000       Y35.0982      R13.0000   
G1   Y14.902    
G17 G3   X2.1048       Y13.3023      R13.0000   
   X2.4367       Y11.6337      R13.0000   
   X2.9836       Y10.0227      R13.0000   
   X3.7361       Y8.4968       R13.0000   
   X4.6813       Y7.0822       R13.0000   
   X5.8031       Y5.8031       R13.0000   
   X7.0822       Y4.6813       R13.0000   
   X8.4968       Y3.7361       R13.0000   
   X10.0227      Y2.9836       R13.0000   
   X11.6337      Y2.4367       R13.0000   
   X13.3023      Y2.1048       R13.0000   
   X14.9018      Y2.0000       R13.0000   
G1   X35.098    
G17 G3   X36.6977      Y2.1048       R13.0000   
   X38.3663      Y2.4367       R13.0000   
   X39.9773      Y2.9836       R13.0000   
   X41.5032      Y3.7361       R13.0000   
   X42.9178      Y4.6813       R13.0000   
   X44.1969      Y5.8031       R13.0000   
   X45.3187      Y7.0822       R13.0000   
   X46.2639      Y8.4968       R13.0000   
   X47.0164      Y10.0227      R13.0000   
   X47.5633      Y11.6337      R13.0000   
   X47.8952      Y13.3023      R13.0000   
   X48.0000      Y14.9018      R13.0000   
G1   Y35.098    
G17 G3   X47.8952      Y36.6977      R13.0000   
   X47.5633      Y38.3663      R13.0000   
   X47.0164      Y39.9773      R13.0000   
   X46.2639      Y41.5032      R13.0000   
   X45.3187      Y42.9178      R13.0000   
   X44.1969      Y44.1969      R13.0000   
   X42.9178      Y45.3187      R13.0000   
   X41.5032      Y46.2639      R13.0000   
   X39.9773      Y47.0164      R13.0000   
   X38.3663      Y47.5633      R13.0000   
   X36.6977      Y47.8952      R13.0000   
   X35.0982      Y48.0000      R13.0000   
G1   X14.902    
(Pass: 3)
   Z-1.500    
G17 G3   X13.3023      Y47.8952      R13.0000   
   X11.6337      Y47.5633      R13.0000   
   X10.0227      Y47.0164      R13.0000   
   X8.4968       Y46.2639      R13.0000   
   X7.0822       Y45.3187      R13.0000   
   X5.8031       Y44.1969      R13.0000   
   X4.6813       Y42.9178      R13.0000   
   X3.7361       Y41.5032      R13.0000   
   X2.9836       Y39.9773      R13.0000   
   X2.4367       Y38.3663      R13.0000   
   X2.1048       Y36.6977      R13.0000   
   X2.0000       Y35.0982      R13.0000   
G1   Y14.902    
G17 G3   X2.1048       Y13.3023      R13.0000   
   X2.4367       Y11.6337      R13.0000   
   X2.9836       Y10.0227      R13.0000   
   X3.7361       Y8.4968       R13.0000   
   X4.6813       Y7.0822       R13.0000   
   X5.8031       Y5.8031       R13.0000   
   X7.0822       Y4.6813       R13.0000   
   X8.4968       Y3.7361       R13.0000   
   X10.0227      Y2.9836       R13.0000   
   X11.6337      Y2.4367       R13.0000   
   X13.3023      Y2.1048       R13.0000   
   X14.9018      Y2.0000       R13.0000   
G1   X35.098    
G17 G3   X36.6977      Y2.1048       R13.0000   
   X38.3663      Y2.4367       R13.0000   
   X39.9773      Y2.9836       R13.0000   
   X41.5032      Y3.7361       R13.0000   
   X42.9178      Y4.6813       R13.0000   
   X44.1969      Y5.8031       R13.0000   
   X45.3187      Y7.0822       R13.0000   
   X46.2639      Y8.4968       R13.0000   
   X47.0164      Y10.0227      R13.0000   
   X47.5633      Y11.6337      R13.0000   
   X47.8952      Y13.3023      R13.0000   
   X48.0000      Y14.9018      R13.0000   
G1   Y35.098    
G17 G3   X47.8952      Y36.6977      R13.0000   
   X47.5633      Y38.3663      R13.0000   
   X47.0164      Y39.9773      R13.0000   
   X46.2639      Y41.5032      R13.0000   
   X45.3187      Y42.9178      R13.0000   
   X44.1969      Y44.1969      R13.0000   
   X42.9178      Y45.3187      R13.0000   
   X41.5032      Y46.2639      R13.0000   
   X39.9773      Y47.0164      R13.0000   
   X38.3663      Y47.5633      R13.0000   
   X36.6977      Y47.8952      R13.0000   
   X35.0982      Y48.0000      R13.0000   
G1   X14.902    
(Pass: 4)
   Z-2.000    
G17 G3   X13.3023      Y47.8952      R13.0000   
   X11.6337      Y47.5633      R13.0000   
   X10.0227      Y47.0164      R13.0000   
   X8.4968       Y46.2639      R13.0000   
   X7.0822       Y45.3187      R13.0000   
   X5.8031       Y44.1969      R13.0000   
   X4.6813       Y42.9178      R13.0000   
   X3.7361       Y41.5032      R13.0000   
   X2.9836       Y39.9773      R13.0000   
   X2.4367       Y38.3663      R13.0000   
   X2.1048       Y36.6977      R13.0000   
   X2.0000       Y35.0982      R13.0000   
G1   Y14.902    
G17 G3   X2.1048       Y13.3023      R13.0000   
   X2.4367       Y11.6337      R13.0000   
   X2.9836       Y10.0227      R13.0000   
   X3.7361       Y8.4968       R13.0000   
   X4.6813       Y7.0822       R13.0000   
   X5.8031       Y5.8031       R13.0000   
   X7.0822       Y4.6813       R13.0000   
   X8.4968       Y3.7361       R13.0000   
   X10.0227      Y2.9836       R13.0000   
   X11.6337      Y2.4367       R13.0000   
   X13.3023      Y2.1048       R13.0000   
   X14.9018      Y2.0000       R13.0000   
G1   X35.098    
G17 G3   X36.6977      Y2.1048       R13.0000   
   X38.3663      Y2.4367       R13.0000   
   X39.9773      Y2.9836       R13.0000   
   X41.5032      Y3.7361       R13.0000   
   X42.9178      Y4.6813       R13.0000   
   X44.1969      Y5.8031       R13.0000   
   X45.3187      Y7.0822       R13.0000   
   X46.2639      Y8.4968       R13.0000   
   X47.0164      Y10.0227      R13.0000   
   X47.5633      Y11.6337      R13.0000   
   X47.8952      Y13.3023      R13.0000   
   X48.0000      Y14.9018      R13.0000   
G1   Y35.098    
G17 G3   X47.8952      Y36.6977      R13.0000   
   X47.5633      Y38.3663      R13.0000   
   X47.0164      Y39.9773      R13.0000   
   X46.2639      Y41.5032      R13.0000   
   X45.3187      Y42.9178      R13.0000   
   X44.1969      Y44.1969      R13.0000   
   X42.9178      Y45.3187      R13.0000   
   X41.5032      Y46.2639      R13.0000   
   X39.9773      Y47.0164      R13.0000   
   X38.3663      Y47.5633      R13.0000   
   X36.6977      Y47.8952      R13.0000   
   X35.0982      Y48.0000      R13.0000   
G1   X14.902    
(Pass: 5)
   Z-2.500    
G17 G3   X13.3023      Y47.8952      R13.0000   
   X11.6337      Y47.5633      R13.0000   
   X10.0227      Y47.0164      R13.0000   
   X8.4968       Y46.2639      R13.0000   
   X7.0822       Y45.3187      R13.0000   
   X5.8031       Y44.1969      R13.0000   
   X4.6813       Y42.9178      R13.0000   
   X3.7361       Y41.5032      R13.0000   
   X2.9836       Y39.9773      R13.0000   
   X2.4367       Y38.3663      R13.0000   
   X2.1048       Y36.6977      R13.0000   
   X2.0000       Y35.0982      R13.0000   
G1   Y14.902    
G17 G3   X2.1048       Y13.3023      R13.0000   
   X2.4367       Y11.6337      R13.0000   
   X2.9836       Y10.0227      R13.0000   
   X3.7361       Y8.4968       R13.0000   
   X4.6813       Y7.0822       R13.0000   
   X5.8031       Y5.8031       R13.0000   
   X7.0822       Y4.6813       R13.0000   
   X8.4968       Y3.7361       R13.0000   
   X10.0227      Y2.9836       R13.0000   
   X11.6337      Y2.4367       R13.0000   
   X13.3023      Y2.1048       R13.0000   
   X14.9018      Y2.0000       R13.0000   
G1   X35.098    
G17 G3   X36.6977      Y2.1048       R13.0000   
   X38.3663      Y2.4367       R13.0000   
   X39.9773      Y2.9836       R13.0000   
   X41.5032      Y3.7361       R13.0000   
   X42.9178      Y4.6813       R13.0000   
   X44.1969      Y5.8031       R13.0000   
   X45.3187      Y7.0822       R13.0000   
   X46.2639      Y8.4968       R13.0000   
   X47.0164      Y10.0227      R13.0000   
   X47.5633      Y11.6337      R13.0000   
   X47.8952      Y13.3023      R13.0000   
   X48.0000      Y14.9018      R13.0000   
G1   Y35.098    
G17 G3   X47.8952      Y36.6977      R13.0000   
   X47.5633      Y38.3663      R13.0000   
   X47.0164      Y39.9773      R13.0000   
   X46.2639      Y41.5032      R13.0000   
   X45.3187      Y42.9178      R13.0000   
   X44.1969      Y44.1969      R13.0000   
   X42.9178      Y45.3187      R13.0000   
   X41.5032      Y46.2639      R13.0000   
   X39.9773      Y47.0164      R13.0000   
   X38.3663      Y47.5633      R13.0000   
   X36.6977      Y47.8952      R13.0000   
   X35.0982      Y48.0000      R13.0000   
G1   X14.902    
(Pass: 6)
   Z-3.000    
G17 G3   X13.3023      Y47.8952      R13.0000   
   X11.6337      Y47.5633      R13.0000   
   X10.0227      Y47.0164      R13.0000   
   X8.4968       Y46.2639      R13.0000   
   X7.0822       Y45.3187      R13.0000   
   X5.8031       Y44.1969      R13.0000   
   X4.6813       Y42.9178      R13.0000   
   X3.7361       Y41.5032      R13.0000   
   X2.9836       Y39.9773      R13.0000   
   X2.4367       Y38.3663      R13.0000   
   X2.1048       Y36.6977      R13.0000   
   X2.0000       Y35.0982      R13.0000   
G1   Y14.902    
G17 G3   X2.1048       Y13.3023      R13.0000   
   X2.4367       Y11.6337      R13.0000   
   X2.9836       Y10.0227      R13.0000   
   X3.7361       Y8.4968       R13.0000   
   X4.6813       Y7.0822       R13.0000   
   X5.8031       Y5.8031       R13.0000   
   X7.0822       Y4.6813       R13.0000   
   X8.4968       Y3.7361       R13.0000   
   X10.0227      Y2.9836       R13.0000   
   X11.6337      Y2.4367       R13.0000   
   X13.3023      Y2.1048       R13.0000   
   X14.9018      Y2.0000       R13.0000   
G1   X35.098    
G17 G3   X36.6977      Y2.1048       R13.0000   
   X38.3663      Y2.4367       R13.0000   
   X39.9773      Y2.9836       R13.0000   
   X41.5032      Y3.7361       R13.0000   
   X42.9178      Y4.6813       R13.0000   
   X44.1969      Y5.8031       R13.0000   
   X45.3187      Y7.0822       R13.0000   
   X46.2639      Y8.4968       R13.0000   
   X47.0164      Y10.0227      R13.0000   
   X47.5633      Y11.6337      R13.0000   
   X47.8952      Y13.3023      R13.0000   
   X48.0000      Y14.9018      R13.0000   
G1   Y35.098    
G17 G3   X47.8952      Y36.6977      R13.0000   
   X47.5633      Y38.3663      R13.0000   
   X47.0164      Y39.9773      R13.0000   
   X46.2639      Y41.5032      R13.0000   
   X45.3187      Y42.9178      R13.0000   
   X44.1969      Y44.1969      R13.0000   
   X42.9178      Y45.3187      R13.0000   
   X41.5032      Y46.2639      R13.0000   
   X39.9773      Y47.0164      R13.0000   
   X38.3663      Y47.5633      R13.0000   
   X36.6977      Y47.8952      R13.0000   
   X35.0982      Y48.0000      R13.0000   
G1   X14.902    
(Pass: 7)
   Z-3.410    
G17 G3   X13.3023      Y47.8952      R13.0000   
   X11.6337      Y47.5633      R13.0000   
   X10.0227      Y47.0164      R13.0000   
   X8.4968       Y46.2639      R13.0000   
   X7.0822       Y45.3187      R13.0000   
   X5.8031       Y44.1969      R13.0000   
   X4.6813       Y42.9178      R13.0000   
   X3.7361       Y41.5032      R13.0000   
   X2.9836       Y39.9773      R13.0000   
   X2.4367       Y38.3663      R13.0000   
   X2.1048       Y36.6977      R13.0000   
   X2.0000       Y35.0982      R13.0000   
G1   Y14.902    
G17 G3   X2.1048       Y13.3023      R13.0000   
   X2.4367       Y11.6337      R13.0000   
   X2.9836       Y10.0227      R13.0000   
   X3.7361       Y8.4968       R13.0000   
   X4.6813       Y7.0822       R13.0000   
   X5.8031       Y5.8031       R13.0000   
   X7.0822       Y4.6813       R13.0000   
   X8.4968       Y3.7361       R13.0000   
   X10.0227      Y2.9836       R13.0000   
   X11.6337      Y2.4367       R13.0000   
   X13.3023      Y2.1048       R13.0000   
   X14.9018      Y2.0000       R13.0000   
G1   X35.098    
G17 G3   X36.6977      Y2.1048       R13.0000   
   X38.3663      Y2.4367       R13.0000   
   X39.9773      Y2.9836       R13.0000   
   X41.5032      Y3.7361       R13.0000   
   X42.9178      Y4.6813       R13.0000   
   X44.1969      Y5.8031       R13.0000   
   X45.3187      Y7.0822       R13.0000   
   X46.2639      Y8.4968       R13.0000   
   X47.0164      Y10.0227      R13.0000   
   X47.5633      Y11.6337      R13.0000   
   X47.8952      Y13.3023      R13.0000   
   X48.0000      Y14.9018      R13.0000   
G1   Y35.098    
G17 G3   X47.8952      Y36.6977      R13.0000   
   X47.5633      Y38.3663      R13.0000   
   X47.0164      Y39.9773      R13.0000   
   X46.2639      Y41.5032      R13.0000   
   X45.3187      Y42.9178      R13.0000   
   X44.1969      Y44.1969      R13.0000   
   X42.9178      Y45.3187      R13.0000   
   X41.5032      Y46.2639      R13.0000   
   X39.9773      Y47.0164      R13.0000   
   X38.3663      Y47.5633      R13.0000   
   X36.6977      Y47.8952      R13.0000   
   X35.0982      Y48.0000      R13.0000   
G1   X14.902    
G0   Z6.000     
G0 X0 Y0 (home)
M05
M30
%
