%
(Generated by SketchUcam V1.3a)
(File: 4040CasterPlates.skp)
(Bit diameter: 6.35mm)
(Feed rate: 200.00mm/min)
(Plunge Feed rate: 100.00mm/min)
(Material Thickness: 3.20mm)
(Material length: 558.80mm X width: 1066.80mm)
(Overhead Gantry: true)
(Multipass enabled, Depth = 0.10mm)
(Optimization is ON)
(www.PhlatBoyz.com)
G90 G21 G49  G17
M3 S22000
(Group: _diam_7.0mm)
G00 Z6.000
(Pass: 1)
 X25.000 Y25.050
(plungebore  DEPTH=3.200  DIAM=7.000)
G00 Z2.000
G01 Z-0.100 F100 
G00 Z2.000
G01 Z-0.200
G00 Z2.000
G01 Z-0.300
G00 Z2.000
G01 Z-0.400
G00 Z2.000
G01 Z-0.500
G00 Z2.000
G01 Z-0.600
G00 Z2.000
G01 Z-0.700
G00 Z2.000
G01 Z-0.800
G00 Z2.000
G01 Z-0.900
G00 Z2.000
G01 Z-1.000
G00 Z2.000
G01 Z-1.100
G00 Z2.000
G01 Z-1.200
G00 Z2.000
G01 Z-1.300
G00 Z2.000
G01 Z-1.400
G00 Z2.000
G01 Z-1.500
G00 Z2.000
G01 Z-1.600
G00 Z2.000
G01 Z-1.700
G00 Z2.000
G01 Z-1.800
G00 Z2.000
G01 Z-1.900
G00 Z2.000
G01 Z-2.000
G00 Z2.000
G01 Z-2.100
G00 Z2.000
G01 Z-2.200
G00 Z2.000
G01 Z-2.300
G00 Z2.000
G01 Z-2.400
G00 Z2.000
G01 Z-2.500
G00 Z2.000
G01 Z-2.600
G00 Z2.000
G01 Z-2.700
G00 Z2.000
G01 Z-2.800
G00 Z2.000
G01 Z-2.900
G00 Z2.000
G01 Z-3.000
G00 Z2.000
G01 Z-3.100
G00 Z2.000
G01 Z-3.200
G00 Z2.000
G00 Y24.7250
G01 Z0.0000 F200 
G03 X25.3250 Y25.0500 Z-0.0250 I0.0000 J0.3250
G03 X25.0000 Y25.3750 Z-0.0500 I-0.3250 J0.0000
G03 X24.6750 Y25.0500 Z-0.0750 I0.0000 J-0.3250
G03 X25.0000 Y24.7250 Z-0.1000 I0.3250 J0.0000
G03 X25.3250 Y25.0500 Z-0.1250 I0.0000 J0.3250
G03 X25.0000 Y25.3750 Z-0.1500 I-0.3250 J0.0000
G03 X24.6750 Y25.0500 Z-0.1750 I0.0000 J-0.3250
G03 X25.0000 Y24.7250 Z-0.2000 I0.3250 J0.0000
G03 X25.3250 Y25.0500 Z-0.2250 I0.0000 J0.3250
G03 X25.0000 Y25.3750 Z-0.2500 I-0.3250 J0.0000
G03 X24.6750 Y25.0500 Z-0.2750 I0.0000 J-0.3250
G03 X25.0000 Y24.7250 Z-0.3000 I0.3250 J0.0000
G03 X25.3250 Y25.0500 Z-0.3250 I0.0000 J0.3250
G03 X25.0000 Y25.3750 Z-0.3500 I-0.3250 J0.0000
G03 X24.6750 Y25.0500 Z-0.3750 I0.0000 J-0.3250
G03 X25.0000 Y24.7250 Z-0.4000 I0.3250 J0.0000
G03 X25.3250 Y25.0500 Z-0.4250 I0.0000 J0.3250
G03 X25.0000 Y25.3750 Z-0.4500 I-0.3250 J0.0000
G03 X24.6750 Y25.0500 Z-0.4750 I0.0000 J-0.3250
G03 X25.0000 Y24.7250 Z-0.5000 I0.3250 J0.0000
G03 X25.3250 Y25.0500 Z-0.5250 I0.0000 J0.3250
G03 X25.0000 Y25.3750 Z-0.5500 I-0.3250 J0.0000
G03 X24.6750 Y25.0500 Z-0.5750 I0.0000 J-0.3250
G03 X25.0000 Y24.7250 Z-0.6000 I0.3250 J0.0000
G03 X25.3250 Y25.0500 Z-0.6250 I0.0000 J0.3250
G03 X25.0000 Y25.3750 Z-0.6500 I-0.3250 J0.0000
G03 X24.6750 Y25.0500 Z-0.6750 I0.0000 J-0.3250
G03 X25.0000 Y24.7250 Z-0.7000 I0.3250 J0.0000
G03 X25.3250 Y25.0500 Z-0.7250 I0.0000 J0.3250
G03 X25.0000 Y25.3750 Z-0.7500 I-0.3250 J0.0000
G03 X24.6750 Y25.0500 Z-0.7750 I0.0000 J-0.3250
G03 X25.0000 Y24.7250 Z-0.8000 I0.3250 J0.0000
G03 X25.3250 Y25.0500 Z-0.8250 I0.0000 J0.3250
G03 X25.0000 Y25.3750 Z-0.8500 I-0.3250 J0.0000
G03 X24.6750 Y25.0500 Z-0.8750 I0.0000 J-0.3250
G03 X25.0000 Y24.7250 Z-0.9000 I0.3250 J0.0000
G03 X25.3250 Y25.0500 Z-0.9250 I0.0000 J0.3250
G03 X25.0000 Y25.3750 Z-0.9500 I-0.3250 J0.0000
G03 X24.6750 Y25.0500 Z-0.9750 I0.0000 J-0.3250
G03 X25.0000 Y24.7250 Z-1.0000 I0.3250 J0.0000
G03 X25.3250 Y25.0500 Z-1.0250 I0.0000 J0.3250
G03 X25.0000 Y25.3750 Z-1.0500 I-0.3250 J0.0000
G03 X24.6750 Y25.0500 Z-1.0750 I0.0000 J-0.3250
G03 X25.0000 Y24.7250 Z-1.1000 I0.3250 J0.0000
G03 X25.3250 Y25.0500 Z-1.1250 I0.0000 J0.3250
G03 X25.0000 Y25.3750 Z-1.1500 I-0.3250 J0.0000
G03 X24.6750 Y25.0500 Z-1.1750 I0.0000 J-0.3250
G03 X25.0000 Y24.7250 Z-1.2000 I0.3250 J0.0000
G03 X25.3250 Y25.0500 Z-1.2250 I0.0000 J0.3250
G03 X25.0000 Y25.3750 Z-1.2500 I-0.3250 J0.0000
G03 X24.6750 Y25.0500 Z-1.2750 I0.0000 J-0.3250
G03 X25.0000 Y24.7250 Z-1.3000 I0.3250 J0.0000
G03 X25.3250 Y25.0500 Z-1.3250 I0.0000 J0.3250
G03 X25.0000 Y25.3750 Z-1.3500 I-0.3250 J0.0000
G03 X24.6750 Y25.0500 Z-1.3750 I0.0000 J-0.3250
G03 X25.0000 Y24.7250 Z-1.4000 I0.3250 J0.0000
G03 X25.3250 Y25.0500 Z-1.4250 I0.0000 J0.3250
G03 X25.0000 Y25.3750 Z-1.4500 I-0.3250 J0.0000
G03 X24.6750 Y25.0500 Z-1.4750 I0.0000 J-0.3250
G03 X25.0000 Y24.7250 Z-1.5000 I0.3250 J0.0000
G03 X25.3250 Y25.0500 Z-1.5250 I0.0000 J0.3250
G03 X25.0000 Y25.3750 Z-1.5500 I-0.3250 J0.0000
G03 X24.6750 Y25.0500 Z-1.5750 I0.0000 J-0.3250
G03 X25.0000 Y24.7250 Z-1.6000 I0.3250 J0.0000
G03 X25.3250 Y25.0500 Z-1.6250 I0.0000 J0.3250
G03 X25.0000 Y25.3750 Z-1.6500 I-0.3250 J0.0000
G03 X24.6750 Y25.0500 Z-1.6750 I0.0000 J-0.3250
G03 X25.0000 Y24.7250 Z-1.7000 I0.3250 J0.0000
G03 X25.3250 Y25.0500 Z-1.7250 I0.0000 J0.3250
G03 X25.0000 Y25.3750 Z-1.7500 I-0.3250 J0.0000
G03 X24.6750 Y25.0500 Z-1.7750 I0.0000 J-0.3250
G03 X25.0000 Y24.7250 Z-1.8000 I0.3250 J0.0000
G03 X25.3250 Y25.0500 Z-1.8250 I0.0000 J0.3250
G03 X25.0000 Y25.3750 Z-1.8500 I-0.3250 J0.0000
G03 X24.6750 Y25.0500 Z-1.8750 I0.0000 J-0.3250
G03 X25.0000 Y24.7250 Z-1.9000 I0.3250 J0.0000
G03 X25.3250 Y25.0500 Z-1.9250 I0.0000 J0.3250
G03 X25.0000 Y25.3750 Z-1.9500 I-0.3250 J0.0000
G03 X24.6750 Y25.0500 Z-1.9750 I0.0000 J-0.3250
G03 X25.0000 Y24.7250 Z-2.0000 I0.3250 J0.0000
G03 X25.3250 Y25.0500 Z-2.0250 I0.0000 J0.3250
G03 X25.0000 Y25.3750 Z-2.0500 I-0.3250 J0.0000
G03 X24.6750 Y25.0500 Z-2.0750 I0.0000 J-0.3250
G03 X25.0000 Y24.7250 Z-2.1000 I0.3250 J0.0000
G03 X25.3250 Y25.0500 Z-2.1250 I0.0000 J0.3250
G03 X25.0000 Y25.3750 Z-2.1500 I-0.3250 J0.0000
G03 X24.6750 Y25.0500 Z-2.1750 I0.0000 J-0.3250
G03 X25.0000 Y24.7250 Z-2.2000 I0.3250 J0.0000
G03 X25.3250 Y25.0500 Z-2.2250 I0.0000 J0.3250
G03 X25.0000 Y25.3750 Z-2.2500 I-0.3250 J0.0000
G03 X24.6750 Y25.0500 Z-2.2750 I0.0000 J-0.3250
G03 X25.0000 Y24.7250 Z-2.3000 I0.3250 J0.0000
G03 X25.3250 Y25.0500 Z-2.3250 I0.0000 J0.3250
G03 X25.0000 Y25.3750 Z-2.3500 I-0.3250 J0.0000
G03 X24.6750 Y25.0500 Z-2.3750 I0.0000 J-0.3250
G03 X25.0000 Y24.7250 Z-2.4000 I0.3250 J0.0000
G03 X25.3250 Y25.0500 Z-2.6000 I0.0000 J0.3250
G03 X25.0000 Y25.3750 Z-2.8000 I-0.3250 J0.0000
G03 X24.6750 Y25.0500 Z-3.0000 I0.0000 J-0.3250
G03 X25.0000 Y24.7250 Z-3.2000 I0.3250 J0.0000
G03 X25.3250 Y25.0500 I0.0000 J0.3250
G03 X25.0000 Y25.3750 I-0.3250 J0.0000
G03 X24.6750 Y25.0500 I0.0000 J-0.3250
G03 X25.0000 Y24.7250 I0.3250 J0.0000
G00 Y25.050 Z6.000
(plungebore end)
(Group complete: _diam_7.0mm)
(Pass: 1)
G00 X35.000 Y35.050
(plungebore  DEPTH=3.200  DIAM=6.350)
G00 Z2.000
G01 Z-0.100 F100 
G00 Z2.000
G01 Z-0.200
G00 Z2.000
G01 Z-0.300
G00 Z2.000
G01 Z-0.400
G00 Z2.000
G01 Z-0.500
G00 Z2.000
G01 Z-0.600
G00 Z2.000
G01 Z-0.700
G00 Z2.000
G01 Z-0.800
G00 Z2.000
G01 Z-0.900
G00 Z2.000
G01 Z-1.000
G00 Z2.000
G01 Z-1.100
G00 Z2.000
G01 Z-1.200
G00 Z2.000
G01 Z-1.300
G00 Z2.000
G01 Z-1.400
G00 Z2.000
G01 Z-1.500
G00 Z2.000
G01 Z-1.600
G00 Z2.000
G01 Z-1.700
G00 Z2.000
G01 Z-1.800
G00 Z2.000
G01 Z-1.900
G00 Z2.000
G01 Z-2.000
G00 Z2.000
G01 Z-2.100
G00 Z2.000
G01 Z-2.200
G00 Z2.000
G01 Z-2.300
G00 Z2.000
G01 Z-2.400
G00 Z2.000
G01 Z-2.500
G00 Z2.000
G01 Z-2.600
G00 Z2.000
G01 Z-2.700
G00 Z2.000
G01 Z-2.800
G00 Z2.000
G01 Z-2.900
G00 Z2.000
G01 Z-3.000
G00 Z2.000
G01 Z-3.100
G00 Z2.000
G01 Z-3.200
G00 Z2.000
G00 Y35.050 Z6.000
(plungebore end)
(Pass: 1)
G00 Y15.050
(plungebore  DEPTH=3.200  DIAM=6.350)
G00 Z2.000
G01 Z-0.100 F100 
G00 Z2.000
G01 Z-0.200
G00 Z2.000
G01 Z-0.300
G00 Z2.000
G01 Z-0.400
G00 Z2.000
G01 Z-0.500
G00 Z2.000
G01 Z-0.600
G00 Z2.000
G01 Z-0.700
G00 Z2.000
G01 Z-0.800
G00 Z2.000
G01 Z-0.900
G00 Z2.000
G01 Z-1.000
G00 Z2.000
G01 Z-1.100
G00 Z2.000
G01 Z-1.200
G00 Z2.000
G01 Z-1.300
G00 Z2.000
G01 Z-1.400
G00 Z2.000
G01 Z-1.500
G00 Z2.000
G01 Z-1.600
G00 Z2.000
G01 Z-1.700
G00 Z2.000
G01 Z-1.800
G00 Z2.000
G01 Z-1.900
G00 Z2.000
G01 Z-2.000
G00 Z2.000
G01 Z-2.100
G00 Z2.000
G01 Z-2.200
G00 Z2.000
G01 Z-2.300
G00 Z2.000
G01 Z-2.400
G00 Z2.000
G01 Z-2.500
G00 Z2.000
G01 Z-2.600
G00 Z2.000
G01 Z-2.700
G00 Z2.000
G01 Z-2.800
G00 Z2.000
G01 Z-2.900
G00 Z2.000
G01 Z-3.000
G00 Z2.000
G01 Z-3.100
G00 Z2.000
G01 Z-3.200
G00 Z2.000
G00 Y15.050 Z6.000
(plungebore end)
(Pass: 1)
G00 X15.000
(plungebore  DEPTH=3.200  DIAM=6.350)
G00 Z2.000
G01 Z-0.100 F100 
G00 Z2.000
G01 Z-0.200
G00 Z2.000
G01 Z-0.300
G00 Z2.000
G01 Z-0.400
G00 Z2.000
G01 Z-0.500
G00 Z2.000
G01 Z-0.600
G00 Z2.000
G01 Z-0.700
G00 Z2.000
G01 Z-0.800
G00 Z2.000
G01 Z-0.900
G00 Z2.000
G01 Z-1.000
G00 Z2.000
G01 Z-1.100
G00 Z2.000
G01 Z-1.200
G00 Z2.000
G01 Z-1.300
G00 Z2.000
G01 Z-1.400
G00 Z2.000
G01 Z-1.500
G00 Z2.000
G01 Z-1.600
G00 Z2.000
G01 Z-1.700
G00 Z2.000
G01 Z-1.800
G00 Z2.000
G01 Z-1.900
G00 Z2.000
G01 Z-2.000
G00 Z2.000
G01 Z-2.100
G00 Z2.000
G01 Z-2.200
G00 Z2.000
G01 Z-2.300
G00 Z2.000
G01 Z-2.400
G00 Z2.000
G01 Z-2.500
G00 Z2.000
G01 Z-2.600
G00 Z2.000
G01 Z-2.700
G00 Z2.000
G01 Z-2.800
G00 Z2.000
G01 Z-2.900
G00 Z2.000
G01 Z-3.000
G00 Z2.000
G01 Z-3.100
G00 Z2.000
G01 Z-3.200
G00 Z2.000
G00 Y15.050 Z6.000
(plungebore end)
(Pass: 1)
G00 Y35.050
(plungebore  DEPTH=3.200  DIAM=6.350)
G00 Z2.000
G01 Z-0.100 F100 
G00 Z2.000
G01 Z-0.200
G00 Z2.000
G01 Z-0.300
G00 Z2.000
G01 Z-0.400
G00 Z2.000
G01 Z-0.500
G00 Z2.000
G01 Z-0.600
G00 Z2.000
G01 Z-0.700
G00 Z2.000
G01 Z-0.800
G00 Z2.000
G01 Z-0.900
G00 Z2.000
G01 Z-1.000
G00 Z2.000
G01 Z-1.100
G00 Z2.000
G01 Z-1.200
G00 Z2.000
G01 Z-1.300
G00 Z2.000
G01 Z-1.400
G00 Z2.000
G01 Z-1.500
G00 Z2.000
G01 Z-1.600
G00 Z2.000
G01 Z-1.700
G00 Z2.000
G01 Z-1.800
G00 Z2.000
G01 Z-1.900
G00 Z2.000
G01 Z-2.000
G00 Z2.000
G01 Z-2.100
G00 Z2.000
G01 Z-2.200
G00 Z2.000
G01 Z-2.300
G00 Z2.000
G01 Z-2.400
G00 Z2.000
G01 Z-2.500
G00 Z2.000
G01 Z-2.600
G00 Z2.000
G01 Z-2.700
G00 Z2.000
G01 Z-2.800
G00 Z2.000
G01 Z-2.900
G00 Z2.000
G01 Z-3.000
G00 Z2.000
G01 Z-3.100
G00 Z2.000
G01 Z-3.200
G00 Z2.000
G00 Y35.050 Z6.000
(plungebore end)
(Pass: 1)
G00 X13.557 Y48.225
G01 Z-0.100 F100 
 X7.092 F200 
 X5.980 Y48.079
 X5.202 Y47.815
 X4.559 Y47.497
 X3.963 Y47.099
 X3.424 Y46.626
 X2.951 Y46.087
 X2.553 Y45.491
 X2.235 Y44.848
 X1.971 Y44.070
 X1.825 Y42.958
 Y39.107
 Y13.449
 Y7.142
 X1.971 Y6.030
 X2.235 Y5.252
 X2.553 Y4.609
 X2.951 Y4.013
 X3.424 Y3.474
 X3.963 Y3.001
 X4.559 Y2.603
 X5.202 Y2.285
 X5.980 Y2.021
 X7.092 Y1.875
 X12.945
 X37.436
 X42.804
 X43.416 Y1.915
 X44.119 Y2.055
 X44.798 Y2.285
 X45.441 Y2.603
 X46.037 Y3.001
 X46.576 Y3.474
 X47.049 Y4.013
 X47.447 Y4.609
 X47.765 Y5.252
 X47.995 Y5.931
 X48.135 Y6.634
 X48.175 Y7.246
 Y11.813
 Y39.578
 Y42.958
 X48.029 Y44.070
 X47.765 Y44.848
 X47.447 Y45.491
 X47.049 Y46.087
 X46.576 Y46.626
 X46.037 Y47.099
 X45.441 Y47.497
 X44.798 Y47.815
 X44.020 Y48.079
 X42.908 Y48.225
 X36.428
 X13.557
(Pass: 2)
 Z-0.200 F100 
 X7.092 F200 
 X5.980 Y48.079
 X5.202 Y47.815
 X4.559 Y47.497
 X3.963 Y47.099
 X3.424 Y46.626
 X2.951 Y46.087
 X2.553 Y45.491
 X2.235 Y44.848
 X1.971 Y44.070
 X1.825 Y42.958
 Y39.107
 Y13.449
 Y7.142
 X1.971 Y6.030
 X2.235 Y5.252
 X2.553 Y4.609
 X2.951 Y4.013
 X3.424 Y3.474
 X3.963 Y3.001
 X4.559 Y2.603
 X5.202 Y2.285
 X5.980 Y2.021
 X7.092 Y1.875
 X12.945
 X37.436
 X42.804
 X43.416 Y1.915
 X44.119 Y2.055
 X44.798 Y2.285
 X45.441 Y2.603
 X46.037 Y3.001
 X46.576 Y3.474
 X47.049 Y4.013
 X47.447 Y4.609
 X47.765 Y5.252
 X47.995 Y5.931
 X48.135 Y6.634
 X48.175 Y7.246
 Y11.813
 Y39.578
 Y42.958
 X48.029 Y44.070
 X47.765 Y44.848
 X47.447 Y45.491
 X47.049 Y46.087
 X46.576 Y46.626
 X46.037 Y47.099
 X45.441 Y47.497
 X44.798 Y47.815
 X44.020 Y48.079
 X42.908 Y48.225
 X36.428
 X13.557
(Pass: 3)
 Z-0.300 F100 
 X7.092 F200 
 X5.980 Y48.079
 X5.202 Y47.815
 X4.559 Y47.497
 X3.963 Y47.099
 X3.424 Y46.626
 X2.951 Y46.087
 X2.553 Y45.491
 X2.235 Y44.848
 X1.971 Y44.070
 X1.825 Y42.958
 Y39.107
 Y13.449
 Y7.142
 X1.971 Y6.030
 X2.235 Y5.252
 X2.553 Y4.609
 X2.951 Y4.013
 X3.424 Y3.474
 X3.963 Y3.001
 X4.559 Y2.603
 X5.202 Y2.285
 X5.980 Y2.021
 X7.092 Y1.875
 X12.945
 X37.436
 X42.804
 X43.416 Y1.915
 X44.119 Y2.055
 X44.798 Y2.285
 X45.441 Y2.603
 X46.037 Y3.001
 X46.576 Y3.474
 X47.049 Y4.013
 X47.447 Y4.609
 X47.765 Y5.252
 X47.995 Y5.931
 X48.135 Y6.634
 X48.175 Y7.246
 Y11.813
 Y39.578
 Y42.958
 X48.029 Y44.070
 X47.765 Y44.848
 X47.447 Y45.491
 X47.049 Y46.087
 X46.576 Y46.626
 X46.037 Y47.099
 X45.441 Y47.497
 X44.798 Y47.815
 X44.020 Y48.079
 X42.908 Y48.225
 X36.428
 X13.557
(Pass: 4)
 Z-0.400 F100 
 X7.092 F200 
 X5.980 Y48.079
 X5.202 Y47.815
 X4.559 Y47.497
 X3.963 Y47.099
 X3.424 Y46.626
 X2.951 Y46.087
 X2.553 Y45.491
 X2.235 Y44.848
 X1.971 Y44.070
 X1.825 Y42.958
 Y39.107
 Y13.449
 Y7.142
 X1.971 Y6.030
 X2.235 Y5.252
 X2.553 Y4.609
 X2.951 Y4.013
 X3.424 Y3.474
 X3.963 Y3.001
 X4.559 Y2.603
 X5.202 Y2.285
 X5.980 Y2.021
 X7.092 Y1.875
 X12.945
 X37.436
 X42.804
 X43.416 Y1.915
 X44.119 Y2.055
 X44.798 Y2.285
 X45.441 Y2.603
 X46.037 Y3.001
 X46.576 Y3.474
 X47.049 Y4.013
 X47.447 Y4.609
 X47.765 Y5.252
 X47.995 Y5.931
 X48.135 Y6.634
 X48.175 Y7.246
 Y11.813
 Y39.578
 Y42.958
 X48.029 Y44.070
 X47.765 Y44.848
 X47.447 Y45.491
 X47.049 Y46.087
 X46.576 Y46.626
 X46.037 Y47.099
 X45.441 Y47.497
 X44.798 Y47.815
 X44.020 Y48.079
 X42.908 Y48.225
 X36.428
 X13.557
(Pass: 5)
 Z-0.500 F100 
 X7.092 F200 
 X5.980 Y48.079
 X5.202 Y47.815
 X4.559 Y47.497
 X3.963 Y47.099
 X3.424 Y46.626
 X2.951 Y46.087
 X2.553 Y45.491
 X2.235 Y44.848
 X1.971 Y44.070
 X1.825 Y42.958
 Y39.107
 Y13.449
 Y7.142
 X1.971 Y6.030
 X2.235 Y5.252
 X2.553 Y4.609
 X2.951 Y4.013
 X3.424 Y3.474
 X3.963 Y3.001
 X4.559 Y2.603
 X5.202 Y2.285
 X5.980 Y2.021
 X7.092 Y1.875
 X12.945
 X37.436
 X42.804
 X43.416 Y1.915
 X44.119 Y2.055
 X44.798 Y2.285
 X45.441 Y2.603
 X46.037 Y3.001
 X46.576 Y3.474
 X47.049 Y4.013
 X47.447 Y4.609
 X47.765 Y5.252
 X47.995 Y5.931
 X48.135 Y6.634
 X48.175 Y7.246
 Y11.813
 Y39.578
 Y42.958
 X48.029 Y44.070
 X47.765 Y44.848
 X47.447 Y45.491
 X47.049 Y46.087
 X46.576 Y46.626
 X46.037 Y47.099
 X45.441 Y47.497
 X44.798 Y47.815
 X44.020 Y48.079
 X42.908 Y48.225
 X36.428
 X13.557
(Pass: 6)
 Z-0.600 F100 
 X7.092 F200 
 X5.980 Y48.079
 X5.202 Y47.815
 X4.559 Y47.497
 X3.963 Y47.099
 X3.424 Y46.626
 X2.951 Y46.087
 X2.553 Y45.491
 X2.235 Y44.848
 X1.971 Y44.070
 X1.825 Y42.958
 Y39.107
 Y13.449
 Y7.142
 X1.971 Y6.030
 X2.235 Y5.252
 X2.553 Y4.609
 X2.951 Y4.013
 X3.424 Y3.474
 X3.963 Y3.001
 X4.559 Y2.603
 X5.202 Y2.285
 X5.980 Y2.021
 X7.092 Y1.875
 X12.945
 X37.436
 X42.804
 X43.416 Y1.915
 X44.119 Y2.055
 X44.798 Y2.285
 X45.441 Y2.603
 X46.037 Y3.001
 X46.576 Y3.474
 X47.049 Y4.013
 X47.447 Y4.609
 X47.765 Y5.252
 X47.995 Y5.931
 X48.135 Y6.634
 X48.175 Y7.246
 Y11.813
 Y39.578
 Y42.958
 X48.029 Y44.070
 X47.765 Y44.848
 X47.447 Y45.491
 X47.049 Y46.087
 X46.576 Y46.626
 X46.037 Y47.099
 X45.441 Y47.497
 X44.798 Y47.815
 X44.020 Y48.079
 X42.908 Y48.225
 X36.428
 X13.557
(Pass: 7)
 Z-0.700 F100 
 X7.092 F200 
 X5.980 Y48.079
 X5.202 Y47.815
 X4.559 Y47.497
 X3.963 Y47.099
 X3.424 Y46.626
 X2.951 Y46.087
 X2.553 Y45.491
 X2.235 Y44.848
 X1.971 Y44.070
 X1.825 Y42.958
 Y39.107
 Y13.449
 Y7.142
 X1.971 Y6.030
 X2.235 Y5.252
 X2.553 Y4.609
 X2.951 Y4.013
 X3.424 Y3.474
 X3.963 Y3.001
 X4.559 Y2.603
 X5.202 Y2.285
 X5.980 Y2.021
 X7.092 Y1.875
 X12.945
 X37.436
 X42.804
 X43.416 Y1.915
 X44.119 Y2.055
 X44.798 Y2.285
 X45.441 Y2.603
 X46.037 Y3.001
 X46.576 Y3.474
 X47.049 Y4.013
 X47.447 Y4.609
 X47.765 Y5.252
 X47.995 Y5.931
 X48.135 Y6.634
 X48.175 Y7.246
 Y11.813
 Y39.578
 Y42.958
 X48.029 Y44.070
 X47.765 Y44.848
 X47.447 Y45.491
 X47.049 Y46.087
 X46.576 Y46.626
 X46.037 Y47.099
 X45.441 Y47.497
 X44.798 Y47.815
 X44.020 Y48.079
 X42.908 Y48.225
 X36.428
 X13.557
(Pass: 8)
 Z-0.800 F100 
 X7.092 F200 
 X5.980 Y48.079
 X5.202 Y47.815
 X4.559 Y47.497
 X3.963 Y47.099
 X3.424 Y46.626
 X2.951 Y46.087
 X2.553 Y45.491
 X2.235 Y44.848
 X1.971 Y44.070
 X1.825 Y42.958
 Y39.107
 Y13.449
 Y7.142
 X1.971 Y6.030
 X2.235 Y5.252
 X2.553 Y4.609
 X2.951 Y4.013
 X3.424 Y3.474
 X3.963 Y3.001
 X4.559 Y2.603
 X5.202 Y2.285
 X5.980 Y2.021
 X7.092 Y1.875
 X12.945
 X37.436
 X42.804
 X43.416 Y1.915
 X44.119 Y2.055
 X44.798 Y2.285
 X45.441 Y2.603
 X46.037 Y3.001
 X46.576 Y3.474
 X47.049 Y4.013
 X47.447 Y4.609
 X47.765 Y5.252
 X47.995 Y5.931
 X48.135 Y6.634
 X48.175 Y7.246
 Y11.813
 Y39.578
 Y42.958
 X48.029 Y44.070
 X47.765 Y44.848
 X47.447 Y45.491
 X47.049 Y46.087
 X46.576 Y46.626
 X46.037 Y47.099
 X45.441 Y47.497
 X44.798 Y47.815
 X44.020 Y48.079
 X42.908 Y48.225
 X36.428
 X13.557
(Pass: 9)
 Z-0.900 F100 
 X7.092 F200 
 X5.980 Y48.079
 X5.202 Y47.815
 X4.559 Y47.497
 X3.963 Y47.099
 X3.424 Y46.626
 X2.951 Y46.087
 X2.553 Y45.491
 X2.235 Y44.848
 X1.971 Y44.070
 X1.825 Y42.958
 Y39.107
 Y13.449
 Y7.142
 X1.971 Y6.030
 X2.235 Y5.252
 X2.553 Y4.609
 X2.951 Y4.013
 X3.424 Y3.474
 X3.963 Y3.001
 X4.559 Y2.603
 X5.202 Y2.285
 X5.980 Y2.021
 X7.092 Y1.875
 X12.945
 X37.436
 X42.804
 X43.416 Y1.915
 X44.119 Y2.055
 X44.798 Y2.285
 X45.441 Y2.603
 X46.037 Y3.001
 X46.576 Y3.474
 X47.049 Y4.013
 X47.447 Y4.609
 X47.765 Y5.252
 X47.995 Y5.931
 X48.135 Y6.634
 X48.175 Y7.246
 Y11.813
 Y39.578
 Y42.958
 X48.029 Y44.070
 X47.765 Y44.848
 X47.447 Y45.491
 X47.049 Y46.087
 X46.576 Y46.626
 X46.037 Y47.099
 X45.441 Y47.497
 X44.798 Y47.815
 X44.020 Y48.079
 X42.908 Y48.225
 X36.428
 X13.557
(Pass: 10)
 Z-1.000 F100 
 X7.092 F200 
 X5.980 Y48.079
 X5.202 Y47.815
 X4.559 Y47.497
 X3.963 Y47.099
 X3.424 Y46.626
 X2.951 Y46.087
 X2.553 Y45.491
 X2.235 Y44.848
 X1.971 Y44.070
 X1.825 Y42.958
 Y39.107
 Y13.449
 Y7.142
 X1.971 Y6.030
 X2.235 Y5.252
 X2.553 Y4.609
 X2.951 Y4.013
 X3.424 Y3.474
 X3.963 Y3.001
 X4.559 Y2.603
 X5.202 Y2.285
 X5.980 Y2.021
 X7.092 Y1.875
 X12.945
 X37.436
 X42.804
 X43.416 Y1.915
 X44.119 Y2.055
 X44.798 Y2.285
 X45.441 Y2.603
 X46.037 Y3.001
 X46.576 Y3.474
 X47.049 Y4.013
 X47.447 Y4.609
 X47.765 Y5.252
 X47.995 Y5.931
 X48.135 Y6.634
 X48.175 Y7.246
 Y11.813
 Y39.578
 Y42.958
 X48.029 Y44.070
 X47.765 Y44.848
 X47.447 Y45.491
 X47.049 Y46.087
 X46.576 Y46.626
 X46.037 Y47.099
 X45.441 Y47.497
 X44.798 Y47.815
 X44.020 Y48.079
 X42.908 Y48.225
 X36.428
 X13.557
(Pass: 11)
 Z-1.100 F100 
 X7.092 F200 
 X5.980 Y48.079
 X5.202 Y47.815
 X4.559 Y47.497
 X3.963 Y47.099
 X3.424 Y46.626
 X2.951 Y46.087
 X2.553 Y45.491
 X2.235 Y44.848
 X1.971 Y44.070
 X1.825 Y42.958
 Y39.107
 Y13.449
 Y7.142
 X1.971 Y6.030
 X2.235 Y5.252
 X2.553 Y4.609
 X2.951 Y4.013
 X3.424 Y3.474
 X3.963 Y3.001
 X4.559 Y2.603
 X5.202 Y2.285
 X5.980 Y2.021
 X7.092 Y1.875
 X12.945
 X37.436
 X42.804
 X43.416 Y1.915
 X44.119 Y2.055
 X44.798 Y2.285
 X45.441 Y2.603
 X46.037 Y3.001
 X46.576 Y3.474
 X47.049 Y4.013
 X47.447 Y4.609
 X47.765 Y5.252
 X47.995 Y5.931
 X48.135 Y6.634
 X48.175 Y7.246
 Y11.813
 Y39.578
 Y42.958
 X48.029 Y44.070
 X47.765 Y44.848
 X47.447 Y45.491
 X47.049 Y46.087
 X46.576 Y46.626
 X46.037 Y47.099
 X45.441 Y47.497
 X44.798 Y47.815
 X44.020 Y48.079
 X42.908 Y48.225
 X36.428
 X13.557
(Pass: 12)
 Z-1.200 F100 
 X7.092 F200 
 X5.980 Y48.079
 X5.202 Y47.815
 X4.559 Y47.497
 X3.963 Y47.099
 X3.424 Y46.626
 X2.951 Y46.087
 X2.553 Y45.491
 X2.235 Y44.848
 X1.971 Y44.070
 X1.825 Y42.958
 Y39.107
 Y13.449
 Y7.142
 X1.971 Y6.030
 X2.235 Y5.252
 X2.553 Y4.609
 X2.951 Y4.013
 X3.424 Y3.474
 X3.963 Y3.001
 X4.559 Y2.603
 X5.202 Y2.285
 X5.980 Y2.021
 X7.092 Y1.875
 X12.945
 X37.436
 X42.804
 X43.416 Y1.915
 X44.119 Y2.055
 X44.798 Y2.285
 X45.441 Y2.603
 X46.037 Y3.001
 X46.576 Y3.474
 X47.049 Y4.013
 X47.447 Y4.609
 X47.765 Y5.252
 X47.995 Y5.931
 X48.135 Y6.634
 X48.175 Y7.246
 Y11.813
 Y39.578
 Y42.958
 X48.029 Y44.070
 X47.765 Y44.848
 X47.447 Y45.491
 X47.049 Y46.087
 X46.576 Y46.626
 X46.037 Y47.099
 X45.441 Y47.497
 X44.798 Y47.815
 X44.020 Y48.079
 X42.908 Y48.225
 X36.428
 X13.557
(Pass: 13)
 Z-1.300 F100 
 X7.092 F200 
 X5.980 Y48.079
 X5.202 Y47.815
 X4.559 Y47.497
 X3.963 Y47.099
 X3.424 Y46.626
 X2.951 Y46.087
 X2.553 Y45.491
 X2.235 Y44.848
 X1.971 Y44.070
 X1.825 Y42.958
 Y39.107
 Y13.449
 Y7.142
 X1.971 Y6.030
 X2.235 Y5.252
 X2.553 Y4.609
 X2.951 Y4.013
 X3.424 Y3.474
 X3.963 Y3.001
 X4.559 Y2.603
 X5.202 Y2.285
 X5.980 Y2.021
 X7.092 Y1.875
 X12.945
 X37.436
 X42.804
 X43.416 Y1.915
 X44.119 Y2.055
 X44.798 Y2.285
 X45.441 Y2.603
 X46.037 Y3.001
 X46.576 Y3.474
 X47.049 Y4.013
 X47.447 Y4.609
 X47.765 Y5.252
 X47.995 Y5.931
 X48.135 Y6.634
 X48.175 Y7.246
 Y11.813
 Y39.578
 Y42.958
 X48.029 Y44.070
 X47.765 Y44.848
 X47.447 Y45.491
 X47.049 Y46.087
 X46.576 Y46.626
 X46.037 Y47.099
 X45.441 Y47.497
 X44.798 Y47.815
 X44.020 Y48.079
 X42.908 Y48.225
 X36.428
 X13.557
(Pass: 14)
 Z-1.400 F100 
 X7.092 F200 
 X5.980 Y48.079
 X5.202 Y47.815
 X4.559 Y47.497
 X3.963 Y47.099
 X3.424 Y46.626
 X2.951 Y46.087
 X2.553 Y45.491
 X2.235 Y44.848
 X1.971 Y44.070
 X1.825 Y42.958
 Y39.107
 Y13.449
 Y7.142
 X1.971 Y6.030
 X2.235 Y5.252
 X2.553 Y4.609
 X2.951 Y4.013
 X3.424 Y3.474
 X3.963 Y3.001
 X4.559 Y2.603
 X5.202 Y2.285
 X5.980 Y2.021
 X7.092 Y1.875
 X12.945
 X37.436
 X42.804
 X43.416 Y1.915
 X44.119 Y2.055
 X44.798 Y2.285
 X45.441 Y2.603
 X46.037 Y3.001
 X46.576 Y3.474
 X47.049 Y4.013
 X47.447 Y4.609
 X47.765 Y5.252
 X47.995 Y5.931
 X48.135 Y6.634
 X48.175 Y7.246
 Y11.813
 Y39.578
 Y42.958
 X48.029 Y44.070
 X47.765 Y44.848
 X47.447 Y45.491
 X47.049 Y46.087
 X46.576 Y46.626
 X46.037 Y47.099
 X45.441 Y47.497
 X44.798 Y47.815
 X44.020 Y48.079
 X42.908 Y48.225
 X36.428
 X13.557
(Pass: 15)
 Z-1.500 F100 
 X7.092 F200 
 X5.980 Y48.079
 X5.202 Y47.815
 X4.559 Y47.497
 X3.963 Y47.099
 X3.424 Y46.626
 X2.951 Y46.087
 X2.553 Y45.491
 X2.235 Y44.848
 X1.971 Y44.070
 X1.825 Y42.958
 Y39.107
 Y13.449
 Y7.142
 X1.971 Y6.030
 X2.235 Y5.252
 X2.553 Y4.609
 X2.951 Y4.013
 X3.424 Y3.474
 X3.963 Y3.001
 X4.559 Y2.603
 X5.202 Y2.285
 X5.980 Y2.021
 X7.092 Y1.875
 X12.945
 X37.436
 X42.804
 X43.416 Y1.915
 X44.119 Y2.055
 X44.798 Y2.285
 X45.441 Y2.603
 X46.037 Y3.001
 X46.576 Y3.474
 X47.049 Y4.013
 X47.447 Y4.609
 X47.765 Y5.252
 X47.995 Y5.931
 X48.135 Y6.634
 X48.175 Y7.246
 Y11.813
 Y39.578
 Y42.958
 X48.029 Y44.070
 X47.765 Y44.848
 X47.447 Y45.491
 X47.049 Y46.087
 X46.576 Y46.626
 X46.037 Y47.099
 X45.441 Y47.497
 X44.798 Y47.815
 X44.020 Y48.079
 X42.908 Y48.225
 X36.428
 X13.557
(Pass: 16)
 Z-1.600 F100 
 X7.092 F200 
 X5.980 Y48.079
 X5.202 Y47.815
 X4.559 Y47.497
 X3.963 Y47.099
 X3.424 Y46.626
 X2.951 Y46.087
 X2.553 Y45.491
 X2.235 Y44.848
 X1.971 Y44.070
 X1.825 Y42.958
 Y39.107
 Y13.449
 Y7.142
 X1.971 Y6.030
 X2.235 Y5.252
 X2.553 Y4.609
 X2.951 Y4.013
 X3.424 Y3.474
 X3.963 Y3.001
 X4.559 Y2.603
 X5.202 Y2.285
 X5.980 Y2.021
 X7.092 Y1.875
 X12.945
 X37.436
 X42.804
 X43.416 Y1.915
 X44.119 Y2.055
 X44.798 Y2.285
 X45.441 Y2.603
 X46.037 Y3.001
 X46.576 Y3.474
 X47.049 Y4.013
 X47.447 Y4.609
 X47.765 Y5.252
 X47.995 Y5.931
 X48.135 Y6.634
 X48.175 Y7.246
 Y11.813
 Y39.578
 Y42.958
 X48.029 Y44.070
 X47.765 Y44.848
 X47.447 Y45.491
 X47.049 Y46.087
 X46.576 Y46.626
 X46.037 Y47.099
 X45.441 Y47.497
 X44.798 Y47.815
 X44.020 Y48.079
 X42.908 Y48.225
 X36.428
 X13.557
(Pass: 17)
 Z-1.700 F100 
 X7.092 F200 
 X5.980 Y48.079
 X5.202 Y47.815
 X4.559 Y47.497
 X3.963 Y47.099
 X3.424 Y46.626
 X2.951 Y46.087
 X2.553 Y45.491
 X2.235 Y44.848
 X1.971 Y44.070
 X1.825 Y42.958
 Y39.107
 Y13.449
 Y7.142
 X1.971 Y6.030
 X2.235 Y5.252
 X2.553 Y4.609
 X2.951 Y4.013
 X3.424 Y3.474
 X3.963 Y3.001
 X4.559 Y2.603
 X5.202 Y2.285
 X5.980 Y2.021
 X7.092 Y1.875
 X12.945
 X37.436
 X42.804
 X43.416 Y1.915
 X44.119 Y2.055
 X44.798 Y2.285
 X45.441 Y2.603
 X46.037 Y3.001
 X46.576 Y3.474
 X47.049 Y4.013
 X47.447 Y4.609
 X47.765 Y5.252
 X47.995 Y5.931
 X48.135 Y6.634
 X48.175 Y7.246
 Y11.813
 Y39.578
 Y42.958
 X48.029 Y44.070
 X47.765 Y44.848
 X47.447 Y45.491
 X47.049 Y46.087
 X46.576 Y46.626
 X46.037 Y47.099
 X45.441 Y47.497
 X44.798 Y47.815
 X44.020 Y48.079
 X42.908 Y48.225
 X36.428
 X13.557
(Pass: 18)
 Z-1.800 F100 
 X7.092 F200 
 X5.980 Y48.079
 X5.202 Y47.815
 X4.559 Y47.497
 X3.963 Y47.099
 X3.424 Y46.626
 X2.951 Y46.087
 X2.553 Y45.491
 X2.235 Y44.848
 X1.971 Y44.070
 X1.825 Y42.958
 Y39.107
 Y13.449
 Y7.142
 X1.971 Y6.030
 X2.235 Y5.252
 X2.553 Y4.609
 X2.951 Y4.013
 X3.424 Y3.474
 X3.963 Y3.001
 X4.559 Y2.603
 X5.202 Y2.285
 X5.980 Y2.021
 X7.092 Y1.875
 X12.945
 X37.436
 X42.804
 X43.416 Y1.915
 X44.119 Y2.055
 X44.798 Y2.285
 X45.441 Y2.603
 X46.037 Y3.001
 X46.576 Y3.474
 X47.049 Y4.013
 X47.447 Y4.609
 X47.765 Y5.252
 X47.995 Y5.931
 X48.135 Y6.634
 X48.175 Y7.246
 Y11.813
 Y39.578
 Y42.958
 X48.029 Y44.070
 X47.765 Y44.848
 X47.447 Y45.491
 X47.049 Y46.087
 X46.576 Y46.626
 X46.037 Y47.099
 X45.441 Y47.497
 X44.798 Y47.815
 X44.020 Y48.079
 X42.908 Y48.225
 X36.428
 X13.557
(Pass: 19)
 Z-1.900 F100 
 X7.092 F200 
 X5.980 Y48.079
 X5.202 Y47.815
 X4.559 Y47.497
 X3.963 Y47.099
 X3.424 Y46.626
 X2.951 Y46.087
 X2.553 Y45.491
 X2.235 Y44.848
 X1.971 Y44.070
 X1.825 Y42.958
 Y39.107
 Y13.449
 Y7.142
 X1.971 Y6.030
 X2.235 Y5.252
 X2.553 Y4.609
 X2.951 Y4.013
 X3.424 Y3.474
 X3.963 Y3.001
 X4.559 Y2.603
 X5.202 Y2.285
 X5.980 Y2.021
 X7.092 Y1.875
 X12.945
 X37.436
 X42.804
 X43.416 Y1.915
 X44.119 Y2.055
 X44.798 Y2.285
 X45.441 Y2.603
 X46.037 Y3.001
 X46.576 Y3.474
 X47.049 Y4.013
 X47.447 Y4.609
 X47.765 Y5.252
 X47.995 Y5.931
 X48.135 Y6.634
 X48.175 Y7.246
 Y11.813
 Y39.578
 Y42.958
 X48.029 Y44.070
 X47.765 Y44.848
 X47.447 Y45.491
 X47.049 Y46.087
 X46.576 Y46.626
 X46.037 Y47.099
 X45.441 Y47.497
 X44.798 Y47.815
 X44.020 Y48.079
 X42.908 Y48.225
 X36.428
 X13.557
(Pass: 20)
 Z-2.000 F100 
 X7.092 F200 
 X5.980 Y48.079
 X5.202 Y47.815
 X4.559 Y47.497
 X3.963 Y47.099
 X3.424 Y46.626
 X2.951 Y46.087
 X2.553 Y45.491
 X2.235 Y44.848
 X1.971 Y44.070
 X1.825 Y42.958
 Y39.107
 Y13.449
 Y7.142
 X1.971 Y6.030
 X2.235 Y5.252
 X2.553 Y4.609
 X2.951 Y4.013
 X3.424 Y3.474
 X3.963 Y3.001
 X4.559 Y2.603
 X5.202 Y2.285
 X5.980 Y2.021
 X7.092 Y1.875
 X12.945
 X37.436
 X42.804
 X43.416 Y1.915
 X44.119 Y2.055
 X44.798 Y2.285
 X45.441 Y2.603
 X46.037 Y3.001
 X46.576 Y3.474
 X47.049 Y4.013
 X47.447 Y4.609
 X47.765 Y5.252
 X47.995 Y5.931
 X48.135 Y6.634
 X48.175 Y7.246
 Y11.813
 Y39.578
 Y42.958
 X48.029 Y44.070
 X47.765 Y44.848
 X47.447 Y45.491
 X47.049 Y46.087
 X46.576 Y46.626
 X46.037 Y47.099
 X45.441 Y47.497
 X44.798 Y47.815
 X44.020 Y48.079
 X42.908 Y48.225
 X36.428
 X13.557
(Pass: 21)
 Z-2.100 F100 
 X7.092 F200 
 X5.980 Y48.079
 X5.202 Y47.815
 X4.559 Y47.497
 X3.963 Y47.099
 X3.424 Y46.626
 X2.951 Y46.087
 X2.553 Y45.491
 X2.235 Y44.848
 X1.971 Y44.070
 X1.825 Y42.958
 Y39.107
 Y13.449
 Y7.142
 X1.971 Y6.030
 X2.235 Y5.252
 X2.553 Y4.609
 X2.951 Y4.013
 X3.424 Y3.474
 X3.963 Y3.001
 X4.559 Y2.603
 X5.202 Y2.285
 X5.980 Y2.021
 X7.092 Y1.875
 X12.945
 X37.436
 X42.804
 X43.416 Y1.915
 X44.119 Y2.055
 X44.798 Y2.285
 X45.441 Y2.603
 X46.037 Y3.001
 X46.576 Y3.474
 X47.049 Y4.013
 X47.447 Y4.609
 X47.765 Y5.252
 X47.995 Y5.931
 X48.135 Y6.634
 X48.175 Y7.246
 Y11.813
 Y39.578
 Y42.958
 X48.029 Y44.070
 X47.765 Y44.848
 X47.447 Y45.491
 X47.049 Y46.087
 X46.576 Y46.626
 X46.037 Y47.099
 X45.441 Y47.497
 X44.798 Y47.815
 X44.020 Y48.079
 X42.908 Y48.225
 X36.428
 X13.557
(Pass: 22)
 Z-2.200 F100 
 X7.092 F200 
 X5.980 Y48.079
 X5.202 Y47.815
 X4.559 Y47.497
 X3.963 Y47.099
 X3.424 Y46.626
 X2.951 Y46.087
 X2.553 Y45.491
 X2.235 Y44.848
 X1.971 Y44.070
 X1.825 Y42.958
 Y39.107
 Y13.449
 Y7.142
 X1.971 Y6.030
 X2.235 Y5.252
 X2.553 Y4.609
 X2.951 Y4.013
 X3.424 Y3.474
 X3.963 Y3.001
 X4.559 Y2.603
 X5.202 Y2.285
 X5.980 Y2.021
 X7.092 Y1.875
 X12.945
 X37.436
 X42.804
 X43.416 Y1.915
 X44.119 Y2.055
 X44.798 Y2.285
 X45.441 Y2.603
 X46.037 Y3.001
 X46.576 Y3.474
 X47.049 Y4.013
 X47.447 Y4.609
 X47.765 Y5.252
 X47.995 Y5.931
 X48.135 Y6.634
 X48.175 Y7.246
 Y11.813
 Y39.578
 Y42.958
 X48.029 Y44.070
 X47.765 Y44.848
 X47.447 Y45.491
 X47.049 Y46.087
 X46.576 Y46.626
 X46.037 Y47.099
 X45.441 Y47.497
 X44.798 Y47.815
 X44.020 Y48.079
 X42.908 Y48.225
 X36.428
 X13.557
(Pass: 23)
 Z-2.300 F100 
 X7.092 F200 
 X5.980 Y48.079
 X5.202 Y47.815
 X4.559 Y47.497
 X3.963 Y47.099
 X3.424 Y46.626
 X2.951 Y46.087
 X2.553 Y45.491
 X2.235 Y44.848
 X1.971 Y44.070
 X1.825 Y42.958
 Y39.107
 Y13.449
 Y7.142
 X1.971 Y6.030
 X2.235 Y5.252
 X2.553 Y4.609
 X2.951 Y4.013
 X3.424 Y3.474
 X3.963 Y3.001
 X4.559 Y2.603
 X5.202 Y2.285
 X5.980 Y2.021
 X7.092 Y1.875
 X12.945
 X37.436
 X42.804
 X43.416 Y1.915
 X44.119 Y2.055
 X44.798 Y2.285
 X45.441 Y2.603
 X46.037 Y3.001
 X46.576 Y3.474
 X47.049 Y4.013
 X47.447 Y4.609
 X47.765 Y5.252
 X47.995 Y5.931
 X48.135 Y6.634
 X48.175 Y7.246
 Y11.813
 Y39.578
 Y42.958
 X48.029 Y44.070
 X47.765 Y44.848
 X47.447 Y45.491
 X47.049 Y46.087
 X46.576 Y46.626
 X46.037 Y47.099
 X45.441 Y47.497
 X44.798 Y47.815
 X44.020 Y48.079
 X42.908 Y48.225
 X36.428
 X13.557
(Pass: 24)
 Z-2.400 F100 
 X7.092 F200 
 X5.980 Y48.079
 X5.202 Y47.815
 X4.559 Y47.497
 X3.963 Y47.099
 X3.424 Y46.626
 X2.951 Y46.087
 X2.553 Y45.491
 X2.235 Y44.848
 X1.971 Y44.070
 X1.825 Y42.958
 Y39.107
 Y13.449
 Y7.142
 X1.971 Y6.030
 X2.235 Y5.252
 X2.553 Y4.609
 X2.951 Y4.013
 X3.424 Y3.474
 X3.963 Y3.001
 X4.559 Y2.603
 X5.202 Y2.285
 X5.980 Y2.021
 X7.092 Y1.875
 X12.945
 X37.436
 X42.804
 X43.416 Y1.915
 X44.119 Y2.055
 X44.798 Y2.285
 X45.441 Y2.603
 X46.037 Y3.001
 X46.576 Y3.474
 X47.049 Y4.013
 X47.447 Y4.609
 X47.765 Y5.252
 X47.995 Y5.931
 X48.135 Y6.634
 X48.175 Y7.246
 Y11.813
 Y39.578
 Y42.958
 X48.029 Y44.070
 X47.765 Y44.848
 X47.447 Y45.491
 X47.049 Y46.087
 X46.576 Y46.626
 X46.037 Y47.099
 X45.441 Y47.497
 X44.798 Y47.815
 X44.020 Y48.079
 X42.908 Y48.225
 X36.428
 X13.557
(Pass: 25)
 Z-2.500 F100 
 X7.092 F200 
 X5.980 Y48.079
 X5.202 Y47.815
 X4.559 Y47.497
 X3.963 Y47.099
 X3.424 Y46.626
 X2.951 Y46.087
 X2.553 Y45.491
 X2.235 Y44.848
 X1.971 Y44.070
 X1.825 Y42.958
 Y39.107
 Y13.449
 Y7.142
 X1.971 Y6.030
 X2.235 Y5.252
 X2.553 Y4.609
 X2.951 Y4.013
 X3.424 Y3.474
 X3.963 Y3.001
 X4.559 Y2.603
 X5.202 Y2.285
 X5.980 Y2.021
 X7.092 Y1.875
 X12.945
 X37.436
 X42.804
 X43.416 Y1.915
 X44.119 Y2.055
 X44.798 Y2.285
 X45.441 Y2.603
 X46.037 Y3.001
 X46.576 Y3.474
 X47.049 Y4.013
 X47.447 Y4.609
 X47.765 Y5.252
 X47.995 Y5.931
 X48.135 Y6.634
 X48.175 Y7.246
 Y11.813
 Y39.578
 Y42.958
 X48.029 Y44.070
 X47.765 Y44.848
 X47.447 Y45.491
 X47.049 Y46.087
 X46.576 Y46.626
 X46.037 Y47.099
 X45.441 Y47.497
 X44.798 Y47.815
 X44.020 Y48.079
 X42.908 Y48.225
 X36.428
 X13.557
(Pass: 26)
 Z-2.600 F100 
 X7.092 F200 
 X5.980 Y48.079
 X5.202 Y47.815
 X4.559 Y47.497
 X3.963 Y47.099
 X3.424 Y46.626
 X2.951 Y46.087
 X2.553 Y45.491
 X2.235 Y44.848
 X1.971 Y44.070
 X1.825 Y42.958
 Y39.107
 Y13.449
 Y7.142
 X1.971 Y6.030
 X2.235 Y5.252
 X2.553 Y4.609
 X2.951 Y4.013
 X3.424 Y3.474
 X3.963 Y3.001
 X4.559 Y2.603
 X5.202 Y2.285
 X5.980 Y2.021
 X7.092 Y1.875
 X12.945
 X37.436
 X42.804
 X43.416 Y1.915
 X44.119 Y2.055
 X44.798 Y2.285
 X45.441 Y2.603
 X46.037 Y3.001
 X46.576 Y3.474
 X47.049 Y4.013
 X47.447 Y4.609
 X47.765 Y5.252
 X47.995 Y5.931
 X48.135 Y6.634
 X48.175 Y7.246
 Y11.813
 Y39.578
 Y42.958
 X48.029 Y44.070
 X47.765 Y44.848
 X47.447 Y45.491
 X47.049 Y46.087
 X46.576 Y46.626
 X46.037 Y47.099
 X45.441 Y47.497
 X44.798 Y47.815
 X44.020 Y48.079
 X42.908 Y48.225
 X36.428
 X13.557
(Pass: 27)
 Z-2.700 F100 
 X7.092 F200 
 X5.980 Y48.079
 X5.202 Y47.815
 X4.559 Y47.497
 X3.963 Y47.099
 X3.424 Y46.626
 X2.951 Y46.087
 X2.553 Y45.491
 X2.235 Y44.848
 X1.971 Y44.070
 X1.825 Y42.958
 Y39.107
 Y13.449
 Y7.142
 X1.971 Y6.030
 X2.235 Y5.252
 X2.553 Y4.609
 X2.951 Y4.013
 X3.424 Y3.474
 X3.963 Y3.001
 X4.559 Y2.603
 X5.202 Y2.285
 X5.980 Y2.021
 X7.092 Y1.875
 X12.945
 X37.436
 X42.804
 X43.416 Y1.915
 X44.119 Y2.055
 X44.798 Y2.285
 X45.441 Y2.603
 X46.037 Y3.001
 X46.576 Y3.474
 X47.049 Y4.013
 X47.447 Y4.609
 X47.765 Y5.252
 X47.995 Y5.931
 X48.135 Y6.634
 X48.175 Y7.246
 Y11.813
 Y39.578
 Y42.958
 X48.029 Y44.070
 X47.765 Y44.848
 X47.447 Y45.491
 X47.049 Y46.087
 X46.576 Y46.626
 X46.037 Y47.099
 X45.441 Y47.497
 X44.798 Y47.815
 X44.020 Y48.079
 X42.908 Y48.225
 X36.428
 X13.557
(Pass: 28)
 Z-2.800 F100 
 X7.092 F200 
 X5.980 Y48.079
 X5.202 Y47.815
 X4.559 Y47.497
 X3.963 Y47.099
 X3.424 Y46.626
 X2.951 Y46.087
 X2.553 Y45.491
 X2.235 Y44.848
 X1.971 Y44.070
 X1.825 Y42.958
 Y39.107
 Y13.449
 Y7.142
 X1.971 Y6.030
 X2.235 Y5.252
 X2.553 Y4.609
 X2.951 Y4.013
 X3.424 Y3.474
 X3.963 Y3.001
 X4.559 Y2.603
 X5.202 Y2.285
 X5.980 Y2.021
 X7.092 Y1.875
 X12.945
 X37.436
 X42.804
 X43.416 Y1.915
 X44.119 Y2.055
 X44.798 Y2.285
 X45.441 Y2.603
 X46.037 Y3.001
 X46.576 Y3.474
 X47.049 Y4.013
 X47.447 Y4.609
 X47.765 Y5.252
 X47.995 Y5.931
 X48.135 Y6.634
 X48.175 Y7.246
 Y11.813
 Y39.578
 Y42.958
 X48.029 Y44.070
 X47.765 Y44.848
 X47.447 Y45.491
 X47.049 Y46.087
 X46.576 Y46.626
 X46.037 Y47.099
 X45.441 Y47.497
 X44.798 Y47.815
 X44.020 Y48.079
 X42.908 Y48.225
 X36.428
 X13.557
(Pass: 29)
 Z-2.900 F100 
 X7.092 F200 
 X5.980 Y48.079
 X5.202 Y47.815
 X4.559 Y47.497
 X3.963 Y47.099
 X3.424 Y46.626
 X2.951 Y46.087
 X2.553 Y45.491
 X2.235 Y44.848
 X1.971 Y44.070
 X1.825 Y42.958
 Y39.107
 Y13.449
 Y7.142
 X1.971 Y6.030
 X2.235 Y5.252
 X2.553 Y4.609
 X2.951 Y4.013
 X3.424 Y3.474
 X3.963 Y3.001
 X4.559 Y2.603
 X5.202 Y2.285
 X5.980 Y2.021
 X7.092 Y1.875
 X12.945
 X37.436
 X42.804
 X43.416 Y1.915
 X44.119 Y2.055
 X44.798 Y2.285
 X45.441 Y2.603
 X46.037 Y3.001
 X46.576 Y3.474
 X47.049 Y4.013
 X47.447 Y4.609
 X47.765 Y5.252
 X47.995 Y5.931
 X48.135 Y6.634
 X48.175 Y7.246
 Y11.813
 Y39.578
 Y42.958
 X48.029 Y44.070
 X47.765 Y44.848
 X47.447 Y45.491
 X47.049 Y46.087
 X46.576 Y46.626
 X46.037 Y47.099
 X45.441 Y47.497
 X44.798 Y47.815
 X44.020 Y48.079
 X42.908 Y48.225
 X36.428
 X13.557
(Pass: 30)
 Z-3.000 F100 
 X7.092 F200 
 X5.980 Y48.079
 X5.202 Y47.815
 X4.559 Y47.497
 X3.963 Y47.099
 X3.424 Y46.626
 X2.951 Y46.087
 X2.553 Y45.491
 X2.235 Y44.848
 X1.971 Y44.070
 X1.825 Y42.958
 Y39.107
 Y13.449
 Y7.142
 X1.971 Y6.030
 X2.235 Y5.252
 X2.553 Y4.609
 X2.951 Y4.013
 X3.424 Y3.474
 X3.963 Y3.001
 X4.559 Y2.603
 X5.202 Y2.285
 X5.980 Y2.021
 X7.092 Y1.875
 X12.945
 X37.436
 X42.804
 X43.416 Y1.915
 X44.119 Y2.055
 X44.798 Y2.285
 X45.441 Y2.603
 X46.037 Y3.001
 X46.576 Y3.474
 X47.049 Y4.013
 X47.447 Y4.609
 X47.765 Y5.252
 X47.995 Y5.931
 X48.135 Y6.634
 X48.175 Y7.246
 Y11.813
 Y39.578
 Y42.958
 X48.029 Y44.070
 X47.765 Y44.848
 X47.447 Y45.491
 X47.049 Y46.087
 X46.576 Y46.626
 X46.037 Y47.099
 X45.441 Y47.497
 X44.798 Y47.815
 X44.020 Y48.079
 X42.908 Y48.225
 X36.428
 X13.557
(Pass: 31)
 Z-3.100 F100 
 X7.092 F200 
 X5.980 Y48.079
 X5.202 Y47.815
 X4.559 Y47.497
 X3.963 Y47.099
 X3.424 Y46.626
 X2.951 Y46.087
 X2.553 Y45.491
 X2.235 Y44.848
 X1.971 Y44.070
 X1.825 Y42.958
 Y39.107
 Y13.449
 Y7.142
 X1.971 Y6.030
 X2.235 Y5.252
 X2.553 Y4.609
 X2.951 Y4.013
 X3.424 Y3.474
 X3.963 Y3.001
 X4.559 Y2.603
 X5.202 Y2.285
 X5.980 Y2.021
 X7.092 Y1.875
 X12.945
 X37.436
 X42.804
 X43.416 Y1.915
 X44.119 Y2.055
 X44.798 Y2.285
 X45.441 Y2.603
 X46.037 Y3.001
 X46.576 Y3.474
 X47.049 Y4.013
 X47.447 Y4.609
 X47.765 Y5.252
 X47.995 Y5.931
 X48.135 Y6.634
 X48.175 Y7.246
 Y11.813
 Y39.578
 Y42.958
 X48.029 Y44.070
 X47.765 Y44.848
 X47.447 Y45.491
 X47.049 Y46.087
 X46.576 Y46.626
 X46.037 Y47.099
 X45.441 Y47.497
 X44.798 Y47.815
 X44.020 Y48.079
 X42.908 Y48.225
 X36.428
 X13.557
(Pass: 32)
 Z-3.200 F100 
 X7.092 F200 
 X5.980 Y48.079
 X5.202 Y47.815
 X4.559 Y47.497
 X3.963 Y47.099
 X3.424 Y46.626
 X2.951 Y46.087
 X2.553 Y45.491
 X2.235 Y44.848
 X1.971 Y44.070
 X1.825 Y42.958
 Y39.107
 Y13.449
 Y7.142
 X1.971 Y6.030
 X2.235 Y5.252
 X2.553 Y4.609
 X2.951 Y4.013
 X3.424 Y3.474
 X3.963 Y3.001
 X4.559 Y2.603
 X5.202 Y2.285
 X5.980 Y2.021
 X7.092 Y1.875
 X12.945
 X37.436
 X42.804
 X43.416 Y1.915
 X44.119 Y2.055
 X44.798 Y2.285
 X45.441 Y2.603
 X46.037 Y3.001
 X46.576 Y3.474
 X47.049 Y4.013
 X47.447 Y4.609
 X47.765 Y5.252
 X47.995 Y5.931
 X48.135 Y6.634
 X48.175 Y7.246
 Y11.813
 Y39.578
 Y42.958
 X48.029 Y44.070
 X47.765 Y44.848
 X47.447 Y45.491
 X47.049 Y46.087
 X46.576 Y46.626
 X46.037 Y47.099
 X45.441 Y47.497
 X44.798 Y47.815
 X44.020 Y48.079
 X42.908 Y48.225
 X36.428
 X13.557
G00 Z6.000
G00 X0 Y0 (home)
M05
M30
%
