%
(Generated by SketchUcam V1.3a)
(File: 4040CasterPlates.skp)
(Bit diameter: 6.35mm)
(Feed rate: 200.00mm/min)
(Plunge Feed rate: 100.00mm/min)
(Material Thickness: 3.20mm)
(Material length: 558.80mm X width: 1066.80mm)
(Overhead Gantry: true)
(Multipass enabled, Depth = 0.10mm)
(Optimization is ON)
(www.PhlatBoyz.com)
G90 G21 G49  G17
G00 Z6.000
M3 S22000
G00 Z6.000
(Pass: 1)
 X15.000 Y15.000
(plungebore  DEPTH=3.200  DIAM=6.350)
G00 Z2.000
G01 Z-0.100 F100 
G00 Z2.000
G01 Z-0.200
G00 Z2.000
G01 Z-0.300
G00 Z2.000
G01 Z-0.400
G00 Z2.000
G01 Z-0.500
G00 Z2.000
G01 Z-0.600
G00 Z2.000
G01 Z-0.700
G00 Z2.000
G01 Z-0.800
G00 Z2.000
G01 Z-0.900
G00 Z2.000
G01 Z-1.000
G00 Z2.000
G01 Z-1.100
G00 Z2.000
G01 Z-1.200
G00 Z2.000
G01 Z-1.300
G00 Z2.000
G01 Z-1.400
G00 Z2.000
G01 Z-1.500
G00 Z2.000
G01 Z-1.600
G00 Z2.000
G01 Z-1.700
G00 Z2.000
G01 Z-1.800
G00 Z2.000
G01 Z-1.900
G00 Z2.000
G01 Z-2.000
G00 Z2.000
G01 Z-2.100
G00 Z2.000
G01 Z-2.200
G00 Z2.000
G01 Z-2.300
G00 Z2.000
G01 Z-2.400
G00 Z2.000
G01 Z-2.500
G00 Z2.000
G01 Z-2.600
G00 Z2.000
G01 Z-2.700
G00 Z2.000
G01 Z-2.800
G00 Z2.000
G01 Z-2.900
G00 Z2.000
G01 Z-3.000
G00 Z2.000
G01 Z-3.100
G00 Z2.000
G01 Z-3.200
G00 Z2.000
G00 Y15.000 Z6.000
(plungebore end)
(Pass: 1)
G00 X35.000
(plungebore  DEPTH=3.200  DIAM=6.350)
G00 Z2.000
G01 Z-0.100 F100 
G00 Z2.000
G01 Z-0.200
G00 Z2.000
G01 Z-0.300
G00 Z2.000
G01 Z-0.400
G00 Z2.000
G01 Z-0.500
G00 Z2.000
G01 Z-0.600
G00 Z2.000
G01 Z-0.700
G00 Z2.000
G01 Z-0.800
G00 Z2.000
G01 Z-0.900
G00 Z2.000
G01 Z-1.000
G00 Z2.000
G01 Z-1.100
G00 Z2.000
G01 Z-1.200
G00 Z2.000
G01 Z-1.300
G00 Z2.000
G01 Z-1.400
G00 Z2.000
G01 Z-1.500
G00 Z2.000
G01 Z-1.600
G00 Z2.000
G01 Z-1.700
G00 Z2.000
G01 Z-1.800
G00 Z2.000
G01 Z-1.900
G00 Z2.000
G01 Z-2.000
G00 Z2.000
G01 Z-2.100
G00 Z2.000
G01 Z-2.200
G00 Z2.000
G01 Z-2.300
G00 Z2.000
G01 Z-2.400
G00 Z2.000
G01 Z-2.500
G00 Z2.000
G01 Z-2.600
G00 Z2.000
G01 Z-2.700
G00 Z2.000
G01 Z-2.800
G00 Z2.000
G01 Z-2.900
G00 Z2.000
G01 Z-3.000
G00 Z2.000
G01 Z-3.100
G00 Z2.000
G01 Z-3.200
G00 Z2.000
G00 Y15.000 Z6.000
(plungebore end)
(Pass: 1)
G00 Y35.000
(plungebore  DEPTH=3.200  DIAM=6.350)
G00 Z2.000
G01 Z-0.100 F100 
G00 Z2.000
G01 Z-0.200
G00 Z2.000
G01 Z-0.300
G00 Z2.000
G01 Z-0.400
G00 Z2.000
G01 Z-0.500
G00 Z2.000
G01 Z-0.600
G00 Z2.000
G01 Z-0.700
G00 Z2.000
G01 Z-0.800
G00 Z2.000
G01 Z-0.900
G00 Z2.000
G01 Z-1.000
G00 Z2.000
G01 Z-1.100
G00 Z2.000
G01 Z-1.200
G00 Z2.000
G01 Z-1.300
G00 Z2.000
G01 Z-1.400
G00 Z2.000
G01 Z-1.500
G00 Z2.000
G01 Z-1.600
G00 Z2.000
G01 Z-1.700
G00 Z2.000
G01 Z-1.800
G00 Z2.000
G01 Z-1.900
G00 Z2.000
G01 Z-2.000
G00 Z2.000
G01 Z-2.100
G00 Z2.000
G01 Z-2.200
G00 Z2.000
G01 Z-2.300
G00 Z2.000
G01 Z-2.400
G00 Z2.000
G01 Z-2.500
G00 Z2.000
G01 Z-2.600
G00 Z2.000
G01 Z-2.700
G00 Z2.000
G01 Z-2.800
G00 Z2.000
G01 Z-2.900
G00 Z2.000
G01 Z-3.000
G00 Z2.000
G01 Z-3.100
G00 Z2.000
G01 Z-3.200
G00 Z2.000
G00 Y35.000 Z6.000
(plungebore end)
(Pass: 1)
G00 X15.000
(plungebore  DEPTH=3.200  DIAM=6.350)
G00 Z2.000
G01 Z-0.100 F100 
G00 Z2.000
G01 Z-0.200
G00 Z2.000
G01 Z-0.300
G00 Z2.000
G01 Z-0.400
G00 Z2.000
G01 Z-0.500
G00 Z2.000
G01 Z-0.600
G00 Z2.000
G01 Z-0.700
G00 Z2.000
G01 Z-0.800
G00 Z2.000
G01 Z-0.900
G00 Z2.000
G01 Z-1.000
G00 Z2.000
G01 Z-1.100
G00 Z2.000
G01 Z-1.200
G00 Z2.000
G01 Z-1.300
G00 Z2.000
G01 Z-1.400
G00 Z2.000
G01 Z-1.500
G00 Z2.000
G01 Z-1.600
G00 Z2.000
G01 Z-1.700
G00 Z2.000
G01 Z-1.800
G00 Z2.000
G01 Z-1.900
G00 Z2.000
G01 Z-2.000
G00 Z2.000
G01 Z-2.100
G00 Z2.000
G01 Z-2.200
G00 Z2.000
G01 Z-2.300
G00 Z2.000
G01 Z-2.400
G00 Z2.000
G01 Z-2.500
G00 Z2.000
G01 Z-2.600
G00 Z2.000
G01 Z-2.700
G00 Z2.000
G01 Z-2.800
G00 Z2.000
G01 Z-2.900
G00 Z2.000
G01 Z-3.000
G00 Z2.000
G01 Z-3.100
G00 Z2.000
G01 Z-3.200
G00 Z2.000
G00 Y35.000 Z6.000
(plungebore end)
(Pass: 1)
G00 X25.000 Y25.000
(plungebore  DEPTH=3.200  DIAM=6.350)
G00 Z2.000
G01 Z-0.100 F100 
G00 Z2.000
G01 Z-0.200
G00 Z2.000
G01 Z-0.300
G00 Z2.000
G01 Z-0.400
G00 Z2.000
G01 Z-0.500
G00 Z2.000
G01 Z-0.600
G00 Z2.000
G01 Z-0.700
G00 Z2.000
G01 Z-0.800
G00 Z2.000
G01 Z-0.900
G00 Z2.000
G01 Z-1.000
G00 Z2.000
G01 Z-1.100
G00 Z2.000
G01 Z-1.200
G00 Z2.000
G01 Z-1.300
G00 Z2.000
G01 Z-1.400
G00 Z2.000
G01 Z-1.500
G00 Z2.000
G01 Z-1.600
G00 Z2.000
G01 Z-1.700
G00 Z2.000
G01 Z-1.800
G00 Z2.000
G01 Z-1.900
G00 Z2.000
G01 Z-2.000
G00 Z2.000
G01 Z-2.100
G00 Z2.000
G01 Z-2.200
G00 Z2.000
G01 Z-2.300
G00 Z2.000
G01 Z-2.400
G00 Z2.000
G01 Z-2.500
G00 Z2.000
G01 Z-2.600
G00 Z2.000
G01 Z-2.700
G00 Z2.000
G01 Z-2.800
G00 Z2.000
G01 Z-2.900
G00 Z2.000
G01 Z-3.000
G00 Z2.000
G01 Z-3.100
G00 Z2.000
G01 Z-3.200
G00 Z2.000
G00 Y25.000 Z6.000
(plungebore end)
(Pass: 1)
G00 X9.896 Y1.825
G01 Z-0.100 F100 
 X40.104 F200 
G03 X41.0679 Y1.8882 R8.1750
 X42.1176 Y2.0970 R8.1750
 X43.1310 Y2.4410 R8.1750
 X44.0909 Y2.9143 R8.1750
 X44.9808 Y3.5089 R8.1750
 X45.7854 Y4.2146 R8.1750
 X46.4911 Y5.0192 R8.1750
 X47.0857 Y5.9091 R8.1750
 X47.5590 Y6.8690 R8.1750
 X47.9030 Y7.8824 R8.1750
 X48.1118 Y8.9321 R8.1750
 X48.1750 Y9.8961 R8.1750
G01 Y40.104
G03 X48.1118 Y41.0679 R8.1750
 X47.9030 Y42.1176 R8.1750
 X47.5590 Y43.1310 R8.1750
 X47.0857 Y44.0909 R8.1750
 X46.4911 Y44.9808 R8.1750
 X45.7854 Y45.7854 R8.1750
 X44.9808 Y46.4911 R8.1750
 X44.0909 Y47.0857 R8.1750
 X43.1310 Y47.5590 R8.1750
 X42.1176 Y47.9030 R8.1750
 X41.0679 Y48.1118 R8.1750
 X40.1039 Y48.1750 R8.1750
G01 X9.896
G03 X8.9321 Y48.1118 R8.1750
 X7.8824 Y47.9030 R8.1750
 X6.8690 Y47.5590 R8.1750
 X5.9091 Y47.0857 R8.1750
 X5.0192 Y46.4911 R8.1750
 X4.2146 Y45.7854 R8.1750
 X3.5089 Y44.9808 R8.1750
 X2.9143 Y44.0909 R8.1750
 X2.4410 Y43.1310 R8.1750
 X2.0970 Y42.1176 R8.1750
 X1.8882 Y41.0679 R8.1750
 X1.8250 Y40.1039 R8.1750
G01 Y9.896
G03 X1.8882 Y8.9321 R8.1750
 X2.0970 Y7.8824 R8.1750
 X2.4410 Y6.8690 R8.1750
 X2.9143 Y5.9091 R8.1750
 X3.5089 Y5.0192 R8.1750
 X4.2146 Y4.2146 R8.1750
 X5.0192 Y3.5089 R8.1750
 X5.9091 Y2.9143 R8.1750
 X6.8690 Y2.4410 R8.1750
 X7.8824 Y2.0970 R8.1750
 X8.9321 Y1.8882 R8.1750
 X9.8961 Y1.8250 R8.1750
(Pass: 2)
G01 Z-0.200 F100 
 X40.104 F200 
G03 X41.0679 Y1.8882 R8.1750
 X42.1176 Y2.0970 R8.1750
 X43.1310 Y2.4410 R8.1750
 X44.0909 Y2.9143 R8.1750
 X44.9808 Y3.5089 R8.1750
 X45.7854 Y4.2146 R8.1750
 X46.4911 Y5.0192 R8.1750
 X47.0857 Y5.9091 R8.1750
 X47.5590 Y6.8690 R8.1750
 X47.9030 Y7.8824 R8.1750
 X48.1118 Y8.9321 R8.1750
 X48.1750 Y9.8961 R8.1750
G01 Y40.104
G03 X48.1118 Y41.0679 R8.1750
 X47.9030 Y42.1176 R8.1750
 X47.5590 Y43.1310 R8.1750
 X47.0857 Y44.0909 R8.1750
 X46.4911 Y44.9808 R8.1750
 X45.7854 Y45.7854 R8.1750
 X44.9808 Y46.4911 R8.1750
 X44.0909 Y47.0857 R8.1750
 X43.1310 Y47.5590 R8.1750
 X42.1176 Y47.9030 R8.1750
 X41.0679 Y48.1118 R8.1750
 X40.1039 Y48.1750 R8.1750
G01 X9.896
G03 X8.9321 Y48.1118 R8.1750
 X7.8824 Y47.9030 R8.1750
 X6.8690 Y47.5590 R8.1750
 X5.9091 Y47.0857 R8.1750
 X5.0192 Y46.4911 R8.1750
 X4.2146 Y45.7854 R8.1750
 X3.5089 Y44.9808 R8.1750
 X2.9143 Y44.0909 R8.1750
 X2.4410 Y43.1310 R8.1750
 X2.0970 Y42.1176 R8.1750
 X1.8882 Y41.0679 R8.1750
 X1.8250 Y40.1039 R8.1750
G01 Y9.896
G03 X1.8882 Y8.9321 R8.1750
 X2.0970 Y7.8824 R8.1750
 X2.4410 Y6.8690 R8.1750
 X2.9143 Y5.9091 R8.1750
 X3.5089 Y5.0192 R8.1750
 X4.2146 Y4.2146 R8.1750
 X5.0192 Y3.5089 R8.1750
 X5.9091 Y2.9143 R8.1750
 X6.8690 Y2.4410 R8.1750
 X7.8824 Y2.0970 R8.1750
 X8.9321 Y1.8882 R8.1750
 X9.8961 Y1.8250 R8.1750
(Pass: 3)
G01 Z-0.300 F100 
 X40.104 F200 
G03 X41.0679 Y1.8882 R8.1750
 X42.1176 Y2.0970 R8.1750
 X43.1310 Y2.4410 R8.1750
 X44.0909 Y2.9143 R8.1750
 X44.9808 Y3.5089 R8.1750
 X45.7854 Y4.2146 R8.1750
 X46.4911 Y5.0192 R8.1750
 X47.0857 Y5.9091 R8.1750
 X47.5590 Y6.8690 R8.1750
 X47.9030 Y7.8824 R8.1750
 X48.1118 Y8.9321 R8.1750
 X48.1750 Y9.8961 R8.1750
G01 Y40.104
G03 X48.1118 Y41.0679 R8.1750
 X47.9030 Y42.1176 R8.1750
 X47.5590 Y43.1310 R8.1750
 X47.0857 Y44.0909 R8.1750
 X46.4911 Y44.9808 R8.1750
 X45.7854 Y45.7854 R8.1750
 X44.9808 Y46.4911 R8.1750
 X44.0909 Y47.0857 R8.1750
 X43.1310 Y47.5590 R8.1750
 X42.1176 Y47.9030 R8.1750
 X41.0679 Y48.1118 R8.1750
 X40.1039 Y48.1750 R8.1750
G01 X9.896
G03 X8.9321 Y48.1118 R8.1750
 X7.8824 Y47.9030 R8.1750
 X6.8690 Y47.5590 R8.1750
 X5.9091 Y47.0857 R8.1750
 X5.0192 Y46.4911 R8.1750
 X4.2146 Y45.7854 R8.1750
 X3.5089 Y44.9808 R8.1750
 X2.9143 Y44.0909 R8.1750
 X2.4410 Y43.1310 R8.1750
 X2.0970 Y42.1176 R8.1750
 X1.8882 Y41.0679 R8.1750
 X1.8250 Y40.1039 R8.1750
G01 Y9.896
G03 X1.8882 Y8.9321 R8.1750
 X2.0970 Y7.8824 R8.1750
 X2.4410 Y6.8690 R8.1750
 X2.9143 Y5.9091 R8.1750
 X3.5089 Y5.0192 R8.1750
 X4.2146 Y4.2146 R8.1750
 X5.0192 Y3.5089 R8.1750
 X5.9091 Y2.9143 R8.1750
 X6.8690 Y2.4410 R8.1750
 X7.8824 Y2.0970 R8.1750
 X8.9321 Y1.8882 R8.1750
 X9.8961 Y1.8250 R8.1750
(Pass: 4)
G01 Z-0.400 F100 
 X40.104 F200 
G03 X41.0679 Y1.8882 R8.1750
 X42.1176 Y2.0970 R8.1750
 X43.1310 Y2.4410 R8.1750
 X44.0909 Y2.9143 R8.1750
 X44.9808 Y3.5089 R8.1750
 X45.7854 Y4.2146 R8.1750
 X46.4911 Y5.0192 R8.1750
 X47.0857 Y5.9091 R8.1750
 X47.5590 Y6.8690 R8.1750
 X47.9030 Y7.8824 R8.1750
 X48.1118 Y8.9321 R8.1750
 X48.1750 Y9.8961 R8.1750
G01 Y40.104
G03 X48.1118 Y41.0679 R8.1750
 X47.9030 Y42.1176 R8.1750
 X47.5590 Y43.1310 R8.1750
 X47.0857 Y44.0909 R8.1750
 X46.4911 Y44.9808 R8.1750
 X45.7854 Y45.7854 R8.1750
 X44.9808 Y46.4911 R8.1750
 X44.0909 Y47.0857 R8.1750
 X43.1310 Y47.5590 R8.1750
 X42.1176 Y47.9030 R8.1750
 X41.0679 Y48.1118 R8.1750
 X40.1039 Y48.1750 R8.1750
G01 X9.896
G03 X8.9321 Y48.1118 R8.1750
 X7.8824 Y47.9030 R8.1750
 X6.8690 Y47.5590 R8.1750
 X5.9091 Y47.0857 R8.1750
 X5.0192 Y46.4911 R8.1750
 X4.2146 Y45.7854 R8.1750
 X3.5089 Y44.9808 R8.1750
 X2.9143 Y44.0909 R8.1750
 X2.4410 Y43.1310 R8.1750
 X2.0970 Y42.1176 R8.1750
 X1.8882 Y41.0679 R8.1750
 X1.8250 Y40.1039 R8.1750
G01 Y9.896
G03 X1.8882 Y8.9321 R8.1750
 X2.0970 Y7.8824 R8.1750
 X2.4410 Y6.8690 R8.1750
 X2.9143 Y5.9091 R8.1750
 X3.5089 Y5.0192 R8.1750
 X4.2146 Y4.2146 R8.1750
 X5.0192 Y3.5089 R8.1750
 X5.9091 Y2.9143 R8.1750
 X6.8690 Y2.4410 R8.1750
 X7.8824 Y2.0970 R8.1750
 X8.9321 Y1.8882 R8.1750
 X9.8961 Y1.8250 R8.1750
(Pass: 5)
G01 Z-0.500 F100 
 X40.104 F200 
G03 X41.0679 Y1.8882 R8.1750
 X42.1176 Y2.0970 R8.1750
 X43.1310 Y2.4410 R8.1750
 X44.0909 Y2.9143 R8.1750
 X44.9808 Y3.5089 R8.1750
 X45.7854 Y4.2146 R8.1750
 X46.4911 Y5.0192 R8.1750
 X47.0857 Y5.9091 R8.1750
 X47.5590 Y6.8690 R8.1750
 X47.9030 Y7.8824 R8.1750
 X48.1118 Y8.9321 R8.1750
 X48.1750 Y9.8961 R8.1750
G01 Y40.104
G03 X48.1118 Y41.0679 R8.1750
 X47.9030 Y42.1176 R8.1750
 X47.5590 Y43.1310 R8.1750
 X47.0857 Y44.0909 R8.1750
 X46.4911 Y44.9808 R8.1750
 X45.7854 Y45.7854 R8.1750
 X44.9808 Y46.4911 R8.1750
 X44.0909 Y47.0857 R8.1750
 X43.1310 Y47.5590 R8.1750
 X42.1176 Y47.9030 R8.1750
 X41.0679 Y48.1118 R8.1750
 X40.1039 Y48.1750 R8.1750
G01 X9.896
G03 X8.9321 Y48.1118 R8.1750
 X7.8824 Y47.9030 R8.1750
 X6.8690 Y47.5590 R8.1750
 X5.9091 Y47.0857 R8.1750
 X5.0192 Y46.4911 R8.1750
 X4.2146 Y45.7854 R8.1750
 X3.5089 Y44.9808 R8.1750
 X2.9143 Y44.0909 R8.1750
 X2.4410 Y43.1310 R8.1750
 X2.0970 Y42.1176 R8.1750
 X1.8882 Y41.0679 R8.1750
 X1.8250 Y40.1039 R8.1750
G01 Y9.896
G03 X1.8882 Y8.9321 R8.1750
 X2.0970 Y7.8824 R8.1750
 X2.4410 Y6.8690 R8.1750
 X2.9143 Y5.9091 R8.1750
 X3.5089 Y5.0192 R8.1750
 X4.2146 Y4.2146 R8.1750
 X5.0192 Y3.5089 R8.1750
 X5.9091 Y2.9143 R8.1750
 X6.8690 Y2.4410 R8.1750
 X7.8824 Y2.0970 R8.1750
 X8.9321 Y1.8882 R8.1750
 X9.8961 Y1.8250 R8.1750
(Pass: 6)
G01 Z-0.600 F100 
 X40.104 F200 
G03 X41.0679 Y1.8882 R8.1750
 X42.1176 Y2.0970 R8.1750
 X43.1310 Y2.4410 R8.1750
 X44.0909 Y2.9143 R8.1750
 X44.9808 Y3.5089 R8.1750
 X45.7854 Y4.2146 R8.1750
 X46.4911 Y5.0192 R8.1750
 X47.0857 Y5.9091 R8.1750
 X47.5590 Y6.8690 R8.1750
 X47.9030 Y7.8824 R8.1750
 X48.1118 Y8.9321 R8.1750
 X48.1750 Y9.8961 R8.1750
G01 Y40.104
G03 X48.1118 Y41.0679 R8.1750
 X47.9030 Y42.1176 R8.1750
 X47.5590 Y43.1310 R8.1750
 X47.0857 Y44.0909 R8.1750
 X46.4911 Y44.9808 R8.1750
 X45.7854 Y45.7854 R8.1750
 X44.9808 Y46.4911 R8.1750
 X44.0909 Y47.0857 R8.1750
 X43.1310 Y47.5590 R8.1750
 X42.1176 Y47.9030 R8.1750
 X41.0679 Y48.1118 R8.1750
 X40.1039 Y48.1750 R8.1750
G01 X9.896
G03 X8.9321 Y48.1118 R8.1750
 X7.8824 Y47.9030 R8.1750
 X6.8690 Y47.5590 R8.1750
 X5.9091 Y47.0857 R8.1750
 X5.0192 Y46.4911 R8.1750
 X4.2146 Y45.7854 R8.1750
 X3.5089 Y44.9808 R8.1750
 X2.9143 Y44.0909 R8.1750
 X2.4410 Y43.1310 R8.1750
 X2.0970 Y42.1176 R8.1750
 X1.8882 Y41.0679 R8.1750
 X1.8250 Y40.1039 R8.1750
G01 Y9.896
G03 X1.8882 Y8.9321 R8.1750
 X2.0970 Y7.8824 R8.1750
 X2.4410 Y6.8690 R8.1750
 X2.9143 Y5.9091 R8.1750
 X3.5089 Y5.0192 R8.1750
 X4.2146 Y4.2146 R8.1750
 X5.0192 Y3.5089 R8.1750
 X5.9091 Y2.9143 R8.1750
 X6.8690 Y2.4410 R8.1750
 X7.8824 Y2.0970 R8.1750
 X8.9321 Y1.8882 R8.1750
 X9.8961 Y1.8250 R8.1750
(Pass: 7)
G01 Z-0.700 F100 
 X40.104 F200 
G03 X41.0679 Y1.8882 R8.1750
 X42.1176 Y2.0970 R8.1750
 X43.1310 Y2.4410 R8.1750
 X44.0909 Y2.9143 R8.1750
 X44.9808 Y3.5089 R8.1750
 X45.7854 Y4.2146 R8.1750
 X46.4911 Y5.0192 R8.1750
 X47.0857 Y5.9091 R8.1750
 X47.5590 Y6.8690 R8.1750
 X47.9030 Y7.8824 R8.1750
 X48.1118 Y8.9321 R8.1750
 X48.1750 Y9.8961 R8.1750
G01 Y40.104
G03 X48.1118 Y41.0679 R8.1750
 X47.9030 Y42.1176 R8.1750
 X47.5590 Y43.1310 R8.1750
 X47.0857 Y44.0909 R8.1750
 X46.4911 Y44.9808 R8.1750
 X45.7854 Y45.7854 R8.1750
 X44.9808 Y46.4911 R8.1750
 X44.0909 Y47.0857 R8.1750
 X43.1310 Y47.5590 R8.1750
 X42.1176 Y47.9030 R8.1750
 X41.0679 Y48.1118 R8.1750
 X40.1039 Y48.1750 R8.1750
G01 X9.896
G03 X8.9321 Y48.1118 R8.1750
 X7.8824 Y47.9030 R8.1750
 X6.8690 Y47.5590 R8.1750
 X5.9091 Y47.0857 R8.1750
 X5.0192 Y46.4911 R8.1750
 X4.2146 Y45.7854 R8.1750
 X3.5089 Y44.9808 R8.1750
 X2.9143 Y44.0909 R8.1750
 X2.4410 Y43.1310 R8.1750
 X2.0970 Y42.1176 R8.1750
 X1.8882 Y41.0679 R8.1750
 X1.8250 Y40.1039 R8.1750
G01 Y9.896
G03 X1.8882 Y8.9321 R8.1750
 X2.0970 Y7.8824 R8.1750
 X2.4410 Y6.8690 R8.1750
 X2.9143 Y5.9091 R8.1750
 X3.5089 Y5.0192 R8.1750
 X4.2146 Y4.2146 R8.1750
 X5.0192 Y3.5089 R8.1750
 X5.9091 Y2.9143 R8.1750
 X6.8690 Y2.4410 R8.1750
 X7.8824 Y2.0970 R8.1750
 X8.9321 Y1.8882 R8.1750
 X9.8961 Y1.8250 R8.1750
(Pass: 8)
G01 Z-0.800 F100 
 X40.104 F200 
G03 X41.0679 Y1.8882 R8.1750
 X42.1176 Y2.0970 R8.1750
 X43.1310 Y2.4410 R8.1750
 X44.0909 Y2.9143 R8.1750
 X44.9808 Y3.5089 R8.1750
 X45.7854 Y4.2146 R8.1750
 X46.4911 Y5.0192 R8.1750
 X47.0857 Y5.9091 R8.1750
 X47.5590 Y6.8690 R8.1750
 X47.9030 Y7.8824 R8.1750
 X48.1118 Y8.9321 R8.1750
 X48.1750 Y9.8961 R8.1750
G01 Y40.104
G03 X48.1118 Y41.0679 R8.1750
 X47.9030 Y42.1176 R8.1750
 X47.5590 Y43.1310 R8.1750
 X47.0857 Y44.0909 R8.1750
 X46.4911 Y44.9808 R8.1750
 X45.7854 Y45.7854 R8.1750
 X44.9808 Y46.4911 R8.1750
 X44.0909 Y47.0857 R8.1750
 X43.1310 Y47.5590 R8.1750
 X42.1176 Y47.9030 R8.1750
 X41.0679 Y48.1118 R8.1750
 X40.1039 Y48.1750 R8.1750
G01 X9.896
G03 X8.9321 Y48.1118 R8.1750
 X7.8824 Y47.9030 R8.1750
 X6.8690 Y47.5590 R8.1750
 X5.9091 Y47.0857 R8.1750
 X5.0192 Y46.4911 R8.1750
 X4.2146 Y45.7854 R8.1750
 X3.5089 Y44.9808 R8.1750
 X2.9143 Y44.0909 R8.1750
 X2.4410 Y43.1310 R8.1750
 X2.0970 Y42.1176 R8.1750
 X1.8882 Y41.0679 R8.1750
 X1.8250 Y40.1039 R8.1750
G01 Y9.896
G03 X1.8882 Y8.9321 R8.1750
 X2.0970 Y7.8824 R8.1750
 X2.4410 Y6.8690 R8.1750
 X2.9143 Y5.9091 R8.1750
 X3.5089 Y5.0192 R8.1750
 X4.2146 Y4.2146 R8.1750
 X5.0192 Y3.5089 R8.1750
 X5.9091 Y2.9143 R8.1750
 X6.8690 Y2.4410 R8.1750
 X7.8824 Y2.0970 R8.1750
 X8.9321 Y1.8882 R8.1750
 X9.8961 Y1.8250 R8.1750
(Pass: 9)
G01 Z-0.900 F100 
 X40.104 F200 
G03 X41.0679 Y1.8882 R8.1750
 X42.1176 Y2.0970 R8.1750
 X43.1310 Y2.4410 R8.1750
 X44.0909 Y2.9143 R8.1750
 X44.9808 Y3.5089 R8.1750
 X45.7854 Y4.2146 R8.1750
 X46.4911 Y5.0192 R8.1750
 X47.0857 Y5.9091 R8.1750
 X47.5590 Y6.8690 R8.1750
 X47.9030 Y7.8824 R8.1750
 X48.1118 Y8.9321 R8.1750
 X48.1750 Y9.8961 R8.1750
G01 Y40.104
G03 X48.1118 Y41.0679 R8.1750
 X47.9030 Y42.1176 R8.1750
 X47.5590 Y43.1310 R8.1750
 X47.0857 Y44.0909 R8.1750
 X46.4911 Y44.9808 R8.1750
 X45.7854 Y45.7854 R8.1750
 X44.9808 Y46.4911 R8.1750
 X44.0909 Y47.0857 R8.1750
 X43.1310 Y47.5590 R8.1750
 X42.1176 Y47.9030 R8.1750
 X41.0679 Y48.1118 R8.1750
 X40.1039 Y48.1750 R8.1750
G01 X9.896
G03 X8.9321 Y48.1118 R8.1750
 X7.8824 Y47.9030 R8.1750
 X6.8690 Y47.5590 R8.1750
 X5.9091 Y47.0857 R8.1750
 X5.0192 Y46.4911 R8.1750
 X4.2146 Y45.7854 R8.1750
 X3.5089 Y44.9808 R8.1750
 X2.9143 Y44.0909 R8.1750
 X2.4410 Y43.1310 R8.1750
 X2.0970 Y42.1176 R8.1750
 X1.8882 Y41.0679 R8.1750
 X1.8250 Y40.1039 R8.1750
G01 Y9.896
G03 X1.8882 Y8.9321 R8.1750
 X2.0970 Y7.8824 R8.1750
 X2.4410 Y6.8690 R8.1750
 X2.9143 Y5.9091 R8.1750
 X3.5089 Y5.0192 R8.1750
 X4.2146 Y4.2146 R8.1750
 X5.0192 Y3.5089 R8.1750
 X5.9091 Y2.9143 R8.1750
 X6.8690 Y2.4410 R8.1750
 X7.8824 Y2.0970 R8.1750
 X8.9321 Y1.8882 R8.1750
 X9.8961 Y1.8250 R8.1750
(Pass: 10)
G01 Z-1.000 F100 
 X40.104 F200 
G03 X41.0679 Y1.8882 R8.1750
 X42.1176 Y2.0970 R8.1750
 X43.1310 Y2.4410 R8.1750
 X44.0909 Y2.9143 R8.1750
 X44.9808 Y3.5089 R8.1750
 X45.7854 Y4.2146 R8.1750
 X46.4911 Y5.0192 R8.1750
 X47.0857 Y5.9091 R8.1750
 X47.5590 Y6.8690 R8.1750
 X47.9030 Y7.8824 R8.1750
 X48.1118 Y8.9321 R8.1750
 X48.1750 Y9.8961 R8.1750
G01 Y40.104
G03 X48.1118 Y41.0679 R8.1750
 X47.9030 Y42.1176 R8.1750
 X47.5590 Y43.1310 R8.1750
 X47.0857 Y44.0909 R8.1750
 X46.4911 Y44.9808 R8.1750
 X45.7854 Y45.7854 R8.1750
 X44.9808 Y46.4911 R8.1750
 X44.0909 Y47.0857 R8.1750
 X43.1310 Y47.5590 R8.1750
 X42.1176 Y47.9030 R8.1750
 X41.0679 Y48.1118 R8.1750
 X40.1039 Y48.1750 R8.1750
G01 X9.896
G03 X8.9321 Y48.1118 R8.1750
 X7.8824 Y47.9030 R8.1750
 X6.8690 Y47.5590 R8.1750
 X5.9091 Y47.0857 R8.1750
 X5.0192 Y46.4911 R8.1750
 X4.2146 Y45.7854 R8.1750
 X3.5089 Y44.9808 R8.1750
 X2.9143 Y44.0909 R8.1750
 X2.4410 Y43.1310 R8.1750
 X2.0970 Y42.1176 R8.1750
 X1.8882 Y41.0679 R8.1750
 X1.8250 Y40.1039 R8.1750
G01 Y9.896
G03 X1.8882 Y8.9321 R8.1750
 X2.0970 Y7.8824 R8.1750
 X2.4410 Y6.8690 R8.1750
 X2.9143 Y5.9091 R8.1750
 X3.5089 Y5.0192 R8.1750
 X4.2146 Y4.2146 R8.1750
 X5.0192 Y3.5089 R8.1750
 X5.9091 Y2.9143 R8.1750
 X6.8690 Y2.4410 R8.1750
 X7.8824 Y2.0970 R8.1750
 X8.9321 Y1.8882 R8.1750
 X9.8961 Y1.8250 R8.1750
(Pass: 11)
G01 Z-1.100 F100 
 X40.104 F200 
G03 X41.0679 Y1.8882 R8.1750
 X42.1176 Y2.0970 R8.1750
 X43.1310 Y2.4410 R8.1750
 X44.0909 Y2.9143 R8.1750
 X44.9808 Y3.5089 R8.1750
 X45.7854 Y4.2146 R8.1750
 X46.4911 Y5.0192 R8.1750
 X47.0857 Y5.9091 R8.1750
 X47.5590 Y6.8690 R8.1750
 X47.9030 Y7.8824 R8.1750
 X48.1118 Y8.9321 R8.1750
 X48.1750 Y9.8961 R8.1750
G01 Y40.104
G03 X48.1118 Y41.0679 R8.1750
 X47.9030 Y42.1176 R8.1750
 X47.5590 Y43.1310 R8.1750
 X47.0857 Y44.0909 R8.1750
 X46.4911 Y44.9808 R8.1750
 X45.7854 Y45.7854 R8.1750
 X44.9808 Y46.4911 R8.1750
 X44.0909 Y47.0857 R8.1750
 X43.1310 Y47.5590 R8.1750
 X42.1176 Y47.9030 R8.1750
 X41.0679 Y48.1118 R8.1750
 X40.1039 Y48.1750 R8.1750
G01 X9.896
G03 X8.9321 Y48.1118 R8.1750
 X7.8824 Y47.9030 R8.1750
 X6.8690 Y47.5590 R8.1750
 X5.9091 Y47.0857 R8.1750
 X5.0192 Y46.4911 R8.1750
 X4.2146 Y45.7854 R8.1750
 X3.5089 Y44.9808 R8.1750
 X2.9143 Y44.0909 R8.1750
 X2.4410 Y43.1310 R8.1750
 X2.0970 Y42.1176 R8.1750
 X1.8882 Y41.0679 R8.1750
 X1.8250 Y40.1039 R8.1750
G01 Y9.896
G03 X1.8882 Y8.9321 R8.1750
 X2.0970 Y7.8824 R8.1750
 X2.4410 Y6.8690 R8.1750
 X2.9143 Y5.9091 R8.1750
 X3.5089 Y5.0192 R8.1750
 X4.2146 Y4.2146 R8.1750
 X5.0192 Y3.5089 R8.1750
 X5.9091 Y2.9143 R8.1750
 X6.8690 Y2.4410 R8.1750
 X7.8824 Y2.0970 R8.1750
 X8.9321 Y1.8882 R8.1750
 X9.8961 Y1.8250 R8.1750
(Pass: 12)
G01 Z-1.200 F100 
 X40.104 F200 
G03 X41.0679 Y1.8882 R8.1750
 X42.1176 Y2.0970 R8.1750
 X43.1310 Y2.4410 R8.1750
 X44.0909 Y2.9143 R8.1750
 X44.9808 Y3.5089 R8.1750
 X45.7854 Y4.2146 R8.1750
 X46.4911 Y5.0192 R8.1750
 X47.0857 Y5.9091 R8.1750
 X47.5590 Y6.8690 R8.1750
 X47.9030 Y7.8824 R8.1750
 X48.1118 Y8.9321 R8.1750
 X48.1750 Y9.8961 R8.1750
G01 Y40.104
G03 X48.1118 Y41.0679 R8.1750
 X47.9030 Y42.1176 R8.1750
 X47.5590 Y43.1310 R8.1750
 X47.0857 Y44.0909 R8.1750
 X46.4911 Y44.9808 R8.1750
 X45.7854 Y45.7854 R8.1750
 X44.9808 Y46.4911 R8.1750
 X44.0909 Y47.0857 R8.1750
 X43.1310 Y47.5590 R8.1750
 X42.1176 Y47.9030 R8.1750
 X41.0679 Y48.1118 R8.1750
 X40.1039 Y48.1750 R8.1750
G01 X9.896
G03 X8.9321 Y48.1118 R8.1750
 X7.8824 Y47.9030 R8.1750
 X6.8690 Y47.5590 R8.1750
 X5.9091 Y47.0857 R8.1750
 X5.0192 Y46.4911 R8.1750
 X4.2146 Y45.7854 R8.1750
 X3.5089 Y44.9808 R8.1750
 X2.9143 Y44.0909 R8.1750
 X2.4410 Y43.1310 R8.1750
 X2.0970 Y42.1176 R8.1750
 X1.8882 Y41.0679 R8.1750
 X1.8250 Y40.1039 R8.1750
G01 Y9.896
G03 X1.8882 Y8.9321 R8.1750
 X2.0970 Y7.8824 R8.1750
 X2.4410 Y6.8690 R8.1750
 X2.9143 Y5.9091 R8.1750
 X3.5089 Y5.0192 R8.1750
 X4.2146 Y4.2146 R8.1750
 X5.0192 Y3.5089 R8.1750
 X5.9091 Y2.9143 R8.1750
 X6.8690 Y2.4410 R8.1750
 X7.8824 Y2.0970 R8.1750
 X8.9321 Y1.8882 R8.1750
 X9.8961 Y1.8250 R8.1750
(Pass: 13)
G01 Z-1.300 F100 
 X40.104 F200 
G03 X41.0679 Y1.8882 R8.1750
 X42.1176 Y2.0970 R8.1750
 X43.1310 Y2.4410 R8.1750
 X44.0909 Y2.9143 R8.1750
 X44.9808 Y3.5089 R8.1750
 X45.7854 Y4.2146 R8.1750
 X46.4911 Y5.0192 R8.1750
 X47.0857 Y5.9091 R8.1750
 X47.5590 Y6.8690 R8.1750
 X47.9030 Y7.8824 R8.1750
 X48.1118 Y8.9321 R8.1750
 X48.1750 Y9.8961 R8.1750
G01 Y40.104
G03 X48.1118 Y41.0679 R8.1750
 X47.9030 Y42.1176 R8.1750
 X47.5590 Y43.1310 R8.1750
 X47.0857 Y44.0909 R8.1750
 X46.4911 Y44.9808 R8.1750
 X45.7854 Y45.7854 R8.1750
 X44.9808 Y46.4911 R8.1750
 X44.0909 Y47.0857 R8.1750
 X43.1310 Y47.5590 R8.1750
 X42.1176 Y47.9030 R8.1750
 X41.0679 Y48.1118 R8.1750
 X40.1039 Y48.1750 R8.1750
G01 X9.896
G03 X8.9321 Y48.1118 R8.1750
 X7.8824 Y47.9030 R8.1750
 X6.8690 Y47.5590 R8.1750
 X5.9091 Y47.0857 R8.1750
 X5.0192 Y46.4911 R8.1750
 X4.2146 Y45.7854 R8.1750
 X3.5089 Y44.9808 R8.1750
 X2.9143 Y44.0909 R8.1750
 X2.4410 Y43.1310 R8.1750
 X2.0970 Y42.1176 R8.1750
 X1.8882 Y41.0679 R8.1750
 X1.8250 Y40.1039 R8.1750
G01 Y9.896
G03 X1.8882 Y8.9321 R8.1750
 X2.0970 Y7.8824 R8.1750
 X2.4410 Y6.8690 R8.1750
 X2.9143 Y5.9091 R8.1750
 X3.5089 Y5.0192 R8.1750
 X4.2146 Y4.2146 R8.1750
 X5.0192 Y3.5089 R8.1750
 X5.9091 Y2.9143 R8.1750
 X6.8690 Y2.4410 R8.1750
 X7.8824 Y2.0970 R8.1750
 X8.9321 Y1.8882 R8.1750
 X9.8961 Y1.8250 R8.1750
(Pass: 14)
G01 Z-1.400 F100 
 X40.104 F200 
G03 X41.0679 Y1.8882 R8.1750
 X42.1176 Y2.0970 R8.1750
 X43.1310 Y2.4410 R8.1750
 X44.0909 Y2.9143 R8.1750
 X44.9808 Y3.5089 R8.1750
 X45.7854 Y4.2146 R8.1750
 X46.4911 Y5.0192 R8.1750
 X47.0857 Y5.9091 R8.1750
 X47.5590 Y6.8690 R8.1750
 X47.9030 Y7.8824 R8.1750
 X48.1118 Y8.9321 R8.1750
 X48.1750 Y9.8961 R8.1750
G01 Y40.104
G03 X48.1118 Y41.0679 R8.1750
 X47.9030 Y42.1176 R8.1750
 X47.5590 Y43.1310 R8.1750
 X47.0857 Y44.0909 R8.1750
 X46.4911 Y44.9808 R8.1750
 X45.7854 Y45.7854 R8.1750
 X44.9808 Y46.4911 R8.1750
 X44.0909 Y47.0857 R8.1750
 X43.1310 Y47.5590 R8.1750
 X42.1176 Y47.9030 R8.1750
 X41.0679 Y48.1118 R8.1750
 X40.1039 Y48.1750 R8.1750
G01 X9.896
G03 X8.9321 Y48.1118 R8.1750
 X7.8824 Y47.9030 R8.1750
 X6.8690 Y47.5590 R8.1750
 X5.9091 Y47.0857 R8.1750
 X5.0192 Y46.4911 R8.1750
 X4.2146 Y45.7854 R8.1750
 X3.5089 Y44.9808 R8.1750
 X2.9143 Y44.0909 R8.1750
 X2.4410 Y43.1310 R8.1750
 X2.0970 Y42.1176 R8.1750
 X1.8882 Y41.0679 R8.1750
 X1.8250 Y40.1039 R8.1750
G01 Y9.896
G03 X1.8882 Y8.9321 R8.1750
 X2.0970 Y7.8824 R8.1750
 X2.4410 Y6.8690 R8.1750
 X2.9143 Y5.9091 R8.1750
 X3.5089 Y5.0192 R8.1750
 X4.2146 Y4.2146 R8.1750
 X5.0192 Y3.5089 R8.1750
 X5.9091 Y2.9143 R8.1750
 X6.8690 Y2.4410 R8.1750
 X7.8824 Y2.0970 R8.1750
 X8.9321 Y1.8882 R8.1750
 X9.8961 Y1.8250 R8.1750
(Pass: 15)
G01 Z-1.500 F100 
 X40.104 F200 
G03 X41.0679 Y1.8882 R8.1750
 X42.1176 Y2.0970 R8.1750
 X43.1310 Y2.4410 R8.1750
 X44.0909 Y2.9143 R8.1750
 X44.9808 Y3.5089 R8.1750
 X45.7854 Y4.2146 R8.1750
 X46.4911 Y5.0192 R8.1750
 X47.0857 Y5.9091 R8.1750
 X47.5590 Y6.8690 R8.1750
 X47.9030 Y7.8824 R8.1750
 X48.1118 Y8.9321 R8.1750
 X48.1750 Y9.8961 R8.1750
G01 Y40.104
G03 X48.1118 Y41.0679 R8.1750
 X47.9030 Y42.1176 R8.1750
 X47.5590 Y43.1310 R8.1750
 X47.0857 Y44.0909 R8.1750
 X46.4911 Y44.9808 R8.1750
 X45.7854 Y45.7854 R8.1750
 X44.9808 Y46.4911 R8.1750
 X44.0909 Y47.0857 R8.1750
 X43.1310 Y47.5590 R8.1750
 X42.1176 Y47.9030 R8.1750
 X41.0679 Y48.1118 R8.1750
 X40.1039 Y48.1750 R8.1750
G01 X9.896
G03 X8.9321 Y48.1118 R8.1750
 X7.8824 Y47.9030 R8.1750
 X6.8690 Y47.5590 R8.1750
 X5.9091 Y47.0857 R8.1750
 X5.0192 Y46.4911 R8.1750
 X4.2146 Y45.7854 R8.1750
 X3.5089 Y44.9808 R8.1750
 X2.9143 Y44.0909 R8.1750
 X2.4410 Y43.1310 R8.1750
 X2.0970 Y42.1176 R8.1750
 X1.8882 Y41.0679 R8.1750
 X1.8250 Y40.1039 R8.1750
G01 Y9.896
G03 X1.8882 Y8.9321 R8.1750
 X2.0970 Y7.8824 R8.1750
 X2.4410 Y6.8690 R8.1750
 X2.9143 Y5.9091 R8.1750
 X3.5089 Y5.0192 R8.1750
 X4.2146 Y4.2146 R8.1750
 X5.0192 Y3.5089 R8.1750
 X5.9091 Y2.9143 R8.1750
 X6.8690 Y2.4410 R8.1750
 X7.8824 Y2.0970 R8.1750
 X8.9321 Y1.8882 R8.1750
 X9.8961 Y1.8250 R8.1750
(Pass: 16)
G01 Z-1.600 F100 
 X40.104 F200 
G03 X41.0679 Y1.8882 R8.1750
 X42.1176 Y2.0970 R8.1750
 X43.1310 Y2.4410 R8.1750
 X44.0909 Y2.9143 R8.1750
 X44.9808 Y3.5089 R8.1750
 X45.7854 Y4.2146 R8.1750
 X46.4911 Y5.0192 R8.1750
 X47.0857 Y5.9091 R8.1750
 X47.5590 Y6.8690 R8.1750
 X47.9030 Y7.8824 R8.1750
 X48.1118 Y8.9321 R8.1750
 X48.1750 Y9.8961 R8.1750
G01 Y40.104
G03 X48.1118 Y41.0679 R8.1750
 X47.9030 Y42.1176 R8.1750
 X47.5590 Y43.1310 R8.1750
 X47.0857 Y44.0909 R8.1750
 X46.4911 Y44.9808 R8.1750
 X45.7854 Y45.7854 R8.1750
 X44.9808 Y46.4911 R8.1750
 X44.0909 Y47.0857 R8.1750
 X43.1310 Y47.5590 R8.1750
 X42.1176 Y47.9030 R8.1750
 X41.0679 Y48.1118 R8.1750
 X40.1039 Y48.1750 R8.1750
G01 X9.896
G03 X8.9321 Y48.1118 R8.1750
 X7.8824 Y47.9030 R8.1750
 X6.8690 Y47.5590 R8.1750
 X5.9091 Y47.0857 R8.1750
 X5.0192 Y46.4911 R8.1750
 X4.2146 Y45.7854 R8.1750
 X3.5089 Y44.9808 R8.1750
 X2.9143 Y44.0909 R8.1750
 X2.4410 Y43.1310 R8.1750
 X2.0970 Y42.1176 R8.1750
 X1.8882 Y41.0679 R8.1750
 X1.8250 Y40.1039 R8.1750
G01 Y9.896
G03 X1.8882 Y8.9321 R8.1750
 X2.0970 Y7.8824 R8.1750
 X2.4410 Y6.8690 R8.1750
 X2.9143 Y5.9091 R8.1750
 X3.5089 Y5.0192 R8.1750
 X4.2146 Y4.2146 R8.1750
 X5.0192 Y3.5089 R8.1750
 X5.9091 Y2.9143 R8.1750
 X6.8690 Y2.4410 R8.1750
 X7.8824 Y2.0970 R8.1750
 X8.9321 Y1.8882 R8.1750
 X9.8961 Y1.8250 R8.1750
(Pass: 17)
G01 Z-1.700 F100 
 X40.104 F200 
G03 X41.0679 Y1.8882 R8.1750
 X42.1176 Y2.0970 R8.1750
 X43.1310 Y2.4410 R8.1750
 X44.0909 Y2.9143 R8.1750
 X44.9808 Y3.5089 R8.1750
 X45.7854 Y4.2146 R8.1750
 X46.4911 Y5.0192 R8.1750
 X47.0857 Y5.9091 R8.1750
 X47.5590 Y6.8690 R8.1750
 X47.9030 Y7.8824 R8.1750
 X48.1118 Y8.9321 R8.1750
 X48.1750 Y9.8961 R8.1750
G01 Y40.104
G03 X48.1118 Y41.0679 R8.1750
 X47.9030 Y42.1176 R8.1750
 X47.5590 Y43.1310 R8.1750
 X47.0857 Y44.0909 R8.1750
 X46.4911 Y44.9808 R8.1750
 X45.7854 Y45.7854 R8.1750
 X44.9808 Y46.4911 R8.1750
 X44.0909 Y47.0857 R8.1750
 X43.1310 Y47.5590 R8.1750
 X42.1176 Y47.9030 R8.1750
 X41.0679 Y48.1118 R8.1750
 X40.1039 Y48.1750 R8.1750
G01 X9.896
G03 X8.9321 Y48.1118 R8.1750
 X7.8824 Y47.9030 R8.1750
 X6.8690 Y47.5590 R8.1750
 X5.9091 Y47.0857 R8.1750
 X5.0192 Y46.4911 R8.1750
 X4.2146 Y45.7854 R8.1750
 X3.5089 Y44.9808 R8.1750
 X2.9143 Y44.0909 R8.1750
 X2.4410 Y43.1310 R8.1750
 X2.0970 Y42.1176 R8.1750
 X1.8882 Y41.0679 R8.1750
 X1.8250 Y40.1039 R8.1750
G01 Y9.896
G03 X1.8882 Y8.9321 R8.1750
 X2.0970 Y7.8824 R8.1750
 X2.4410 Y6.8690 R8.1750
 X2.9143 Y5.9091 R8.1750
 X3.5089 Y5.0192 R8.1750
 X4.2146 Y4.2146 R8.1750
 X5.0192 Y3.5089 R8.1750
 X5.9091 Y2.9143 R8.1750
 X6.8690 Y2.4410 R8.1750
 X7.8824 Y2.0970 R8.1750
 X8.9321 Y1.8882 R8.1750
 X9.8961 Y1.8250 R8.1750
(Pass: 18)
G01 Z-1.800 F100 
 X40.104 F200 
G03 X41.0679 Y1.8882 R8.1750
 X42.1176 Y2.0970 R8.1750
 X43.1310 Y2.4410 R8.1750
 X44.0909 Y2.9143 R8.1750
 X44.9808 Y3.5089 R8.1750
 X45.7854 Y4.2146 R8.1750
 X46.4911 Y5.0192 R8.1750
 X47.0857 Y5.9091 R8.1750
 X47.5590 Y6.8690 R8.1750
 X47.9030 Y7.8824 R8.1750
 X48.1118 Y8.9321 R8.1750
 X48.1750 Y9.8961 R8.1750
G01 Y40.104
G03 X48.1118 Y41.0679 R8.1750
 X47.9030 Y42.1176 R8.1750
 X47.5590 Y43.1310 R8.1750
 X47.0857 Y44.0909 R8.1750
 X46.4911 Y44.9808 R8.1750
 X45.7854 Y45.7854 R8.1750
 X44.9808 Y46.4911 R8.1750
 X44.0909 Y47.0857 R8.1750
 X43.1310 Y47.5590 R8.1750
 X42.1176 Y47.9030 R8.1750
 X41.0679 Y48.1118 R8.1750
 X40.1039 Y48.1750 R8.1750
G01 X9.896
G03 X8.9321 Y48.1118 R8.1750
 X7.8824 Y47.9030 R8.1750
 X6.8690 Y47.5590 R8.1750
 X5.9091 Y47.0857 R8.1750
 X5.0192 Y46.4911 R8.1750
 X4.2146 Y45.7854 R8.1750
 X3.5089 Y44.9808 R8.1750
 X2.9143 Y44.0909 R8.1750
 X2.4410 Y43.1310 R8.1750
 X2.0970 Y42.1176 R8.1750
 X1.8882 Y41.0679 R8.1750
 X1.8250 Y40.1039 R8.1750
G01 Y9.896
G03 X1.8882 Y8.9321 R8.1750
 X2.0970 Y7.8824 R8.1750
 X2.4410 Y6.8690 R8.1750
 X2.9143 Y5.9091 R8.1750
 X3.5089 Y5.0192 R8.1750
 X4.2146 Y4.2146 R8.1750
 X5.0192 Y3.5089 R8.1750
 X5.9091 Y2.9143 R8.1750
 X6.8690 Y2.4410 R8.1750
 X7.8824 Y2.0970 R8.1750
 X8.9321 Y1.8882 R8.1750
 X9.8961 Y1.8250 R8.1750
(Pass: 19)
G01 Z-1.900 F100 
 X40.104 F200 
G03 X41.0679 Y1.8882 R8.1750
 X42.1176 Y2.0970 R8.1750
 X43.1310 Y2.4410 R8.1750
 X44.0909 Y2.9143 R8.1750
 X44.9808 Y3.5089 R8.1750
 X45.7854 Y4.2146 R8.1750
 X46.4911 Y5.0192 R8.1750
 X47.0857 Y5.9091 R8.1750
 X47.5590 Y6.8690 R8.1750
 X47.9030 Y7.8824 R8.1750
 X48.1118 Y8.9321 R8.1750
 X48.1750 Y9.8961 R8.1750
G01 Y40.104
G03 X48.1118 Y41.0679 R8.1750
 X47.9030 Y42.1176 R8.1750
 X47.5590 Y43.1310 R8.1750
 X47.0857 Y44.0909 R8.1750
 X46.4911 Y44.9808 R8.1750
 X45.7854 Y45.7854 R8.1750
 X44.9808 Y46.4911 R8.1750
 X44.0909 Y47.0857 R8.1750
 X43.1310 Y47.5590 R8.1750
 X42.1176 Y47.9030 R8.1750
 X41.0679 Y48.1118 R8.1750
 X40.1039 Y48.1750 R8.1750
G01 X9.896
G03 X8.9321 Y48.1118 R8.1750
 X7.8824 Y47.9030 R8.1750
 X6.8690 Y47.5590 R8.1750
 X5.9091 Y47.0857 R8.1750
 X5.0192 Y46.4911 R8.1750
 X4.2146 Y45.7854 R8.1750
 X3.5089 Y44.9808 R8.1750
 X2.9143 Y44.0909 R8.1750
 X2.4410 Y43.1310 R8.1750
 X2.0970 Y42.1176 R8.1750
 X1.8882 Y41.0679 R8.1750
 X1.8250 Y40.1039 R8.1750
G01 Y9.896
G03 X1.8882 Y8.9321 R8.1750
 X2.0970 Y7.8824 R8.1750
 X2.4410 Y6.8690 R8.1750
 X2.9143 Y5.9091 R8.1750
 X3.5089 Y5.0192 R8.1750
 X4.2146 Y4.2146 R8.1750
 X5.0192 Y3.5089 R8.1750
 X5.9091 Y2.9143 R8.1750
 X6.8690 Y2.4410 R8.1750
 X7.8824 Y2.0970 R8.1750
 X8.9321 Y1.8882 R8.1750
 X9.8961 Y1.8250 R8.1750
(Pass: 20)
G01 Z-2.000 F100 
 X40.104 F200 
G03 X41.0679 Y1.8882 R8.1750
 X42.1176 Y2.0970 R8.1750
 X43.1310 Y2.4410 R8.1750
 X44.0909 Y2.9143 R8.1750
 X44.9808 Y3.5089 R8.1750
 X45.7854 Y4.2146 R8.1750
 X46.4911 Y5.0192 R8.1750
 X47.0857 Y5.9091 R8.1750
 X47.5590 Y6.8690 R8.1750
 X47.9030 Y7.8824 R8.1750
 X48.1118 Y8.9321 R8.1750
 X48.1750 Y9.8961 R8.1750
G01 Y40.104
G03 X48.1118 Y41.0679 R8.1750
 X47.9030 Y42.1176 R8.1750
 X47.5590 Y43.1310 R8.1750
 X47.0857 Y44.0909 R8.1750
 X46.4911 Y44.9808 R8.1750
 X45.7854 Y45.7854 R8.1750
 X44.9808 Y46.4911 R8.1750
 X44.0909 Y47.0857 R8.1750
 X43.1310 Y47.5590 R8.1750
 X42.1176 Y47.9030 R8.1750
 X41.0679 Y48.1118 R8.1750
 X40.1039 Y48.1750 R8.1750
G01 X9.896
G03 X8.9321 Y48.1118 R8.1750
 X7.8824 Y47.9030 R8.1750
 X6.8690 Y47.5590 R8.1750
 X5.9091 Y47.0857 R8.1750
 X5.0192 Y46.4911 R8.1750
 X4.2146 Y45.7854 R8.1750
 X3.5089 Y44.9808 R8.1750
 X2.9143 Y44.0909 R8.1750
 X2.4410 Y43.1310 R8.1750
 X2.0970 Y42.1176 R8.1750
 X1.8882 Y41.0679 R8.1750
 X1.8250 Y40.1039 R8.1750
G01 Y9.896
G03 X1.8882 Y8.9321 R8.1750
 X2.0970 Y7.8824 R8.1750
 X2.4410 Y6.8690 R8.1750
 X2.9143 Y5.9091 R8.1750
 X3.5089 Y5.0192 R8.1750
 X4.2146 Y4.2146 R8.1750
 X5.0192 Y3.5089 R8.1750
 X5.9091 Y2.9143 R8.1750
 X6.8690 Y2.4410 R8.1750
 X7.8824 Y2.0970 R8.1750
 X8.9321 Y1.8882 R8.1750
 X9.8961 Y1.8250 R8.1750
(Pass: 21)
G01 Z-2.100 F100 
 X40.104 F200 
G03 X41.0679 Y1.8882 R8.1750
 X42.1176 Y2.0970 R8.1750
 X43.1310 Y2.4410 R8.1750
 X44.0909 Y2.9143 R8.1750
 X44.9808 Y3.5089 R8.1750
 X45.7854 Y4.2146 R8.1750
 X46.4911 Y5.0192 R8.1750
 X47.0857 Y5.9091 R8.1750
 X47.5590 Y6.8690 R8.1750
 X47.9030 Y7.8824 R8.1750
 X48.1118 Y8.9321 R8.1750
 X48.1750 Y9.8961 R8.1750
G01 Y40.104
G03 X48.1118 Y41.0679 R8.1750
 X47.9030 Y42.1176 R8.1750
 X47.5590 Y43.1310 R8.1750
 X47.0857 Y44.0909 R8.1750
 X46.4911 Y44.9808 R8.1750
 X45.7854 Y45.7854 R8.1750
 X44.9808 Y46.4911 R8.1750
 X44.0909 Y47.0857 R8.1750
 X43.1310 Y47.5590 R8.1750
 X42.1176 Y47.9030 R8.1750
 X41.0679 Y48.1118 R8.1750
 X40.1039 Y48.1750 R8.1750
G01 X9.896
G03 X8.9321 Y48.1118 R8.1750
 X7.8824 Y47.9030 R8.1750
 X6.8690 Y47.5590 R8.1750
 X5.9091 Y47.0857 R8.1750
 X5.0192 Y46.4911 R8.1750
 X4.2146 Y45.7854 R8.1750
 X3.5089 Y44.9808 R8.1750
 X2.9143 Y44.0909 R8.1750
 X2.4410 Y43.1310 R8.1750
 X2.0970 Y42.1176 R8.1750
 X1.8882 Y41.0679 R8.1750
 X1.8250 Y40.1039 R8.1750
G01 Y9.896
G03 X1.8882 Y8.9321 R8.1750
 X2.0970 Y7.8824 R8.1750
 X2.4410 Y6.8690 R8.1750
 X2.9143 Y5.9091 R8.1750
 X3.5089 Y5.0192 R8.1750
 X4.2146 Y4.2146 R8.1750
 X5.0192 Y3.5089 R8.1750
 X5.9091 Y2.9143 R8.1750
 X6.8690 Y2.4410 R8.1750
 X7.8824 Y2.0970 R8.1750
 X8.9321 Y1.8882 R8.1750
 X9.8961 Y1.8250 R8.1750
(Pass: 22)
G01 Z-2.200 F100 
 X40.104 F200 
G03 X41.0679 Y1.8882 R8.1750
 X42.1176 Y2.0970 R8.1750
 X43.1310 Y2.4410 R8.1750
 X44.0909 Y2.9143 R8.1750
 X44.9808 Y3.5089 R8.1750
 X45.7854 Y4.2146 R8.1750
 X46.4911 Y5.0192 R8.1750
 X47.0857 Y5.9091 R8.1750
 X47.5590 Y6.8690 R8.1750
 X47.9030 Y7.8824 R8.1750
 X48.1118 Y8.9321 R8.1750
 X48.1750 Y9.8961 R8.1750
G01 Y40.104
G03 X48.1118 Y41.0679 R8.1750
 X47.9030 Y42.1176 R8.1750
 X47.5590 Y43.1310 R8.1750
 X47.0857 Y44.0909 R8.1750
 X46.4911 Y44.9808 R8.1750
 X45.7854 Y45.7854 R8.1750
 X44.9808 Y46.4911 R8.1750
 X44.0909 Y47.0857 R8.1750
 X43.1310 Y47.5590 R8.1750
 X42.1176 Y47.9030 R8.1750
 X41.0679 Y48.1118 R8.1750
 X40.1039 Y48.1750 R8.1750
G01 X9.896
G03 X8.9321 Y48.1118 R8.1750
 X7.8824 Y47.9030 R8.1750
 X6.8690 Y47.5590 R8.1750
 X5.9091 Y47.0857 R8.1750
 X5.0192 Y46.4911 R8.1750
 X4.2146 Y45.7854 R8.1750
 X3.5089 Y44.9808 R8.1750
 X2.9143 Y44.0909 R8.1750
 X2.4410 Y43.1310 R8.1750
 X2.0970 Y42.1176 R8.1750
 X1.8882 Y41.0679 R8.1750
 X1.8250 Y40.1039 R8.1750
G01 Y9.896
G03 X1.8882 Y8.9321 R8.1750
 X2.0970 Y7.8824 R8.1750
 X2.4410 Y6.8690 R8.1750
 X2.9143 Y5.9091 R8.1750
 X3.5089 Y5.0192 R8.1750
 X4.2146 Y4.2146 R8.1750
 X5.0192 Y3.5089 R8.1750
 X5.9091 Y2.9143 R8.1750
 X6.8690 Y2.4410 R8.1750
 X7.8824 Y2.0970 R8.1750
 X8.9321 Y1.8882 R8.1750
 X9.8961 Y1.8250 R8.1750
(Pass: 23)
G01 Z-2.300 F100 
 X40.104 F200 
G03 X41.0679 Y1.8882 R8.1750
 X42.1176 Y2.0970 R8.1750
 X43.1310 Y2.4410 R8.1750
 X44.0909 Y2.9143 R8.1750
 X44.9808 Y3.5089 R8.1750
 X45.7854 Y4.2146 R8.1750
 X46.4911 Y5.0192 R8.1750
 X47.0857 Y5.9091 R8.1750
 X47.5590 Y6.8690 R8.1750
 X47.9030 Y7.8824 R8.1750
 X48.1118 Y8.9321 R8.1750
 X48.1750 Y9.8961 R8.1750
G01 Y40.104
G03 X48.1118 Y41.0679 R8.1750
 X47.9030 Y42.1176 R8.1750
 X47.5590 Y43.1310 R8.1750
 X47.0857 Y44.0909 R8.1750
 X46.4911 Y44.9808 R8.1750
 X45.7854 Y45.7854 R8.1750
 X44.9808 Y46.4911 R8.1750
 X44.0909 Y47.0857 R8.1750
 X43.1310 Y47.5590 R8.1750
 X42.1176 Y47.9030 R8.1750
 X41.0679 Y48.1118 R8.1750
 X40.1039 Y48.1750 R8.1750
G01 X9.896
G03 X8.9321 Y48.1118 R8.1750
 X7.8824 Y47.9030 R8.1750
 X6.8690 Y47.5590 R8.1750
 X5.9091 Y47.0857 R8.1750
 X5.0192 Y46.4911 R8.1750
 X4.2146 Y45.7854 R8.1750
 X3.5089 Y44.9808 R8.1750
 X2.9143 Y44.0909 R8.1750
 X2.4410 Y43.1310 R8.1750
 X2.0970 Y42.1176 R8.1750
 X1.8882 Y41.0679 R8.1750
 X1.8250 Y40.1039 R8.1750
G01 Y9.896
G03 X1.8882 Y8.9321 R8.1750
 X2.0970 Y7.8824 R8.1750
 X2.4410 Y6.8690 R8.1750
 X2.9143 Y5.9091 R8.1750
 X3.5089 Y5.0192 R8.1750
 X4.2146 Y4.2146 R8.1750
 X5.0192 Y3.5089 R8.1750
 X5.9091 Y2.9143 R8.1750
 X6.8690 Y2.4410 R8.1750
 X7.8824 Y2.0970 R8.1750
 X8.9321 Y1.8882 R8.1750
 X9.8961 Y1.8250 R8.1750
(Pass: 24)
G01 Z-2.400 F100 
 X40.104 F200 
G03 X41.0679 Y1.8882 R8.1750
 X42.1176 Y2.0970 R8.1750
 X43.1310 Y2.4410 R8.1750
 X44.0909 Y2.9143 R8.1750
 X44.9808 Y3.5089 R8.1750
 X45.7854 Y4.2146 R8.1750
 X46.4911 Y5.0192 R8.1750
 X47.0857 Y5.9091 R8.1750
 X47.5590 Y6.8690 R8.1750
 X47.9030 Y7.8824 R8.1750
 X48.1118 Y8.9321 R8.1750
 X48.1750 Y9.8961 R8.1750
G01 Y40.104
G03 X48.1118 Y41.0679 R8.1750
 X47.9030 Y42.1176 R8.1750
 X47.5590 Y43.1310 R8.1750
 X47.0857 Y44.0909 R8.1750
 X46.4911 Y44.9808 R8.1750
 X45.7854 Y45.7854 R8.1750
 X44.9808 Y46.4911 R8.1750
 X44.0909 Y47.0857 R8.1750
 X43.1310 Y47.5590 R8.1750
 X42.1176 Y47.9030 R8.1750
 X41.0679 Y48.1118 R8.1750
 X40.1039 Y48.1750 R8.1750
G01 X9.896
G03 X8.9321 Y48.1118 R8.1750
 X7.8824 Y47.9030 R8.1750
 X6.8690 Y47.5590 R8.1750
 X5.9091 Y47.0857 R8.1750
 X5.0192 Y46.4911 R8.1750
 X4.2146 Y45.7854 R8.1750
 X3.5089 Y44.9808 R8.1750
 X2.9143 Y44.0909 R8.1750
 X2.4410 Y43.1310 R8.1750
 X2.0970 Y42.1176 R8.1750
 X1.8882 Y41.0679 R8.1750
 X1.8250 Y40.1039 R8.1750
G01 Y9.896
G03 X1.8882 Y8.9321 R8.1750
 X2.0970 Y7.8824 R8.1750
 X2.4410 Y6.8690 R8.1750
 X2.9143 Y5.9091 R8.1750
 X3.5089 Y5.0192 R8.1750
 X4.2146 Y4.2146 R8.1750
 X5.0192 Y3.5089 R8.1750
 X5.9091 Y2.9143 R8.1750
 X6.8690 Y2.4410 R8.1750
 X7.8824 Y2.0970 R8.1750
 X8.9321 Y1.8882 R8.1750
 X9.8961 Y1.8250 R8.1750
(Pass: 25)
G01 Z-2.500 F100 
 X40.104 F200 
G03 X41.0679 Y1.8882 R8.1750
 X42.1176 Y2.0970 R8.1750
 X43.1310 Y2.4410 R8.1750
 X44.0909 Y2.9143 R8.1750
 X44.9808 Y3.5089 R8.1750
 X45.7854 Y4.2146 R8.1750
 X46.4911 Y5.0192 R8.1750
 X47.0857 Y5.9091 R8.1750
 X47.5590 Y6.8690 R8.1750
 X47.9030 Y7.8824 R8.1750
 X48.1118 Y8.9321 R8.1750
 X48.1750 Y9.8961 R8.1750
G01 Y40.104
G03 X48.1118 Y41.0679 R8.1750
 X47.9030 Y42.1176 R8.1750
 X47.5590 Y43.1310 R8.1750
 X47.0857 Y44.0909 R8.1750
 X46.4911 Y44.9808 R8.1750
 X45.7854 Y45.7854 R8.1750
 X44.9808 Y46.4911 R8.1750
 X44.0909 Y47.0857 R8.1750
 X43.1310 Y47.5590 R8.1750
 X42.1176 Y47.9030 R8.1750
 X41.0679 Y48.1118 R8.1750
 X40.1039 Y48.1750 R8.1750
G01 X9.896
G03 X8.9321 Y48.1118 R8.1750
 X7.8824 Y47.9030 R8.1750
 X6.8690 Y47.5590 R8.1750
 X5.9091 Y47.0857 R8.1750
 X5.0192 Y46.4911 R8.1750
 X4.2146 Y45.7854 R8.1750
 X3.5089 Y44.9808 R8.1750
 X2.9143 Y44.0909 R8.1750
 X2.4410 Y43.1310 R8.1750
 X2.0970 Y42.1176 R8.1750
 X1.8882 Y41.0679 R8.1750
 X1.8250 Y40.1039 R8.1750
G01 Y9.896
G03 X1.8882 Y8.9321 R8.1750
 X2.0970 Y7.8824 R8.1750
 X2.4410 Y6.8690 R8.1750
 X2.9143 Y5.9091 R8.1750
 X3.5089 Y5.0192 R8.1750
 X4.2146 Y4.2146 R8.1750
 X5.0192 Y3.5089 R8.1750
 X5.9091 Y2.9143 R8.1750
 X6.8690 Y2.4410 R8.1750
 X7.8824 Y2.0970 R8.1750
 X8.9321 Y1.8882 R8.1750
 X9.8961 Y1.8250 R8.1750
(Pass: 26)
G01 Z-2.600 F100 
 X40.104 F200 
G03 X41.0679 Y1.8882 R8.1750
 X42.1176 Y2.0970 R8.1750
 X43.1310 Y2.4410 R8.1750
 X44.0909 Y2.9143 R8.1750
 X44.9808 Y3.5089 R8.1750
 X45.7854 Y4.2146 R8.1750
 X46.4911 Y5.0192 R8.1750
 X47.0857 Y5.9091 R8.1750
 X47.5590 Y6.8690 R8.1750
 X47.9030 Y7.8824 R8.1750
 X48.1118 Y8.9321 R8.1750
 X48.1750 Y9.8961 R8.1750
G01 Y40.104
G03 X48.1118 Y41.0679 R8.1750
 X47.9030 Y42.1176 R8.1750
 X47.5590 Y43.1310 R8.1750
 X47.0857 Y44.0909 R8.1750
 X46.4911 Y44.9808 R8.1750
 X45.7854 Y45.7854 R8.1750
 X44.9808 Y46.4911 R8.1750
 X44.0909 Y47.0857 R8.1750
 X43.1310 Y47.5590 R8.1750
 X42.1176 Y47.9030 R8.1750
 X41.0679 Y48.1118 R8.1750
 X40.1039 Y48.1750 R8.1750
G01 X9.896
G03 X8.9321 Y48.1118 R8.1750
 X7.8824 Y47.9030 R8.1750
 X6.8690 Y47.5590 R8.1750
 X5.9091 Y47.0857 R8.1750
 X5.0192 Y46.4911 R8.1750
 X4.2146 Y45.7854 R8.1750
 X3.5089 Y44.9808 R8.1750
 X2.9143 Y44.0909 R8.1750
 X2.4410 Y43.1310 R8.1750
 X2.0970 Y42.1176 R8.1750
 X1.8882 Y41.0679 R8.1750
 X1.8250 Y40.1039 R8.1750
G01 Y9.896
G03 X1.8882 Y8.9321 R8.1750
 X2.0970 Y7.8824 R8.1750
 X2.4410 Y6.8690 R8.1750
 X2.9143 Y5.9091 R8.1750
 X3.5089 Y5.0192 R8.1750
 X4.2146 Y4.2146 R8.1750
 X5.0192 Y3.5089 R8.1750
 X5.9091 Y2.9143 R8.1750
 X6.8690 Y2.4410 R8.1750
 X7.8824 Y2.0970 R8.1750
 X8.9321 Y1.8882 R8.1750
 X9.8961 Y1.8250 R8.1750
(Pass: 27)
G01 Z-2.700 F100 
 X40.104 F200 
G03 X41.0679 Y1.8882 R8.1750
 X42.1176 Y2.0970 R8.1750
 X43.1310 Y2.4410 R8.1750
 X44.0909 Y2.9143 R8.1750
 X44.9808 Y3.5089 R8.1750
 X45.7854 Y4.2146 R8.1750
 X46.4911 Y5.0192 R8.1750
 X47.0857 Y5.9091 R8.1750
 X47.5590 Y6.8690 R8.1750
 X47.9030 Y7.8824 R8.1750
 X48.1118 Y8.9321 R8.1750
 X48.1750 Y9.8961 R8.1750
G01 Y40.104
G03 X48.1118 Y41.0679 R8.1750
 X47.9030 Y42.1176 R8.1750
 X47.5590 Y43.1310 R8.1750
 X47.0857 Y44.0909 R8.1750
 X46.4911 Y44.9808 R8.1750
 X45.7854 Y45.7854 R8.1750
 X44.9808 Y46.4911 R8.1750
 X44.0909 Y47.0857 R8.1750
 X43.1310 Y47.5590 R8.1750
 X42.1176 Y47.9030 R8.1750
 X41.0679 Y48.1118 R8.1750
 X40.1039 Y48.1750 R8.1750
G01 X9.896
G03 X8.9321 Y48.1118 R8.1750
 X7.8824 Y47.9030 R8.1750
 X6.8690 Y47.5590 R8.1750
 X5.9091 Y47.0857 R8.1750
 X5.0192 Y46.4911 R8.1750
 X4.2146 Y45.7854 R8.1750
 X3.5089 Y44.9808 R8.1750
 X2.9143 Y44.0909 R8.1750
 X2.4410 Y43.1310 R8.1750
 X2.0970 Y42.1176 R8.1750
 X1.8882 Y41.0679 R8.1750
 X1.8250 Y40.1039 R8.1750
G01 Y9.896
G03 X1.8882 Y8.9321 R8.1750
 X2.0970 Y7.8824 R8.1750
 X2.4410 Y6.8690 R8.1750
 X2.9143 Y5.9091 R8.1750
 X3.5089 Y5.0192 R8.1750
 X4.2146 Y4.2146 R8.1750
 X5.0192 Y3.5089 R8.1750
 X5.9091 Y2.9143 R8.1750
 X6.8690 Y2.4410 R8.1750
 X7.8824 Y2.0970 R8.1750
 X8.9321 Y1.8882 R8.1750
 X9.8961 Y1.8250 R8.1750
(Pass: 28)
G01 Z-2.800 F100 
 X40.104 F200 
G03 X41.0679 Y1.8882 R8.1750
 X42.1176 Y2.0970 R8.1750
 X43.1310 Y2.4410 R8.1750
 X44.0909 Y2.9143 R8.1750
 X44.9808 Y3.5089 R8.1750
 X45.7854 Y4.2146 R8.1750
 X46.4911 Y5.0192 R8.1750
 X47.0857 Y5.9091 R8.1750
 X47.5590 Y6.8690 R8.1750
 X47.9030 Y7.8824 R8.1750
 X48.1118 Y8.9321 R8.1750
 X48.1750 Y9.8961 R8.1750
G01 Y40.104
G03 X48.1118 Y41.0679 R8.1750
 X47.9030 Y42.1176 R8.1750
 X47.5590 Y43.1310 R8.1750
 X47.0857 Y44.0909 R8.1750
 X46.4911 Y44.9808 R8.1750
 X45.7854 Y45.7854 R8.1750
 X44.9808 Y46.4911 R8.1750
 X44.0909 Y47.0857 R8.1750
 X43.1310 Y47.5590 R8.1750
 X42.1176 Y47.9030 R8.1750
 X41.0679 Y48.1118 R8.1750
 X40.1039 Y48.1750 R8.1750
G01 X9.896
G03 X8.9321 Y48.1118 R8.1750
 X7.8824 Y47.9030 R8.1750
 X6.8690 Y47.5590 R8.1750
 X5.9091 Y47.0857 R8.1750
 X5.0192 Y46.4911 R8.1750
 X4.2146 Y45.7854 R8.1750
 X3.5089 Y44.9808 R8.1750
 X2.9143 Y44.0909 R8.1750
 X2.4410 Y43.1310 R8.1750
 X2.0970 Y42.1176 R8.1750
 X1.8882 Y41.0679 R8.1750
 X1.8250 Y40.1039 R8.1750
G01 Y9.896
G03 X1.8882 Y8.9321 R8.1750
 X2.0970 Y7.8824 R8.1750
 X2.4410 Y6.8690 R8.1750
 X2.9143 Y5.9091 R8.1750
 X3.5089 Y5.0192 R8.1750
 X4.2146 Y4.2146 R8.1750
 X5.0192 Y3.5089 R8.1750
 X5.9091 Y2.9143 R8.1750
 X6.8690 Y2.4410 R8.1750
 X7.8824 Y2.0970 R8.1750
 X8.9321 Y1.8882 R8.1750
 X9.8961 Y1.8250 R8.1750
(Pass: 29)
G01 Z-2.900 F100 
 X40.104 F200 
G03 X41.0679 Y1.8882 R8.1750
 X42.1176 Y2.0970 R8.1750
 X43.1310 Y2.4410 R8.1750
 X44.0909 Y2.9143 R8.1750
 X44.9808 Y3.5089 R8.1750
 X45.7854 Y4.2146 R8.1750
 X46.4911 Y5.0192 R8.1750
 X47.0857 Y5.9091 R8.1750
 X47.5590 Y6.8690 R8.1750
 X47.9030 Y7.8824 R8.1750
 X48.1118 Y8.9321 R8.1750
 X48.1750 Y9.8961 R8.1750
G01 Y40.104
G03 X48.1118 Y41.0679 R8.1750
 X47.9030 Y42.1176 R8.1750
 X47.5590 Y43.1310 R8.1750
 X47.0857 Y44.0909 R8.1750
 X46.4911 Y44.9808 R8.1750
 X45.7854 Y45.7854 R8.1750
 X44.9808 Y46.4911 R8.1750
 X44.0909 Y47.0857 R8.1750
 X43.1310 Y47.5590 R8.1750
 X42.1176 Y47.9030 R8.1750
 X41.0679 Y48.1118 R8.1750
 X40.1039 Y48.1750 R8.1750
G01 X9.896
G03 X8.9321 Y48.1118 R8.1750
 X7.8824 Y47.9030 R8.1750
 X6.8690 Y47.5590 R8.1750
 X5.9091 Y47.0857 R8.1750
 X5.0192 Y46.4911 R8.1750
 X4.2146 Y45.7854 R8.1750
 X3.5089 Y44.9808 R8.1750
 X2.9143 Y44.0909 R8.1750
 X2.4410 Y43.1310 R8.1750
 X2.0970 Y42.1176 R8.1750
 X1.8882 Y41.0679 R8.1750
 X1.8250 Y40.1039 R8.1750
G01 Y9.896
G03 X1.8882 Y8.9321 R8.1750
 X2.0970 Y7.8824 R8.1750
 X2.4410 Y6.8690 R8.1750
 X2.9143 Y5.9091 R8.1750
 X3.5089 Y5.0192 R8.1750
 X4.2146 Y4.2146 R8.1750
 X5.0192 Y3.5089 R8.1750
 X5.9091 Y2.9143 R8.1750
 X6.8690 Y2.4410 R8.1750
 X7.8824 Y2.0970 R8.1750
 X8.9321 Y1.8882 R8.1750
 X9.8961 Y1.8250 R8.1750
(Pass: 30)
G01 Z-3.000 F100 
 X40.104 F200 
G03 X41.0679 Y1.8882 R8.1750
 X42.1176 Y2.0970 R8.1750
 X43.1310 Y2.4410 R8.1750
 X44.0909 Y2.9143 R8.1750
 X44.9808 Y3.5089 R8.1750
 X45.7854 Y4.2146 R8.1750
 X46.4911 Y5.0192 R8.1750
 X47.0857 Y5.9091 R8.1750
 X47.5590 Y6.8690 R8.1750
 X47.9030 Y7.8824 R8.1750
 X48.1118 Y8.9321 R8.1750
 X48.1750 Y9.8961 R8.1750
G01 Y40.104
G03 X48.1118 Y41.0679 R8.1750
 X47.9030 Y42.1176 R8.1750
 X47.5590 Y43.1310 R8.1750
 X47.0857 Y44.0909 R8.1750
 X46.4911 Y44.9808 R8.1750
 X45.7854 Y45.7854 R8.1750
 X44.9808 Y46.4911 R8.1750
 X44.0909 Y47.0857 R8.1750
 X43.1310 Y47.5590 R8.1750
 X42.1176 Y47.9030 R8.1750
 X41.0679 Y48.1118 R8.1750
 X40.1039 Y48.1750 R8.1750
G01 X9.896
G03 X8.9321 Y48.1118 R8.1750
 X7.8824 Y47.9030 R8.1750
 X6.8690 Y47.5590 R8.1750
 X5.9091 Y47.0857 R8.1750
 X5.0192 Y46.4911 R8.1750
 X4.2146 Y45.7854 R8.1750
 X3.5089 Y44.9808 R8.1750
 X2.9143 Y44.0909 R8.1750
 X2.4410 Y43.1310 R8.1750
 X2.0970 Y42.1176 R8.1750
 X1.8882 Y41.0679 R8.1750
 X1.8250 Y40.1039 R8.1750
G01 Y9.896
G03 X1.8882 Y8.9321 R8.1750
 X2.0970 Y7.8824 R8.1750
 X2.4410 Y6.8690 R8.1750
 X2.9143 Y5.9091 R8.1750
 X3.5089 Y5.0192 R8.1750
 X4.2146 Y4.2146 R8.1750
 X5.0192 Y3.5089 R8.1750
 X5.9091 Y2.9143 R8.1750
 X6.8690 Y2.4410 R8.1750
 X7.8824 Y2.0970 R8.1750
 X8.9321 Y1.8882 R8.1750
 X9.8961 Y1.8250 R8.1750
(Pass: 31)
G01 Z-3.100 F100 
 X40.104 F200 
G03 X41.0679 Y1.8882 R8.1750
 X42.1176 Y2.0970 R8.1750
 X43.1310 Y2.4410 R8.1750
 X44.0909 Y2.9143 R8.1750
 X44.9808 Y3.5089 R8.1750
 X45.7854 Y4.2146 R8.1750
 X46.4911 Y5.0192 R8.1750
 X47.0857 Y5.9091 R8.1750
 X47.5590 Y6.8690 R8.1750
 X47.9030 Y7.8824 R8.1750
 X48.1118 Y8.9321 R8.1750
 X48.1750 Y9.8961 R8.1750
G01 Y40.104
G03 X48.1118 Y41.0679 R8.1750
 X47.9030 Y42.1176 R8.1750
 X47.5590 Y43.1310 R8.1750
 X47.0857 Y44.0909 R8.1750
 X46.4911 Y44.9808 R8.1750
 X45.7854 Y45.7854 R8.1750
 X44.9808 Y46.4911 R8.1750
 X44.0909 Y47.0857 R8.1750
 X43.1310 Y47.5590 R8.1750
 X42.1176 Y47.9030 R8.1750
 X41.0679 Y48.1118 R8.1750
 X40.1039 Y48.1750 R8.1750
G01 X9.896
G03 X8.9321 Y48.1118 R8.1750
 X7.8824 Y47.9030 R8.1750
 X6.8690 Y47.5590 R8.1750
 X5.9091 Y47.0857 R8.1750
 X5.0192 Y46.4911 R8.1750
 X4.2146 Y45.7854 R8.1750
 X3.5089 Y44.9808 R8.1750
 X2.9143 Y44.0909 R8.1750
 X2.4410 Y43.1310 R8.1750
 X2.0970 Y42.1176 R8.1750
 X1.8882 Y41.0679 R8.1750
 X1.8250 Y40.1039 R8.1750
G01 Y9.896
G03 X1.8882 Y8.9321 R8.1750
 X2.0970 Y7.8824 R8.1750
 X2.4410 Y6.8690 R8.1750
 X2.9143 Y5.9091 R8.1750
 X3.5089 Y5.0192 R8.1750
 X4.2146 Y4.2146 R8.1750
 X5.0192 Y3.5089 R8.1750
 X5.9091 Y2.9143 R8.1750
 X6.8690 Y2.4410 R8.1750
 X7.8824 Y2.0970 R8.1750
 X8.9321 Y1.8882 R8.1750
 X9.8961 Y1.8250 R8.1750
(Pass: 32)
G01 Z-3.200 F100 
 X40.104 F200 
G03 X41.0679 Y1.8882 R8.1750
 X42.1176 Y2.0970 R8.1750
 X43.1310 Y2.4410 R8.1750
 X44.0909 Y2.9143 R8.1750
 X44.9808 Y3.5089 R8.1750
 X45.7854 Y4.2146 R8.1750
 X46.4911 Y5.0192 R8.1750
 X47.0857 Y5.9091 R8.1750
 X47.5590 Y6.8690 R8.1750
 X47.9030 Y7.8824 R8.1750
 X48.1118 Y8.9321 R8.1750
 X48.1750 Y9.8961 R8.1750
G01 Y40.104
G03 X48.1118 Y41.0679 R8.1750
 X47.9030 Y42.1176 R8.1750
 X47.5590 Y43.1310 R8.1750
 X47.0857 Y44.0909 R8.1750
 X46.4911 Y44.9808 R8.1750
 X45.7854 Y45.7854 R8.1750
 X44.9808 Y46.4911 R8.1750
 X44.0909 Y47.0857 R8.1750
 X43.1310 Y47.5590 R8.1750
 X42.1176 Y47.9030 R8.1750
 X41.0679 Y48.1118 R8.1750
 X40.1039 Y48.1750 R8.1750
G01 X9.896
G03 X8.9321 Y48.1118 R8.1750
 X7.8824 Y47.9030 R8.1750
 X6.8690 Y47.5590 R8.1750
 X5.9091 Y47.0857 R8.1750
 X5.0192 Y46.4911 R8.1750
 X4.2146 Y45.7854 R8.1750
 X3.5089 Y44.9808 R8.1750
 X2.9143 Y44.0909 R8.1750
 X2.4410 Y43.1310 R8.1750
 X2.0970 Y42.1176 R8.1750
 X1.8882 Y41.0679 R8.1750
 X1.8250 Y40.1039 R8.1750
G01 Y9.896
G03 X1.8882 Y8.9321 R8.1750
 X2.0970 Y7.8824 R8.1750
 X2.4410 Y6.8690 R8.1750
 X2.9143 Y5.9091 R8.1750
 X3.5089 Y5.0192 R8.1750
 X4.2146 Y4.2146 R8.1750
 X5.0192 Y3.5089 R8.1750
 X5.9091 Y2.9143 R8.1750
 X6.8690 Y2.4410 R8.1750
 X7.8824 Y2.0970 R8.1750
 X8.9321 Y1.8882 R8.1750
 X9.8961 Y1.8250 R8.1750
G00 Z6.000
G00 X0 Y0 (home)
M05
M30
%
