%
(Generated by SketchUcam V1.3a)
(File: CoolingMountPanel.skp)
(Bit diameter: 3.0mm)
(Feed rate: 225.0mm/min)
(Plunge Feed rate: 100.0mm/min)
(Material Thickness: 3.2mm)
(Material length: 2200.0mm X width: 1200.0mm)
(Overhead Gantry: false)
(Multipass enabled, Depth = 1.0mm)
(Optimization is ON)
(www.PhlatBoyz.com)
G90 G21 G49  G17
M3 S22000
G00 Z10.000
(Pass: 1)
 X40.000 Y63.750
(plungebore  DEPTH=3.360  DIAM=3.000)
G00 Z3.333
G01 Z-1.000 F100 
G00 Z3.333
G01 Z-2.000
G00 Z3.333
G01 Z-3.000
G00 Z3.333
G01 Z-3.360
G00 Z3.333
G00 Y63.750 Z10.000
(plungebore end)
(Pass: 1)
G00 Y136.250
(plungebore  DEPTH=3.360  DIAM=3.000)
G00 Z3.333
G01 Z-1.000 F100 
G00 Z3.333
G01 Z-2.000
G00 Z3.333
G01 Z-3.000
G00 Z3.333
G01 Z-3.360
G00 Z3.333
G00 Y136.250 Z10.000
(plungebore end)
(Pass: 1)
G00 X80.000 Y63.750
(plungebore  DEPTH=3.360  DIAM=3.000)
G00 Z3.333
G01 Z-1.000 F100 
G00 Z3.333
G01 Z-2.000
G00 Z3.333
G01 Z-3.000
G00 Z3.333
G01 Z-3.360
G00 Z3.333
G00 Y63.750 Z10.000
(plungebore end)
(Pass: 1)
G00 Y136.250
(plungebore  DEPTH=3.360  DIAM=3.000)
G00 Z3.333
G01 Z-1.000 F100 
G00 Z3.333
G01 Z-2.000
G00 Z3.333
G01 Z-3.000
G00 Z3.333
G01 Z-3.360
G00 Z3.333
G00 Y136.250 Z10.000
(plungebore end)
(Pass: 1)
G00 X120.000 Y52.500
(plungebore  DEPTH=3.360  DIAM=3.000)
G00 Z3.333
G01 Z-1.000 F100 
G00 Z3.333
G01 Z-2.000
G00 Z3.333
G01 Z-3.000
G00 Z3.333
G01 Z-3.360
G00 Z3.333
G00 Y52.500 Z10.000
(plungebore end)
(Pass: 1)
G00 Y147.500
(plungebore  DEPTH=3.360  DIAM=3.000)
G00 Z3.333
G01 Z-1.000 F100 
G00 Z3.333
G01 Z-2.000
G00 Z3.333
G01 Z-3.000
G00 Z3.333
G01 Z-3.360
G00 Z3.333
G00 Y147.500 Z10.000
(plungebore end)
(Pass: 1)
G00 X225.000
(plungebore  DEPTH=3.360  DIAM=3.000)
G00 Z3.333
G01 Z-1.000 F100 
G00 Z3.333
G01 Z-2.000
G00 Z3.333
G01 Z-3.000
G00 Z3.333
G01 Z-3.360
G00 Z3.333
G00 Y147.500 Z10.000
(plungebore end)
(Pass: 1)
G00 Y52.500
(plungebore  DEPTH=3.360  DIAM=3.000)
G00 Z3.333
G01 Z-1.000 F100 
G00 Z3.333
G01 Z-2.000
G00 Z3.333
G01 Z-3.000
G00 Z3.333
G01 Z-3.360
G00 Z3.333
G00 Y52.500 Z10.000
(plungebore end)
(Group: _diam_6.0mm)
(Pass: 1)
G00 X160.000 Y10.000
(plungebore  DEPTH=3.360  DIAM=6.000)
G00 Z3.333
G01 Z-1.000 F100 
G00 Z3.333
G01 Z-2.000
G00 Z3.333
G01 Z-3.000
G00 Z3.333
G01 Z-3.360
G00 Z3.333
G00 Y8.5000
G01 Z0.0000 F225 
G03 X161.5000 Y10.0000 Z-0.2500 I0.0000 J1.5000
G03 X160.0000 Y11.5000 Z-0.5000 I-1.5000 J0.0000
G03 X158.5000 Y10.0000 Z-0.7500 I0.0000 J-1.5000
G03 X160.0000 Y8.5000 Z-1.0000 I1.5000 J0.0000
G03 X161.5000 Y10.0000 Z-1.2500 I0.0000 J1.5000
G03 X160.0000 Y11.5000 Z-1.5000 I-1.5000 J0.0000
G03 X158.5000 Y10.0000 Z-1.7500 I0.0000 J-1.5000
G03 X160.0000 Y8.5000 Z-2.0000 I1.5000 J0.0000
G03 X161.5000 Y10.0000 Z-2.3400 I0.0000 J1.5000
G03 X160.0000 Y11.5000 Z-2.6800 I-1.5000 J0.0000
G03 X158.5000 Y10.0000 Z-3.0200 I0.0000 J-1.5000
G03 X160.0000 Y8.5000 Z-3.3600 I1.5000 J0.0000
G03 X161.5000 Y10.0000 I0.0000 J1.5000
G03 X160.0000 Y11.5000 I-1.5000 J0.0000
G03 X158.5000 Y10.0000 I0.0000 J-1.5000
G03 X160.0000 Y8.5000 I1.5000 J0.0000
G00 Y10.000 Z10.000
(plungebore end)
(Group complete: _diam_6.0mm)
(Group: _diam_6.0mm)
(Pass: 1)
G00 Y190.000
(plungebore  DEPTH=3.360  DIAM=6.000)
G00 Z3.333
G01 Z-1.000 F100 
G00 Z3.333
G01 Z-2.000
G00 Z3.333
G01 Z-3.000
G00 Z3.333
G01 Z-3.360
G00 Z3.333
G00 Y188.5000
G01 Z0.0000 F225 
G03 X161.5000 Y190.0000 Z-0.2500 I0.0000 J1.5000
G03 X160.0000 Y191.5000 Z-0.5000 I-1.5000 J0.0000
G03 X158.5000 Y190.0000 Z-0.7500 I0.0000 J-1.5000
G03 X160.0000 Y188.5000 Z-1.0000 I1.5000 J0.0000
G03 X161.5000 Y190.0000 Z-1.2500 I0.0000 J1.5000
G03 X160.0000 Y191.5000 Z-1.5000 I-1.5000 J0.0000
G03 X158.5000 Y190.0000 Z-1.7500 I0.0000 J-1.5000
G03 X160.0000 Y188.5000 Z-2.0000 I1.5000 J0.0000
G03 X161.5000 Y190.0000 Z-2.3400 I0.0000 J1.5000
G03 X160.0000 Y191.5000 Z-2.6800 I-1.5000 J0.0000
G03 X158.5000 Y190.0000 Z-3.0200 I0.0000 J-1.5000
G03 X160.0000 Y188.5000 Z-3.3600 I1.5000 J0.0000
G03 X161.5000 Y190.0000 I0.0000 J1.5000
G03 X160.0000 Y191.5000 I-1.5000 J0.0000
G03 X158.5000 Y190.0000 I0.0000 J-1.5000
G03 X160.0000 Y188.5000 I1.5000 J0.0000
G00 Y190.000 Z10.000
(plungebore end)
(Group complete: _diam_6.0mm)
G00 X0 Y0 (home)
M05
M30
%
