%
(Generated by SketchUcam {1.2})
(File: power panel.skp)
(Bit diameter: 0.2mm)
(Feed rate: 40.0mm/min)
(Material Thickness: 3.0mm)
(Material length: 558.8mm X width: 1066.8mm)
(Overhead Gantry: true)
(Retract feed rate NOT limited to plunge feed rate)
(Optimization is ON)
(www.PhlatBoyz.com)
G90 G21 G49
M5
G0
   X40.316       Y102.906
M3
G17 G2 F40   X37.6869      Y103.9922     R10.9000
   X35.4281      Y105.7223     R10.9000
   X33.6940      Y107.9780     R10.9000
   X32.6028      Y110.6057     R10.9000
   X32.2290      Y113.4263     R10.9000
   X32.5979      Y116.2475     R10.9000
   X33.6844      Y118.8772     R10.9000
   X35.4144      Y121.1360     R10.9000
   X37.6702      Y122.8700     R10.9000
   X40.2979      Y123.9612     R10.9000
   X43.1185      Y124.3351     R10.9000
   X45.9397      Y123.9662     R10.9000
   X48.5693      Y122.8797     R10.9000
   X50.8281      Y121.1496     R10.9000
   X52.5622      Y118.8938     R10.9000
   X53.6534      Y116.2661     R10.9000
   X54.0272      Y113.4456     R10.9000
   X53.6583      Y110.6243     R10.9000
   X52.5718      Y107.9947     R10.9000
   X50.8418      Y105.7359     R10.9000
   X48.5860      Y104.0018     R10.9000
   X45.9583      Y102.9107     R10.9000
   X43.1377      Y102.5368     R10.9000
   X40.3165      Y102.9057     R10.9000
M5
G0
   X100.100      Y84.900
M3
G1 F40
   X149.900
   Y80.100
   X100.100
   Y84.900
M5
G0
   X100.692      Y71.869
M3
G17 G2 F40   X102.7055     Y71.4214      R7.9000
   X104.5341     Y70.4683      R7.9000
   X106.0537     Y69.0744      R7.9000
   X107.1608     Y67.3347      R7.9000
   X107.7798     Y65.3677      R7.9000
   X107.8687     Y63.3075      R7.9000
   X107.4214     Y61.2945      R7.9000
   X106.4683     Y59.4659      R7.9000
   X105.0744     Y57.9463      R7.9000
   X103.3347     Y56.8392      R7.9000
   X101.3677     Y56.2202      R7.9000
   X99.3075      Y56.1313      R7.9000
   X97.2945      Y56.5786      R7.9000
   X95.4659      Y57.5317      R7.9000
   X93.9463      Y58.9256      R7.9000
   X92.8392      Y60.6653      R7.9000
   X92.2202      Y62.6323      R7.9000
   X92.1313      Y64.6925      R7.9000
   X92.5786      Y66.7055      R7.9000
   X93.5317      Y68.5341      R7.9000
   X94.9256      Y70.0537      R7.9000
   X96.6653      Y71.1608      R7.9000
   X98.6323      Y71.7798      R7.9000
   X100.6925     Y71.8687      R7.9000
M5
G0
   X117.385      Y66.101
M3
G17 G2 F40   X118.1884     Y67.9999      R7.9000
   X119.4558     Y69.6265      R7.9000
   X121.1009     Y70.8698      R7.9000
   X123.0118     Y71.6448      R7.9000
   X125.0582     Y71.8989      R7.9000
   X127.1006     Y71.6147      R7.9000
   X128.9999     Y70.8116      R7.9000
   X130.6265     Y69.5442      R7.9000
   X131.8698     Y67.8991      R7.9000
   X132.6448     Y65.9882      R7.9000
   X132.8989     Y63.9418      R7.9000
   X132.6147     Y61.8994      R7.9000
   X131.8116     Y60.0001      R7.9000
   X130.5442     Y58.3735      R7.9000
   X128.8991     Y57.1302      R7.9000
   X126.9882     Y56.3552      R7.9000
   X124.9418     Y56.1011      R7.9000
   X122.8994     Y56.3853      R7.9000
   X121.0001     Y57.1884      R7.9000
   X119.3735     Y58.4558      R7.9000
   X118.1302     Y60.1009      R7.9000
   X117.3552     Y62.0118      R7.9000
   X117.1011     Y64.0582      R7.9000
   X117.3853     Y66.1006      R7.9000
M5
G0
   X142.105      Y63.746
M3
G17 G2 F40   X142.3082     Y65.7981      R7.9000
   X143.0357     Y67.7276      R7.9000
   X144.2378     Y69.4031      R7.9000
   X145.8326     Y70.7104      R7.9000
   X147.7114     Y71.5603      R7.9000
   X149.7461     Y71.8951      R7.9000
   X151.7981     Y71.6918      R7.9000
   X153.7276     Y70.9643      R7.9000
   X155.4031     Y69.7622      R7.9000
   X156.7104     Y68.1674      R7.9000
   X157.5603     Y66.2886      R7.9000
   X157.8951     Y64.2539      R7.9000
   X157.6918     Y62.2019      R7.9000
   X156.9643     Y60.2724      R7.9000
   X155.7622     Y58.5969      R7.9000
   X154.1674     Y57.2896      R7.9000
   X152.2886     Y56.4397      R7.9000
   X150.2539     Y56.1049      R7.9000
   X148.2019     Y56.3082      R7.9000
   X146.2724     Y57.0357      R7.9000
   X144.5969     Y58.2378      R7.9000
   X143.2896     Y59.8326      R7.9000
   X142.4397     Y61.7114      R7.9000
   X142.1049     Y63.7461      R7.9000
M5
G0
   X162.100      Y80.100
M3
G1 F40
   Y98.900
   X189.900
   Y80.100
   X162.100
M5
G0
   X178.000      Y70.300
M3
G1 F40
   X189.800
   Y58.500
   X178.000
   Y70.300
M5
G0 X0 Y0 (home)
M30
%
