%
(Generated by SketchUcam {1.2a})
(File: power panel.skp)
(Bit diameter: 0.4mm)
(Feed rate: 40.0mm/min)
(Material Thickness: 3.0mm)
(Material length: 558.8mm X width: 1066.8mm)
(Overhead Gantry: true)
(Retract feed rate NOT limited to plunge feed rate)
(Optimization is ON)
(www.PhlatBoyz.com)
G90 G21 G49
M5
G0
   X40.343       Y103.003
M3
G17 G2   X37.7372      Y104.0796     R10.8000
   X35.4993      Y105.7937     R10.8000
   X33.7813      Y108.0285     R10.8000
   X32.7002      Y110.6319     R10.8000
   X32.3298      Y113.4264     R10.8000
   X32.6953      Y116.2215     R10.8000
   X33.7718      Y118.8268     R10.8000
   X35.4858      Y121.0647     R10.8000
   X37.7207      Y122.7827     R10.8000
   X40.3241      Y123.8638     R10.8000
   X43.1186      Y124.2342     R10.8000
   X45.9137      Y123.8687     R10.8000
   X48.5190      Y122.7923     R10.8000
   X50.7569      Y121.0782     R10.8000
   X52.4749      Y118.8433     R10.8000
   X53.5560      Y116.2399     R10.8000
   X53.9264      Y113.4455     R10.8000
   X53.5609      Y110.6503     R10.8000
   X52.4844      Y108.0451     R10.8000
   X50.7704      Y105.8071     R10.8000
   X48.5355      Y104.0891     R10.8000
   X45.9321      Y103.0081     R10.8000
   X43.1376      Y102.6377     R10.8000
   X40.3425      Y103.0031     R10.8000
M5
G0
   X100.200      Y84.800
M3
G1      F40
   X149.800
   Y80.200
   X100.200
   Y84.800
M5
G0
   X100.684      Y71.768
M3
G17 G2   X102.6709     Y71.3266      R7.8000
   X104.4762     Y70.3857      R7.8000
   X105.9764     Y69.0096      R7.8000
   X107.0693     Y67.2921      R7.8000
   X107.6805     Y65.3502      R7.8000
   X107.7683     Y63.3164      R7.8000
   X107.3266     Y61.3291      R7.8000
   X106.3857     Y59.5238      R7.8000
   X105.0096     Y58.0236      R7.8000
   X103.2921     Y56.9307      R7.8000
   X101.3502     Y56.3195      R7.8000
   X99.3164      Y56.2317      R7.8000
   X97.3291      Y56.6734      R7.8000
   X95.5238      Y57.6143      R7.8000
   X94.0236      Y58.9904      R7.8000
   X92.9307      Y60.7079      R7.8000
   X92.3195      Y62.6498      R7.8000
   X92.2317      Y64.6836      R7.8000
   X92.6734      Y66.6709      R7.8000
   X93.6143      Y68.4762      R7.8000
   X94.9904      Y69.9764      R7.8000
   X96.7079      Y71.0693      R7.8000
   X98.6498      Y71.6805      R7.8000
   X100.6836     Y71.7683      R7.8000
M5
G0
   X117.483      Y66.074
M3
G17 G2   X118.2754     Y67.9488      R7.8000
   X119.5266     Y69.5547      R7.8000
   X121.1507     Y70.7820      R7.8000
   X123.0372     Y71.5472      R7.8000
   X125.0574     Y71.7981      R7.8000
   X127.0738     Y71.5175      R7.8000
   X128.9488     Y70.7246      R7.8000
   X130.5547     Y69.4734      R7.8000
   X131.7820     Y67.8493      R7.8000
   X132.5472     Y65.9628      R7.8000
   X132.7981     Y63.9426      R7.8000
   X132.5175     Y61.9262      R7.8000
   X131.7246     Y60.0512      R7.8000
   X130.4734     Y58.4453      R7.8000
   X128.8493     Y57.2180      R7.8000
   X126.9628     Y56.4528      R7.8000
   X124.9426     Y56.2019      R7.8000
   X122.9262     Y56.4825      R7.8000
   X121.0512     Y57.2754      R7.8000
   X119.4453     Y58.5266      R7.8000
   X118.2180     Y60.1507      R7.8000
   X117.4528     Y62.0372      R7.8000
   X117.2019     Y64.0574      R7.8000
   X117.4825     Y66.0738      R7.8000
M5
G0
   X142.206      Y63.749
M3
G17 G2   X142.4065     Y65.7752      R7.8000
   X143.1247     Y67.6800      R7.8000
   X144.3114     Y69.3341      R7.8000
   X145.8858     Y70.6247      R7.8000
   X147.7406     Y71.4638      R7.8000
   X149.7493     Y71.7942      R7.8000
   X151.7752     Y71.5935      R7.8000
   X153.6800     Y70.8753      R7.8000
   X155.3341     Y69.6886      R7.8000
   X156.6247     Y68.1142      R7.8000
   X157.4638     Y66.2594      R7.8000
   X157.7942     Y64.2507      R7.8000
   X157.5935     Y62.2248      R7.8000
   X156.8753     Y60.3200      R7.8000
   X155.6886     Y58.6659      R7.8000
   X154.1142     Y57.3753      R7.8000
   X152.2594     Y56.5362      R7.8000
   X150.2507     Y56.2058      R7.8000
   X148.2248     Y56.4065      R7.8000
   X146.3200     Y57.1247      R7.8000
   X144.6659     Y58.3114      R7.8000
   X143.3753     Y59.8858      R7.8000
   X142.5362     Y61.7406      R7.8000
   X142.2058     Y63.7493      R7.8000
M5
G0
   X162.200      Y80.200
M3
G1       F40
   Y98.800
   X189.800
   Y80.200
   X162.200
M5
G0
   X170.200      Y70.200
M3
G1      F40
   X181.800
   Y58.600
   X170.200
   Y70.200
M5
G0 X0 Y0 (home)
M05
M30
%
