%
(Generated by SketchUcam {1.2})
(File: Router Plates.skp)
(Bit diameter: 3.2mm)
(Feed rate: 400.0mm/min)
(Plunge Feed rate: 100.0mm/min)
(Material Thickness: 6.3mm)
(Material length: 304.0mm X width: 608.0mm)
(Overhead Gantry: true)
(Retract feed rate NOT limited to plunge feed rate)
(Multipass enabled, Depth = 1.0mm)
(Optimization is ON)
(Z ZERO IS TABLETOP)
(www.PhlatBoyz.com)
G90 G21 G49 
M3 S15000
G0   Z21.300    
(Pass: 1)
   X473.124      Y136.836   
G1   Z5.300      F100 
G17 G2   X473.3195     Y136.3647     R1.9685     F400 
   X473.6301     Y135.9599     R1.9685    
   X474.0349     Y135.6493     R1.9685    
   X474.5064     Y135.4540     R1.9685    
   X475.0123     Y135.3874     R1.9685    
   X475.5182     Y135.4540     R1.9685    
   X475.9896     Y135.6493     R1.9685    
   X476.3944     Y135.9599     R1.9685    
   X476.7051     Y136.3647     R1.9685    
   X476.9004     Y136.8362     R1.9685    
   X476.9670     Y137.3421     R1.9685    
   X476.9004     Y137.8480     R1.9685    
   X476.7051     Y138.3194     R1.9685    
   X476.3944     Y138.7242     R1.9685    
   X475.9896     Y139.0349     R1.9685    
   X475.5182     Y139.2302     R1.9685    
   X475.0123     Y139.2968     R1.9685    
   X474.5064     Y139.2302     R1.9685    
   X474.0349     Y139.0349     R1.9685    
   X473.6301     Y138.7242     R1.9685    
   X473.3195     Y138.3194     R1.9685    
   X473.1242     Y137.8480     R1.9685    
   X473.0576     Y137.3421     R1.9685    
   X473.1242     Y136.8362     R1.9685    
(Pass: 2)
G1   Z4.300      F100 
G17 G2   X473.3195     Y136.3647     R1.9685     F400 
   X473.6301     Y135.9599     R1.9685    
   X474.0349     Y135.6493     R1.9685    
   X474.5064     Y135.4540     R1.9685    
   X475.0123     Y135.3874     R1.9685    
   X475.5182     Y135.4540     R1.9685    
   X475.9896     Y135.6493     R1.9685    
   X476.3944     Y135.9599     R1.9685    
   X476.7051     Y136.3647     R1.9685    
   X476.9004     Y136.8362     R1.9685    
   X476.9670     Y137.3421     R1.9685    
   X476.9004     Y137.8480     R1.9685    
   X476.7051     Y138.3194     R1.9685    
   X476.3944     Y138.7242     R1.9685    
   X475.9896     Y139.0349     R1.9685    
   X475.5182     Y139.2302     R1.9685    
   X475.0123     Y139.2968     R1.9685    
   X474.5064     Y139.2302     R1.9685    
   X474.0349     Y139.0349     R1.9685    
   X473.6301     Y138.7242     R1.9685    
   X473.3195     Y138.3194     R1.9685    
   X473.1242     Y137.8480     R1.9685    
   X473.0576     Y137.3421     R1.9685    
   X473.1242     Y136.8362     R1.9685    
(Pass: 3)
G1   Z3.300      F100 
G17 G2   X473.3195     Y136.3647     R1.9685     F400 
   X473.6301     Y135.9599     R1.9685    
   X474.0349     Y135.6493     R1.9685    
   X474.5064     Y135.4540     R1.9685    
   X475.0123     Y135.3874     R1.9685    
   X475.5182     Y135.4540     R1.9685    
   X475.9896     Y135.6493     R1.9685    
   X476.3944     Y135.9599     R1.9685    
   X476.7051     Y136.3647     R1.9685    
   X476.9004     Y136.8362     R1.9685    
   X476.9670     Y137.3421     R1.9685    
   X476.9004     Y137.8480     R1.9685    
   X476.7051     Y138.3194     R1.9685    
   X476.3944     Y138.7242     R1.9685    
   X475.9896     Y139.0349     R1.9685    
   X475.5182     Y139.2302     R1.9685    
   X475.0123     Y139.2968     R1.9685    
   X474.5064     Y139.2302     R1.9685    
   X474.0349     Y139.0349     R1.9685    
   X473.6301     Y138.7242     R1.9685    
   X473.3195     Y138.3194     R1.9685    
   X473.1242     Y137.8480     R1.9685    
   X473.0576     Y137.3421     R1.9685    
   X473.1242     Y136.8362     R1.9685    
(Pass: 4)
G1   Z2.300      F100 
G17 G2   X473.3195     Y136.3647     R1.9685     F400 
   X473.6301     Y135.9599     R1.9685    
   X474.0349     Y135.6493     R1.9685    
   X474.5064     Y135.4540     R1.9685    
   X475.0123     Y135.3874     R1.9685    
   X475.5182     Y135.4540     R1.9685    
   X475.9896     Y135.6493     R1.9685    
   X476.3944     Y135.9599     R1.9685    
   X476.7051     Y136.3647     R1.9685    
   X476.9004     Y136.8362     R1.9685    
   X476.9670     Y137.3421     R1.9685    
   X476.9004     Y137.8480     R1.9685    
   X476.7051     Y138.3194     R1.9685    
   X476.3944     Y138.7242     R1.9685    
   X475.9896     Y139.0349     R1.9685    
   X475.5182     Y139.2302     R1.9685    
   X475.0123     Y139.2968     R1.9685    
   X474.5064     Y139.2302     R1.9685    
   X474.0349     Y139.0349     R1.9685    
   X473.6301     Y138.7242     R1.9685    
   X473.3195     Y138.3194     R1.9685    
   X473.1242     Y137.8480     R1.9685    
   X473.0576     Y137.3421     R1.9685    
   X473.1242     Y136.8362     R1.9685    
(Pass: 5)
G1   Z1.300      F100 
G17 G2   X473.3195     Y136.3647     R1.9685     F400 
   X473.6301     Y135.9599     R1.9685    
   X474.0349     Y135.6493     R1.9685    
   X474.5064     Y135.4540     R1.9685    
   X475.0123     Y135.3874     R1.9685    
   X475.5182     Y135.4540     R1.9685    
   X475.9896     Y135.6493     R1.9685    
   X476.3944     Y135.9599     R1.9685    
   X476.7051     Y136.3647     R1.9685    
   X476.9004     Y136.8362     R1.9685    
   X476.9670     Y137.3421     R1.9685    
   X476.9004     Y137.8480     R1.9685    
   X476.7051     Y138.3194     R1.9685    
   X476.3944     Y138.7242     R1.9685    
   X475.9896     Y139.0349     R1.9685    
   X475.5182     Y139.2302     R1.9685    
   X475.0123     Y139.2968     R1.9685    
   X474.5064     Y139.2302     R1.9685    
   X474.0349     Y139.0349     R1.9685    
   X473.6301     Y138.7242     R1.9685    
   X473.3195     Y138.3194     R1.9685    
   X473.1242     Y137.8480     R1.9685    
   X473.0576     Y137.3421     R1.9685    
   X473.1242     Y136.8362     R1.9685    
(Pass: 6)
G1   Z0.300      F100 
G17 G2   X473.3195     Y136.3647     R1.9685     F400 
   X473.6301     Y135.9599     R1.9685    
   X474.0349     Y135.6493     R1.9685    
   X474.5064     Y135.4540     R1.9685    
   X475.0123     Y135.3874     R1.9685    
   X475.5182     Y135.4540     R1.9685    
   X475.9896     Y135.6493     R1.9685    
   X476.3944     Y135.9599     R1.9685    
   X476.7051     Y136.3647     R1.9685    
   X476.9004     Y136.8362     R1.9685    
   X476.9670     Y137.3421     R1.9685    
   X476.9004     Y137.8480     R1.9685    
   X476.7051     Y138.3194     R1.9685    
   X476.3944     Y138.7242     R1.9685    
   X475.9896     Y139.0349     R1.9685    
   X475.5182     Y139.2302     R1.9685    
   X475.0123     Y139.2968     R1.9685    
   X474.5064     Y139.2302     R1.9685    
   X474.0349     Y139.0349     R1.9685    
   X473.6301     Y138.7242     R1.9685    
   X473.3195     Y138.3194     R1.9685    
   X473.1242     Y137.8480     R1.9685    
   X473.0576     Y137.3421     R1.9685    
   X473.1242     Y136.8362     R1.9685    
(Pass: 7)
G1   Z0.000      F100 
G17 G2   X473.3195     Y136.3647     R1.9685     F400 
   X473.6301     Y135.9599     R1.9685    
   X474.0349     Y135.6493     R1.9685    
   X474.5064     Y135.4540     R1.9685    
   X475.0123     Y135.3874     R1.9685    
   X475.5182     Y135.4540     R1.9685    
   X475.9896     Y135.6493     R1.9685    
   X476.3944     Y135.9599     R1.9685    
   X476.7051     Y136.3647     R1.9685    
   X476.9004     Y136.8362     R1.9685    
   X476.9670     Y137.3421     R1.9685    
   X476.9004     Y137.8480     R1.9685    
   X476.7051     Y138.3194     R1.9685    
   X476.3944     Y138.7242     R1.9685    
   X475.9896     Y139.0349     R1.9685    
   X475.5182     Y139.2302     R1.9685    
   X475.0123     Y139.2968     R1.9685    
   X474.5064     Y139.2302     R1.9685    
   X474.0349     Y139.0349     R1.9685    
   X473.6301     Y138.7242     R1.9685    
   X473.3195     Y138.3194     R1.9685    
   X473.1242     Y137.8480     R1.9685    
   X473.0576     Y137.3421     R1.9685    
   X473.1242     Y136.8362     R1.9685    
G0   Z21.300    
(Pass: 1)
   X467.308      Y171.159   
G1   Z5.300      F100 
G17 G2   X467.5376     Y171.1888     R0.9000     F400 
   X467.7514     Y171.2773     R0.9000    
   X467.9349     Y171.4181     R0.9000    
   X468.0757     Y171.6017     R0.9000    
   X468.1643     Y171.8154     R0.9000    
   X468.1945     Y172.0448     R0.9000    
   X468.1643     Y172.2741     R0.9000    
   X468.0757     Y172.4879     R0.9000    
   X467.9349     Y172.6714     R0.9000    
   X467.7514     Y172.8122     R0.9000    
   X467.5376     Y172.9008     R0.9000    
   X467.3083     Y172.9310     R0.9000    
   X467.0789     Y172.9008     R0.9000    
   X467.0172     Y172.8752     R0.9000    
   X466.8652     Y172.8122     R0.9000    
   X466.6816     Y172.6714     R0.9000    
   X466.5408     Y172.4879     R0.9000    
   X466.4523     Y172.2741     R0.9000    
   X466.4221     Y172.0448     R0.9000    
   X466.4523     Y171.8154     R0.9000    
   X466.5408     Y171.6017     R0.9000    
   X466.6816     Y171.4181     R0.9000    
   X466.8652     Y171.2773     R0.9000    
   X467.0172     Y171.2143     R0.9000    
   X467.0789     Y171.1888     R0.9000    
   X467.3083     Y171.1586     R0.9000    
(Pass: 2)
G1   Z4.300      F100 
G17 G2   X467.5376     Y171.1888     R0.9000     F400 
   X467.7514     Y171.2773     R0.9000    
   X467.9349     Y171.4181     R0.9000    
   X468.0757     Y171.6017     R0.9000    
   X468.1643     Y171.8154     R0.9000    
   X468.1945     Y172.0448     R0.9000    
   X468.1643     Y172.2741     R0.9000    
   X468.0757     Y172.4879     R0.9000    
   X467.9349     Y172.6714     R0.9000    
   X467.7514     Y172.8122     R0.9000    
   X467.5376     Y172.9008     R0.9000    
   X467.3083     Y172.9310     R0.9000    
   X467.0789     Y172.9008     R0.9000    
   X467.0172     Y172.8752     R0.9000    
   X466.8652     Y172.8122     R0.9000    
   X466.6816     Y172.6714     R0.9000    
   X466.5408     Y172.4879     R0.9000    
   X466.4523     Y172.2741     R0.9000    
   X466.4221     Y172.0448     R0.9000    
   X466.4523     Y171.8154     R0.9000    
   X466.5408     Y171.6017     R0.9000    
   X466.6816     Y171.4181     R0.9000    
   X466.8652     Y171.2773     R0.9000    
   X467.0172     Y171.2143     R0.9000    
   X467.0789     Y171.1888     R0.9000    
   X467.3083     Y171.1586     R0.9000    
(Pass: 3)
G1   Z3.300      F100 
G17 G2   X467.5376     Y171.1888     R0.9000     F400 
   X467.7514     Y171.2773     R0.9000    
   X467.9349     Y171.4181     R0.9000    
   X468.0757     Y171.6017     R0.9000    
   X468.1643     Y171.8154     R0.9000    
   X468.1945     Y172.0448     R0.9000    
   X468.1643     Y172.2741     R0.9000    
   X468.0757     Y172.4879     R0.9000    
   X467.9349     Y172.6714     R0.9000    
   X467.7514     Y172.8122     R0.9000    
   X467.5376     Y172.9008     R0.9000    
   X467.3083     Y172.9310     R0.9000    
   X467.0789     Y172.9008     R0.9000    
   X467.0172     Y172.8752     R0.9000    
   X466.8652     Y172.8122     R0.9000    
   X466.6816     Y172.6714     R0.9000    
   X466.5408     Y172.4879     R0.9000    
   X466.4523     Y172.2741     R0.9000    
   X466.4221     Y172.0448     R0.9000    
   X466.4523     Y171.8154     R0.9000    
   X466.5408     Y171.6017     R0.9000    
   X466.6816     Y171.4181     R0.9000    
   X466.8652     Y171.2773     R0.9000    
   X467.0172     Y171.2143     R0.9000    
   X467.0789     Y171.1888     R0.9000    
   X467.3083     Y171.1586     R0.9000    
(Pass: 4)
G1   Z2.300      F100 
G17 G2   X467.5376     Y171.1888     R0.9000     F400 
   X467.7514     Y171.2773     R0.9000    
   X467.9349     Y171.4181     R0.9000    
   X468.0757     Y171.6017     R0.9000    
   X468.1643     Y171.8154     R0.9000    
   X468.1945     Y172.0448     R0.9000    
   X468.1643     Y172.2741     R0.9000    
   X468.0757     Y172.4879     R0.9000    
   X467.9349     Y172.6714     R0.9000    
   X467.7514     Y172.8122     R0.9000    
   X467.5376     Y172.9008     R0.9000    
   X467.3083     Y172.9310     R0.9000    
   X467.0789     Y172.9008     R0.9000    
   X467.0172     Y172.8752     R0.9000    
   X466.8652     Y172.8122     R0.9000    
   X466.6816     Y172.6714     R0.9000    
   X466.5408     Y172.4879     R0.9000    
   X466.4523     Y172.2741     R0.9000    
   X466.4221     Y172.0448     R0.9000    
   X466.4523     Y171.8154     R0.9000    
   X466.5408     Y171.6017     R0.9000    
   X466.6816     Y171.4181     R0.9000    
   X466.8652     Y171.2773     R0.9000    
   X467.0172     Y171.2143     R0.9000    
   X467.0789     Y171.1888     R0.9000    
   X467.3083     Y171.1586     R0.9000    
(Pass: 5)
G1   Z1.300      F100 
G17 G2   X467.5376     Y171.1888     R0.9000     F400 
   X467.7514     Y171.2773     R0.9000    
   X467.9349     Y171.4181     R0.9000    
   X468.0757     Y171.6017     R0.9000    
   X468.1643     Y171.8154     R0.9000    
   X468.1945     Y172.0448     R0.9000    
   X468.1643     Y172.2741     R0.9000    
   X468.0757     Y172.4879     R0.9000    
   X467.9349     Y172.6714     R0.9000    
   X467.7514     Y172.8122     R0.9000    
   X467.5376     Y172.9008     R0.9000    
   X467.3083     Y172.9310     R0.9000    
   X467.0789     Y172.9008     R0.9000    
   X467.0172     Y172.8752     R0.9000    
   X466.8652     Y172.8122     R0.9000    
   X466.6816     Y172.6714     R0.9000    
   X466.5408     Y172.4879     R0.9000    
   X466.4523     Y172.2741     R0.9000    
   X466.4221     Y172.0448     R0.9000    
   X466.4523     Y171.8154     R0.9000    
   X466.5408     Y171.6017     R0.9000    
   X466.6816     Y171.4181     R0.9000    
   X466.8652     Y171.2773     R0.9000    
   X467.0172     Y171.2143     R0.9000    
   X467.0789     Y171.1888     R0.9000    
   X467.3083     Y171.1586     R0.9000    
(Pass: 6)
G1   Z0.300      F100 
G17 G2   X467.5376     Y171.1888     R0.9000     F400 
   X467.7514     Y171.2773     R0.9000    
   X467.9349     Y171.4181     R0.9000    
   X468.0757     Y171.6017     R0.9000    
   X468.1643     Y171.8154     R0.9000    
   X468.1945     Y172.0448     R0.9000    
   X468.1643     Y172.2741     R0.9000    
   X468.0757     Y172.4879     R0.9000    
   X467.9349     Y172.6714     R0.9000    
   X467.7514     Y172.8122     R0.9000    
   X467.5376     Y172.9008     R0.9000    
   X467.3083     Y172.9310     R0.9000    
   X467.0789     Y172.9008     R0.9000    
   X467.0172     Y172.8752     R0.9000    
   X466.8652     Y172.8122     R0.9000    
   X466.6816     Y172.6714     R0.9000    
   X466.5408     Y172.4879     R0.9000    
   X466.4523     Y172.2741     R0.9000    
   X466.4221     Y172.0448     R0.9000    
   X466.4523     Y171.8154     R0.9000    
   X466.5408     Y171.6017     R0.9000    
   X466.6816     Y171.4181     R0.9000    
   X466.8652     Y171.2773     R0.9000    
   X467.0172     Y171.2143     R0.9000    
   X467.0789     Y171.1888     R0.9000    
   X467.3083     Y171.1586     R0.9000    
(Pass: 7)
G1   Z0.000      F100 
G17 G2   X467.5376     Y171.1888     R0.9000     F400 
   X467.7514     Y171.2773     R0.9000    
   X467.9349     Y171.4181     R0.9000    
   X468.0757     Y171.6017     R0.9000    
   X468.1643     Y171.8154     R0.9000    
   X468.1945     Y172.0448     R0.9000    
   X468.1643     Y172.2741     R0.9000    
   X468.0757     Y172.4879     R0.9000    
   X467.9349     Y172.6714     R0.9000    
   X467.7514     Y172.8122     R0.9000    
   X467.5376     Y172.9008     R0.9000    
   X467.3083     Y172.9310     R0.9000    
   X467.0789     Y172.9008     R0.9000    
   X467.0172     Y172.8752     R0.9000    
   X466.8652     Y172.8122     R0.9000    
   X466.6816     Y172.6714     R0.9000    
   X466.5408     Y172.4879     R0.9000    
   X466.4523     Y172.2741     R0.9000    
   X466.4221     Y172.0448     R0.9000    
   X466.4523     Y171.8154     R0.9000    
   X466.5408     Y171.6017     R0.9000    
   X466.6816     Y171.4181     R0.9000    
   X466.8652     Y171.2773     R0.9000    
   X467.0172     Y171.2143     R0.9000    
   X467.0789     Y171.1888     R0.9000    
   X467.3083     Y171.1586     R0.9000    
G0   Z21.300    
(Pass: 1)
   X467.168      Y181.169   
G1   Z5.300      F100 
G17 G2   X467.3992     Y181.1636     R0.9000     F400 
   X467.6241     Y181.2180     R0.9000    
   X467.8272     Y181.3287     R0.9000    
   X467.9947     Y181.4883     R0.9000    
   X468.1152     Y181.6858     R0.9000    
   X468.1805     Y181.9077     R0.9000    
   X468.1862     Y182.1390     R0.9000    
   X468.1318     Y182.3638     R0.9000    
   X468.0210     Y182.5669     R0.9000    
   X467.8615     Y182.7345     R0.9000    
   X467.6640     Y182.8550     R0.9000    
   X467.4421     Y182.9203     R0.9000    
   X467.2108     Y182.9259     R0.9000    
   X466.9860     Y182.8715     R0.9000    
   X466.7828     Y182.7608     R0.9000    
   X466.6153     Y182.6012     R0.9000    
   X466.4948     Y182.4038     R0.9000    
   X466.4295     Y182.1818     R0.9000    
   X466.4238     Y181.9506     R0.9000    
   X466.4782     Y181.7257     R0.9000    
   X466.5890     Y181.5226     R0.9000    
   X466.7485     Y181.3551     R0.9000    
   X466.9460     Y181.2345     R0.9000    
   X467.1679     Y181.1692     R0.9000    
(Pass: 2)
G1   Z4.300      F100 
G17 G2   X467.3992     Y181.1636     R0.9000     F400 
   X467.6241     Y181.2180     R0.9000    
   X467.8272     Y181.3287     R0.9000    
   X467.9947     Y181.4883     R0.9000    
   X468.1152     Y181.6858     R0.9000    
   X468.1805     Y181.9077     R0.9000    
   X468.1862     Y182.1390     R0.9000    
   X468.1318     Y182.3638     R0.9000    
   X468.0210     Y182.5669     R0.9000    
   X467.8615     Y182.7345     R0.9000    
   X467.6640     Y182.8550     R0.9000    
   X467.4421     Y182.9203     R0.9000    
   X467.2108     Y182.9259     R0.9000    
   X466.9860     Y182.8715     R0.9000    
   X466.7828     Y182.7608     R0.9000    
   X466.6153     Y182.6012     R0.9000    
   X466.4948     Y182.4038     R0.9000    
   X466.4295     Y182.1818     R0.9000    
   X466.4238     Y181.9506     R0.9000    
   X466.4782     Y181.7257     R0.9000    
   X466.5890     Y181.5226     R0.9000    
   X466.7485     Y181.3551     R0.9000    
   X466.9460     Y181.2345     R0.9000    
   X467.1679     Y181.1692     R0.9000    
(Pass: 3)
G1   Z3.300      F100 
G17 G2   X467.3992     Y181.1636     R0.9000     F400 
   X467.6241     Y181.2180     R0.9000    
   X467.8272     Y181.3287     R0.9000    
   X467.9947     Y181.4883     R0.9000    
   X468.1152     Y181.6858     R0.9000    
   X468.1805     Y181.9077     R0.9000    
   X468.1862     Y182.1390     R0.9000    
   X468.1318     Y182.3638     R0.9000    
   X468.0210     Y182.5669     R0.9000    
   X467.8615     Y182.7345     R0.9000    
   X467.6640     Y182.8550     R0.9000    
   X467.4421     Y182.9203     R0.9000    
   X467.2108     Y182.9259     R0.9000    
   X466.9860     Y182.8715     R0.9000    
   X466.7828     Y182.7608     R0.9000    
   X466.6153     Y182.6012     R0.9000    
   X466.4948     Y182.4038     R0.9000    
   X466.4295     Y182.1818     R0.9000    
   X466.4238     Y181.9506     R0.9000    
   X466.4782     Y181.7257     R0.9000    
   X466.5890     Y181.5226     R0.9000    
   X466.7485     Y181.3551     R0.9000    
   X466.9460     Y181.2345     R0.9000    
   X467.1679     Y181.1692     R0.9000    
(Pass: 4)
G1   Z2.300      F100 
G17 G2   X467.3992     Y181.1636     R0.9000     F400 
   X467.6241     Y181.2180     R0.9000    
   X467.8272     Y181.3287     R0.9000    
   X467.9947     Y181.4883     R0.9000    
   X468.1152     Y181.6858     R0.9000    
   X468.1805     Y181.9077     R0.9000    
   X468.1862     Y182.1390     R0.9000    
   X468.1318     Y182.3638     R0.9000    
   X468.0210     Y182.5669     R0.9000    
   X467.8615     Y182.7345     R0.9000    
   X467.6640     Y182.8550     R0.9000    
   X467.4421     Y182.9203     R0.9000    
   X467.2108     Y182.9259     R0.9000    
   X466.9860     Y182.8715     R0.9000    
   X466.7828     Y182.7608     R0.9000    
   X466.6153     Y182.6012     R0.9000    
   X466.4948     Y182.4038     R0.9000    
   X466.4295     Y182.1818     R0.9000    
   X466.4238     Y181.9506     R0.9000    
   X466.4782     Y181.7257     R0.9000    
   X466.5890     Y181.5226     R0.9000    
   X466.7485     Y181.3551     R0.9000    
   X466.9460     Y181.2345     R0.9000    
   X467.1679     Y181.1692     R0.9000    
(Pass: 5)
G1   Z1.300      F100 
G17 G2   X467.3992     Y181.1636     R0.9000     F400 
   X467.6241     Y181.2180     R0.9000    
   X467.8272     Y181.3287     R0.9000    
   X467.9947     Y181.4883     R0.9000    
   X468.1152     Y181.6858     R0.9000    
   X468.1805     Y181.9077     R0.9000    
   X468.1862     Y182.1390     R0.9000    
   X468.1318     Y182.3638     R0.9000    
   X468.0210     Y182.5669     R0.9000    
   X467.8615     Y182.7345     R0.9000    
   X467.6640     Y182.8550     R0.9000    
   X467.4421     Y182.9203     R0.9000    
   X467.2108     Y182.9259     R0.9000    
   X466.9860     Y182.8715     R0.9000    
   X466.7828     Y182.7608     R0.9000    
   X466.6153     Y182.6012     R0.9000    
   X466.4948     Y182.4038     R0.9000    
   X466.4295     Y182.1818     R0.9000    
   X466.4238     Y181.9506     R0.9000    
   X466.4782     Y181.7257     R0.9000    
   X466.5890     Y181.5226     R0.9000    
   X466.7485     Y181.3551     R0.9000    
   X466.9460     Y181.2345     R0.9000    
   X467.1679     Y181.1692     R0.9000    
(Pass: 6)
G1   Z0.300      F100 
G17 G2   X467.3992     Y181.1636     R0.9000     F400 
   X467.6241     Y181.2180     R0.9000    
   X467.8272     Y181.3287     R0.9000    
   X467.9947     Y181.4883     R0.9000    
   X468.1152     Y181.6858     R0.9000    
   X468.1805     Y181.9077     R0.9000    
   X468.1862     Y182.1390     R0.9000    
   X468.1318     Y182.3638     R0.9000    
   X468.0210     Y182.5669     R0.9000    
   X467.8615     Y182.7345     R0.9000    
   X467.6640     Y182.8550     R0.9000    
   X467.4421     Y182.9203     R0.9000    
   X467.2108     Y182.9259     R0.9000    
   X466.9860     Y182.8715     R0.9000    
   X466.7828     Y182.7608     R0.9000    
   X466.6153     Y182.6012     R0.9000    
   X466.4948     Y182.4038     R0.9000    
   X466.4295     Y182.1818     R0.9000    
   X466.4238     Y181.9506     R0.9000    
   X466.4782     Y181.7257     R0.9000    
   X466.5890     Y181.5226     R0.9000    
   X466.7485     Y181.3551     R0.9000    
   X466.9460     Y181.2345     R0.9000    
   X467.1679     Y181.1692     R0.9000    
(Pass: 7)
G1   Z0.000      F100 
G17 G2   X467.3992     Y181.1636     R0.9000     F400 
   X467.6241     Y181.2180     R0.9000    
   X467.8272     Y181.3287     R0.9000    
   X467.9947     Y181.4883     R0.9000    
   X468.1152     Y181.6858     R0.9000    
   X468.1805     Y181.9077     R0.9000    
   X468.1862     Y182.1390     R0.9000    
   X468.1318     Y182.3638     R0.9000    
   X468.0210     Y182.5669     R0.9000    
   X467.8615     Y182.7345     R0.9000    
   X467.6640     Y182.8550     R0.9000    
   X467.4421     Y182.9203     R0.9000    
   X467.2108     Y182.9259     R0.9000    
   X466.9860     Y182.8715     R0.9000    
   X466.7828     Y182.7608     R0.9000    
   X466.6153     Y182.6012     R0.9000    
   X466.4948     Y182.4038     R0.9000    
   X466.4295     Y182.1818     R0.9000    
   X466.4238     Y181.9506     R0.9000    
   X466.4782     Y181.7257     R0.9000    
   X466.5890     Y181.5226     R0.9000    
   X466.7485     Y181.3551     R0.9000    
   X466.9460     Y181.2345     R0.9000    
   X467.1679     Y181.1692     R0.9000    
G0   Z21.300    
(Pass: 1)
   X474.783      Y216.626   
G1   Z5.300      F100 
G17 G2   X475.0123     Y216.5959     R0.9000     F400 
   X475.2416     Y216.6261     R0.9000    
   X475.4554     Y216.7146     R0.9000    
   X475.6389     Y216.8554     R0.9000    
   X475.7797     Y217.0390     R0.9000    
   X475.8683     Y217.2527     R0.9000    
   X475.8985     Y217.4821     R0.9000    
   X475.8683     Y217.7114     R0.9000    
   X475.7797     Y217.9252     R0.9000    
   X475.6389     Y218.1087     R0.9000    
   X475.4554     Y218.2495     R0.9000    
   X475.2416     Y218.3381     R0.9000    
   X475.0123     Y218.3683     R0.9000    
   X474.7829     Y218.3381     R0.9000    
   X474.5692     Y218.2495     R0.9000    
   X474.3856     Y218.1087     R0.9000    
   X474.2448     Y217.9252     R0.9000    
   X474.1563     Y217.7114     R0.9000    
   X474.1261     Y217.4821     R0.9000    
   X474.1563     Y217.2527     R0.9000    
   X474.2448     Y217.0390     R0.9000    
   X474.3856     Y216.8554     R0.9000    
   X474.5692     Y216.7146     R0.9000    
   X474.7829     Y216.6261     R0.9000    
(Pass: 2)
G1   Z4.300      F100 
G17 G2   X475.0123     Y216.5959     R0.9000     F400 
   X475.2416     Y216.6261     R0.9000    
   X475.4554     Y216.7146     R0.9000    
   X475.6389     Y216.8554     R0.9000    
   X475.7797     Y217.0390     R0.9000    
   X475.8683     Y217.2527     R0.9000    
   X475.8985     Y217.4821     R0.9000    
   X475.8683     Y217.7114     R0.9000    
   X475.7797     Y217.9252     R0.9000    
   X475.6389     Y218.1087     R0.9000    
   X475.4554     Y218.2495     R0.9000    
   X475.2416     Y218.3381     R0.9000    
   X475.0123     Y218.3683     R0.9000    
   X474.7829     Y218.3381     R0.9000    
   X474.5692     Y218.2495     R0.9000    
   X474.3856     Y218.1087     R0.9000    
   X474.2448     Y217.9252     R0.9000    
   X474.1563     Y217.7114     R0.9000    
   X474.1261     Y217.4821     R0.9000    
   X474.1563     Y217.2527     R0.9000    
   X474.2448     Y217.0390     R0.9000    
   X474.3856     Y216.8554     R0.9000    
   X474.5692     Y216.7146     R0.9000    
   X474.7829     Y216.6261     R0.9000    
(Pass: 3)
G1   Z3.300      F100 
G17 G2   X475.0123     Y216.5959     R0.9000     F400 
   X475.2416     Y216.6261     R0.9000    
   X475.4554     Y216.7146     R0.9000    
   X475.6389     Y216.8554     R0.9000    
   X475.7797     Y217.0390     R0.9000    
   X475.8683     Y217.2527     R0.9000    
   X475.8985     Y217.4821     R0.9000    
   X475.8683     Y217.7114     R0.9000    
   X475.7797     Y217.9252     R0.9000    
   X475.6389     Y218.1087     R0.9000    
   X475.4554     Y218.2495     R0.9000    
   X475.2416     Y218.3381     R0.9000    
   X475.0123     Y218.3683     R0.9000    
   X474.7829     Y218.3381     R0.9000    
   X474.5692     Y218.2495     R0.9000    
   X474.3856     Y218.1087     R0.9000    
   X474.2448     Y217.9252     R0.9000    
   X474.1563     Y217.7114     R0.9000    
   X474.1261     Y217.4821     R0.9000    
   X474.1563     Y217.2527     R0.9000    
   X474.2448     Y217.0390     R0.9000    
   X474.3856     Y216.8554     R0.9000    
   X474.5692     Y216.7146     R0.9000    
   X474.7829     Y216.6261     R0.9000    
(Pass: 4)
G1   Z2.300      F100 
G17 G2   X475.0123     Y216.5959     R0.9000     F400 
   X475.2416     Y216.6261     R0.9000    
   X475.4554     Y216.7146     R0.9000    
   X475.6389     Y216.8554     R0.9000    
   X475.7797     Y217.0390     R0.9000    
   X475.8683     Y217.2527     R0.9000    
   X475.8985     Y217.4821     R0.9000    
   X475.8683     Y217.7114     R0.9000    
   X475.7797     Y217.9252     R0.9000    
   X475.6389     Y218.1087     R0.9000    
   X475.4554     Y218.2495     R0.9000    
   X475.2416     Y218.3381     R0.9000    
   X475.0123     Y218.3683     R0.9000    
   X474.7829     Y218.3381     R0.9000    
   X474.5692     Y218.2495     R0.9000    
   X474.3856     Y218.1087     R0.9000    
   X474.2448     Y217.9252     R0.9000    
   X474.1563     Y217.7114     R0.9000    
   X474.1261     Y217.4821     R0.9000    
   X474.1563     Y217.2527     R0.9000    
   X474.2448     Y217.0390     R0.9000    
   X474.3856     Y216.8554     R0.9000    
   X474.5692     Y216.7146     R0.9000    
   X474.7829     Y216.6261     R0.9000    
(Pass: 5)
G1   Z1.300      F100 
G17 G2   X475.0123     Y216.5959     R0.9000     F400 
   X475.2416     Y216.6261     R0.9000    
   X475.4554     Y216.7146     R0.9000    
   X475.6389     Y216.8554     R0.9000    
   X475.7797     Y217.0390     R0.9000    
   X475.8683     Y217.2527     R0.9000    
   X475.8985     Y217.4821     R0.9000    
   X475.8683     Y217.7114     R0.9000    
   X475.7797     Y217.9252     R0.9000    
   X475.6389     Y218.1087     R0.9000    
   X475.4554     Y218.2495     R0.9000    
   X475.2416     Y218.3381     R0.9000    
   X475.0123     Y218.3683     R0.9000    
   X474.7829     Y218.3381     R0.9000    
   X474.5692     Y218.2495     R0.9000    
   X474.3856     Y218.1087     R0.9000    
   X474.2448     Y217.9252     R0.9000    
   X474.1563     Y217.7114     R0.9000    
   X474.1261     Y217.4821     R0.9000    
   X474.1563     Y217.2527     R0.9000    
   X474.2448     Y217.0390     R0.9000    
   X474.3856     Y216.8554     R0.9000    
   X474.5692     Y216.7146     R0.9000    
   X474.7829     Y216.6261     R0.9000    
(Pass: 6)
G1   Z0.300      F100 
G17 G2   X475.0123     Y216.5959     R0.9000     F400 
   X475.2416     Y216.6261     R0.9000    
   X475.4554     Y216.7146     R0.9000    
   X475.6389     Y216.8554     R0.9000    
   X475.7797     Y217.0390     R0.9000    
   X475.8683     Y217.2527     R0.9000    
   X475.8985     Y217.4821     R0.9000    
   X475.8683     Y217.7114     R0.9000    
   X475.7797     Y217.9252     R0.9000    
   X475.6389     Y218.1087     R0.9000    
   X475.4554     Y218.2495     R0.9000    
   X475.2416     Y218.3381     R0.9000    
   X475.0123     Y218.3683     R0.9000    
   X474.7829     Y218.3381     R0.9000    
   X474.5692     Y218.2495     R0.9000    
   X474.3856     Y218.1087     R0.9000    
   X474.2448     Y217.9252     R0.9000    
   X474.1563     Y217.7114     R0.9000    
   X474.1261     Y217.4821     R0.9000    
   X474.1563     Y217.2527     R0.9000    
   X474.2448     Y217.0390     R0.9000    
   X474.3856     Y216.8554     R0.9000    
   X474.5692     Y216.7146     R0.9000    
   X474.7829     Y216.6261     R0.9000    
(Pass: 7)
G1   Z0.000      F100 
G17 G2   X475.0123     Y216.5959     R0.9000     F400 
   X475.2416     Y216.6261     R0.9000    
   X475.4554     Y216.7146     R0.9000    
   X475.6389     Y216.8554     R0.9000    
   X475.7797     Y217.0390     R0.9000    
   X475.8683     Y217.2527     R0.9000    
   X475.8985     Y217.4821     R0.9000    
   X475.8683     Y217.7114     R0.9000    
   X475.7797     Y217.9252     R0.9000    
   X475.6389     Y218.1087     R0.9000    
   X475.4554     Y218.2495     R0.9000    
   X475.2416     Y218.3381     R0.9000    
   X475.0123     Y218.3683     R0.9000    
   X474.7829     Y218.3381     R0.9000    
   X474.5692     Y218.2495     R0.9000    
   X474.3856     Y218.1087     R0.9000    
   X474.2448     Y217.9252     R0.9000    
   X474.1563     Y217.7114     R0.9000    
   X474.1261     Y217.4821     R0.9000    
   X474.1563     Y217.2527     R0.9000    
   X474.2448     Y217.0390     R0.9000    
   X474.3856     Y216.8554     R0.9000    
   X474.5692     Y216.7146     R0.9000    
   X474.7829     Y216.6261     R0.9000    
G0   Z21.300    
(Pass: 1)
   X507.826      Y225.113   
G1   Z5.300      F100 
   X507.918      Y224.890    F400 
   X508.065      Y224.698   
   X508.257      Y224.551   
   X508.481      Y224.458   
   X508.720      Y224.427   
   X508.960      Y224.458   
   X509.183      Y224.551   
   X509.375      Y224.698   
   X509.522      Y224.890   
   X509.615      Y225.113   
   X509.660      Y225.458   
   Y234.248   
   X509.615      Y234.593   
   X509.522      Y234.816   
   X509.375      Y235.008   
   X509.183      Y235.155   
   X508.960      Y235.247   
   X508.720      Y235.279   
   X508.481      Y235.247   
   X508.257      Y235.155   
   X508.065      Y235.008   
   X507.918      Y234.816   
   X507.826      Y234.592   
   X507.780      Y234.248   
   Y225.458   
   X507.826      Y225.113   
(Pass: 2)
   Z4.300      F100 
   X507.918      Y224.890    F400 
   X508.065      Y224.698   
   X508.257      Y224.551   
   X508.481      Y224.458   
   X508.720      Y224.427   
   X508.960      Y224.458   
   X509.183      Y224.551   
   X509.375      Y224.698   
   X509.522      Y224.890   
   X509.615      Y225.113   
   X509.660      Y225.458   
   Y234.248   
   X509.615      Y234.593   
   X509.522      Y234.816   
   X509.375      Y235.008   
   X509.183      Y235.155   
   X508.960      Y235.247   
   X508.720      Y235.279   
   X508.481      Y235.247   
   X508.257      Y235.155   
   X508.065      Y235.008   
   X507.918      Y234.816   
   X507.826      Y234.592   
   X507.780      Y234.248   
   Y225.458   
   X507.826      Y225.113   
(Pass: 3)
   Z3.300      F100 
   X507.918      Y224.890    F400 
   X508.065      Y224.698   
   X508.257      Y224.551   
   X508.481      Y224.458   
   X508.720      Y224.427   
   X508.960      Y224.458   
   X509.183      Y224.551   
   X509.375      Y224.698   
   X509.522      Y224.890   
   X509.615      Y225.113   
   X509.660      Y225.458   
   Y234.248   
   X509.615      Y234.593   
   X509.522      Y234.816   
   X509.375      Y235.008   
   X509.183      Y235.155   
   X508.960      Y235.247   
   X508.720      Y235.279   
   X508.481      Y235.247   
   X508.257      Y235.155   
   X508.065      Y235.008   
   X507.918      Y234.816   
   X507.826      Y234.592   
   X507.780      Y234.248   
   Y225.458   
   X507.826      Y225.113   
(Pass: 4)
   Z2.300      F100 
   X507.918      Y224.890    F400 
   X508.065      Y224.698   
   X508.257      Y224.551   
   X508.481      Y224.458   
   X508.720      Y224.427   
   X508.960      Y224.458   
   X509.183      Y224.551   
   X509.375      Y224.698   
   X509.522      Y224.890   
   X509.615      Y225.113   
   X509.660      Y225.458   
   Y234.248   
   X509.615      Y234.593   
   X509.522      Y234.816   
   X509.375      Y235.008   
   X509.183      Y235.155   
   X508.960      Y235.247   
   X508.720      Y235.279   
   X508.481      Y235.247   
   X508.257      Y235.155   
   X508.065      Y235.008   
   X507.918      Y234.816   
   X507.826      Y234.592   
   X507.780      Y234.248   
   Y225.458   
   X507.826      Y225.113   
(Pass: 5)
   Z1.300      F100 
   X507.918      Y224.890    F400 
   X508.065      Y224.698   
   X508.257      Y224.551   
   X508.481      Y224.458   
   X508.720      Y224.427   
   X508.960      Y224.458   
   X509.183      Y224.551   
   X509.375      Y224.698   
   X509.522      Y224.890   
   X509.615      Y225.113   
   X509.660      Y225.458   
   Y234.248   
   X509.615      Y234.593   
   X509.522      Y234.816   
   X509.375      Y235.008   
   X509.183      Y235.155   
   X508.960      Y235.247   
   X508.720      Y235.279   
   X508.481      Y235.247   
   X508.257      Y235.155   
   X508.065      Y235.008   
   X507.918      Y234.816   
   X507.826      Y234.592   
   X507.780      Y234.248   
   Y225.458   
   X507.826      Y225.113   
(Pass: 6)
   Z0.300      F100 
   X507.918      Y224.890    F400 
   X508.065      Y224.698   
   X508.257      Y224.551   
   X508.481      Y224.458   
   X508.720      Y224.427   
   X508.960      Y224.458   
   X509.183      Y224.551   
   X509.375      Y224.698   
   X509.522      Y224.890   
   X509.615      Y225.113   
   X509.660      Y225.458   
   Y234.248   
   X509.615      Y234.593   
   X509.522      Y234.816   
   X509.375      Y235.008   
   X509.183      Y235.155   
   X508.960      Y235.247   
   X508.720      Y235.279   
   X508.481      Y235.247   
   X508.257      Y235.155   
   X508.065      Y235.008   
   X507.918      Y234.816   
   X507.826      Y234.592   
   X507.780      Y234.248   
   Y225.458   
   X507.826      Y225.113   
(Pass: 7)
   Z0.000      F100 
   X507.918      Y224.890    F400 
   X508.065      Y224.698   
   X508.257      Y224.551   
   X508.481      Y224.458   
   X508.720      Y224.427   
   X508.960      Y224.458   
   X509.183      Y224.551   
   X509.375      Y224.698   
   X509.522      Y224.890   
   X509.615      Y225.113   
   X509.660      Y225.458   
   Y234.248   
   X509.615      Y234.593   
   X509.522      Y234.816   
   X509.375      Y235.008   
   X509.183      Y235.155   
   X508.960      Y235.247   
   X508.720      Y235.279   
   X508.481      Y235.247   
   X508.257      Y235.155   
   X508.065      Y235.008   
   X507.918      Y234.816   
   X507.826      Y234.592   
   X507.780      Y234.248   
   Y225.458   
   X507.826      Y225.113   
G0   Z21.300    
(Pass: 1)
   X524.655      Y240.769   
G1   Z5.300      F100 
G17 G2   X526.9092     Y239.0392     R10.9000    F400 
   X529.5347     Y237.9517     R10.9000   
   X532.3523     Y237.5807     R10.9000   
   X535.1698     Y237.9517     R10.9000   
   X537.7954     Y239.0392     R10.9000   
   X540.0500     Y240.7692     R10.9000   
   X541.7800     Y243.0238     R10.9000   
   X542.8675     Y245.6494     R10.9000   
   X543.2523     Y248.5718     R10.9000   
G1   Y258.362   
G17 G2   X542.8675     Y261.2845     R10.9000   
   X541.7800     Y263.9100     R10.9000   
   X540.0500     Y266.1646     R10.9000   
   X537.7954     Y267.8946     R10.9000   
   X535.1698     Y268.9822     R10.9000   
   X532.3523     Y269.3531     R10.9000   
   X529.5347     Y268.9822     R10.9000   
   X526.9092     Y267.8946     R10.9000   
   X524.6546     Y266.1646     R10.9000   
   X522.9245     Y263.9100     R10.9000   
   X521.8370     Y261.2845     R10.9000   
   X521.4523     Y258.3621     R10.9000   
G1   Y248.572   
G17 G2   X521.8370     Y245.6494     R10.9000   
   X522.9245     Y243.0238     R10.9000   
   X524.6546     Y240.7692     R10.9000   
(Pass: 2)
G1   Z4.300      F100 
G17 G2   X526.9092     Y239.0392     R10.9000    F400 
   X529.5347     Y237.9517     R10.9000   
   X532.3523     Y237.5807     R10.9000   
   X535.1698     Y237.9517     R10.9000   
   X537.7954     Y239.0392     R10.9000   
   X540.0500     Y240.7692     R10.9000   
   X541.7800     Y243.0238     R10.9000   
   X542.8675     Y245.6494     R10.9000   
   X543.2523     Y248.5718     R10.9000   
G1   Y258.362   
G17 G2   X542.8675     Y261.2845     R10.9000   
   X541.7800     Y263.9100     R10.9000   
   X540.0500     Y266.1646     R10.9000   
   X537.7954     Y267.8946     R10.9000   
   X535.1698     Y268.9822     R10.9000   
   X532.3523     Y269.3531     R10.9000   
   X529.5347     Y268.9822     R10.9000   
   X526.9092     Y267.8946     R10.9000   
   X524.6546     Y266.1646     R10.9000   
   X522.9245     Y263.9100     R10.9000   
   X521.8370     Y261.2845     R10.9000   
   X521.4523     Y258.3621     R10.9000   
G1   Y248.572   
G17 G2   X521.8370     Y245.6494     R10.9000   
   X522.9245     Y243.0238     R10.9000   
   X524.6546     Y240.7692     R10.9000   
(Pass: 3)
G1   Z3.300      F100 
G17 G2   X526.9092     Y239.0392     R10.9000    F400 
   X529.5347     Y237.9517     R10.9000   
   X532.3523     Y237.5807     R10.9000   
   X535.1698     Y237.9517     R10.9000   
   X537.7954     Y239.0392     R10.9000   
   X540.0500     Y240.7692     R10.9000   
   X541.7800     Y243.0238     R10.9000   
   X542.8675     Y245.6494     R10.9000   
   X543.2523     Y248.5718     R10.9000   
G1   Y258.362   
G17 G2   X542.8675     Y261.2845     R10.9000   
   X541.7800     Y263.9100     R10.9000   
   X540.0500     Y266.1646     R10.9000   
   X537.7954     Y267.8946     R10.9000   
   X535.1698     Y268.9822     R10.9000   
   X532.3523     Y269.3531     R10.9000   
   X529.5347     Y268.9822     R10.9000   
   X526.9092     Y267.8946     R10.9000   
   X524.6546     Y266.1646     R10.9000   
   X522.9245     Y263.9100     R10.9000   
   X521.8370     Y261.2845     R10.9000   
   X521.4523     Y258.3621     R10.9000   
G1   Y248.572   
G17 G2   X521.8370     Y245.6494     R10.9000   
   X522.9245     Y243.0238     R10.9000   
   X524.6546     Y240.7692     R10.9000   
(Pass: 4)
G1   Z2.300      F100 
G17 G2   X526.9092     Y239.0392     R10.9000    F400 
   X529.5347     Y237.9517     R10.9000   
   X532.3523     Y237.5807     R10.9000   
   X535.1698     Y237.9517     R10.9000   
   X537.7954     Y239.0392     R10.9000   
   X540.0500     Y240.7692     R10.9000   
   X541.7800     Y243.0238     R10.9000   
   X542.8675     Y245.6494     R10.9000   
   X543.2523     Y248.5718     R10.9000   
G1   Y258.362   
G17 G2   X542.8675     Y261.2845     R10.9000   
   X541.7800     Y263.9100     R10.9000   
   X540.0500     Y266.1646     R10.9000   
   X537.7954     Y267.8946     R10.9000   
   X535.1698     Y268.9822     R10.9000   
   X532.3523     Y269.3531     R10.9000   
   X529.5347     Y268.9822     R10.9000   
   X526.9092     Y267.8946     R10.9000   
   X524.6546     Y266.1646     R10.9000   
   X522.9245     Y263.9100     R10.9000   
   X521.8370     Y261.2845     R10.9000   
   X521.4523     Y258.3621     R10.9000   
G1   Y248.572   
G17 G2   X521.8370     Y245.6494     R10.9000   
   X522.9245     Y243.0238     R10.9000   
   X524.6546     Y240.7692     R10.9000   
(Pass: 5)
G1   Z1.300      F100 
G17 G2   X526.9092     Y239.0392     R10.9000    F400 
   X529.5347     Y237.9517     R10.9000   
   X532.3523     Y237.5807     R10.9000   
   X535.1698     Y237.9517     R10.9000   
   X537.7954     Y239.0392     R10.9000   
   X540.0500     Y240.7692     R10.9000   
   X541.7800     Y243.0238     R10.9000   
   X542.8675     Y245.6494     R10.9000   
   X543.2523     Y248.5718     R10.9000   
G1   Y258.362   
G17 G2   X542.8675     Y261.2845     R10.9000   
   X541.7800     Y263.9100     R10.9000   
   X540.0500     Y266.1646     R10.9000   
   X537.7954     Y267.8946     R10.9000   
   X535.1698     Y268.9822     R10.9000   
   X532.3523     Y269.3531     R10.9000   
   X529.5347     Y268.9822     R10.9000   
   X526.9092     Y267.8946     R10.9000   
   X524.6546     Y266.1646     R10.9000   
   X522.9245     Y263.9100     R10.9000   
   X521.8370     Y261.2845     R10.9000   
   X521.4523     Y258.3621     R10.9000   
G1   Y248.572   
G17 G2   X521.8370     Y245.6494     R10.9000   
   X522.9245     Y243.0238     R10.9000   
   X524.6546     Y240.7692     R10.9000   
(Pass: 6)
G1   Z0.300      F100 
G17 G2   X526.9092     Y239.0392     R10.9000    F400 
   X529.5347     Y237.9517     R10.9000   
   X532.3523     Y237.5807     R10.9000   
   X535.1698     Y237.9517     R10.9000   
   X537.7954     Y239.0392     R10.9000   
   X540.0500     Y240.7692     R10.9000   
   X541.7800     Y243.0238     R10.9000   
   X542.8675     Y245.6494     R10.9000   
   X543.2523     Y248.5718     R10.9000   
G1   Y258.362   
G17 G2   X542.8675     Y261.2845     R10.9000   
   X541.7800     Y263.9100     R10.9000   
   X540.0500     Y266.1646     R10.9000   
   X537.7954     Y267.8946     R10.9000   
   X535.1698     Y268.9822     R10.9000   
   X532.3523     Y269.3531     R10.9000   
   X529.5347     Y268.9822     R10.9000   
   X526.9092     Y267.8946     R10.9000   
   X524.6546     Y266.1646     R10.9000   
   X522.9245     Y263.9100     R10.9000   
   X521.8370     Y261.2845     R10.9000   
   X521.4523     Y258.3621     R10.9000   
G1   Y248.572   
G17 G2   X521.8370     Y245.6494     R10.9000   
   X522.9245     Y243.0238     R10.9000   
   X524.6546     Y240.7692     R10.9000   
(Pass: 7)
G1   Z0.000      F100 
G17 G2   X526.9092     Y239.0392     R10.9000    F400 
   X529.5347     Y237.9517     R10.9000   
   X532.3523     Y237.5807     R10.9000   
   X535.1698     Y237.9517     R10.9000   
   X537.7954     Y239.0392     R10.9000   
   X540.0500     Y240.7692     R10.9000   
   X541.7800     Y243.0238     R10.9000   
   X542.8675     Y245.6494     R10.9000   
   X543.2523     Y248.5718     R10.9000   
G1   Y258.362   
G17 G2   X542.8675     Y261.2845     R10.9000   
   X541.7800     Y263.9100     R10.9000   
   X540.0500     Y266.1646     R10.9000   
   X537.7954     Y267.8946     R10.9000   
   X535.1698     Y268.9822     R10.9000   
   X532.3523     Y269.3531     R10.9000   
   X529.5347     Y268.9822     R10.9000   
   X526.9092     Y267.8946     R10.9000   
   X524.6546     Y266.1646     R10.9000   
   X522.9245     Y263.9100     R10.9000   
   X521.8370     Y261.2845     R10.9000   
   X521.4523     Y258.3621     R10.9000   
G1   Y248.572   
G17 G2   X521.8370     Y245.6494     R10.9000   
   X522.9245     Y243.0238     R10.9000   
   X524.6546     Y240.7692     R10.9000   
G0   Z21.300    
(Pass: 1)
   X499.324      Y261.007   
G1   Z5.300      F100 
G17 G2   X499.4991     Y261.2353     R1.1154     F400 
   X499.6092     Y261.5010     R1.1154    
   X499.6467     Y261.7861     R1.1154    
   X499.6092     Y262.0712     R1.1154    
   X499.4991     Y262.3369     R1.1154    
   X499.3240     Y262.5651     R1.1154    
   X499.0959     Y262.7401     R1.1154    
   X498.8302     Y262.8502     R1.1154    
   X498.5451     Y262.8877     R1.1154    
   X498.2599     Y262.8502     R1.1154    
   X497.9942     Y262.7401     R1.1154    
   X497.7661     Y262.5651     R1.1154    
   X497.5910     Y262.3369     R1.1154    
   X497.4810     Y262.0712     R1.1154    
   X497.4434     Y261.7861     R1.1154    
   X497.4810     Y261.5010     R1.1154    
   X497.5910     Y261.2353     R1.1154    
   X497.7661     Y261.0071     R1.1154    
   X497.9942     Y260.8321     R1.1154    
   X498.2599     Y260.7220     R1.1154    
   X498.5451     Y260.6845     R1.1154    
   X498.8302     Y260.7220     R1.1154    
   X499.0959     Y260.8321     R1.1154    
   X499.3240     Y261.0071     R1.1154    
(Pass: 2)
G1   Z4.300      F100 
G17 G2   X499.4991     Y261.2353     R1.1154     F400 
   X499.6092     Y261.5010     R1.1154    
   X499.6467     Y261.7861     R1.1154    
   X499.6092     Y262.0712     R1.1154    
   X499.4991     Y262.3369     R1.1154    
   X499.3240     Y262.5651     R1.1154    
   X499.0959     Y262.7401     R1.1154    
   X498.8302     Y262.8502     R1.1154    
   X498.5451     Y262.8877     R1.1154    
   X498.2599     Y262.8502     R1.1154    
   X497.9942     Y262.7401     R1.1154    
   X497.7661     Y262.5651     R1.1154    
   X497.5910     Y262.3369     R1.1154    
   X497.4810     Y262.0712     R1.1154    
   X497.4434     Y261.7861     R1.1154    
   X497.4810     Y261.5010     R1.1154    
   X497.5910     Y261.2353     R1.1154    
   X497.7661     Y261.0071     R1.1154    
   X497.9942     Y260.8321     R1.1154    
   X498.2599     Y260.7220     R1.1154    
   X498.5451     Y260.6845     R1.1154    
   X498.8302     Y260.7220     R1.1154    
   X499.0959     Y260.8321     R1.1154    
   X499.3240     Y261.0071     R1.1154    
(Pass: 3)
G1   Z3.300      F100 
G17 G2   X499.4991     Y261.2353     R1.1154     F400 
   X499.6092     Y261.5010     R1.1154    
   X499.6467     Y261.7861     R1.1154    
   X499.6092     Y262.0712     R1.1154    
   X499.4991     Y262.3369     R1.1154    
   X499.3240     Y262.5651     R1.1154    
   X499.0959     Y262.7401     R1.1154    
   X498.8302     Y262.8502     R1.1154    
   X498.5451     Y262.8877     R1.1154    
   X498.2599     Y262.8502     R1.1154    
   X497.9942     Y262.7401     R1.1154    
   X497.7661     Y262.5651     R1.1154    
   X497.5910     Y262.3369     R1.1154    
   X497.4810     Y262.0712     R1.1154    
   X497.4434     Y261.7861     R1.1154    
   X497.4810     Y261.5010     R1.1154    
   X497.5910     Y261.2353     R1.1154    
   X497.7661     Y261.0071     R1.1154    
   X497.9942     Y260.8321     R1.1154    
   X498.2599     Y260.7220     R1.1154    
   X498.5451     Y260.6845     R1.1154    
   X498.8302     Y260.7220     R1.1154    
   X499.0959     Y260.8321     R1.1154    
   X499.3240     Y261.0071     R1.1154    
(Pass: 4)
G1   Z2.300      F100 
G17 G2   X499.4991     Y261.2353     R1.1154     F400 
   X499.6092     Y261.5010     R1.1154    
   X499.6467     Y261.7861     R1.1154    
   X499.6092     Y262.0712     R1.1154    
   X499.4991     Y262.3369     R1.1154    
   X499.3240     Y262.5651     R1.1154    
   X499.0959     Y262.7401     R1.1154    
   X498.8302     Y262.8502     R1.1154    
   X498.5451     Y262.8877     R1.1154    
   X498.2599     Y262.8502     R1.1154    
   X497.9942     Y262.7401     R1.1154    
   X497.7661     Y262.5651     R1.1154    
   X497.5910     Y262.3369     R1.1154    
   X497.4810     Y262.0712     R1.1154    
   X497.4434     Y261.7861     R1.1154    
   X497.4810     Y261.5010     R1.1154    
   X497.5910     Y261.2353     R1.1154    
   X497.7661     Y261.0071     R1.1154    
   X497.9942     Y260.8321     R1.1154    
   X498.2599     Y260.7220     R1.1154    
   X498.5451     Y260.6845     R1.1154    
   X498.8302     Y260.7220     R1.1154    
   X499.0959     Y260.8321     R1.1154    
   X499.3240     Y261.0071     R1.1154    
(Pass: 5)
G1   Z1.300      F100 
G17 G2   X499.4991     Y261.2353     R1.1154     F400 
   X499.6092     Y261.5010     R1.1154    
   X499.6467     Y261.7861     R1.1154    
   X499.6092     Y262.0712     R1.1154    
   X499.4991     Y262.3369     R1.1154    
   X499.3240     Y262.5651     R1.1154    
   X499.0959     Y262.7401     R1.1154    
   X498.8302     Y262.8502     R1.1154    
   X498.5451     Y262.8877     R1.1154    
   X498.2599     Y262.8502     R1.1154    
   X497.9942     Y262.7401     R1.1154    
   X497.7661     Y262.5651     R1.1154    
   X497.5910     Y262.3369     R1.1154    
   X497.4810     Y262.0712     R1.1154    
   X497.4434     Y261.7861     R1.1154    
   X497.4810     Y261.5010     R1.1154    
   X497.5910     Y261.2353     R1.1154    
   X497.7661     Y261.0071     R1.1154    
   X497.9942     Y260.8321     R1.1154    
   X498.2599     Y260.7220     R1.1154    
   X498.5451     Y260.6845     R1.1154    
   X498.8302     Y260.7220     R1.1154    
   X499.0959     Y260.8321     R1.1154    
   X499.3240     Y261.0071     R1.1154    
(Pass: 6)
G1   Z0.300      F100 
G17 G2   X499.4991     Y261.2353     R1.1154     F400 
   X499.6092     Y261.5010     R1.1154    
   X499.6467     Y261.7861     R1.1154    
   X499.6092     Y262.0712     R1.1154    
   X499.4991     Y262.3369     R1.1154    
   X499.3240     Y262.5651     R1.1154    
   X499.0959     Y262.7401     R1.1154    
   X498.8302     Y262.8502     R1.1154    
   X498.5451     Y262.8877     R1.1154    
   X498.2599     Y262.8502     R1.1154    
   X497.9942     Y262.7401     R1.1154    
   X497.7661     Y262.5651     R1.1154    
   X497.5910     Y262.3369     R1.1154    
   X497.4810     Y262.0712     R1.1154    
   X497.4434     Y261.7861     R1.1154    
   X497.4810     Y261.5010     R1.1154    
   X497.5910     Y261.2353     R1.1154    
   X497.7661     Y261.0071     R1.1154    
   X497.9942     Y260.8321     R1.1154    
   X498.2599     Y260.7220     R1.1154    
   X498.5451     Y260.6845     R1.1154    
   X498.8302     Y260.7220     R1.1154    
   X499.0959     Y260.8321     R1.1154    
   X499.3240     Y261.0071     R1.1154    
(Pass: 7)
G1   Z0.000      F100 
G17 G2   X499.4991     Y261.2353     R1.1154     F400 
   X499.6092     Y261.5010     R1.1154    
   X499.6467     Y261.7861     R1.1154    
   X499.6092     Y262.0712     R1.1154    
   X499.4991     Y262.3369     R1.1154    
   X499.3240     Y262.5651     R1.1154    
   X499.0959     Y262.7401     R1.1154    
   X498.8302     Y262.8502     R1.1154    
   X498.5451     Y262.8877     R1.1154    
   X498.2599     Y262.8502     R1.1154    
   X497.9942     Y262.7401     R1.1154    
   X497.7661     Y262.5651     R1.1154    
   X497.5910     Y262.3369     R1.1154    
   X497.4810     Y262.0712     R1.1154    
   X497.4434     Y261.7861     R1.1154    
   X497.4810     Y261.5010     R1.1154    
   X497.5910     Y261.2353     R1.1154    
   X497.7661     Y261.0071     R1.1154    
   X497.9942     Y260.8321     R1.1154    
   X498.2599     Y260.7220     R1.1154    
   X498.5451     Y260.6845     R1.1154    
   X498.8302     Y260.7220     R1.1154    
   X499.0959     Y260.8321     R1.1154    
   X499.3240     Y261.0071     R1.1154    
G0   Z21.300    
(Pass: 1)
   X508.065      Y271.942   
G1   Z5.300      F100 
   X508.257      Y271.795    F400 
   X508.481      Y271.702   
   X508.720      Y271.670   
   X508.960      Y271.702   
   X509.183      Y271.795   
   X509.375      Y271.942   
   X509.522      Y272.134   
   X509.615      Y272.357   
   X509.660      Y272.702   
   Y281.492   
   X509.615      Y281.836   
   X509.522      Y282.060   
   X509.375      Y282.252   
   X509.183      Y282.399   
   X508.960      Y282.491   
   X508.720      Y282.523   
   X508.481      Y282.491   
   X508.257      Y282.399   
   X508.065      Y282.252   
   X507.918      Y282.060   
   X507.826      Y281.836   
   X507.780      Y281.492   
   Y272.702   
   X507.826      Y272.357   
   X507.918      Y272.134   
   X508.065      Y271.942   
(Pass: 2)
   Z4.300      F100 
   X508.257      Y271.795    F400 
   X508.481      Y271.702   
   X508.720      Y271.670   
   X508.960      Y271.702   
   X509.183      Y271.795   
   X509.375      Y271.942   
   X509.522      Y272.134   
   X509.615      Y272.357   
   X509.660      Y272.702   
   Y281.492   
   X509.615      Y281.836   
   X509.522      Y282.060   
   X509.375      Y282.252   
   X509.183      Y282.399   
   X508.960      Y282.491   
   X508.720      Y282.523   
   X508.481      Y282.491   
   X508.257      Y282.399   
   X508.065      Y282.252   
   X507.918      Y282.060   
   X507.826      Y281.836   
   X507.780      Y281.492   
   Y272.702   
   X507.826      Y272.357   
   X507.918      Y272.134   
   X508.065      Y271.942   
(Pass: 3)
   Z3.300      F100 
   X508.257      Y271.795    F400 
   X508.481      Y271.702   
   X508.720      Y271.670   
   X508.960      Y271.702   
   X509.183      Y271.795   
   X509.375      Y271.942   
   X509.522      Y272.134   
   X509.615      Y272.357   
   X509.660      Y272.702   
   Y281.492   
   X509.615      Y281.836   
   X509.522      Y282.060   
   X509.375      Y282.252   
   X509.183      Y282.399   
   X508.960      Y282.491   
   X508.720      Y282.523   
   X508.481      Y282.491   
   X508.257      Y282.399   
   X508.065      Y282.252   
   X507.918      Y282.060   
   X507.826      Y281.836   
   X507.780      Y281.492   
   Y272.702   
   X507.826      Y272.357   
   X507.918      Y272.134   
   X508.065      Y271.942   
(Pass: 4)
   Z2.300      F100 
   X508.257      Y271.795    F400 
   X508.481      Y271.702   
   X508.720      Y271.670   
   X508.960      Y271.702   
   X509.183      Y271.795   
   X509.375      Y271.942   
   X509.522      Y272.134   
   X509.615      Y272.357   
   X509.660      Y272.702   
   Y281.492   
   X509.615      Y281.836   
   X509.522      Y282.060   
   X509.375      Y282.252   
   X509.183      Y282.399   
   X508.960      Y282.491   
   X508.720      Y282.523   
   X508.481      Y282.491   
   X508.257      Y282.399   
   X508.065      Y282.252   
   X507.918      Y282.060   
   X507.826      Y281.836   
   X507.780      Y281.492   
   Y272.702   
   X507.826      Y272.357   
   X507.918      Y272.134   
   X508.065      Y271.942   
(Pass: 5)
   Z1.300      F100 
   X508.257      Y271.795    F400 
   X508.481      Y271.702   
   X508.720      Y271.670   
   X508.960      Y271.702   
   X509.183      Y271.795   
   X509.375      Y271.942   
   X509.522      Y272.134   
   X509.615      Y272.357   
   X509.660      Y272.702   
   Y281.492   
   X509.615      Y281.836   
   X509.522      Y282.060   
   X509.375      Y282.252   
   X509.183      Y282.399   
   X508.960      Y282.491   
   X508.720      Y282.523   
   X508.481      Y282.491   
   X508.257      Y282.399   
   X508.065      Y282.252   
   X507.918      Y282.060   
   X507.826      Y281.836   
   X507.780      Y281.492   
   Y272.702   
   X507.826      Y272.357   
   X507.918      Y272.134   
   X508.065      Y271.942   
(Pass: 6)
   Z0.300      F100 
   X508.257      Y271.795    F400 
   X508.481      Y271.702   
   X508.720      Y271.670   
   X508.960      Y271.702   
   X509.183      Y271.795   
   X509.375      Y271.942   
   X509.522      Y272.134   
   X509.615      Y272.357   
   X509.660      Y272.702   
   Y281.492   
   X509.615      Y281.836   
   X509.522      Y282.060   
   X509.375      Y282.252   
   X509.183      Y282.399   
   X508.960      Y282.491   
   X508.720      Y282.523   
   X508.481      Y282.491   
   X508.257      Y282.399   
   X508.065      Y282.252   
   X507.918      Y282.060   
   X507.826      Y281.836   
   X507.780      Y281.492   
   Y272.702   
   X507.826      Y272.357   
   X507.918      Y272.134   
   X508.065      Y271.942   
(Pass: 7)
   Z0.000      F100 
   X508.257      Y271.795    F400 
   X508.481      Y271.702   
   X508.720      Y271.670   
   X508.960      Y271.702   
   X509.183      Y271.795   
   X509.375      Y271.942   
   X509.522      Y272.134   
   X509.615      Y272.357   
   X509.660      Y272.702   
   Y281.492   
   X509.615      Y281.836   
   X509.522      Y282.060   
   X509.375      Y282.252   
   X509.183      Y282.399   
   X508.960      Y282.491   
   X508.720      Y282.523   
   X508.481      Y282.491   
   X508.257      Y282.399   
   X508.065      Y282.252   
   X507.918      Y282.060   
   X507.826      Y281.836   
   X507.780      Y281.492   
   Y272.702   
   X507.826      Y272.357   
   X507.918      Y272.134   
   X508.065      Y271.942   
G0   Z21.300    
(Pass: 1)
   X514.188      Y291.270   
G1   Z5.300      F100 
G17 G2   X514.4727     Y291.2324     R1.1154     F400 
   X514.7578     Y291.2699     R1.1154    
   X515.0235     Y291.3800     R1.1154    
   X515.2516     Y291.5550     R1.1154    
   X515.4267     Y291.7832     R1.1154    
   X515.5367     Y292.0489     R1.1154    
   X515.5743     Y292.3340     R1.1154    
   X515.5367     Y292.6191     R1.1154    
   X515.4267     Y292.8848     R1.1154    
   X515.2516     Y293.1130     R1.1154    
   X515.0235     Y293.2881     R1.1154    
   X514.7578     Y293.3981     R1.1154    
   X514.4727     Y293.4356     R1.1154    
   X514.1875     Y293.3981     R1.1154    
   X513.9218     Y293.2881     R1.1154    
   X513.6937     Y293.1130     R1.1154    
   X513.5186     Y292.8848     R1.1154    
   X513.4086     Y292.6191     R1.1154    
   X513.3710     Y292.3340     R1.1154    
   X513.4061     Y292.0677     R1.1154    
   X513.5186     Y291.7832     R1.1154    
   X513.6937     Y291.5550     R1.1154    
   X513.9218     Y291.3800     R1.1154    
   X514.1875     Y291.2699     R1.1154    
(Pass: 2)
G1   Z4.300      F100 
G17 G2   X514.4727     Y291.2324     R1.1154     F400 
   X514.7578     Y291.2699     R1.1154    
   X515.0235     Y291.3800     R1.1154    
   X515.2516     Y291.5550     R1.1154    
   X515.4267     Y291.7832     R1.1154    
   X515.5367     Y292.0489     R1.1154    
   X515.5743     Y292.3340     R1.1154    
   X515.5367     Y292.6191     R1.1154    
   X515.4267     Y292.8848     R1.1154    
   X515.2516     Y293.1130     R1.1154    
   X515.0235     Y293.2881     R1.1154    
   X514.7578     Y293.3981     R1.1154    
   X514.4727     Y293.4356     R1.1154    
   X514.1875     Y293.3981     R1.1154    
   X513.9218     Y293.2881     R1.1154    
   X513.6937     Y293.1130     R1.1154    
   X513.5186     Y292.8848     R1.1154    
   X513.4086     Y292.6191     R1.1154    
   X513.3710     Y292.3340     R1.1154    
   X513.4061     Y292.0677     R1.1154    
   X513.5186     Y291.7832     R1.1154    
   X513.6937     Y291.5550     R1.1154    
   X513.9218     Y291.3800     R1.1154    
   X514.1875     Y291.2699     R1.1154    
(Pass: 3)
G1   Z3.300      F100 
G17 G2   X514.4727     Y291.2324     R1.1154     F400 
   X514.7578     Y291.2699     R1.1154    
   X515.0235     Y291.3800     R1.1154    
   X515.2516     Y291.5550     R1.1154    
   X515.4267     Y291.7832     R1.1154    
   X515.5367     Y292.0489     R1.1154    
   X515.5743     Y292.3340     R1.1154    
   X515.5367     Y292.6191     R1.1154    
   X515.4267     Y292.8848     R1.1154    
   X515.2516     Y293.1130     R1.1154    
   X515.0235     Y293.2881     R1.1154    
   X514.7578     Y293.3981     R1.1154    
   X514.4727     Y293.4356     R1.1154    
   X514.1875     Y293.3981     R1.1154    
   X513.9218     Y293.2881     R1.1154    
   X513.6937     Y293.1130     R1.1154    
   X513.5186     Y292.8848     R1.1154    
   X513.4086     Y292.6191     R1.1154    
   X513.3710     Y292.3340     R1.1154    
   X513.4061     Y292.0677     R1.1154    
   X513.5186     Y291.7832     R1.1154    
   X513.6937     Y291.5550     R1.1154    
   X513.9218     Y291.3800     R1.1154    
   X514.1875     Y291.2699     R1.1154    
(Pass: 4)
G1   Z2.300      F100 
G17 G2   X514.4727     Y291.2324     R1.1154     F400 
   X514.7578     Y291.2699     R1.1154    
   X515.0235     Y291.3800     R1.1154    
   X515.2516     Y291.5550     R1.1154    
   X515.4267     Y291.7832     R1.1154    
   X515.5367     Y292.0489     R1.1154    
   X515.5743     Y292.3340     R1.1154    
   X515.5367     Y292.6191     R1.1154    
   X515.4267     Y292.8848     R1.1154    
   X515.2516     Y293.1130     R1.1154    
   X515.0235     Y293.2881     R1.1154    
   X514.7578     Y293.3981     R1.1154    
   X514.4727     Y293.4356     R1.1154    
   X514.1875     Y293.3981     R1.1154    
   X513.9218     Y293.2881     R1.1154    
   X513.6937     Y293.1130     R1.1154    
   X513.5186     Y292.8848     R1.1154    
   X513.4086     Y292.6191     R1.1154    
   X513.3710     Y292.3340     R1.1154    
   X513.4061     Y292.0677     R1.1154    
   X513.5186     Y291.7832     R1.1154    
   X513.6937     Y291.5550     R1.1154    
   X513.9218     Y291.3800     R1.1154    
   X514.1875     Y291.2699     R1.1154    
(Pass: 5)
G1   Z1.300      F100 
G17 G2   X514.4727     Y291.2324     R1.1154     F400 
   X514.7578     Y291.2699     R1.1154    
   X515.0235     Y291.3800     R1.1154    
   X515.2516     Y291.5550     R1.1154    
   X515.4267     Y291.7832     R1.1154    
   X515.5367     Y292.0489     R1.1154    
   X515.5743     Y292.3340     R1.1154    
   X515.5367     Y292.6191     R1.1154    
   X515.4267     Y292.8848     R1.1154    
   X515.2516     Y293.1130     R1.1154    
   X515.0235     Y293.2881     R1.1154    
   X514.7578     Y293.3981     R1.1154    
   X514.4727     Y293.4356     R1.1154    
   X514.1875     Y293.3981     R1.1154    
   X513.9218     Y293.2881     R1.1154    
   X513.6937     Y293.1130     R1.1154    
   X513.5186     Y292.8848     R1.1154    
   X513.4086     Y292.6191     R1.1154    
   X513.3710     Y292.3340     R1.1154    
   X513.4061     Y292.0677     R1.1154    
   X513.5186     Y291.7832     R1.1154    
   X513.6937     Y291.5550     R1.1154    
   X513.9218     Y291.3800     R1.1154    
   X514.1875     Y291.2699     R1.1154    
(Pass: 6)
G1   Z0.300      F100 
G17 G2   X514.4727     Y291.2324     R1.1154     F400 
   X514.7578     Y291.2699     R1.1154    
   X515.0235     Y291.3800     R1.1154    
   X515.2516     Y291.5550     R1.1154    
   X515.4267     Y291.7832     R1.1154    
   X515.5367     Y292.0489     R1.1154    
   X515.5743     Y292.3340     R1.1154    
   X515.5367     Y292.6191     R1.1154    
   X515.4267     Y292.8848     R1.1154    
   X515.2516     Y293.1130     R1.1154    
   X515.0235     Y293.2881     R1.1154    
   X514.7578     Y293.3981     R1.1154    
   X514.4727     Y293.4356     R1.1154    
   X514.1875     Y293.3981     R1.1154    
   X513.9218     Y293.2881     R1.1154    
   X513.6937     Y293.1130     R1.1154    
   X513.5186     Y292.8848     R1.1154    
   X513.4086     Y292.6191     R1.1154    
   X513.3710     Y292.3340     R1.1154    
   X513.4061     Y292.0677     R1.1154    
   X513.5186     Y291.7832     R1.1154    
   X513.6937     Y291.5550     R1.1154    
   X513.9218     Y291.3800     R1.1154    
   X514.1875     Y291.2699     R1.1154    
(Pass: 7)
G1   Z0.000      F100 
G17 G2   X514.4727     Y291.2324     R1.1154     F400 
   X514.7578     Y291.2699     R1.1154    
   X515.0235     Y291.3800     R1.1154    
   X515.2516     Y291.5550     R1.1154    
   X515.4267     Y291.7832     R1.1154    
   X515.5367     Y292.0489     R1.1154    
   X515.5743     Y292.3340     R1.1154    
   X515.5367     Y292.6191     R1.1154    
   X515.4267     Y292.8848     R1.1154    
   X515.2516     Y293.1130     R1.1154    
   X515.0235     Y293.2881     R1.1154    
   X514.7578     Y293.3981     R1.1154    
   X514.4727     Y293.4356     R1.1154    
   X514.1875     Y293.3981     R1.1154    
   X513.9218     Y293.2881     R1.1154    
   X513.6937     Y293.1130     R1.1154    
   X513.5186     Y292.8848     R1.1154    
   X513.4086     Y292.6191     R1.1154    
   X513.3710     Y292.3340     R1.1154    
   X513.4061     Y292.0677     R1.1154    
   X513.5186     Y291.7832     R1.1154    
   X513.6937     Y291.5550     R1.1154    
   X513.9218     Y291.3800     R1.1154    
   X514.1875     Y291.2699     R1.1154    
G0   Z21.300    
(Pass: 1)
   X549.090      Y292.334   
G1   Z5.300      F100 
G17 G2   X549.1278     Y292.0489     R1.1154     F400 
   X549.2378     Y291.7832     R1.1154    
   X549.4129     Y291.5550     R1.1154    
   X549.6411     Y291.3800     R1.1154    
   X549.9068     Y291.2699     R1.1154    
   X550.1919     Y291.2324     R1.1154    
   X550.4770     Y291.2699     R1.1154    
   X550.7427     Y291.3800     R1.1154    
   X550.9709     Y291.5550     R1.1154    
   X551.1459     Y291.7832     R1.1154    
   X551.2560     Y292.0489     R1.1154    
   X551.2935     Y292.3340     R1.1154    
   X551.2560     Y292.6191     R1.1154    
   X551.1459     Y292.8848     R1.1154    
   X550.9709     Y293.1130     R1.1154    
   X550.7427     Y293.2881     R1.1154    
   X550.4770     Y293.3981     R1.1154    
   X550.1919     Y293.4356     R1.1154    
   X549.9068     Y293.3981     R1.1154    
   X549.6411     Y293.2881     R1.1154    
   X549.4129     Y293.1130     R1.1154    
   X549.2378     Y292.8848     R1.1154    
   X549.1278     Y292.6191     R1.1154    
   X549.0903     Y292.3340     R1.1154    
(Pass: 2)
G1   Z4.300      F100 
G17 G2   X549.1278     Y292.0489     R1.1154     F400 
   X549.2378     Y291.7832     R1.1154    
   X549.4129     Y291.5550     R1.1154    
   X549.6411     Y291.3800     R1.1154    
   X549.9068     Y291.2699     R1.1154    
   X550.1919     Y291.2324     R1.1154    
   X550.4770     Y291.2699     R1.1154    
   X550.7427     Y291.3800     R1.1154    
   X550.9709     Y291.5550     R1.1154    
   X551.1459     Y291.7832     R1.1154    
   X551.2560     Y292.0489     R1.1154    
   X551.2935     Y292.3340     R1.1154    
   X551.2560     Y292.6191     R1.1154    
   X551.1459     Y292.8848     R1.1154    
   X550.9709     Y293.1130     R1.1154    
   X550.7427     Y293.2881     R1.1154    
   X550.4770     Y293.3981     R1.1154    
   X550.1919     Y293.4356     R1.1154    
   X549.9068     Y293.3981     R1.1154    
   X549.6411     Y293.2881     R1.1154    
   X549.4129     Y293.1130     R1.1154    
   X549.2378     Y292.8848     R1.1154    
   X549.1278     Y292.6191     R1.1154    
   X549.0903     Y292.3340     R1.1154    
(Pass: 3)
G1   Z3.300      F100 
G17 G2   X549.1278     Y292.0489     R1.1154     F400 
   X549.2378     Y291.7832     R1.1154    
   X549.4129     Y291.5550     R1.1154    
   X549.6411     Y291.3800     R1.1154    
   X549.9068     Y291.2699     R1.1154    
   X550.1919     Y291.2324     R1.1154    
   X550.4770     Y291.2699     R1.1154    
   X550.7427     Y291.3800     R1.1154    
   X550.9709     Y291.5550     R1.1154    
   X551.1459     Y291.7832     R1.1154    
   X551.2560     Y292.0489     R1.1154    
   X551.2935     Y292.3340     R1.1154    
   X551.2560     Y292.6191     R1.1154    
   X551.1459     Y292.8848     R1.1154    
   X550.9709     Y293.1130     R1.1154    
   X550.7427     Y293.2881     R1.1154    
   X550.4770     Y293.3981     R1.1154    
   X550.1919     Y293.4356     R1.1154    
   X549.9068     Y293.3981     R1.1154    
   X549.6411     Y293.2881     R1.1154    
   X549.4129     Y293.1130     R1.1154    
   X549.2378     Y292.8848     R1.1154    
   X549.1278     Y292.6191     R1.1154    
   X549.0903     Y292.3340     R1.1154    
(Pass: 4)
G1   Z2.300      F100 
G17 G2   X549.1278     Y292.0489     R1.1154     F400 
   X549.2378     Y291.7832     R1.1154    
   X549.4129     Y291.5550     R1.1154    
   X549.6411     Y291.3800     R1.1154    
   X549.9068     Y291.2699     R1.1154    
   X550.1919     Y291.2324     R1.1154    
   X550.4770     Y291.2699     R1.1154    
   X550.7427     Y291.3800     R1.1154    
   X550.9709     Y291.5550     R1.1154    
   X551.1459     Y291.7832     R1.1154    
   X551.2560     Y292.0489     R1.1154    
   X551.2935     Y292.3340     R1.1154    
   X551.2560     Y292.6191     R1.1154    
   X551.1459     Y292.8848     R1.1154    
   X550.9709     Y293.1130     R1.1154    
   X550.7427     Y293.2881     R1.1154    
   X550.4770     Y293.3981     R1.1154    
   X550.1919     Y293.4356     R1.1154    
   X549.9068     Y293.3981     R1.1154    
   X549.6411     Y293.2881     R1.1154    
   X549.4129     Y293.1130     R1.1154    
   X549.2378     Y292.8848     R1.1154    
   X549.1278     Y292.6191     R1.1154    
   X549.0903     Y292.3340     R1.1154    
(Pass: 5)
G1   Z1.300      F100 
G17 G2   X549.1278     Y292.0489     R1.1154     F400 
   X549.2378     Y291.7832     R1.1154    
   X549.4129     Y291.5550     R1.1154    
   X549.6411     Y291.3800     R1.1154    
   X549.9068     Y291.2699     R1.1154    
   X550.1919     Y291.2324     R1.1154    
   X550.4770     Y291.2699     R1.1154    
   X550.7427     Y291.3800     R1.1154    
   X550.9709     Y291.5550     R1.1154    
   X551.1459     Y291.7832     R1.1154    
   X551.2560     Y292.0489     R1.1154    
   X551.2935     Y292.3340     R1.1154    
   X551.2560     Y292.6191     R1.1154    
   X551.1459     Y292.8848     R1.1154    
   X550.9709     Y293.1130     R1.1154    
   X550.7427     Y293.2881     R1.1154    
   X550.4770     Y293.3981     R1.1154    
   X550.1919     Y293.4356     R1.1154    
   X549.9068     Y293.3981     R1.1154    
   X549.6411     Y293.2881     R1.1154    
   X549.4129     Y293.1130     R1.1154    
   X549.2378     Y292.8848     R1.1154    
   X549.1278     Y292.6191     R1.1154    
   X549.0903     Y292.3340     R1.1154    
(Pass: 6)
G1   Z0.300      F100 
G17 G2   X549.1278     Y292.0489     R1.1154     F400 
   X549.2378     Y291.7832     R1.1154    
   X549.4129     Y291.5550     R1.1154    
   X549.6411     Y291.3800     R1.1154    
   X549.9068     Y291.2699     R1.1154    
   X550.1919     Y291.2324     R1.1154    
   X550.4770     Y291.2699     R1.1154    
   X550.7427     Y291.3800     R1.1154    
   X550.9709     Y291.5550     R1.1154    
   X551.1459     Y291.7832     R1.1154    
   X551.2560     Y292.0489     R1.1154    
   X551.2935     Y292.3340     R1.1154    
   X551.2560     Y292.6191     R1.1154    
   X551.1459     Y292.8848     R1.1154    
   X550.9709     Y293.1130     R1.1154    
   X550.7427     Y293.2881     R1.1154    
   X550.4770     Y293.3981     R1.1154    
   X550.1919     Y293.4356     R1.1154    
   X549.9068     Y293.3981     R1.1154    
   X549.6411     Y293.2881     R1.1154    
   X549.4129     Y293.1130     R1.1154    
   X549.2378     Y292.8848     R1.1154    
   X549.1278     Y292.6191     R1.1154    
   X549.0903     Y292.3340     R1.1154    
(Pass: 7)
G1   Z0.000      F100 
G17 G2   X549.1278     Y292.0489     R1.1154     F400 
   X549.2378     Y291.7832     R1.1154    
   X549.4129     Y291.5550     R1.1154    
   X549.6411     Y291.3800     R1.1154    
   X549.9068     Y291.2699     R1.1154    
   X550.1919     Y291.2324     R1.1154    
   X550.4770     Y291.2699     R1.1154    
   X550.7427     Y291.3800     R1.1154    
   X550.9709     Y291.5550     R1.1154    
   X551.1459     Y291.7832     R1.1154    
   X551.2560     Y292.0489     R1.1154    
   X551.2935     Y292.3340     R1.1154    
   X551.2560     Y292.6191     R1.1154    
   X551.1459     Y292.8848     R1.1154    
   X550.9709     Y293.1130     R1.1154    
   X550.7427     Y293.2881     R1.1154    
   X550.4770     Y293.3981     R1.1154    
   X550.1919     Y293.4356     R1.1154    
   X549.9068     Y293.3981     R1.1154    
   X549.6411     Y293.2881     R1.1154    
   X549.4129     Y293.1130     R1.1154    
   X549.2378     Y292.8848     R1.1154    
   X549.1278     Y292.6191     R1.1154    
   X549.0903     Y292.3340     R1.1154    
G0   Z21.300    
(Pass: 1)
   X555.501      Y282.399   
G1   Z5.300      F100 
   X555.309      Y282.252    F400 
   X555.162      Y282.060   
   X555.070      Y281.836   
   X555.024      Y281.492   
   Y272.702   
   X555.070      Y272.357   
   X555.162      Y272.134   
   X555.309      Y271.942   
   X555.501      Y271.795   
   X555.724      Y271.702   
   X555.964      Y271.670   
   X556.204      Y271.702   
   X556.427      Y271.795   
   X556.619      Y271.942   
   X556.766      Y272.134   
   X556.859      Y272.357   
   X556.904      Y272.702   
   Y281.492   
   X556.859      Y281.836   
   X556.766      Y282.060   
   X556.619      Y282.252   
   X556.427      Y282.399   
   X556.204      Y282.491   
   X555.964      Y282.523   
   X555.724      Y282.491   
   X555.501      Y282.399   
(Pass: 2)
   Z4.300      F100 
   X555.309      Y282.252    F400 
   X555.162      Y282.060   
   X555.070      Y281.836   
   X555.024      Y281.492   
   Y272.702   
   X555.070      Y272.357   
   X555.162      Y272.134   
   X555.309      Y271.942   
   X555.501      Y271.795   
   X555.724      Y271.702   
   X555.964      Y271.670   
   X556.204      Y271.702   
   X556.427      Y271.795   
   X556.619      Y271.942   
   X556.766      Y272.134   
   X556.859      Y272.357   
   X556.904      Y272.702   
   Y281.492   
   X556.859      Y281.836   
   X556.766      Y282.060   
   X556.619      Y282.252   
   X556.427      Y282.399   
   X556.204      Y282.491   
   X555.964      Y282.523   
   X555.724      Y282.491   
   X555.501      Y282.399   
(Pass: 3)
   Z3.300      F100 
   X555.309      Y282.252    F400 
   X555.162      Y282.060   
   X555.070      Y281.836   
   X555.024      Y281.492   
   Y272.702   
   X555.070      Y272.357   
   X555.162      Y272.134   
   X555.309      Y271.942   
   X555.501      Y271.795   
   X555.724      Y271.702   
   X555.964      Y271.670   
   X556.204      Y271.702   
   X556.427      Y271.795   
   X556.619      Y271.942   
   X556.766      Y272.134   
   X556.859      Y272.357   
   X556.904      Y272.702   
   Y281.492   
   X556.859      Y281.836   
   X556.766      Y282.060   
   X556.619      Y282.252   
   X556.427      Y282.399   
   X556.204      Y282.491   
   X555.964      Y282.523   
   X555.724      Y282.491   
   X555.501      Y282.399   
(Pass: 4)
   Z2.300      F100 
   X555.309      Y282.252    F400 
   X555.162      Y282.060   
   X555.070      Y281.836   
   X555.024      Y281.492   
   Y272.702   
   X555.070      Y272.357   
   X555.162      Y272.134   
   X555.309      Y271.942   
   X555.501      Y271.795   
   X555.724      Y271.702   
   X555.964      Y271.670   
   X556.204      Y271.702   
   X556.427      Y271.795   
   X556.619      Y271.942   
   X556.766      Y272.134   
   X556.859      Y272.357   
   X556.904      Y272.702   
   Y281.492   
   X556.859      Y281.836   
   X556.766      Y282.060   
   X556.619      Y282.252   
   X556.427      Y282.399   
   X556.204      Y282.491   
   X555.964      Y282.523   
   X555.724      Y282.491   
   X555.501      Y282.399   
(Pass: 5)
   Z1.300      F100 
   X555.309      Y282.252    F400 
   X555.162      Y282.060   
   X555.070      Y281.836   
   X555.024      Y281.492   
   Y272.702   
   X555.070      Y272.357   
   X555.162      Y272.134   
   X555.309      Y271.942   
   X555.501      Y271.795   
   X555.724      Y271.702   
   X555.964      Y271.670   
   X556.204      Y271.702   
   X556.427      Y271.795   
   X556.619      Y271.942   
   X556.766      Y272.134   
   X556.859      Y272.357   
   X556.904      Y272.702   
   Y281.492   
   X556.859      Y281.836   
   X556.766      Y282.060   
   X556.619      Y282.252   
   X556.427      Y282.399   
   X556.204      Y282.491   
   X555.964      Y282.523   
   X555.724      Y282.491   
   X555.501      Y282.399   
(Pass: 6)
   Z0.300      F100 
   X555.309      Y282.252    F400 
   X555.162      Y282.060   
   X555.070      Y281.836   
   X555.024      Y281.492   
   Y272.702   
   X555.070      Y272.357   
   X555.162      Y272.134   
   X555.309      Y271.942   
   X555.501      Y271.795   
   X555.724      Y271.702   
   X555.964      Y271.670   
   X556.204      Y271.702   
   X556.427      Y271.795   
   X556.619      Y271.942   
   X556.766      Y272.134   
   X556.859      Y272.357   
   X556.904      Y272.702   
   Y281.492   
   X556.859      Y281.836   
   X556.766      Y282.060   
   X556.619      Y282.252   
   X556.427      Y282.399   
   X556.204      Y282.491   
   X555.964      Y282.523   
   X555.724      Y282.491   
   X555.501      Y282.399   
(Pass: 7)
   Z0.000      F100 
   X555.309      Y282.252    F400 
   X555.162      Y282.060   
   X555.070      Y281.836   
   X555.024      Y281.492   
   Y272.702   
   X555.070      Y272.357   
   X555.162      Y272.134   
   X555.309      Y271.942   
   X555.501      Y271.795   
   X555.724      Y271.702   
   X555.964      Y271.670   
   X556.204      Y271.702   
   X556.427      Y271.795   
   X556.619      Y271.942   
   X556.766      Y272.134   
   X556.859      Y272.357   
   X556.904      Y272.702   
   Y281.492   
   X556.859      Y281.836   
   X556.766      Y282.060   
   X556.619      Y282.252   
   X556.427      Y282.399   
   X556.204      Y282.491   
   X555.964      Y282.523   
   X555.724      Y282.491   
   X555.501      Y282.399   
G0   Z21.300    
(Pass: 1)
   X565.874      Y262.850   
G1   Z5.300      F100 
G17 G2   X565.6087     Y262.7401     R1.1154     F400 
   X565.3805     Y262.5651     R1.1154    
   X565.2054     Y262.3369     R1.1154    
   X565.0954     Y262.0712     R1.1154    
   X565.0579     Y261.7861     R1.1154    
   X565.0954     Y261.5010     R1.1154    
   X565.2054     Y261.2353     R1.1154    
   X565.3805     Y261.0071     R1.1154    
   X565.6087     Y260.8321     R1.1154    
   X565.8744     Y260.7220     R1.1154    
   X566.1595     Y260.6845     R1.1154    
   X566.4446     Y260.7220     R1.1154    
   X566.7103     Y260.8321     R1.1154    
   X566.9384     Y261.0071     R1.1154    
   X567.1135     Y261.2353     R1.1154    
   X567.2236     Y261.5010     R1.1154    
   X567.2611     Y261.7861     R1.1154    
   X567.2236     Y262.0712     R1.1154    
   X567.1135     Y262.3369     R1.1154    
   X566.9384     Y262.5651     R1.1154    
   X566.7103     Y262.7401     R1.1154    
   X566.4446     Y262.8502     R1.1154    
   X566.1595     Y262.8877     R1.1154    
   X565.8744     Y262.8502     R1.1154    
(Pass: 2)
G1   Z4.300      F100 
G17 G2   X565.6087     Y262.7401     R1.1154     F400 
   X565.3805     Y262.5651     R1.1154    
   X565.2054     Y262.3369     R1.1154    
   X565.0954     Y262.0712     R1.1154    
   X565.0579     Y261.7861     R1.1154    
   X565.0954     Y261.5010     R1.1154    
   X565.2054     Y261.2353     R1.1154    
   X565.3805     Y261.0071     R1.1154    
   X565.6087     Y260.8321     R1.1154    
   X565.8744     Y260.7220     R1.1154    
   X566.1595     Y260.6845     R1.1154    
   X566.4446     Y260.7220     R1.1154    
   X566.7103     Y260.8321     R1.1154    
   X566.9384     Y261.0071     R1.1154    
   X567.1135     Y261.2353     R1.1154    
   X567.2236     Y261.5010     R1.1154    
   X567.2611     Y261.7861     R1.1154    
   X567.2236     Y262.0712     R1.1154    
   X567.1135     Y262.3369     R1.1154    
   X566.9384     Y262.5651     R1.1154    
   X566.7103     Y262.7401     R1.1154    
   X566.4446     Y262.8502     R1.1154    
   X566.1595     Y262.8877     R1.1154    
   X565.8744     Y262.8502     R1.1154    
(Pass: 3)
G1   Z3.300      F100 
G17 G2   X565.6087     Y262.7401     R1.1154     F400 
   X565.3805     Y262.5651     R1.1154    
   X565.2054     Y262.3369     R1.1154    
   X565.0954     Y262.0712     R1.1154    
   X565.0579     Y261.7861     R1.1154    
   X565.0954     Y261.5010     R1.1154    
   X565.2054     Y261.2353     R1.1154    
   X565.3805     Y261.0071     R1.1154    
   X565.6087     Y260.8321     R1.1154    
   X565.8744     Y260.7220     R1.1154    
   X566.1595     Y260.6845     R1.1154    
   X566.4446     Y260.7220     R1.1154    
   X566.7103     Y260.8321     R1.1154    
   X566.9384     Y261.0071     R1.1154    
   X567.1135     Y261.2353     R1.1154    
   X567.2236     Y261.5010     R1.1154    
   X567.2611     Y261.7861     R1.1154    
   X567.2236     Y262.0712     R1.1154    
   X567.1135     Y262.3369     R1.1154    
   X566.9384     Y262.5651     R1.1154    
   X566.7103     Y262.7401     R1.1154    
   X566.4446     Y262.8502     R1.1154    
   X566.1595     Y262.8877     R1.1154    
   X565.8744     Y262.8502     R1.1154    
(Pass: 4)
G1   Z2.300      F100 
G17 G2   X565.6087     Y262.7401     R1.1154     F400 
   X565.3805     Y262.5651     R1.1154    
   X565.2054     Y262.3369     R1.1154    
   X565.0954     Y262.0712     R1.1154    
   X565.0579     Y261.7861     R1.1154    
   X565.0954     Y261.5010     R1.1154    
   X565.2054     Y261.2353     R1.1154    
   X565.3805     Y261.0071     R1.1154    
   X565.6087     Y260.8321     R1.1154    
   X565.8744     Y260.7220     R1.1154    
   X566.1595     Y260.6845     R1.1154    
   X566.4446     Y260.7220     R1.1154    
   X566.7103     Y260.8321     R1.1154    
   X566.9384     Y261.0071     R1.1154    
   X567.1135     Y261.2353     R1.1154    
   X567.2236     Y261.5010     R1.1154    
   X567.2611     Y261.7861     R1.1154    
   X567.2236     Y262.0712     R1.1154    
   X567.1135     Y262.3369     R1.1154    
   X566.9384     Y262.5651     R1.1154    
   X566.7103     Y262.7401     R1.1154    
   X566.4446     Y262.8502     R1.1154    
   X566.1595     Y262.8877     R1.1154    
   X565.8744     Y262.8502     R1.1154    
(Pass: 5)
G1   Z1.300      F100 
G17 G2   X565.6087     Y262.7401     R1.1154     F400 
   X565.3805     Y262.5651     R1.1154    
   X565.2054     Y262.3369     R1.1154    
   X565.0954     Y262.0712     R1.1154    
   X565.0579     Y261.7861     R1.1154    
   X565.0954     Y261.5010     R1.1154    
   X565.2054     Y261.2353     R1.1154    
   X565.3805     Y261.0071     R1.1154    
   X565.6087     Y260.8321     R1.1154    
   X565.8744     Y260.7220     R1.1154    
   X566.1595     Y260.6845     R1.1154    
   X566.4446     Y260.7220     R1.1154    
   X566.7103     Y260.8321     R1.1154    
   X566.9384     Y261.0071     R1.1154    
   X567.1135     Y261.2353     R1.1154    
   X567.2236     Y261.5010     R1.1154    
   X567.2611     Y261.7861     R1.1154    
   X567.2236     Y262.0712     R1.1154    
   X567.1135     Y262.3369     R1.1154    
   X566.9384     Y262.5651     R1.1154    
   X566.7103     Y262.7401     R1.1154    
   X566.4446     Y262.8502     R1.1154    
   X566.1595     Y262.8877     R1.1154    
   X565.8744     Y262.8502     R1.1154    
(Pass: 6)
G1   Z0.300      F100 
G17 G2   X565.6087     Y262.7401     R1.1154     F400 
   X565.3805     Y262.5651     R1.1154    
   X565.2054     Y262.3369     R1.1154    
   X565.0954     Y262.0712     R1.1154    
   X565.0579     Y261.7861     R1.1154    
   X565.0954     Y261.5010     R1.1154    
   X565.2054     Y261.2353     R1.1154    
   X565.3805     Y261.0071     R1.1154    
   X565.6087     Y260.8321     R1.1154    
   X565.8744     Y260.7220     R1.1154    
   X566.1595     Y260.6845     R1.1154    
   X566.4446     Y260.7220     R1.1154    
   X566.7103     Y260.8321     R1.1154    
   X566.9384     Y261.0071     R1.1154    
   X567.1135     Y261.2353     R1.1154    
   X567.2236     Y261.5010     R1.1154    
   X567.2611     Y261.7861     R1.1154    
   X567.2236     Y262.0712     R1.1154    
   X567.1135     Y262.3369     R1.1154    
   X566.9384     Y262.5651     R1.1154    
   X566.7103     Y262.7401     R1.1154    
   X566.4446     Y262.8502     R1.1154    
   X566.1595     Y262.8877     R1.1154    
   X565.8744     Y262.8502     R1.1154    
(Pass: 7)
G1   Z0.000      F100 
G17 G2   X565.6087     Y262.7401     R1.1154     F400 
   X565.3805     Y262.5651     R1.1154    
   X565.2054     Y262.3369     R1.1154    
   X565.0954     Y262.0712     R1.1154    
   X565.0579     Y261.7861     R1.1154    
   X565.0954     Y261.5010     R1.1154    
   X565.2054     Y261.2353     R1.1154    
   X565.3805     Y261.0071     R1.1154    
   X565.6087     Y260.8321     R1.1154    
   X565.8744     Y260.7220     R1.1154    
   X566.1595     Y260.6845     R1.1154    
   X566.4446     Y260.7220     R1.1154    
   X566.7103     Y260.8321     R1.1154    
   X566.9384     Y261.0071     R1.1154    
   X567.1135     Y261.2353     R1.1154    
   X567.2236     Y261.5010     R1.1154    
   X567.2611     Y261.7861     R1.1154    
   X567.2236     Y262.0712     R1.1154    
   X567.1135     Y262.3369     R1.1154    
   X566.9384     Y262.5651     R1.1154    
   X566.7103     Y262.7401     R1.1154    
   X566.4446     Y262.8502     R1.1154    
   X566.1595     Y262.8877     R1.1154    
   X565.8744     Y262.8502     R1.1154    
G0   Z21.300    
(Pass: 1)
   X556.427      Y235.155   
G1   Z5.300      F100 
   X556.204      Y235.247    F400 
   X555.964      Y235.279   
   X555.724      Y235.247   
   X555.501      Y235.155   
   X555.309      Y235.008   
   X555.162      Y234.816   
   X555.070      Y234.592   
   X555.024      Y234.248   
   Y225.458   
   X555.070      Y225.113   
   X555.162      Y224.890   
   X555.309      Y224.698   
   X555.501      Y224.551   
   X555.724      Y224.458   
   X555.964      Y224.427   
   X556.204      Y224.458   
   X556.427      Y224.551   
   X556.619      Y224.698   
   X556.766      Y224.890   
   X556.859      Y225.113   
   X556.904      Y225.458   
   Y234.248   
   X556.859      Y234.593   
   X556.766      Y234.816   
   X556.619      Y235.008   
   X556.427      Y235.155   
(Pass: 2)
   Z4.300      F100 
   X556.204      Y235.247    F400 
   X555.964      Y235.279   
   X555.724      Y235.247   
   X555.501      Y235.155   
   X555.309      Y235.008   
   X555.162      Y234.816   
   X555.070      Y234.592   
   X555.024      Y234.248   
   Y225.458   
   X555.070      Y225.113   
   X555.162      Y224.890   
   X555.309      Y224.698   
   X555.501      Y224.551   
   X555.724      Y224.458   
   X555.964      Y224.427   
   X556.204      Y224.458   
   X556.427      Y224.551   
   X556.619      Y224.698   
   X556.766      Y224.890   
   X556.859      Y225.113   
   X556.904      Y225.458   
   Y234.248   
   X556.859      Y234.593   
   X556.766      Y234.816   
   X556.619      Y235.008   
   X556.427      Y235.155   
(Pass: 3)
   Z3.300      F100 
   X556.204      Y235.247    F400 
   X555.964      Y235.279   
   X555.724      Y235.247   
   X555.501      Y235.155   
   X555.309      Y235.008   
   X555.162      Y234.816   
   X555.070      Y234.592   
   X555.024      Y234.248   
   Y225.458   
   X555.070      Y225.113   
   X555.162      Y224.890   
   X555.309      Y224.698   
   X555.501      Y224.551   
   X555.724      Y224.458   
   X555.964      Y224.427   
   X556.204      Y224.458   
   X556.427      Y224.551   
   X556.619      Y224.698   
   X556.766      Y224.890   
   X556.859      Y225.113   
   X556.904      Y225.458   
   Y234.248   
   X556.859      Y234.593   
   X556.766      Y234.816   
   X556.619      Y235.008   
   X556.427      Y235.155   
(Pass: 4)
   Z2.300      F100 
   X556.204      Y235.247    F400 
   X555.964      Y235.279   
   X555.724      Y235.247   
   X555.501      Y235.155   
   X555.309      Y235.008   
   X555.162      Y234.816   
   X555.070      Y234.592   
   X555.024      Y234.248   
   Y225.458   
   X555.070      Y225.113   
   X555.162      Y224.890   
   X555.309      Y224.698   
   X555.501      Y224.551   
   X555.724      Y224.458   
   X555.964      Y224.427   
   X556.204      Y224.458   
   X556.427      Y224.551   
   X556.619      Y224.698   
   X556.766      Y224.890   
   X556.859      Y225.113   
   X556.904      Y225.458   
   Y234.248   
   X556.859      Y234.593   
   X556.766      Y234.816   
   X556.619      Y235.008   
   X556.427      Y235.155   
(Pass: 5)
   Z1.300      F100 
   X556.204      Y235.247    F400 
   X555.964      Y235.279   
   X555.724      Y235.247   
   X555.501      Y235.155   
   X555.309      Y235.008   
   X555.162      Y234.816   
   X555.070      Y234.592   
   X555.024      Y234.248   
   Y225.458   
   X555.070      Y225.113   
   X555.162      Y224.890   
   X555.309      Y224.698   
   X555.501      Y224.551   
   X555.724      Y224.458   
   X555.964      Y224.427   
   X556.204      Y224.458   
   X556.427      Y224.551   
   X556.619      Y224.698   
   X556.766      Y224.890   
   X556.859      Y225.113   
   X556.904      Y225.458   
   Y234.248   
   X556.859      Y234.593   
   X556.766      Y234.816   
   X556.619      Y235.008   
   X556.427      Y235.155   
(Pass: 6)
   Z0.300      F100 
   X556.204      Y235.247    F400 
   X555.964      Y235.279   
   X555.724      Y235.247   
   X555.501      Y235.155   
   X555.309      Y235.008   
   X555.162      Y234.816   
   X555.070      Y234.592   
   X555.024      Y234.248   
   Y225.458   
   X555.070      Y225.113   
   X555.162      Y224.890   
   X555.309      Y224.698   
   X555.501      Y224.551   
   X555.724      Y224.458   
   X555.964      Y224.427   
   X556.204      Y224.458   
   X556.427      Y224.551   
   X556.619      Y224.698   
   X556.766      Y224.890   
   X556.859      Y225.113   
   X556.904      Y225.458   
   Y234.248   
   X556.859      Y234.593   
   X556.766      Y234.816   
   X556.619      Y235.008   
   X556.427      Y235.155   
(Pass: 7)
   Z0.000      F100 
   X556.204      Y235.247    F400 
   X555.964      Y235.279   
   X555.724      Y235.247   
   X555.501      Y235.155   
   X555.309      Y235.008   
   X555.162      Y234.816   
   X555.070      Y234.592   
   X555.024      Y234.248   
   Y225.458   
   X555.070      Y225.113   
   X555.162      Y224.890   
   X555.309      Y224.698   
   X555.501      Y224.551   
   X555.724      Y224.458   
   X555.964      Y224.427   
   X556.204      Y224.458   
   X556.427      Y224.551   
   X556.619      Y224.698   
   X556.766      Y224.890   
   X556.859      Y225.113   
   X556.904      Y225.458   
   Y234.248   
   X556.859      Y234.593   
   X556.766      Y234.816   
   X556.619      Y235.008   
   X556.427      Y235.155   
G0   Z21.300    
(Pass: 1)
   X588.885      Y217.925   
G1   Z5.300      F100 
G17 G2   X588.7963     Y217.7114     R0.9000     F400 
   X588.7661     Y217.4821     R0.9000    
   X588.7963     Y217.2527     R0.9000    
   X588.8848     Y217.0390     R0.9000    
   X589.0256     Y216.8554     R0.9000    
   X589.2092     Y216.7146     R0.9000    
   X589.4229     Y216.6261     R0.9000    
   X589.6523     Y216.5959     R0.9000    
   X589.8816     Y216.6261     R0.9000    
   X590.0954     Y216.7146     R0.9000    
   X590.2789     Y216.8554     R0.9000    
   X590.4197     Y217.0390     R0.9000    
   X590.5083     Y217.2527     R0.9000    
   X590.5385     Y217.4821     R0.9000    
   X590.5083     Y217.7114     R0.9000    
   X590.4197     Y217.9252     R0.9000    
   X590.2789     Y218.1087     R0.9000    
   X590.0954     Y218.2495     R0.9000    
   X589.8816     Y218.3381     R0.9000    
   X589.6523     Y218.3683     R0.9000    
   X589.4229     Y218.3381     R0.9000    
   X589.2092     Y218.2495     R0.9000    
   X589.0256     Y218.1087     R0.9000    
   X588.8848     Y217.9252     R0.9000    
(Pass: 2)
G1   Z4.300      F100 
G17 G2   X588.7963     Y217.7114     R0.9000     F400 
   X588.7661     Y217.4821     R0.9000    
   X588.7963     Y217.2527     R0.9000    
   X588.8848     Y217.0390     R0.9000    
   X589.0256     Y216.8554     R0.9000    
   X589.2092     Y216.7146     R0.9000    
   X589.4229     Y216.6261     R0.9000    
   X589.6523     Y216.5959     R0.9000    
   X589.8816     Y216.6261     R0.9000    
   X590.0954     Y216.7146     R0.9000    
   X590.2789     Y216.8554     R0.9000    
   X590.4197     Y217.0390     R0.9000    
   X590.5083     Y217.2527     R0.9000    
   X590.5385     Y217.4821     R0.9000    
   X590.5083     Y217.7114     R0.9000    
   X590.4197     Y217.9252     R0.9000    
   X590.2789     Y218.1087     R0.9000    
   X590.0954     Y218.2495     R0.9000    
   X589.8816     Y218.3381     R0.9000    
   X589.6523     Y218.3683     R0.9000    
   X589.4229     Y218.3381     R0.9000    
   X589.2092     Y218.2495     R0.9000    
   X589.0256     Y218.1087     R0.9000    
   X588.8848     Y217.9252     R0.9000    
(Pass: 3)
G1   Z3.300      F100 
G17 G2   X588.7963     Y217.7114     R0.9000     F400 
   X588.7661     Y217.4821     R0.9000    
   X588.7963     Y217.2527     R0.9000    
   X588.8848     Y217.0390     R0.9000    
   X589.0256     Y216.8554     R0.9000    
   X589.2092     Y216.7146     R0.9000    
   X589.4229     Y216.6261     R0.9000    
   X589.6523     Y216.5959     R0.9000    
   X589.8816     Y216.6261     R0.9000    
   X590.0954     Y216.7146     R0.9000    
   X590.2789     Y216.8554     R0.9000    
   X590.4197     Y217.0390     R0.9000    
   X590.5083     Y217.2527     R0.9000    
   X590.5385     Y217.4821     R0.9000    
   X590.5083     Y217.7114     R0.9000    
   X590.4197     Y217.9252     R0.9000    
   X590.2789     Y218.1087     R0.9000    
   X590.0954     Y218.2495     R0.9000    
   X589.8816     Y218.3381     R0.9000    
   X589.6523     Y218.3683     R0.9000    
   X589.4229     Y218.3381     R0.9000    
   X589.2092     Y218.2495     R0.9000    
   X589.0256     Y218.1087     R0.9000    
   X588.8848     Y217.9252     R0.9000    
(Pass: 4)
G1   Z2.300      F100 
G17 G2   X588.7963     Y217.7114     R0.9000     F400 
   X588.7661     Y217.4821     R0.9000    
   X588.7963     Y217.2527     R0.9000    
   X588.8848     Y217.0390     R0.9000    
   X589.0256     Y216.8554     R0.9000    
   X589.2092     Y216.7146     R0.9000    
   X589.4229     Y216.6261     R0.9000    
   X589.6523     Y216.5959     R0.9000    
   X589.8816     Y216.6261     R0.9000    
   X590.0954     Y216.7146     R0.9000    
   X590.2789     Y216.8554     R0.9000    
   X590.4197     Y217.0390     R0.9000    
   X590.5083     Y217.2527     R0.9000    
   X590.5385     Y217.4821     R0.9000    
   X590.5083     Y217.7114     R0.9000    
   X590.4197     Y217.9252     R0.9000    
   X590.2789     Y218.1087     R0.9000    
   X590.0954     Y218.2495     R0.9000    
   X589.8816     Y218.3381     R0.9000    
   X589.6523     Y218.3683     R0.9000    
   X589.4229     Y218.3381     R0.9000    
   X589.2092     Y218.2495     R0.9000    
   X589.0256     Y218.1087     R0.9000    
   X588.8848     Y217.9252     R0.9000    
(Pass: 5)
G1   Z1.300      F100 
G17 G2   X588.7963     Y217.7114     R0.9000     F400 
   X588.7661     Y217.4821     R0.9000    
   X588.7963     Y217.2527     R0.9000    
   X588.8848     Y217.0390     R0.9000    
   X589.0256     Y216.8554     R0.9000    
   X589.2092     Y216.7146     R0.9000    
   X589.4229     Y216.6261     R0.9000    
   X589.6523     Y216.5959     R0.9000    
   X589.8816     Y216.6261     R0.9000    
   X590.0954     Y216.7146     R0.9000    
   X590.2789     Y216.8554     R0.9000    
   X590.4197     Y217.0390     R0.9000    
   X590.5083     Y217.2527     R0.9000    
   X590.5385     Y217.4821     R0.9000    
   X590.5083     Y217.7114     R0.9000    
   X590.4197     Y217.9252     R0.9000    
   X590.2789     Y218.1087     R0.9000    
   X590.0954     Y218.2495     R0.9000    
   X589.8816     Y218.3381     R0.9000    
   X589.6523     Y218.3683     R0.9000    
   X589.4229     Y218.3381     R0.9000    
   X589.2092     Y218.2495     R0.9000    
   X589.0256     Y218.1087     R0.9000    
   X588.8848     Y217.9252     R0.9000    
(Pass: 6)
G1   Z0.300      F100 
G17 G2   X588.7963     Y217.7114     R0.9000     F400 
   X588.7661     Y217.4821     R0.9000    
   X588.7963     Y217.2527     R0.9000    
   X588.8848     Y217.0390     R0.9000    
   X589.0256     Y216.8554     R0.9000    
   X589.2092     Y216.7146     R0.9000    
   X589.4229     Y216.6261     R0.9000    
   X589.6523     Y216.5959     R0.9000    
   X589.8816     Y216.6261     R0.9000    
   X590.0954     Y216.7146     R0.9000    
   X590.2789     Y216.8554     R0.9000    
   X590.4197     Y217.0390     R0.9000    
   X590.5083     Y217.2527     R0.9000    
   X590.5385     Y217.4821     R0.9000    
   X590.5083     Y217.7114     R0.9000    
   X590.4197     Y217.9252     R0.9000    
   X590.2789     Y218.1087     R0.9000    
   X590.0954     Y218.2495     R0.9000    
   X589.8816     Y218.3381     R0.9000    
   X589.6523     Y218.3683     R0.9000    
   X589.4229     Y218.3381     R0.9000    
   X589.2092     Y218.2495     R0.9000    
   X589.0256     Y218.1087     R0.9000    
   X588.8848     Y217.9252     R0.9000    
(Pass: 7)
G1   Z0.000      F100 
G17 G2   X588.7963     Y217.7114     R0.9000     F400 
   X588.7661     Y217.4821     R0.9000    
   X588.7963     Y217.2527     R0.9000    
   X588.8848     Y217.0390     R0.9000    
   X589.0256     Y216.8554     R0.9000    
   X589.2092     Y216.7146     R0.9000    
   X589.4229     Y216.6261     R0.9000    
   X589.6523     Y216.5959     R0.9000    
   X589.8816     Y216.6261     R0.9000    
   X590.0954     Y216.7146     R0.9000    
   X590.2789     Y216.8554     R0.9000    
   X590.4197     Y217.0390     R0.9000    
   X590.5083     Y217.2527     R0.9000    
   X590.5385     Y217.4821     R0.9000    
   X590.5083     Y217.7114     R0.9000    
   X590.4197     Y217.9252     R0.9000    
   X590.2789     Y218.1087     R0.9000    
   X590.0954     Y218.2495     R0.9000    
   X589.8816     Y218.3381     R0.9000    
   X589.6523     Y218.3683     R0.9000    
   X589.4229     Y218.3381     R0.9000    
   X589.2092     Y218.2495     R0.9000    
   X589.0256     Y218.1087     R0.9000    
   X588.8848     Y217.9252     R0.9000    
G0   Z21.300    
(Pass: 1)
   X597.364      Y182.931   
G1   Z5.300      F100 
G17 G2   X597.1345     Y182.9008     R0.9000     F400 
   X596.9208     Y182.8122     R0.9000    
   X596.7373     Y182.6714     R0.9000    
   X596.5964     Y182.4879     R0.9000    
   X596.5079     Y182.2741     R0.9000    
   X596.4777     Y182.0448     R0.9000    
   X596.5079     Y181.8154     R0.9000    
   X596.5964     Y181.6017     R0.9000    
   X596.7373     Y181.4181     R0.9000    
   X596.9208     Y181.2773     R0.9000    
   X597.1345     Y181.1888     R0.9000    
   X597.3639     Y181.1586     R0.9000    
   X597.5933     Y181.1888     R0.9000    
   X597.8070     Y181.2773     R0.9000    
   X597.9905     Y181.4181     R0.9000    
   X598.1314     Y181.6017     R0.9000    
   X598.2199     Y181.8154     R0.9000    
   X598.2501     Y182.0448     R0.9000    
   X598.2199     Y182.2741     R0.9000    
   X598.1314     Y182.4879     R0.9000    
   X597.9905     Y182.6714     R0.9000    
   X597.8070     Y182.8122     R0.9000    
   X597.5933     Y182.9008     R0.9000    
   X597.3639     Y182.9310     R0.9000    
(Pass: 2)
G1   Z4.300      F100 
G17 G2   X597.1345     Y182.9008     R0.9000     F400 
   X596.9208     Y182.8122     R0.9000    
