%
(Generated by SketchUcam {1.2})
(File: Router Plates.skp)
(Bit diameter: 3.2mm)
(Feed rate: 400.0mm/min)
(Plunge Feed rate: 100.0mm/min)
(Material Thickness: 6.3mm)
(Material length: 304.0mm X width: 608.0mm)
(Overhead Gantry: true)
(Retract feed rate NOT limited to plunge feed rate)
(Multipass enabled, Depth = 1.0mm)
(Optimization is ON)
(Z ZERO IS TABLETOP)
(www.PhlatBoyz.com)
G90 G21 G49 
M3 S15000
G0   Z21.300    
(Pass: 1)
   X149.003      Y230.127   
G1   Z5.300      F100 
   X149.186      Y229.986    F400 
   X149.400      Y229.897   
   X149.629      Y229.867   
   X149.859      Y229.897   
   X150.072      Y229.986   
   X150.256      Y230.127   
   X150.397      Y230.310   
   X150.485      Y230.524   
   X150.529      Y230.858   
   Y239.460   
   X150.479      Y239.795   
   X150.391      Y240.008   
   X150.250      Y240.192   
   X150.066      Y240.333   
   X149.853      Y240.421   
   X149.623      Y240.452   
   X149.394      Y240.421   
   X149.180      Y240.333   
   X148.997      Y240.192   
   X148.856      Y240.008   
   X148.767      Y239.795   
   X148.723      Y239.461   
   Y230.859   
   X148.773      Y230.524   
   X148.862      Y230.310   
   X149.003      Y230.127   
(Pass: 2)
   Z4.300      F100 
   X149.186      Y229.986    F400 
   X149.400      Y229.897   
   X149.629      Y229.867   
   X149.859      Y229.897   
   X150.072      Y229.986   
   X150.256      Y230.127   
   X150.397      Y230.310   
   X150.485      Y230.524   
   X150.529      Y230.858   
   Y239.460   
   X150.479      Y239.795   
   X150.391      Y240.008   
   X150.250      Y240.192   
   X150.066      Y240.333   
   X149.853      Y240.421   
   X149.623      Y240.452   
   X149.394      Y240.421   
   X149.180      Y240.333   
   X148.997      Y240.192   
   X148.856      Y240.008   
   X148.767      Y239.795   
   X148.723      Y239.461   
   Y230.859   
   X148.773      Y230.524   
   X148.862      Y230.310   
   X149.003      Y230.127   
(Pass: 3)
   Z3.300      F100 
   X149.186      Y229.986    F400 
   X149.400      Y229.897   
   X149.629      Y229.867   
   X149.859      Y229.897   
   X150.072      Y229.986   
   X150.256      Y230.127   
   X150.397      Y230.310   
   X150.485      Y230.524   
   X150.529      Y230.858   
   Y239.460   
   X150.479      Y239.795   
   X150.391      Y240.008   
   X150.250      Y240.192   
   X150.066      Y240.333   
   X149.853      Y240.421   
   X149.623      Y240.452   
   X149.394      Y240.421   
   X149.180      Y240.333   
   X148.997      Y240.192   
   X148.856      Y240.008   
   X148.767      Y239.795   
   X148.723      Y239.461   
   Y230.859   
   X148.773      Y230.524   
   X148.862      Y230.310   
   X149.003      Y230.127   
(Pass: 4)
   Z2.300      F100 
   X149.186      Y229.986    F400 
   X149.400      Y229.897   
   X149.629      Y229.867   
   X149.859      Y229.897   
   X150.072      Y229.986   
   X150.256      Y230.127   
   X150.397      Y230.310   
   X150.485      Y230.524   
   X150.529      Y230.858   
   Y239.460   
   X150.479      Y239.795   
   X150.391      Y240.008   
   X150.250      Y240.192   
   X150.066      Y240.333   
   X149.853      Y240.421   
   X149.623      Y240.452   
   X149.394      Y240.421   
   X149.180      Y240.333   
   X148.997      Y240.192   
   X148.856      Y240.008   
   X148.767      Y239.795   
   X148.723      Y239.461   
   Y230.859   
   X148.773      Y230.524   
   X148.862      Y230.310   
   X149.003      Y230.127   
(Pass: 5)
   Z1.300      F100 
   X149.186      Y229.986    F400 
   X149.400      Y229.897   
   X149.629      Y229.867   
   X149.859      Y229.897   
   X150.072      Y229.986   
   X150.256      Y230.127   
   X150.397      Y230.310   
   X150.485      Y230.524   
   X150.529      Y230.858   
   Y239.460   
   X150.479      Y239.795   
   X150.391      Y240.008   
   X150.250      Y240.192   
   X150.066      Y240.333   
   X149.853      Y240.421   
   X149.623      Y240.452   
   X149.394      Y240.421   
   X149.180      Y240.333   
   X148.997      Y240.192   
   X148.856      Y240.008   
   X148.767      Y239.795   
   X148.723      Y239.461   
   Y230.859   
   X148.773      Y230.524   
   X148.862      Y230.310   
   X149.003      Y230.127   
(Pass: 6)
   Z0.300      F100 
   X149.186      Y229.986    F400 
   X149.400      Y229.897   
   X149.629      Y229.867   
   X149.859      Y229.897   
   X150.072      Y229.986   
   X150.256      Y230.127   
   X150.397      Y230.310   
   X150.485      Y230.524   
   X150.529      Y230.858   
   Y239.460   
   X150.479      Y239.795   
   X150.391      Y240.008   
   X150.250      Y240.192   
   X150.066      Y240.333   
   X149.853      Y240.421   
   X149.623      Y240.452   
   X149.394      Y240.421   
   X149.180      Y240.333   
   X148.997      Y240.192   
   X148.856      Y240.008   
   X148.767      Y239.795   
   X148.723      Y239.461   
   Y230.859   
   X148.773      Y230.524   
   X148.862      Y230.310   
   X149.003      Y230.127   
(Pass: 7)
   Z0.000      F100 
   X149.186      Y229.986    F400 
   X149.400      Y229.897   
   X149.629      Y229.867   
   X149.859      Y229.897   
   X150.072      Y229.986   
   X150.256      Y230.127   
   X150.397      Y230.310   
   X150.485      Y230.524   
   X150.529      Y230.858   
   Y239.460   
   X150.479      Y239.795   
   X150.391      Y240.008   
   X150.250      Y240.192   
   X150.066      Y240.333   
   X149.853      Y240.421   
   X149.623      Y240.452   
   X149.394      Y240.421   
   X149.180      Y240.333   
   X148.997      Y240.192   
   X148.856      Y240.008   
   X148.767      Y239.795   
   X148.723      Y239.461   
   Y230.859   
   X148.773      Y230.524   
   X148.862      Y230.310   
   X149.003      Y230.127   
G0   Z21.300    
(Pass: 1)
   X158.729      Y230.859   
G1   Z5.300      F100 
   X158.773      Y230.524    F400 
   X158.862      Y230.310   
   X159.003      Y230.127   
   X159.186      Y229.986   
   X159.400      Y229.897   
   X159.629      Y229.867   
   X159.859      Y229.897   
   X160.072      Y229.986   
   X160.256      Y230.127   
   X160.397      Y230.310   
   X160.485      Y230.524   
   X160.529      Y230.858   
   Y239.460   
   X160.479      Y239.795   
   X160.391      Y240.008   
   X160.250      Y240.192   
   X160.066      Y240.333   
   X159.853      Y240.421   
   X159.623      Y240.452   
   X159.394      Y240.421   
   X159.180      Y240.333   
   X158.997      Y240.192   
   X158.856      Y240.008   
   X158.767      Y239.795   
   X158.723      Y239.461   
   Y230.859   
(Pass: 2)
   Z4.300      F100 
   X158.773      Y230.524    F400 
   X158.862      Y230.310   
   X159.003      Y230.127   
   X159.186      Y229.986   
   X159.400      Y229.897   
   X159.629      Y229.867   
   X159.859      Y229.897   
   X160.072      Y229.986   
   X160.256      Y230.127   
   X160.397      Y230.310   
   X160.485      Y230.524   
   X160.529      Y230.858   
   Y239.460   
   X160.479      Y239.795   
   X160.391      Y240.008   
   X160.250      Y240.192   
   X160.066      Y240.333   
   X159.853      Y240.421   
   X159.623      Y240.452   
   X159.394      Y240.421   
   X159.180      Y240.333   
   X158.997      Y240.192   
   X158.856      Y240.008   
   X158.767      Y239.795   
   X158.723      Y239.461   
   Y230.859   
(Pass: 3)
   Z3.300      F100 
   X158.773      Y230.524    F400 
   X158.862      Y230.310   
   X159.003      Y230.127   
   X159.186      Y229.986   
   X159.400      Y229.897   
   X159.629      Y229.867   
   X159.859      Y229.897   
   X160.072      Y229.986   
   X160.256      Y230.127   
   X160.397      Y230.310   
   X160.485      Y230.524   
   X160.529      Y230.858   
   Y239.460   
   X160.479      Y239.795   
   X160.391      Y240.008   
   X160.250      Y240.192   
   X160.066      Y240.333   
   X159.853      Y240.421   
   X159.623      Y240.452   
   X159.394      Y240.421   
   X159.180      Y240.333   
   X158.997      Y240.192   
   X158.856      Y240.008   
   X158.767      Y239.795   
   X158.723      Y239.461   
   Y230.859   
(Pass: 4)
   Z2.300      F100 
   X158.773      Y230.524    F400 
   X158.862      Y230.310   
   X159.003      Y230.127   
   X159.186      Y229.986   
   X159.400      Y229.897   
   X159.629      Y229.867   
   X159.859      Y229.897   
   X160.072      Y229.986   
   X160.256      Y230.127   
   X160.397      Y230.310   
   X160.485      Y230.524   
   X160.529      Y230.858   
   Y239.460   
   X160.479      Y239.795   
   X160.391      Y240.008   
   X160.250      Y240.192   
   X160.066      Y240.333   
   X159.853      Y240.421   
   X159.623      Y240.452   
   X159.394      Y240.421   
   X159.180      Y240.333   
   X158.997      Y240.192   
   X158.856      Y240.008   
   X158.767      Y239.795   
   X158.723      Y239.461   
   Y230.859   
(Pass: 5)
   Z1.300      F100 
   X158.773      Y230.524    F400 
   X158.862      Y230.310   
   X159.003      Y230.127   
   X159.186      Y229.986   
   X159.400      Y229.897   
   X159.629      Y229.867   
   X159.859      Y229.897   
   X160.072      Y229.986   
   X160.256      Y230.127   
   X160.397      Y230.310   
   X160.485      Y230.524   
   X160.529      Y230.858   
   Y239.460   
   X160.479      Y239.795   
   X160.391      Y240.008   
   X160.250      Y240.192   
   X160.066      Y240.333   
   X159.853      Y240.421   
   X159.623      Y240.452   
   X159.394      Y240.421   
   X159.180      Y240.333   
   X158.997      Y240.192   
   X158.856      Y240.008   
   X158.767      Y239.795   
   X158.723      Y239.461   
   Y230.859   
(Pass: 6)
   Z0.300      F100 
   X158.773      Y230.524    F400 
   X158.862      Y230.310   
   X159.003      Y230.127   
   X159.186      Y229.986   
   X159.400      Y229.897   
   X159.629      Y229.867   
   X159.859      Y229.897   
   X160.072      Y229.986   
   X160.256      Y230.127   
   X160.397      Y230.310   
   X160.485      Y230.524   
   X160.529      Y230.858   
   Y239.460   
   X160.479      Y239.795   
   X160.391      Y240.008   
   X160.250      Y240.192   
   X160.066      Y240.333   
   X159.853      Y240.421   
   X159.623      Y240.452   
   X159.394      Y240.421   
   X159.180      Y240.333   
   X158.997      Y240.192   
   X158.856      Y240.008   
   X158.767      Y239.795   
   X158.723      Y239.461   
   Y230.859   
(Pass: 7)
   Z0.000      F100 
   X158.773      Y230.524    F400 
   X158.862      Y230.310   
   X159.003      Y230.127   
   X159.186      Y229.986   
   X159.400      Y229.897   
   X159.629      Y229.867   
   X159.859      Y229.897   
   X160.072      Y229.986   
   X160.256      Y230.127   
   X160.397      Y230.310   
   X160.485      Y230.524   
   X160.529      Y230.858   
   Y239.460   
   X160.479      Y239.795   
   X160.391      Y240.008   
   X160.250      Y240.192   
   X160.066      Y240.333   
   X159.853      Y240.421   
   X159.623      Y240.452   
   X159.394      Y240.421   
   X159.180      Y240.333   
   X158.997      Y240.192   
   X158.856      Y240.008   
   X158.767      Y239.795   
   X158.723      Y239.461   
   Y230.859   
G0   Z21.300    
(Pass: 1)
   X168.729   
G1   Z5.300      F100 
   X168.773      Y230.524    F400 
   X168.862      Y230.310   
   X169.003      Y230.127   
   X169.186      Y229.986   
   X169.400      Y229.897   
   X169.629      Y229.867   
   X169.859      Y229.897   
   X170.072      Y229.986   
   X170.256      Y230.127   
   X170.397      Y230.310   
   X170.485      Y230.524   
   X170.529      Y230.858   
   Y239.460   
   X170.479      Y239.795   
   X170.391      Y240.008   
   X170.250      Y240.192   
   X170.066      Y240.333   
   X169.853      Y240.421   
   X169.623      Y240.452   
   X169.394      Y240.421   
   X169.180      Y240.333   
   X168.997      Y240.192   
   X168.856      Y240.008   
   X168.767      Y239.795   
   X168.723      Y239.461   
   Y230.859   
(Pass: 2)
   Z4.300      F100 
   X168.773      Y230.524    F400 
   X168.862      Y230.310   
   X169.003      Y230.127   
   X169.186      Y229.986   
   X169.400      Y229.897   
   X169.629      Y229.867   
   X169.859      Y229.897   
   X170.072      Y229.986   
   X170.256      Y230.127   
   X170.397      Y230.310   
   X170.485      Y230.524   
   X170.529      Y230.858   
   Y239.460   
   X170.479      Y239.795   
   X170.391      Y240.008   
   X170.250      Y240.192   
   X170.066      Y240.333   
   X169.853      Y240.421   
   X169.623      Y240.452   
   X169.394      Y240.421   
   X169.180      Y240.333   
   X168.997      Y240.192   
   X168.856      Y240.008   
   X168.767      Y239.795   
   X168.723      Y239.461   
   Y230.859   
(Pass: 3)
   Z3.300      F100 
   X168.773      Y230.524    F400 
   X168.862      Y230.310   
   X169.003      Y230.127   
   X169.186      Y229.986   
   X169.400      Y229.897   
   X169.629      Y229.867   
   X169.859      Y229.897   
   X170.072      Y229.986   
   X170.256      Y230.127   
   X170.397      Y230.310   
   X170.485      Y230.524   
   X170.529      Y230.858   
   Y239.460   
   X170.479      Y239.795   
   X170.391      Y240.008   
   X170.250      Y240.192   
   X170.066      Y240.333   
   X169.853      Y240.421   
   X169.623      Y240.452   
   X169.394      Y240.421   
   X169.180      Y240.333   
   X168.997      Y240.192   
   X168.856      Y240.008   
   X168.767      Y239.795   
   X168.723      Y239.461   
   Y230.859   
(Pass: 4)
   Z2.300      F100 
   X168.773      Y230.524    F400 
   X168.862      Y230.310   
   X169.003      Y230.127   
   X169.186      Y229.986   
   X169.400      Y229.897   
   X169.629      Y229.867   
   X169.859      Y229.897   
   X170.072      Y229.986   
   X170.256      Y230.127   
   X170.397      Y230.310   
   X170.485      Y230.524   
   X170.529      Y230.858   
   Y239.460   
   X170.479      Y239.795   
   X170.391      Y240.008   
   X170.250      Y240.192   
   X170.066      Y240.333   
   X169.853      Y240.421   
   X169.623      Y240.452   
   X169.394      Y240.421   
   X169.180      Y240.333   
   X168.997      Y240.192   
   X168.856      Y240.008   
   X168.767      Y239.795   
   X168.723      Y239.461   
   Y230.859   
(Pass: 5)
   Z1.300      F100 
   X168.773      Y230.524    F400 
   X168.862      Y230.310   
   X169.003      Y230.127   
   X169.186      Y229.986   
   X169.400      Y229.897   
   X169.629      Y229.867   
   X169.859      Y229.897   
   X170.072      Y229.986   
   X170.256      Y230.127   
   X170.397      Y230.310   
   X170.485      Y230.524   
   X170.529      Y230.858   
   Y239.460   
   X170.479      Y239.795   
   X170.391      Y240.008   
   X170.250      Y240.192   
   X170.066      Y240.333   
   X169.853      Y240.421   
   X169.623      Y240.452   
   X169.394      Y240.421   
   X169.180      Y240.333   
   X168.997      Y240.192   
   X168.856      Y240.008   
   X168.767      Y239.795   
   X168.723      Y239.461   
   Y230.859   
(Pass: 6)
   Z0.300      F100 
   X168.773      Y230.524    F400 
   X168.862      Y230.310   
   X169.003      Y230.127   
   X169.186      Y229.986   
   X169.400      Y229.897   
   X169.629      Y229.867   
   X169.859      Y229.897   
   X170.072      Y229.986   
   X170.256      Y230.127   
   X170.397      Y230.310   
   X170.485      Y230.524   
   X170.529      Y230.858   
   Y239.460   
   X170.479      Y239.795   
   X170.391      Y240.008   
   X170.250      Y240.192   
   X170.066      Y240.333   
   X169.853      Y240.421   
   X169.623      Y240.452   
   X169.394      Y240.421   
   X169.180      Y240.333   
   X168.997      Y240.192   
   X168.856      Y240.008   
   X168.767      Y239.795   
   X168.723      Y239.461   
   Y230.859   
(Pass: 7)
   Z0.000      F100 
   X168.773      Y230.524    F400 
   X168.862      Y230.310   
   X169.003      Y230.127   
   X169.186      Y229.986   
   X169.400      Y229.897   
   X169.629      Y229.867   
   X169.859      Y229.897   
   X170.072      Y229.986   
   X170.256      Y230.127   
   X170.397      Y230.310   
   X170.485      Y230.524   
   X170.529      Y230.858   
   Y239.460   
   X170.479      Y239.795   
   X170.391      Y240.008   
   X170.250      Y240.192   
   X170.066      Y240.333   
   X169.853      Y240.421   
   X169.623      Y240.452   
   X169.394      Y240.421   
   X169.180      Y240.333   
   X168.997      Y240.192   
   X168.856      Y240.008   
   X168.767      Y239.795   
   X168.723      Y239.461   
   Y230.859   
G0   Z21.300    
(Pass: 1)
   X178.739   
G1   Z5.300      F100 
   X178.783      Y230.524    F400 
   X178.871      Y230.310   
   X179.012      Y230.127   
   X179.196      Y229.986   
   X179.409      Y229.897   
   X179.639      Y229.867   
   X179.868      Y229.897   
   X180.082      Y229.986   
   X180.265      Y230.127   
   X180.406      Y230.310   
   X180.495      Y230.524   
   X180.539      Y230.858   
   Y239.460   
   X180.489      Y239.795   
   X180.400      Y240.008   
   X180.259      Y240.192   
   X180.076      Y240.333   
   X179.862      Y240.421   
   X179.633      Y240.452   
   X179.403      Y240.421   
   X179.190      Y240.333   
   X179.006      Y240.192   
   X178.865      Y240.008   
   X178.777      Y239.795   
   X178.733      Y239.461   
   Y230.859   
(Pass: 2)
   Z4.300      F100 
   X178.783      Y230.524    F400 
   X178.871      Y230.310   
   X179.012      Y230.127   
   X179.196      Y229.986   
   X179.409      Y229.897   
   X179.639      Y229.867   
   X179.868      Y229.897   
   X180.082      Y229.986   
   X180.265      Y230.127   
   X180.406      Y230.310   
   X180.495      Y230.524   
   X180.539      Y230.858   
   Y239.460   
   X180.489      Y239.795   
   X180.400      Y240.008   
   X180.259      Y240.192   
   X180.076      Y240.333   
   X179.862      Y240.421   
   X179.633      Y240.452   
   X179.403      Y240.421   
   X179.190      Y240.333   
   X179.006      Y240.192   
   X178.865      Y240.008   
   X178.777      Y239.795   
   X178.733      Y239.461   
   Y230.859   
(Pass: 3)
   Z3.300      F100 
   X178.783      Y230.524    F400 
   X178.871      Y230.310   
   X179.012      Y230.127   
   X179.196      Y229.986   
   X179.409      Y229.897   
   X179.639      Y229.867   
   X179.868      Y229.897   
   X180.082      Y229.986   
   X180.265      Y230.127   
   X180.406      Y230.310   
   X180.495      Y230.524   
   X180.539      Y230.858   
   Y239.460   
   X180.489      Y239.795   
   X180.400      Y240.008   
   X180.259      Y240.192   
   X180.076      Y240.333   
   X179.862      Y240.421   
   X179.633      Y240.452   
   X179.403      Y240.421   
   X179.190      Y240.333   
   X179.006      Y240.192   
   X178.865      Y240.008   
   X178.777      Y239.795   
   X178.733      Y239.461   
   Y230.859   
(Pass: 4)
   Z2.300      F100 
   X178.783      Y230.524    F400 
   X178.871      Y230.310   
   X179.012      Y230.127   
   X179.196      Y229.986   
   X179.409      Y229.897   
   X179.639      Y229.867   
   X179.868      Y229.897   
   X180.082      Y229.986   
   X180.265      Y230.127   
   X180.406      Y230.310   
   X180.495      Y230.524   
   X180.539      Y230.858   
   Y239.460   
   X180.489      Y239.795   
   X180.400      Y240.008   
   X180.259      Y240.192   
   X180.076      Y240.333   
   X179.862      Y240.421   
   X179.633      Y240.452   
   X179.403      Y240.421   
   X179.190      Y240.333   
   X179.006      Y240.192   
   X178.865      Y240.008   
   X178.777      Y239.795   
   X178.733      Y239.461   
   Y230.859   
(Pass: 5)
   Z1.300      F100 
   X178.783      Y230.524    F400 
   X178.871      Y230.310   
   X179.012      Y230.127   
   X179.196      Y229.986   
   X179.409      Y229.897   
   X179.639      Y229.867   
   X179.868      Y229.897   
   X180.082      Y229.986   
   X180.265      Y230.127   
   X180.406      Y230.310   
   X180.495      Y230.524   
   X180.539      Y230.858   
   Y239.460   
   X180.489      Y239.795   
   X180.400      Y240.008   
   X180.259      Y240.192   
   X180.076      Y240.333   
   X179.862      Y240.421   
   X179.633      Y240.452   
   X179.403      Y240.421   
   X179.190      Y240.333   
   X179.006      Y240.192   
   X178.865      Y240.008   
   X178.777      Y239.795   
   X178.733      Y239.461   
   Y230.859   
(Pass: 6)
   Z0.300      F100 
   X178.783      Y230.524    F400 
   X178.871      Y230.310   
   X179.012      Y230.127   
   X179.196      Y229.986   
   X179.409      Y229.897   
   X179.639      Y229.867   
   X179.868      Y229.897   
   X180.082      Y229.986   
   X180.265      Y230.127   
   X180.406      Y230.310   
   X180.495      Y230.524   
   X180.539      Y230.858   
   Y239.460   
   X180.489      Y239.795   
   X180.400      Y240.008   
   X180.259      Y240.192   
   X180.076      Y240.333   
   X179.862      Y240.421   
   X179.633      Y240.452   
   X179.403      Y240.421   
   X179.190      Y240.333   
   X179.006      Y240.192   
   X178.865      Y240.008   
   X178.777      Y239.795   
   X178.733      Y239.461   
   Y230.859   
(Pass: 7)
   Z0.000      F100 
   X178.783      Y230.524    F400 
   X178.871      Y230.310   
   X179.012      Y230.127   
   X179.196      Y229.986   
   X179.409      Y229.897   
   X179.639      Y229.867   
   X179.868      Y229.897   
   X180.082      Y229.986   
   X180.265      Y230.127   
   X180.406      Y230.310   
   X180.495      Y230.524   
   X180.539      Y230.858   
   Y239.460   
   X180.489      Y239.795   
   X180.400      Y240.008   
   X180.259      Y240.192   
   X180.076      Y240.333   
   X179.862      Y240.421   
   X179.633      Y240.452   
   X179.403      Y240.421   
   X179.190      Y240.333   
   X179.006      Y240.192   
   X178.865      Y240.008   
   X178.777      Y239.795   
   X178.733      Y239.461   
   Y230.859   
G0   Z21.300    
(Pass: 1)
   X188.729   
G1   Z5.300      F100 
   X188.773      Y230.524    F400 
   X188.862      Y230.310   
   X189.003      Y230.127   
   X189.186      Y229.986   
   X189.400      Y229.897   
   X189.629      Y229.867   
   X189.859      Y229.897   
   X190.072      Y229.986   
   X190.256      Y230.127   
   X190.397      Y230.310   
   X190.485      Y230.524   
   X190.529      Y230.858   
   Y239.460   
   X190.479      Y239.795   
   X190.391      Y240.008   
   X190.250      Y240.192   
   X190.066      Y240.333   
   X189.853      Y240.421   
   X189.623      Y240.452   
   X189.394      Y240.421   
   X189.180      Y240.333   
   X188.997      Y240.192   
   X188.856      Y240.008   
   X188.767      Y239.795   
   X188.723      Y239.461   
   Y230.859   
(Pass: 2)
   Z4.300      F100 
   X188.773      Y230.524    F400 
   X188.862      Y230.310   
   X189.003      Y230.127   
   X189.186      Y229.986   
   X189.400      Y229.897   
   X189.629      Y229.867   
   X189.859      Y229.897   
   X190.072      Y229.986   
   X190.256      Y230.127   
   X190.397      Y230.310   
   X190.485      Y230.524   
   X190.529      Y230.858   
   Y239.460   
   X190.479      Y239.795   
   X190.391      Y240.008   
   X190.250      Y240.192   
   X190.066      Y240.333   
   X189.853      Y240.421   
   X189.623      Y240.452   
   X189.394      Y240.421   
   X189.180      Y240.333   
   X188.997      Y240.192   
   X188.856      Y240.008   
   X188.767      Y239.795   
   X188.723      Y239.461   
   Y230.859   
(Pass: 3)
   Z3.300      F100 
   X188.773      Y230.524    F400 
   X188.862      Y230.310   
   X189.003      Y230.127   
   X189.186      Y229.986   
   X189.400      Y229.897   
   X189.629      Y229.867   
   X189.859      Y229.897   
   X190.072      Y229.986   
   X190.256      Y230.127   
   X190.397      Y230.310   
   X190.485      Y230.524   
   X190.529      Y230.858   
   Y239.460   
   X190.479      Y239.795   
   X190.391      Y240.008   
   X190.250      Y240.192   
   X190.066      Y240.333   
   X189.853      Y240.421   
   X189.623      Y240.452   
   X189.394      Y240.421   
   X189.180      Y240.333   
   X188.997      Y240.192   
   X188.856      Y240.008   
   X188.767      Y239.795   
   X188.723      Y239.461   
   Y230.859   
(Pass: 4)
   Z2.300      F100 
   X188.773      Y230.524    F400 
   X188.862      Y230.310   
   X189.003      Y230.127   
   X189.186      Y229.986   
   X189.400      Y229.897   
   X189.629      Y229.867   
   X189.859      Y229.897   
   X190.072      Y229.986   
   X190.256      Y230.127   
   X190.397      Y230.310   
   X190.485      Y230.524   
   X190.529      Y230.858   
   Y239.460   
   X190.479      Y239.795   
   X190.391      Y240.008   
   X190.250      Y240.192   
   X190.066      Y240.333   
   X189.853      Y240.421   
   X189.623      Y240.452   
   X189.394      Y240.421   
   X189.180      Y240.333   
   X188.997      Y240.192   
   X188.856      Y240.008   
   X188.767      Y239.795   
   X188.723      Y239.461   
   Y230.859   
(Pass: 5)
   Z1.300      F100 
   X188.773      Y230.524    F400 
   X188.862      Y230.310   
   X189.003      Y230.127   
   X189.186      Y229.986   
   X189.400      Y229.897   
   X189.629      Y229.867   
   X189.859      Y229.897   
   X190.072      Y229.986   
   X190.256      Y230.127   
   X190.397      Y230.310   
   X190.485      Y230.524   
   X190.529      Y230.858   
   Y239.460   
   X190.479      Y239.795   
   X190.391      Y240.008   
   X190.250      Y240.192   
   X190.066      Y240.333   
   X189.853      Y240.421   
   X189.623      Y240.452   
   X189.394      Y240.421   
   X189.180      Y240.333   
   X188.997      Y240.192   
   X188.856      Y240.008   
   X188.767      Y239.795   
   X188.723      Y239.461   
   Y230.859   
(Pass: 6)
   Z0.300      F100 
   X188.773      Y230.524    F400 
   X188.862      Y230.310   
   X189.003      Y230.127   
   X189.186      Y229.986   
   X189.400      Y229.897   
   X189.629      Y229.867   
   X189.859      Y229.897   
   X190.072      Y229.986   
   X190.256      Y230.127   
   X190.397      Y230.310   
   X190.485      Y230.524   
   X190.529      Y230.858   
   Y239.460   
   X190.479      Y239.795   
   X190.391      Y240.008   
   X190.250      Y240.192   
   X190.066      Y240.333   
   X189.853      Y240.421   
   X189.623      Y240.452   
   X189.394      Y240.421   
   X189.180      Y240.333   
   X188.997      Y240.192   
   X188.856      Y240.008   
   X188.767      Y239.795   
   X188.723      Y239.461   
   Y230.859   
(Pass: 7)
   Z0.000      F100 
   X188.773      Y230.524    F400 
   X188.862      Y230.310   
   X189.003      Y230.127   
   X189.186      Y229.986   
   X189.400      Y229.897   
   X189.629      Y229.867   
   X189.859      Y229.897   
   X190.072      Y229.986   
   X190.256      Y230.127   
   X190.397      Y230.310   
   X190.485      Y230.524   
   X190.529      Y230.858   
   Y239.460   
   X190.479      Y239.795   
   X190.391      Y240.008   
   X190.250      Y240.192   
   X190.066      Y240.333   
   X189.853      Y240.421   
   X189.623      Y240.452   
   X189.394      Y240.421   
   X189.180      Y240.333   
   X188.997      Y240.192   
   X188.856      Y240.008   
   X188.767      Y239.795   
   X188.723      Y239.461   
   Y230.859   
G0   Z21.300    
(Pass: 1)
   X198.729   
G1   Z5.300      F100 
   X198.773      Y230.524    F400 
   X198.862      Y230.310   
   X199.003      Y230.127   
   X199.186      Y229.986   
   X199.400      Y229.897   
   X199.629      Y229.867   
   X199.859      Y229.897   
   X200.072      Y229.986   
   X200.256      Y230.127   
   X200.397      Y230.310   
   X200.485      Y230.524   
   X200.529      Y230.858   
   Y239.460   
   X200.479      Y239.795   
   X200.391      Y240.008   
   X200.250      Y240.192   
   X200.066      Y240.333   
   X199.853      Y240.421   
   X199.623      Y240.452   
   X199.394      Y240.421   
   X199.180      Y240.333   
   X198.997      Y240.192   
   X198.856      Y240.008   
   X198.767      Y239.795   
   X198.723      Y239.461   
   Y230.859   
(Pass: 2)
   Z4.300      F100 
   X198.773      Y230.524    F400 
   X198.862      Y230.310   
   X199.003      Y230.127   
   X199.186      Y229.986   
   X199.400      Y229.897   
   X199.629      Y229.867   
   X199.859      Y229.897   
   X200.072      Y229.986   
   X200.256      Y230.127   
   X200.397      Y230.310   
   X200.485      Y230.524   
   X200.529      Y230.858   
   Y239.460   
   X200.479      Y239.795   
   X200.391      Y240.008   
   X200.250      Y240.192   
   X200.066      Y240.333   
   X199.853      Y240.421   
   X199.623      Y240.452   
   X199.394      Y240.421   
   X199.180      Y240.333   
   X198.997      Y240.192   
   X198.856      Y240.008   
   X198.767      Y239.795   
   X198.723      Y239.461   
   Y230.859   
(Pass: 3)
   Z3.300      F100 
   X198.773      Y230.524    F400 
   X198.862      Y230.310   
   X199.003      Y230.127   
   X199.186      Y229.986   
   X199.400      Y229.897   
   X199.629      Y229.867   
   X199.859      Y229.897   
   X200.072      Y229.986   
   X200.256      Y230.127   
   X200.397      Y230.310   
   X200.485      Y230.524   
   X200.529      Y230.858   
   Y239.460   
   X200.479      Y239.795   
   X200.391      Y240.008   
   X200.250      Y240.192   
   X200.066      Y240.333   
   X199.853      Y240.421   
   X199.623      Y240.452   
   X199.394      Y240.421   
   X199.180      Y240.333   
   X198.997      Y240.192   
   X198.856      Y240.008   
   X198.767      Y239.795   
   X198.723      Y239.461   
   Y230.859   
(Pass: 4)
   Z2.300      F100 
   X198.773      Y230.524    F400 
   X198.862      Y230.310   
   X199.003      Y230.127   
   X199.186      Y229.986   
   X199.400      Y229.897   
   X199.629      Y229.867   
   X199.859      Y229.897   
   X200.072      Y229.986   
   X200.256      Y230.127   
   X200.397      Y230.310   
   X200.485      Y230.524   
   X200.529      Y230.858   
   Y239.460   
   X200.479      Y239.795   
   X200.391      Y240.008   
   X200.250      Y240.192   
   X200.066      Y240.333   
   X199.853      Y240.421   
   X199.623      Y240.452   
   X199.394      Y240.421   
   X199.180      Y240.333   
   X198.997      Y240.192   
   X198.856      Y240.008   
   X198.767      Y239.795   
   X198.723      Y239.461   
   Y230.859   
(Pass: 5)
   Z1.300      F100 
   X198.773      Y230.524    F400 
   X198.862      Y230.310   
   X199.003      Y230.127   
   X199.186      Y229.986   
   X199.400      Y229.897   
   X199.629      Y229.867   
   X199.859      Y229.897   
   X200.072      Y229.986   
   X200.256      Y230.127   
   X200.397      Y230.310   
   X200.485      Y230.524   
   X200.529      Y230.858   
   Y239.460   
   X200.479      Y239.795   
   X200.391      Y240.008   
   X200.250      Y240.192   
   X200.066      Y240.333   
   X199.853      Y240.421   
   X199.623      Y240.452   
   X199.394      Y240.421   
   X199.180      Y240.333   
   X198.997      Y240.192   
   X198.856      Y240.008   
   X198.767      Y239.795   
   X198.723      Y239.461   
   Y230.859   
(Pass: 6)
   Z0.300      F100 
   X198.773      Y230.524    F400 
   X198.862      Y230.310   
   X199.003      Y230.127   
   X199.186      Y229.986   
   X199.400      Y229.897   
   X199.629      Y229.867   
   X199.859      Y229.897   
   X200.072      Y229.986   
   X200.256      Y230.127   
   X200.397      Y230.310   
   X200.485      Y230.524   
   X200.529      Y230.858   
   Y239.460   
   X200.479      Y239.795   
   X200.391      Y240.008   
   X200.250      Y240.192   
   X200.066      Y240.333   
   X199.853      Y240.421   
   X199.623      Y240.452   
   X199.394      Y240.421   
   X199.180      Y240.333   
   X198.997      Y240.192   
   X198.856      Y240.008   
   X198.767      Y239.795   
   X198.723      Y239.461   
   Y230.859   
(Pass: 7)
   Z0.000      F100 
   X198.773      Y230.524    F400 
   X198.862      Y230.310   
   X199.003      Y230.127   
   X199.186      Y229.986   
   X199.400      Y229.897   
   X199.629      Y229.867   
   X199.859      Y229.897   
   X200.072      Y229.986   
   X200.256      Y230.127   
   X200.397      Y230.310   
   X200.485      Y230.524   
   X200.529      Y230.858   
   Y239.460   
   X200.479      Y239.795   
   X200.391      Y240.008   
   X200.250      Y240.192   
   X200.066      Y240.333   
   X199.853      Y240.421   
   X199.623      Y240.452   
   X199.394      Y240.421   
   X199.180      Y240.333   
   X198.997      Y240.192   
   X198.856      Y240.008   
   X198.767      Y239.795   
   X198.723      Y239.461   
   Y230.859   
G0   Z21.300    
(Pass: 1)
   X208.729   
G1   Z5.300      F100 
   X208.773      Y230.524    F400 
   X208.862      Y230.310   
   X209.003      Y230.127   
   X209.186      Y229.986   
   X209.400      Y229.897   
   X209.629      Y229.867   
   X209.859      Y229.897   
   X210.072      Y229.986   
   X210.256      Y230.127   
   X210.397      Y230.310   
   X210.485      Y230.524   
   X210.529      Y230.858   
   Y239.460   
   X210.479      Y239.795   
   X210.391      Y240.008   
   X210.250      Y240.192   
   X210.066      Y240.333   
   X209.853      Y240.421   
   X209.623      Y240.452   
   X209.394      Y240.421   
   X209.180      Y240.333   
   X208.997      Y240.192   
   X208.856      Y240.008   
   X208.767      Y239.795   
   X208.723      Y239.461   
   Y230.859   
(Pass: 2)
   Z4.300      F100 
   X208.773      Y230.524    F400 
   X208.862      Y230.310   
   X209.003      Y230.127   
   X209.186      Y229.986   
   X209.400      Y229.897   
   X209.629      Y229.867   
   X209.859      Y229.897   
   X210.072      Y229.986   
   X210.256      Y230.127   
   X210.397      Y230.310   
   X210.485      Y230.524   
   X210.529      Y230.858   
   Y239.460   
   X210.479      Y239.795   
   X210.391      Y240.008   
   X210.250      Y240.192   
   X210.066      Y240.333   
   X209.853      Y240.421   
   X209.623      Y240.452   
   X209.394      Y240.421   
   X209.180      Y240.333   
   X208.997      Y240.192   
   X208.856      Y240.008   
   X208.767      Y239.795   
   X208.723      Y239.461   
   Y230.859   
(Pass: 3)
   Z3.300      F100 
   X208.773      Y230.524    F400 
   X208.862      Y230.310   
   X209.003      Y230.127   
   X209.186      Y229.986   
   X209.400      Y229.897   
   X209.629      Y229.867   
   X209.859      Y229.897   
   X210.072      Y229.986   
   X210.256      Y230.127   
   X210.397      Y230.310   
   X210.485      Y230.524   
   X210.529      Y230.858   
   Y239.460   
   X210.479      Y239.795   
   X210.391      Y240.008   
   X210.250      Y240.192   
   X210.066      Y240.333   
   X209.853      Y240.421   
   X209.623      Y240.452   
   X209.394      Y240.421   
   X209.180      Y240.333   
   X208.997      Y240.192   
   X208.856      Y240.008   
   X208.767      Y239.795   
   X208.723      Y239.461   
   Y230.859   
(Pass: 4)
   Z2.300      F100 
   X208.773      Y230.524    F400 
   X208.862      Y230.310   
   X209.003      Y230.127   
   X209.186      Y229.986   
   X209.400      Y229.897   
   X209.629      Y229.867   
   X209.859      Y229.897   
   X210.072      Y229.986   
   X210.256      Y230.127   
   X210.397      Y230.310   
   X210.485      Y230.524   
   X210.529      Y230.858   
   Y239.460   
   X210.479      Y239.795   
   X210.391      Y240.008   
   X210.250      Y240.192   
   X210.066      Y240.333   
   X209.853      Y240.421   
   X209.623      Y240.452   
   X209.394      Y240.421   
   X209.180      Y240.333   
   X208.997      Y240.192   
   X208.856      Y240.008   
   X208.767      Y239.795   
   X208.723      Y239.461   
   Y230.859   
(Pass: 5)
   Z1.300      F100 
   X208.773      Y230.524    F400 
   X208.862      Y230.310   
   X209.003      Y230.127   
   X209.186      Y229.986   
   X209.400      Y229.897   
   X209.629      Y229.867   
   X209.859      Y229.897   
   X210.072      Y229.986   
   X210.256      Y230.127   
   X210.397      Y230.310   
   X210.485      Y230.524   
   X210.529      Y230.858   
   Y239.460   
   X210.479      Y239.795   
   X210.391      Y240.008   
   X210.250      Y240.192   
   X210.066      Y240.333   
   X209.853      Y240.421   
   X209.623      Y240.452   
   X209.394      Y240.421   
   X209.180      Y240.333   
   X208.997      Y240.192   
   X208.856      Y240.008   
   X208.767      Y239.795   
   X208.723      Y239.461   
   Y230.859   
(Pass: 6)
   Z0.300      F100 
   X208.773      Y230.524    F400 
   X208.862      Y230.310   
   X209.003      Y230.127   
   X209.186      Y229.986   
   X209.400      Y229.897   
   X209.629      Y229.867   
   X209.859      Y229.897   
   X210.072      Y229.986   
   X210.256      Y230.127   
   X210.397      Y230.310   
   X210.485      Y230.524   
   X210.529      Y230.858   
   Y239.460   
   X210.479      Y239.795   
   X210.391      Y240.008   
   X210.250      Y240.192   
   X210.066      Y240.333   
   X209.853      Y240.421   
   X209.623      Y240.452   
   X209.394      Y240.421   
   X209.180      Y240.333   
   X208.997      Y240.192   
   X208.856      Y240.008   
   X208.767      Y239.795   
   X208.723      Y239.461   
   Y230.859   
(Pass: 7)
   Z0.000      F100 
   X208.773      Y230.524    F400 
   X208.862      Y230.310   
   X209.003      Y230.127   
   X209.186      Y229.986   
   X209.400      Y229.897   
   X209.629      Y229.867   
   X209.859      Y229.897   
   X210.072      Y229.986   
   X210.256      Y230.127   
   X210.397      Y230.310   
   X210.485      Y230.524   
   X210.529      Y230.858   
   Y239.460   
   X210.479      Y239.795   
   X210.391      Y240.008   
   X210.250      Y240.192   
   X210.066      Y240.333   
   X209.853      Y240.421   
   X209.623      Y240.452   
   X209.394      Y240.421   
   X209.180      Y240.333   
   X208.997      Y240.192   
   X208.856      Y240.008   
   X208.767      Y239.795   
   X208.723      Y239.461   
   Y230.859   
G0   Z21.300    
(Pass: 1)
   X212.753      Y254.671   
G1   Z5.300      F100 
   X212.993      Y254.639    F400 
   X213.233      Y254.671   
   X213.456      Y254.763   
   X213.648      Y254.910   
   X213.795      Y255.102   
   X213.888      Y255.326   
   X213.919      Y255.565   
   X213.888      Y255.805   
   X213.795      Y256.028   
   X213.648      Y256.220   
   X213.456      Y256.367   
   X213.233      Y256.460   
   X212.993      Y256.492   
   X212.753      Y256.460   
   X212.530      Y256.367   
   X212.338      Y256.220   
   X212.191      Y256.028   
   X212.099      Y255.805   
   X212.067      Y255.565   
   X212.099      Y255.326   
   X212.191      Y255.102   
   X212.338      Y254.910   
   X212.530      Y254.763   
   X212.753      Y254.671   
(Pass: 2)
   Z4.300      F100 
   X212.993      Y254.639    F400 
   X213.233      Y254.671   
   X213.456      Y254.763   
   X213.648      Y254.910   
   X213.795      Y255.102   
   X213.888      Y255.326   
   X213.919      Y255.565   
   X213.888      Y255.805   
   X213.795      Y256.028   
   X213.648      Y256.220   
   X213.456      Y256.367   
   X213.233      Y256.460   
   X212.993      Y256.492   
   X212.753      Y256.460   
   X212.530      Y256.367   
   X212.338      Y256.220   
   X212.191      Y256.028   
   X212.099      Y255.805   
   X212.067      Y255.565   
   X212.099      Y255.326   
   X212.191      Y255.102   
   X212.338      Y254.910   
   X212.530      Y254.763   
   X212.753      Y254.671   
(Pass: 3)
   Z3.300      F100 
   X212.993      Y254.639    F400 
   X213.233      Y254.671   
   X213.456      Y254.763   
   X213.648      Y254.910   
   X213.795      Y255.102   
   X213.888      Y255.326   
   X213.919      Y255.565   
   X213.888      Y255.805   
   X213.795      Y256.028   
   X213.648      Y256.220   
   X213.456      Y256.367   
   X213.233      Y256.460   
   X212.993      Y256.492   
   X212.753      Y256.460   
   X212.530      Y256.367   
   X212.338      Y256.220   
   X212.191      Y256.028   
   X212.099      Y255.805   
   X212.067      Y255.565   
   X212.099      Y255.326   
   X212.191      Y255.102   
   X212.338      Y254.910   
   X212.530      Y254.763   
   X212.753      Y254.671   
(Pass: 4)
   Z2.300      F100 
   X212.993      Y254.639    F400 
   X213.233      Y254.671   
   X213.456      Y254.763   
   X213.648      Y254.910   
   X213.795      Y255.102   
   X213.888      Y255.326   
   X213.919      Y255.565   
   X213.888      Y255.805   
   X213.795      Y256.028   
   X213.648      Y256.220   
   X213.456      Y256.367   
   X213.233      Y256.460   
   X212.993      Y256.492   
   X212.753      Y256.460   
   X212.530      Y256.367   
   X212.338      Y256.220   
   X212.191      Y256.028   
   X212.099      Y255.805   
   X212.067      Y255.565   
   X212.099      Y255.326   
   X212.191      Y255.102   
   X212.338      Y254.910   
   X212.530      Y254.763   
   X212.753      Y254.671   
(Pass: 5)
   Z1.300      F100 
   X212.993      Y254.639    F400 
   X213.233      Y254.671   
   X213.456      Y254.763   
   X213.648      Y254.910   
   X213.795      Y255.102   
   X213.888      Y255.326   
   X213.919      Y255.565   
   X213.888      Y255.805   
   X213.795      Y256.028   
   X213.648      Y256.220   
   X213.456      Y256.367   
   X213.233      Y256.460   
   X212.993      Y256.492   
   X212.753      Y256.460   
   X212.530      Y256.367   
   X212.338      Y256.220   
   X212.191      Y256.028   
   X212.099      Y255.805   
   X212.067      Y255.565   
   X212.099      Y255.326   
   X212.191      Y255.102   
   X212.338      Y254.910   
   X212.530      Y254.763   
   X212.753      Y254.671   
(Pass: 6)
   Z0.300      F100 
   X212.993      Y254.639    F400 
   X213.233      Y254.671   
   X213.456      Y254.763   
   X213.648      Y254.910   
   X213.795      Y255.102   
   X213.888      Y255.326   
   X213.919      Y255.565   
   X213.888      Y255.805   
   X213.795      Y256.028   
   X213.648      Y256.220   
   X213.456      Y256.367   
   X213.233      Y256.460   
   X212.993      Y256.492   
   X212.753      Y256.460   
   X212.530      Y256.367   
   X212.338      Y256.220   
   X212.191      Y256.028   
   X212.099      Y255.805   
   X212.067      Y255.565   
   X212.099      Y255.326   
   X212.191      Y255.102   
   X212.338      Y254.910   
   X212.530      Y254.763   
   X212.753      Y254.671   
(Pass: 7)
   Z0.000      F100 
   X212.993      Y254.639    F400 
   X213.233      Y254.671   
   X213.456      Y254.763   
   X213.648      Y254.910   
   X213.795      Y255.102   
   X213.888      Y255.326   
   X213.919      Y255.565   
   X213.888      Y255.805   
   X213.795      Y256.028   
   X213.648      Y256.220   
   X213.456      Y256.367   
   X213.233      Y256.460   
   X212.993      Y256.492   
   X212.753      Y256.460   
   X212.530      Y256.367   
   X212.338      Y256.220   
   X212.191      Y256.028   
   X212.099      Y255.805   
   X212.067      Y255.565   
   X212.099      Y255.326   
   X212.191      Y255.102   
   X212.338      Y254.910   
   X212.530      Y254.763   
   X212.753      Y254.671   
G0   Z21.300    
(Pass: 1)
   X182.023      Y255.177   
G1   Z5.300      F100 
G17 G2   X182.0361     Y255.7995     R2.4000     F400 
   X181.8874     Y256.4044     R2.4000    
   X181.5872     Y256.9502     R2.4000    
   X181.1559     Y257.3997     R2.4000    
   X180.6230     Y257.7222     R2.4000    
   X180.0248     Y257.8959     R2.4000    
   X179.3413     Y257.9101     R2.4000    
   X178.8119     Y257.7682     R2.4000    
   X178.2513     Y257.4599     R2.4000    
   X177.8018     Y257.0286     R2.4000    
   X177.4792     Y256.4957     R2.4000    
   X177.3056     Y255.8975     R2.4000    
   X177.2927     Y255.2747     R2.4000    
   X177.4414     Y254.6698     R2.4000    
   X177.7416     Y254.1240     R2.4000    
   X178.1729     Y253.6745     R2.4000    
   X178.7058     Y253.3519     R2.4000    
   X179.3040     Y253.1783     R2.4000    
   X179.9268     Y253.1654     R2.4000    
   X180.5317     Y253.3141     R2.4000    
   X181.0775     Y253.6143     R2.4000    
   X181.5270     Y254.0456     R2.4000    
   X181.8496     Y254.5785     R2.4000    
   X182.0232     Y255.1767     R2.4000    
(Pass: 2)
G1   Z4.300      F100 
G17 G2   X182.0361     Y255.7995     R2.4000     F400 
   X181.8874     Y256.4044     R2.4000    
   X181.5872     Y256.9502     R2.4000    
   X181.1559     Y257.3997     R2.4000    
   X180.6230     Y257.7222     R2.4000    
   X180.0248     Y257.8959     R2.4000    
   X179.3413     Y257.9101     R2.4000    
   X178.8119     Y257.7682     R2.4000    
   X178.2513     Y257.4599     R2.4000    
   X177.8018     Y257.0286     R2.4000    
   X177.4792     Y256.4957     R2.4000    
   X177.3056     Y255.8975     R2.4000    
   X177.2927     Y255.2747     R2.4000    
   X177.4414     Y254.6698     R2.4000    
   X177.7416     Y254.1240     R2.4000    
   X178.1729     Y253.6745     R2.4000    
   X178.7058     Y253.3519     R2.4000    
   X179.3040     Y253.1783     R2.4000    
   X179.9268     Y253.1654     R2.4000    
   X180.5317     Y253.3141     R2.4000    
   X181.0775     Y253.6143     R2.4000    
   X181.5270     Y254.0456     R2.4000    
   X181.8496     Y254.5785     R2.4000    
   X182.0232     Y255.1767     R2.4000    
(Pass: 3)
G1   Z3.300      F100 
G17 G2   X182.0361     Y255.7995     R2.4000     F400 
   X181.8874     Y256.4044     R2.4000    
   X181.5872     Y256.9502     R2.4000    
   X181.1559     Y257.3997     R2.4000    
   X180.6230     Y257.7222     R2.4000    
   X180.0248     Y257.8959     R2.4000    
   X179.3413     Y257.9101     R2.4000    
   X178.8119     Y257.7682     R2.4000    
   X178.2513     Y257.4599     R2.4000    
   X177.8018     Y257.0286     R2.4000    
   X177.4792     Y256.4957     R2.4000    
   X177.3056     Y255.8975     R2.4000    
   X177.2927     Y255.2747     R2.4000    
   X177.4414     Y254.6698     R2.4000    
   X177.7416     Y254.1240     R2.4000    
   X178.1729     Y253.6745     R2.4000    
   X178.7058     Y253.3519     R2.4000    
   X179.3040     Y253.1783     R2.4000    
   X179.9268     Y253.1654     R2.4000    
   X180.5317     Y253.3141     R2.4000    
   X181.0775     Y253.6143     R2.4000    
   X181.5270     Y254.0456     R2.4000    
   X181.8496     Y254.5785     R2.4000    
   X182.0232     Y255.1767     R2.4000    
(Pass: 4)
G1   Z2.300      F100 
G17 G2   X182.0361     Y255.7995     R2.4000     F400 
   X181.8874     Y256.4044     R2.4000    
   X181.5872     Y256.9502     R2.4000    
   X181.1559     Y257.3997     R2.4000    
   X180.6230     Y257.7222     R2.4000    
   X180.0248     Y257.8959     R2.4000    
   X179.3413     Y257.9101     R2.4000    
   X178.8119     Y257.7682     R2.4000    
   X178.2513     Y257.4599     R2.4000    
   X177.8018     Y257.0286     R2.4000    
   X177.4792     Y256.4957     R2.4000    
   X177.3056     Y255.8975     R2.4000    
   X177.2927     Y255.2747     R2.4000    
   X177.4414     Y254.6698     R2.4000    
   X177.7416     Y254.1240     R2.4000    
   X178.1729     Y253.6745     R2.4000    
   X178.7058     Y253.3519     R2.4000    
   X179.3040     Y253.1783     R2.4000    
   X179.9268     Y253.1654     R2.4000    
   X180.5317     Y253.3141     R2.4000    
   X181.0775     Y253.6143     R2.4000    
   X181.5270     Y254.0456     R2.4000    
   X181.8496     Y254.5785     R2.4000    
   X182.0232     Y255.1767     R2.4000    
(Pass: 5)
G1   Z1.300      F100 
G17 G2   X182.0361     Y255.7995     R2.4000     F400 
   X181.8874     Y256.4044     R2.4000    
   X181.5872     Y256.9502     R2.4000    
   X181.1559     Y257.3997     R2.4000    
   X180.6230     Y257.7222     R2.4000    
   X180.0248     Y257.8959     R2.4000    
   X179.3413     Y257.9101     R2.4000    
   X178.8119     Y257.7682     R2.4000    
   X178.2513     Y257.4599     R2.4000    
   X177.8018     Y257.0286     R2.4000    
   X177.4792     Y256.4957     R2.4000    
   X177.3056     Y255.8975     R2.4000    
   X177.2927     Y255.2747     R2.4000    
   X177.4414     Y254.6698     R2.4000    
   X177.7416     Y254.1240     R2.4000    
   X178.1729     Y253.6745     R2.4000    
   X178.7058     Y253.3519     R2.4000    
   X179.3040     Y253.1783     R2.4000    
   X179.9268     Y253.1654     R2.4000    
   X180.5317     Y253.3141     R2.4000    
   X181.0775     Y253.6143     R2.4000    
   X181.5270     Y254.0456     R2.4000    
   X181.8496     Y254.5785     R2.4000    
   X182.0232     Y255.1767     R2.4000    
(Pass: 6)
G1   Z0.300      F100 
G17 G2   X182.0361     Y255.7995     R2.4000     F400 
   X181.8874     Y256.4044     R2.4000    
   X181.5872     Y256.9502     R2.4000    
   X181.1559     Y257.3997     R2.4000    
   X180.6230     Y257.7222     R2.4000    
   X180.0248     Y257.8959     R2.4000    
   X179.3413     Y257.9101     R2.4000    
   X178.8119     Y257.7682     R2.4000    
   X178.2513     Y257.4599     R2.4000    
   X177.8018     Y257.0286     R2.4000    
   X177.4792     Y256.4957     R2.4000    
   X177.3056     Y255.8975     R2.4000    
   X177.2927     Y255.2747     R2.4000    
   X177.4414     Y254.6698     R2.4000    
   X177.7416     Y254.1240     R2.4000    
   X178.1729     Y253.6745     R2.4000    
   X178.7058     Y253.3519     R2.4000    
   X179.3040     Y253.1783     R2.4000    
   X179.9268     Y253.1654     R2.4000    
   X180.5317     Y253.3141     R2.4000    
   X181.0775     Y253.6143     R2.4000    
   X181.5270     Y254.0456     R2.4000    
   X181.8496     Y254.5785     R2.4000    
   X182.0232     Y255.1767     R2.4000    
(Pass: 7)
G1   Z0.000      F100 
G17 G2   X182.0361     Y255.7995     R2.4000     F400 
   X181.8874     Y256.4044     R2.4000    
   X181.5872     Y256.9502     R2.4000    
   X181.1559     Y257.3997     R2.4000    
   X180.6230     Y257.7222     R2.4000    
   X180.0248     Y257.8959     R2.4000    
   X179.3413     Y257.9101     R2.4000    
   X178.8119     Y257.7682     R2.4000    
   X178.2513     Y257.4599     R2.4000    
   X177.8018     Y257.0286     R2.4000    
   X177.4792     Y256.4957     R2.4000    
   X177.3056     Y255.8975     R2.4000    
   X177.2927     Y255.2747     R2.4000    
   X177.4414     Y254.6698     R2.4000    
   X177.7416     Y254.1240     R2.4000    
   X178.1729     Y253.6745     R2.4000    
   X178.7058     Y253.3519     R2.4000    
   X179.3040     Y253.1783     R2.4000    
   X179.9268     Y253.1654     R2.4000    
   X180.5317     Y253.3141     R2.4000    
   X181.0775     Y253.6143     R2.4000    
   X181.5270     Y254.0456     R2.4000    
   X181.8496     Y254.5785     R2.4000    
   X182.0232     Y255.1767     R2.4000    
G0   Z21.300    
(Pass: 1)
   X147.250      Y255.565   
G1   Z5.300      F100 
   X147.218      Y255.805    F400 
   X147.126      Y256.028   
   X146.979      Y256.220   
   X146.787      Y256.367   
   X146.563      Y256.460   
   X146.324      Y256.492   
   X146.084      Y256.460   
   X145.861      Y256.367   
   X145.669      Y256.220   
   X145.522      Y256.028   
   X145.429      Y255.805   
   X145.398      Y255.565   
   X145.429      Y255.326   
   X145.522      Y255.102   
   X145.669      Y254.910   
   X145.861      Y254.763   
   X146.084      Y254.671   
   X146.324      Y254.639   
   X146.563      Y254.671   
   X146.787      Y254.763   
   X146.979      Y254.910   
   X147.126      Y255.102   
   X147.218      Y255.326   
   X147.250      Y255.565   
(Pass: 2)
   Z4.300      F100 
   X147.218      Y255.805    F400 
   X147.126      Y256.028   
   X146.979      Y256.220   
   X146.787      Y256.367   
   X146.563      Y256.460   
   X146.324      Y256.492   
   X146.084      Y256.460   
   X145.861      Y256.367   
   X145.669      Y256.220   
   X145.522      Y256.028   
   X145.429      Y255.805   
   X145.398      Y255.565   
   X145.429      Y255.326   
   X145.522      Y255.102   
   X145.669      Y254.910   
   X145.861      Y254.763   
   X146.084      Y254.671   
   X146.324      Y254.639   
   X146.563      Y254.671   
   X146.787      Y254.763   
   X146.979      Y254.910   
   X147.126      Y255.102   
   X147.218      Y255.326   
   X147.250      Y255.565   
(Pass: 3)
   Z3.300      F100 
   X147.218      Y255.805    F400 
   X147.126      Y256.028   
   X146.979      Y256.220   
   X146.787      Y256.367   
   X146.563      Y256.460   
   X146.324      Y256.492   
   X146.084      Y256.460   
   X145.861      Y256.367   
   X145.669      Y256.220   
   X145.522      Y256.028   
   X145.429      Y255.805   
   X145.398      Y255.565   
   X145.429      Y255.326   
   X145.522      Y255.102   
   X145.669      Y254.910   
   X145.861      Y254.763   
   X146.084      Y254.671   
   X146.324      Y254.639   
   X146.563      Y254.671   
   X146.787      Y254.763   
   X146.979      Y254.910   
   X147.126      Y255.102   
   X147.218      Y255.326   
   X147.250      Y255.565   
(Pass: 4)
   Z2.300      F100 
   X147.218      Y255.805    F400 
   X147.126      Y256.028   
   X146.979      Y256.220   
   X146.787      Y256.367   
   X146.563      Y256.460   
   X146.324      Y256.492   
   X146.084      Y256.460   
   X145.861      Y256.367   
   X145.669      Y256.220   
   X145.522      Y256.028   
   X145.429      Y255.805   
   X145.398      Y255.565   
   X145.429      Y255.326   
   X145.522      Y255.102   
   X145.669      Y254.910   
   X145.861      Y254.763   
   X146.084      Y254.671   
   X146.324      Y254.639   
   X146.563      Y254.671   
   X146.787      Y254.763   
   X146.979      Y254.910   
   X147.126      Y255.102   
   X147.218      Y255.326   
   X147.250      Y255.565   
(Pass: 5)
   Z1.300      F100 
   X147.218      Y255.805    F400 
   X147.126      Y256.028   
   X146.979      Y256.220   
   X146.787      Y256.367   
   X146.563      Y256.460   
   X146.324      Y256.492   
   X146.084      Y256.460   
   X145.861      Y256.367   
   X145.669      Y256.220   
   X145.522      Y256.028   
   X145.429      Y255.805   
   X145.398      Y255.565   
   X145.429      Y255.326   
   X145.522      Y255.102   
   X145.669      Y254.910   
   X145.861      Y254.763   
   X146.084      Y254.671   
   X146.324      Y254.639   
   X146.563      Y254.671   
   X146.787      Y254.763   
   X146.979      Y254.910   
   X147.126      Y255.102   
   X147.218      Y255.326   
   X147.250      Y255.565   
(Pass: 6)
   Z0.300      F100 
   X147.218      Y255.805    F400 
   X147.126      Y256.028   
   X146.979      Y256.220   
   X146.787      Y256.367   
   X146.563      Y256.460   
   X146.324      Y256.492   
   X146.084      Y256.460   
   X145.861      Y256.367   
   X145.669      Y256.220   
   X145.522      Y256.028   
   X145.429      Y255.805   
   X145.398      Y255.565   
   X145.429      Y255.326   
   X145.522      Y255.102   
   X145.669      Y254.910   
   X145.861      Y254.763   
   X146.084      Y254.671   
   X146.324      Y254.639   
   X146.563      Y254.671   
   X146.787      Y254.763   
   X146.979      Y254.910   
   X147.126      Y255.102   
   X147.218      Y255.326   
   X147.250      Y255.565   
(Pass: 7)
   Z0.000      F100 
   X147.218      Y255.805    F400 
   X147.126      Y256.028   
   X146.979      Y256.220   
   X146.787      Y256.367   
   X146.563      Y256.460   
   X146.324      Y256.492   
   X146.084      Y256.460   
   X145.861      Y256.367   
   X145.669      Y256.220   
   X145.522      Y256.028   
   X145.429      Y255.805   
   X145.398      Y255.565   
   X145.429      Y255.326   
   X145.522      Y255.102   
   X145.669      Y254.910   
   X145.861      Y254.763   
   X146.084      Y254.671   
   X146.324      Y254.639   
   X146.563      Y254.671   
   X146.787      Y254.763   
   X146.979      Y254.910   
   X147.126      Y255.102   
   X147.218      Y255.326   
   X147.250      Y255.565   
G0   Z21.300    
(Pass: 1)
   X179.004      Y288.245   
G1   Z5.300      F100 
   X179.195      Y288.098    F400 
   X179.419      Y288.005   
   X179.658      Y287.974   
   X179.898      Y288.005   
   X180.122      Y288.098   
   X180.313      Y288.245   
   X180.461      Y288.437   
   X180.553      Y288.660   
   X180.585      Y288.900   
   X180.553      Y289.140   
   X180.461      Y289.363   
   X180.313      Y289.555   
   X180.122      Y289.702   
   X179.898      Y289.795   
   X179.658      Y289.826   
   X179.419      Y289.795   
   X179.195      Y289.702   
   X179.004      Y289.555   
   X178.856      Y289.363   
   X178.764      Y289.140   
   X178.732      Y288.900   
   X178.764      Y288.660   
   X178.856      Y288.437   
   X179.004      Y288.245   
(Pass: 2)
   Z4.300      F100 
   X179.195      Y288.098    F400 
   X179.419      Y288.005   
   X179.658      Y287.974   
   X179.898      Y288.005   
   X180.122      Y288.098   
   X180.313      Y288.245   
   X180.461      Y288.437   
   X180.553      Y288.660   
   X180.585      Y288.900   
   X180.553      Y289.140   
   X180.461      Y289.363   
   X180.313      Y289.555   
   X180.122      Y289.702   
   X179.898      Y289.795   
   X179.658      Y289.826   
   X179.419      Y289.795   
   X179.195      Y289.702   
   X179.004      Y289.555   
   X178.856      Y289.363   
   X178.764      Y289.140   
   X178.732      Y288.900   
   X178.764      Y288.660   
   X178.856      Y288.437   
   X179.004      Y288.245   
(Pass: 3)
   Z3.300      F100 
   X179.195      Y288.098    F400 
   X179.419      Y288.005   
   X179.658      Y287.974   
   X179.898      Y288.005   
   X180.122      Y288.098   
   X180.313      Y288.245   
   X180.461      Y288.437   
   X180.553      Y288.660   
   X180.585      Y288.900   
   X180.553      Y289.140   
   X180.461      Y289.363   
   X180.313      Y289.555   
   X180.122      Y289.702   
   X179.898      Y289.795   
   X179.658      Y289.826   
   X179.419      Y289.795   
   X179.195      Y289.702   
   X179.004      Y289.555   
   X178.856      Y289.363   
   X178.764      Y289.140   
   X178.732      Y288.900   
   X178.764      Y288.660   
   X178.856      Y288.437   
   X179.004      Y288.245   
(Pass: 4)
   Z2.300      F100 
   X179.195      Y288.098    F400 
   X179.419      Y288.005   
   X179.658      Y287.974   
   X179.898      Y288.005   
   X180.122      Y288.098   
   X180.313      Y288.245   
   X180.461      Y288.437   
   X180.553      Y288.660   
   X180.585      Y288.900   
   X180.553      Y289.140   
   X180.461      Y289.363   
   X180.313      Y289.555   
   X180.122      Y289.702   
   X179.898      Y289.795   
   X179.658      Y289.826   
   X179.419      Y289.795   
   X179.195      Y289.702   
   X179.004      Y289.555   
   X178.856      Y289.363   
   X178.764      Y289.140   
   X178.732      Y288.900   
   X178.764      Y288.660   
   X178.856      Y288.437   
   X179.004      Y288.245   
(Pass: 5)
   Z1.300      F100 
   X179.195      Y288.098    F400 
   X179.419      Y288.005   
   X179.658      Y287.974   
   X179.898      Y288.005   
   X180.122      Y288.098   
   X180.313      Y288.245   
   X180.461      Y288.437   
   X180.553      Y288.660   
   X180.585      Y288.900   
   X180.553      Y289.140   
   X180.461      Y289.363   
   X180.313      Y289.555   
   X180.122      Y289.702   
   X179.898      Y289.795   
   X179.658      Y289.826   
   X179.419      Y289.795   
   X179.195      Y289.702   
   X179.004      Y289.555   
   X178.856      Y289.363   
   X178.764      Y289.140   
   X178.732      Y288.900   
   X178.764      Y288.660   
   X178.856      Y288.437   
   X179.004      Y288.245   
(Pass: 6)
   Z0.300      F100 
   X179.195      Y288.098    F400 
   X179.419      Y288.005   
   X179.658      Y287.974   
   X179.898      Y288.005   
   X180.122      Y288.098   
   X180.313      Y288.245   
   X180.461      Y288.437   
   X180.553      Y288.660   
   X180.585      Y288.900   
   X180.553      Y289.140   
   X180.461      Y289.363   
   X180.313      Y289.555   
   X180.122      Y289.702   
   X179.898      Y289.795   
   X179.658      Y289.826   
   X179.419      Y289.795   
   X179.195      Y289.702   
   X179.004      Y289.555   
   X178.856      Y289.363   
   X178.764      Y289.140   
   X178.732      Y288.900   
   X178.764      Y288.660   
   X178.856      Y288.437   
   X179.004      Y288.245   
(Pass: 7)
   Z0.000      F100 
   X179.195      Y288.098    F400 
   X179.419      Y288.005   
   X179.658      Y287.974   
   X179.898      Y288.005   
   X180.122      Y288.098   
   X180.313      Y288.245   
   X180.461      Y288.437   
   X180.553      Y288.660   
   X180.585      Y288.900   
   X180.553      Y289.140   
   X180.461      Y289.363   
   X180.313      Y289.555   
   X180.122      Y289.702   
   X179.898      Y289.795   
   X179.658      Y289.826   
   X179.419      Y289.795   
   X179.195      Y289.702   
   X179.004      Y289.555   
   X178.856      Y289.363   
   X178.764      Y289.140   
   X178.732      Y288.900   
   X178.764      Y288.660   
   X178.856      Y288.437   
   X179.004      Y288.245   
G0   Z21.300    
(Pass: 1)
   X165.392      Y297.200   
G1   Z5.300      F100 
   X193.910    F400 
   X194.762      Y297.116   
   X196.312      Y296.808   
   X197.809      Y296.300   
   X198.588      Y295.947   
   X199.957      Y295.157   
   X201.236      Y294.175   
   X219.075      Y276.093   
   X219.777      Y275.179   
   X220.356      Y274.175   
   X220.799      Y273.105   
   X221.099      Y271.986   
   X221.250      Y270.838   
   Y228.085   
   X221.197      Y227.275   
   X221.029      Y226.428   
   X220.751      Y225.610   
   X220.369      Y224.835   
   X219.889      Y224.117   
   X219.320      Y223.468   
   X218.670      Y222.898   
   X217.952      Y222.418   
   X217.177      Y222.036   
   X216.359      Y221.759   
   X215.512      Y221.590   
   X214.703      Y221.537   
   X144.612   
   X143.802      Y221.590   
   X142.955      Y221.759   
   X142.137      Y222.036   
   X141.363      Y222.418   
   X140.644      Y222.898   
   X139.995      Y223.468   
   X139.426      Y224.117   
   X138.946      Y224.835   
   X138.564      Y225.610   
   X138.286      Y226.428   
   X138.117      Y227.275   
   X138.064      Y228.085   
   Y270.838   
   X138.216      Y271.986   
   X138.515      Y273.105   
   X138.959      Y274.175   
   X139.538      Y275.179   
   X140.240      Y276.094   
   X158.093      Y294.175   
   X159.372      Y295.157   
   X160.763      Y295.960   
   X162.248      Y296.575   
   X163.799      Y296.990   
   X165.392      Y297.200   
(Pass: 2)
   Z4.300      F100 
   X193.910    F400 
   X194.762      Y297.116   
   X196.312      Y296.808   
   X197.809      Y296.300   
   X198.588      Y295.947   
   X199.957      Y295.157   
   X201.236      Y294.175   
   X219.075      Y276.093   
   X219.777      Y275.179   
   X220.356      Y274.175   
   X220.799      Y273.105   
   X221.099      Y271.986   
   X221.250      Y270.838   
   Y228.085   
   X221.197      Y227.275   
   X221.029      Y226.428   
   X220.751      Y225.610   
   X220.369      Y224.835   
   X219.889      Y224.117   
   X219.320      Y223.468   
   X218.670      Y222.898   
   X217.952      Y222.418   
   X217.177      Y222.036   
   X216.359      Y221.759   
   X215.512      Y221.590   
   X214.703      Y221.537   
   X144.612   
   X143.802      Y221.590   
   X142.955      Y221.759   
   X142.137      Y222.036   
   X141.363      Y222.418   
   X140.644      Y222.898   
   X139.995      Y223.468   
   X139.426      Y224.117   
   X138.946      Y224.835   
   X138.564      Y225.610   
   X138.286      Y226.428   
   X138.117      Y227.275   
   X138.064      Y228.085   
   Y270.838   
   X138.216      Y271.986   
   X138.515      Y273.105   
   X138.959      Y274.175   
   X139.538      Y275.179   
   X140.240      Y276.094   
   X158.093      Y294.175   
   X159.372      Y295.157   
   X160.763      Y295.960   
   X162.248      Y296.575   
   X163.799      Y296.990   
   X165.392      Y297.200   
(Pass: 3)
   Z3.300      F100 
   X193.910    F400 
   X194.762      Y297.116   
   X196.312      Y296.808   
   X197.809      Y296.300   
   X198.588      Y295.947   
   X199.957      Y295.157   
   X201.236      Y294.175   
   X219.075      Y276.093   
   X219.777      Y275.179   
   X220.356      Y274.175   
   X220.799      Y273.105   
   X221.099      Y271.986   
   X221.250      Y270.838   
   Y228.085   
   X221.197      Y227.275   
   X221.029      Y226.428   
   X220.751      Y225.610   
   X220.369      Y224.835   
   X219.889      Y224.117   
   X219.320      Y223.468   
   X218.670      Y222.898   
   X217.952      Y222.418   
   X217.177      Y222.036   
   X216.359      Y221.759   
   X215.512      Y221.590   
   X214.703      Y221.537   
   X144.612   
   X143.802      Y221.590   
   X142.955      Y221.759   
   X142.137      Y222.036   
   X141.363      Y222.418   
   X140.644      Y222.898   
   X139.995      Y223.468   
   X139.426      Y224.117   
   X138.946      Y224.835   
   X138.564      Y225.610   
   X138.286      Y226.428   
   X138.117      Y227.275   
   X138.064      Y228.085   
   Y270.838   
   X138.216      Y271.986   
   X138.515      Y273.105   
   X138.959      Y274.175   
   X139.538      Y275.179   
   X140.240      Y276.094   
   X158.093      Y294.175   
   X159.372      Y295.157   
   X160.763      Y295.960   
   X162.248      Y296.575   
   X163.799      Y296.990   
   X165.392      Y297.200   
(Pass: 4)
   Z2.300      F100 
   X193.910    F400 
   X194.762      Y297.116   
   X196.312      Y296.808   
   X197.809      Y296.300   
   X198.588      Y295.947   
   X199.957      Y295.157   
   X201.236      Y294.175   
   X219.075      Y276.093   
   X219.777      Y275.179   
   X220.356      Y274.175   
   X220.799      Y273.105   
   X221.099      Y271.986   
   X221.250      Y270.838   
   Y228.085   
   X221.197      Y227.275   
   X221.029      Y226.428   
   X220.751      Y225.610   
   X220.369      Y224.835   
   X219.889      Y224.117   
   X219.320      Y223.468   
   X218.670      Y222.898   
   X217.952      Y222.418   
   X217.177      Y222.036   
   X216.359      Y221.759   
   X215.512      Y221.590   
   X214.703      Y221.537   
   X144.612   
   X143.802      Y221.590   
   X142.955      Y221.759   
   X142.137      Y222.036   
   X141.363      Y222.418   
   X140.644      Y222.898   
   X139.995      Y223.468   
   X139.426      Y224.117   
   X138.946      Y224.835   
   X138.564      Y225.610   
   X138.286      Y226.428   
   X138.117      Y227.275   
   X138.064      Y228.085   
   Y270.838   
   X138.216      Y271.986   
   X138.515      Y273.105   
   X138.959      Y274.175   
   X139.538      Y275.179   
   X140.240      Y276.094   
   X158.093      Y294.175   
   X159.372      Y295.157   
   X160.763      Y295.960   
   X162.248      Y296.575   
   X163.799      Y296.990   
   X165.392      Y297.200   
(Pass: 5)
   Z1.300      F100 
   X193.910    F400 
   X194.762      Y297.116   
   X196.312      Y296.808   
   X197.809      Y296.300   
   X198.588      Y295.947   
   X199.957      Y295.157   
   X201.236      Y294.175   
   X219.075      Y276.093   
   X219.777      Y275.179   
   X220.356      Y274.175   
   X220.799      Y273.105   
   X221.099      Y271.986   
   X221.250      Y270.838   
   Y228.085   
   X221.197      Y227.275   
   X221.029      Y226.428   
   X220.751      Y225.610   
   X220.369      Y224.835   
   X219.889      Y224.117   
   X219.320      Y223.468   
   X218.670      Y222.898   
   X217.952      Y222.418   
   X217.177      Y222.036   
   X216.359      Y221.759   
   X215.512      Y221.590   
   X214.703      Y221.537   
   X144.612   
   X143.802      Y221.590   
   X142.955      Y221.759   
   X142.137      Y222.036   
   X141.363      Y222.418   
   X140.644      Y222.898   
   X139.995      Y223.468   
   X139.426      Y224.117   
   X138.946      Y224.835   
   X138.564      Y225.610   
   X138.286      Y226.428   
   X138.117      Y227.275   
   X138.064      Y228.085   
   Y270.838   
   X138.216      Y271.986   
   X138.515      Y273.105   
   X138.959      Y274.175   
   X139.538      Y275.179   
   X140.240      Y276.094   
   X158.093      Y294.175   
   X159.372      Y295.157   
   X160.763      Y295.960   
   X162.248      Y296.575   
   X163.799      Y296.990   
   X165.392      Y297.200   
(Pass: 6)
   Z0.300      F100 
   X193.910    F400 
   X194.762      Y297.116   
   X196.312      Y296.808   
   X197.809      Y296.300   
   X198.588      Y295.947   
   X199.957      Y295.157   
   X201.236      Y294.175   
   X219.075      Y276.093   
   X219.777      Y275.179   
   X220.356      Y274.175   
   X220.799      Y273.105   
   X221.099      Y271.986   
   X221.250      Y270.838   
   Y228.085   
   X221.197      Y227.275   
   X221.029      Y226.428   
   X220.751      Y225.610   
   X220.369      Y224.835   
   X219.889      Y224.117   
   X219.320      Y223.468   
   X218.670      Y222.898   
   X217.952      Y222.418   
   X217.177      Y222.036   
   X216.359      Y221.759   
   X215.512      Y221.590   
   X214.703      Y221.537   
   X144.612   
   X143.802      Y221.590   
   X142.955      Y221.759   
   X142.137      Y222.036   
   X141.363      Y222.418   
   X140.644      Y222.898   
   X139.995      Y223.468   
   X139.426      Y224.117   
   X138.946      Y224.835   
   X138.564      Y225.610   
   X138.286      Y226.428   
   X138.117      Y227.275   
   X138.064      Y228.085   
   Y270.838   
   X138.216      Y271.986   
   X138.515      Y273.105   
   X138.959      Y274.175   
   X139.538      Y275.179   
   X140.240      Y276.094   
   X158.093      Y294.175   
   X159.372      Y295.157   
   X160.763      Y295.960   
   X162.248      Y296.575   
   X163.799      Y296.990   
   X165.392      Y297.200   
(Pass: 7)
   Z0.000      F100 
   X193.910    F400 
   X194.762      Y297.116   
   X196.312      Y296.808   
   X197.809      Y296.300   
   X198.588      Y295.947   
   X199.957      Y295.157   
   X201.236      Y294.175   
   X219.075      Y276.093   
   X219.777      Y275.179   
   X220.356      Y274.175   
   X220.799      Y273.105   
   X221.099      Y271.986   
   X221.250      Y270.838   
   Y228.085   
   X221.197      Y227.275   
   X221.029      Y226.428   
   X220.751      Y225.610   
   X220.369      Y224.835   
   X219.889      Y224.117   
   X219.320      Y223.468   
   X218.670      Y222.898   
   X217.952      Y222.418   
   X217.177      Y222.036   
   X216.359      Y221.759   
   X215.512      Y221.590   
   X214.703      Y221.537   
   X144.612   
   X143.802      Y221.590   
   X142.955      Y221.759   
   X142.137      Y222.036   
   X141.363      Y222.418   
   X140.644      Y222.898   
   X139.995      Y223.468   
   X139.426      Y224.117   
   X138.946      Y224.835   
   X138.564      Y225.610   
   X138.286      Y226.428   
   X138.117      Y227.275   
   X138.064      Y228.085   
   Y270.838   
   X138.216      Y271.986   
   X138.515      Y273.105   
   X138.959      Y274.175   
   X139.538      Y275.179   
   X140.240      Y276.094   
   X158.093      Y294.175   
   X159.372      Y295.157   
   X160.763      Y295.960   
   X162.248      Y296.575   
   X163.799      Y296.990   
   X165.392      Y297.200   
G0   Z21.300    
(Pass: 1)
   X377.559      Y238.622   
G1   Z5.300      F100 
   X377.515      Y238.288    F400 
   Y229.686   
   X377.565      Y229.351   
   X377.654      Y229.137   
   X377.795      Y228.954   
   X377.978      Y228.813   
   X378.192      Y228.724   
   X378.421      Y228.694   
   X378.651      Y228.724   
   X378.865      Y228.813   
   X379.048      Y228.954   
   X379.189      Y229.137   
   X379.277      Y229.351   
   X379.321      Y229.685   
   Y238.287   
   X379.271      Y238.622   
   X379.183      Y238.835   
   X379.042      Y239.019   
   X378.859      Y239.160   
   X378.645      Y239.248   
   X378.415      Y239.278   
   X378.186      Y239.248   
   X377.972      Y239.160   
   X377.789      Y239.019   
   X377.648      Y238.835   
   X377.559      Y238.622   
(Pass: 2)
   Z4.300      F100 
   X377.515      Y238.288    F400 
   Y229.686   
   X377.565      Y229.351   
   X377.654      Y229.137   
   X377.795      Y228.954   
   X377.978      Y228.813   
   X378.192      Y228.724   
   X378.421      Y228.694   
   X378.651      Y228.724   
   X378.865      Y228.813   
   X379.048      Y228.954   
   X379.189      Y229.137   
   X379.277      Y229.351   
   X379.321      Y229.685   
   Y238.287   
   X379.271      Y238.622   
   X379.183      Y238.835   
   X379.042      Y239.019   
   X378.859      Y239.160   
   X378.645      Y239.248   
   X378.415      Y239.278   
   X378.186      Y239.248   
   X377.972      Y239.160   
   X377.789      Y239.019   
   X377.648      Y238.835   
   X377.559      Y238.622   
(Pass: 3)
   Z3.300      F100 
   X377.515      Y238.288    F400 
   Y229.686   
   X377.565      Y229.351   
   X377.654      Y229.137   
   X377.795      Y228.954   
   X377.978      Y228.813   
   X378.192      Y228.724   
   X378.421      Y228.694   
   X378.651      Y228.724   
   X378.865      Y228.813   
   X379.048      Y228.954   
   X379.189      Y229.137   
   X379.277      Y229.351   
   X379.321      Y229.685   
   Y238.287   
   X379.271      Y238.622   
   X379.183      Y238.835   
   X379.042      Y239.019   
   X378.859      Y239.160   
   X378.645      Y239.248   
   X378.415      Y239.278   
   X378.186      Y239.248   
   X377.972      Y239.160   
   X377.789      Y239.019   
   X377.648      Y238.835   
   X377.559      Y238.622   
(Pass: 4)
   Z2.300      F100 
   X377.515      Y238.288    F400 
   Y229.686   
   X377.565      Y229.351   
   X377.654      Y229.137   
   X377.795      Y228.954   
   X377.978      Y228.813   
   X378.192      Y228.724   
   X378.421      Y228.694   
   X378.651      Y228.724   
   X378.865      Y228.813   
   X379.048      Y228.954   
   X379.189      Y229.137   
   X379.277      Y229.351   
   X379.321      Y229.685   
   Y238.287   
   X379.271      Y238.622   
   X379.183      Y238.835   
   X379.042      Y239.019   
   X378.859      Y239.160   
   X378.645      Y239.248   
   X378.415      Y239.278   
   X378.186      Y239.248   
   X377.972      Y239.160   
   X377.789      Y239.019   
   X377.648      Y238.835   
   X377.559      Y238.622   
(Pass: 5)
   Z1.300      F100 
   X377.515      Y238.288    F400 
   Y229.686   
   X377.565      Y229.351   
   X377.654      Y229.137   
   X377.795      Y228.954   
   X377.978      Y228.813   
   X378.192      Y228.724   
   X378.421      Y228.694   
   X378.651      Y228.724   
   X378.865      Y228.813   
   X379.048      Y228.954   
   X379.189      Y229.137   
   X379.277      Y229.351   
   X379.321      Y229.685   
   Y238.287   
   X379.271      Y238.622   
   X379.183      Y238.835   
   X379.042      Y239.019   
   X378.859      Y239.160   
   X378.645      Y239.248   
   X378.415      Y239.278   
   X378.186      Y239.248   
   X377.972      Y239.160   
   X377.789      Y239.019   
   X377.648      Y238.835   
   X377.559      Y238.622   
(Pass: 6)
   Z0.300      F100 
   X377.515      Y238.288    F400 
   Y229.686   
   X377.565      Y229.351   
   X377.654      Y229.137   
   X377.795      Y228.954   
   X377.978      Y228.813   
   X378.192      Y228.724   
   X378.421      Y228.694   
   X378.651      Y228.724   
   X378.865      Y228.813   
   X379.048      Y228.954   
   X379.189      Y229.137   
   X379.277      Y229.351   
   X379.321      Y229.685   
   Y238.287   
   X379.271      Y238.622   
   X379.183      Y238.835   
   X379.042      Y239.019   
   X378.859      Y239.160   
   X378.645      Y239.248   
   X378.415      Y239.278   
   X378.186      Y239.248   
   X377.972      Y239.160   
   X377.789      Y239.019   
   X377.648      Y238.835   
   X377.559      Y238.622   
(Pass: 7)
   Z0.000      F100 
   X377.515      Y238.288    F400 
   Y229.686   
   X377.565      Y229.351   
   X377.654      Y229.137   
   X377.795      Y228.954   
   X377.978      Y228.813   
   X378.192      Y228.724   
   X378.421      Y228.694   
   X378.651      Y228.724   
   X378.865      Y228.813   
   X379.048      Y228.954   
   X379.189      Y229.137   
   X379.277      Y229.351   
   X379.321      Y229.685   
   Y238.287   
   X379.271      Y238.622   
   X379.183      Y238.835   
   X379.042      Y239.019   
   X378.859      Y239.160   
   X378.645      Y239.248   
   X378.415      Y239.278   
   X378.186      Y239.248   
   X377.972      Y239.160   
   X377.789      Y239.019   
   X377.648      Y238.835   
   X377.559      Y238.622   
G0   Z21.300    
(Pass: 1)
   X387.515      Y238.288   
G1   Z5.300      F100 
   Y229.686    F400 
   X387.565      Y229.351   
   X387.654      Y229.137   
   X387.795      Y228.954   
   X387.978      Y228.813   
   X388.192      Y228.724   
   X388.421      Y228.694   
   X388.651      Y228.724   
   X388.865      Y228.813   
   X389.048      Y228.954   
   X389.189      Y229.137   
   X389.277      Y229.351   
   X389.321      Y229.685   
   Y238.287   
   X389.271      Y238.622   
   X389.183      Y238.835   
   X389.042      Y239.019   
   X388.859      Y239.160   
   X388.645      Y239.248   
   X388.415      Y239.278   
   X388.186      Y239.248   
   X387.972      Y239.160   
   X387.789      Y239.019   
   X387.648      Y238.835   
   X387.559      Y238.622   
   X387.515      Y238.288   
(Pass: 2)
   Z4.300      F100 
   Y229.686    F400 
   X387.565      Y229.351   
   X387.654      Y229.137   
   X387.795      Y228.954   
   X387.978      Y228.813   
   X388.192      Y228.724   
   X388.421      Y228.694   
   X388.651      Y228.724   
   X388.865      Y228.813   
   X389.048      Y228.954   
   X389.189      Y229.137   
   X389.277      Y229.351   
   X389.321      Y229.685   
   Y238.287   
   X389.271      Y238.622   
   X389.183      Y238.835   
   X389.042      Y239.019   
   X388.859      Y239.160   
   X388.645      Y239.248   
   X388.415      Y239.278   
   X388.186      Y239.248   
   X387.972      Y239.160   
   X387.789      Y239.019   
   X387.648      Y238.835   
   X387.559      Y238.622   
   X387.515      Y238.288   
(Pass: 3)
   Z3.300      F100 
   Y229.686    F400 
   X387.565      Y229.351   
   X387.654      Y229.137   
   X387.795      Y228.954   
   X387.978      Y228.813   
   X388.192      Y228.724   
   X388.421      Y228.694   
   X388.651      Y228.724   
   X388.865      Y228.813   
   X389.048      Y228.954   
   X389.189      Y229.137   
   X389.277      Y229.351   
   X389.321      Y229.685   
   Y238.287   
   X389.271      Y238.622   
   X389.183      Y238.835   
   X389.042      Y239.019   
   X388.859      Y239.160   
   X388.645      Y239.248   
   X388.415      Y239.278   
   X388.186      Y239.248   
   X387.972      Y239.160   
   X387.789      Y239.019   
   X387.648      Y238.835   
   X387.559      Y238.622   
   X387.515      Y238.288   
(Pass: 4)
   Z2.300      F100 
   Y229.686    F400 
   X387.565      Y229.351   
   X387.654      Y229.137   
   X387.795      Y228.954   
   X387.978      Y228.813   
   X388.192      Y228.724   
   X388.421      Y228.694   
   X388.651      Y228.724   
   X388.865      Y228.813   
   X389.048      Y228.954   
   X389.189      Y229.137   
   X389.277      Y229.351   
   X389.321      Y229.685   
   Y238.287   
   X389.271      Y238.622   
   X389.183      Y238.835   
   X389.042      Y239.019   
   X388.859      Y239.160   
   X388.645      Y239.248   
   X388.415      Y239.278   
   X388.186      Y239.248   
   X387.972      Y239.160   
   X387.789      Y239.019   
   X387.648      Y238.835   
   X387.559      Y238.622   
   X387.515      Y238.288   
(Pass: 5)
   Z1.300      F100 
   Y229.686    F400 
   X387.565      Y229.351   
   X387.654      Y229.137   
   X387.795      Y228.954   
   X387.978      Y228.813   
   X388.192      Y228.724   
   X388.421      Y228.694   
   X388.651      Y228.724   
   X388.865      Y228.813   
   X389.048      Y228.954   
   X389.189      Y229.137   
   X389.277      Y229.351   
   X389.321      Y229.685   
   Y238.287   
   X389.271      Y238.622   
   X389.183      Y238.835   
   X389.042      Y239.019   
   X388.859      Y239.160   
   X388.645      Y239.248   
   X388.415      Y239.278   
   X388.186      Y239.248   
   X387.972      Y239.160   
   X387.789      Y239.019   
   X387.648      Y238.835   
   X387.559      Y238.622   
   X387.515      Y238.288   
(Pass: 6)
   Z0.300      F100 
   Y229.686    F400 
   X387.565      Y229.351   
   X387.654      Y229.137   
   X387.795      Y228.954   
   X387.978      Y228.813   
   X388.192      Y228.724   
   X388.421      Y228.694   
   X388.651      Y228.724   
   X388.865      Y228.813   
   X389.048      Y228.954   
   X389.189      Y229.137   
   X389.277      Y229.351   
   X389.321      Y229.685   
   Y238.287   
   X389.271      Y238.622   
   X389.183      Y238.835   
   X389.042      Y239.019   
   X388.859      Y239.160   
   X388.645      Y239.248   
   X388.415      Y239.278   
   X388.186      Y239.248   
   X387.972      Y239.160   
   X387.789      Y239.019   
   X387.648      Y238.835   
   X387.559      Y238.622   
   X387.515      Y238.288   
(Pass: 7)
   Z0.000      F100 
   Y229.686    F400 
   X387.565      Y229.351   
   X387.654      Y229.137   
   X387.795      Y228.954   
   X387.978      Y228.813   
   X388.192      Y228.724   
   X388.421      Y228.694   
   X388.651      Y228.724   
   X388.865      Y228.813   
   X389.048      Y228.954   
   X389.189      Y229.137   
   X389.277      Y229.351   
   X389.321      Y229.685   
   Y238.287   
   X389.271      Y238.622   
   X389.183      Y238.835   
   X389.042      Y239.019   
   X388.859      Y239.160   
   X388.645      Y239.248   
   X388.415      Y239.278   
   X388.186      Y239.248   
   X387.972      Y239.160   
   X387.789      Y239.019   
   X387.648      Y238.835   
   X387.559      Y238.622   
   X387.515      Y238.288   
G0   Z21.300    
(Pass: 1)
   X397.515   
G1   Z5.300      F100 
   Y229.686    F400 
   X397.565      Y229.351   
   X397.654      Y229.137   
   X397.795      Y228.954   
   X397.978      Y228.813   
   X398.192      Y228.724   
   X398.421      Y228.694   
   X398.651      Y228.724   
   X398.865      Y228.813   
   X399.048      Y228.954   
   X399.189      Y229.137   
   X399.277      Y229.351   
   X399.321      Y229.685   
   Y238.287   
   X399.271      Y238.622   
   X399.183      Y238.835   
   X399.042      Y239.019   
   X398.859      Y239.160   
   X398.645      Y239.248   
   X398.415      Y239.278   
   X398.186      Y239.248   
   X397.972      Y239.160   
   X397.789      Y239.019   
   X397.648      Y238.835   
   X397.559      Y238.622   
   X397.515      Y238.288   
(Pass: 2)
   Z4.300      F100 
   Y229.686    F400 
   X397.565      Y229.351   
   X397.654      Y229.137   
   X397.795      Y228.954   
   X397.978      Y228.813   
   X398.192      Y228.724   
   X398.421      Y228.694   
   X398.651      Y228.724   
   X398.865      Y228.813   
   X399.048      Y228.954   
   X399.189      Y229.137   
   X399.277      Y229.351   
   X399.321      Y229.685   
   Y238.287   
   X399.271      Y238.622   
   X399.183      Y238.835   
   X399.042      Y239.019   
   X398.859      Y239.160   
   X398.645      Y239.248   
   X398.415      Y239.278   
   X398.186      Y239.248   
   X397.972      Y239.160   
   X397.789      Y239.019   
   X397.648      Y238.835   
   X397.559      Y238.622   
   X397.515      Y238.288   
(Pass: 3)
   Z3.300      F100 
   Y229.686    F400 
   X397.565      Y229.351   
   X397.654      Y229.137   
   X397.795      Y228.954   
   X397.978      Y228.813   
   X398.192      Y228.724   
   X398.421      Y228.694   
   X398.651      Y228.724   
   X398.865      Y228.813   
   X399.048      Y228.954   
   X399.189      Y229.137   
   X399.277      Y229.351   
   X399.321      Y229.685   
   Y238.287   
   X399.271      Y238.622   
   X399.183      Y238.835   
   X399.042      Y239.019   
   X398.859      Y239.160   
   X398.645      Y239.248   
   X398.415      Y239.278   
   X398.186      Y239.248   
   X397.972      Y239.160   
   X397.789      Y239.019   
   X397.648      Y238.835   
   X397.559      Y238.622   
   X397.515      Y238.288   
(Pass: 4)
   Z2.300      F100 
   Y229.686    F400 
   X397.565      Y229.351   
   X397.654      Y229.137   
   X397.795      Y228.954   
   X397.978      Y228.813   
   X398.192      Y228.724   
   X398.421      Y228.694   
   X398.651      Y228.724   
   X398.865      Y228.813   
   X399.048      Y228.954   
   X399.189      Y229.137   
   X399.277      Y229.351   
   X399.321      Y229.685   
   Y238.287   
   X399.271      Y238.622   
   X399.183      Y238.835   
   X399.042      Y239.019   
   X398.859      Y239.160   
   X398.645      Y239.248   
   X398.415      Y239.278   
   X398.186      Y239.248   
   X397.972      Y239.160   
   X397.789      Y239.019   
   X397.648      Y238.835   
   X397.559      Y238.622   
   X397.515      Y238.288   
(Pass: 5)
   Z1.300      F100 
   Y229.686    F400 
   X397.565      Y229.351   
   X397.654      Y229.137   
   X397.795      Y228.954   
   X397.978      Y228.813   
   X398.192      Y228.724   
   X398.421      Y228.694   
   X398.651      Y228.724   
   X398.865      Y228.813   
   X399.048      Y228.954   
   X399.189      Y229.137   
   X399.277      Y229.351   
   X399.321      Y229.685   
   Y238.287   
   X399.271      Y238.622   
   X399.183      Y238.835   
   X399.042      Y239.019   
   X398.859      Y239.160   
   X398.645      Y239.248   
   X398.415      Y239.278   
   X398.186      Y239.248   
   X397.972      Y239.160   
   X397.789      Y239.019   
   X397.648      Y238.835   
   X397.559      Y238.622   
   X397.515      Y238.288   
(Pass: 6)
   Z0.300      F100 
   Y229.686    F400 
   X397.565      Y229.351   
   X397.654      Y229.137   
   X397.795      Y228.954   
   X397.978      Y228.813   
   X398.192      Y228.724   
   X398.421      Y228.694   
   X398.651      Y228.724   
   X398.865      Y228.813   
   X399.048      Y228.954   
   X399.189      Y229.137   
   X399.277      Y229.351   
   X399.321      Y229.685   
   Y238.287   
   X399.271      Y238.622   
   X399.183      Y238.835   
   X399.042      Y239.019   
   X398.859      Y239.160   
   X398.645      Y239.248   
   X398.415      Y239.278   
   X398.186      Y239.248   
   X397.972      Y239.160   
   X397.789      Y239.019   
   X397.648      Y238.835   
   X397.559      Y238.622   
   X397.515      Y238.288   
(Pass: 7)
   Z0.000      F100 
   Y229.686    F400 
   X397.565      Y229.351   
   X397.654      Y229.137   
   X397.795      Y228.954   
   X397.978      Y228.813   
   X398.192      Y228.724   
   X398.421      Y228.694   
   X398.651      Y228.724   
   X398.865      Y228.813   
   X399.048      Y228.954   
   X399.189      Y229.137   
   X399.277      Y229.351   
   X399.321      Y229.685   
   Y238.287   
   X399.271      Y238.622   
   X399.183      Y238.835   
   X399.042      Y239.019   
   X398.859      Y239.160   
   X398.645      Y239.248   
   X398.415      Y239.278   
   X398.186      Y239.248   
   X397.972      Y239.160   
   X397.789      Y239.019   
   X397.648      Y238.835   
   X397.559      Y238.622   
   X397.515      Y238.288   
G0   Z21.300    
(Pass: 1)
   X407.525   
G1   Z5.300      F100 
   Y229.686    F400 
   X407.575      Y229.351   
   X407.664      Y229.137   
   X407.804      Y228.954   
   X407.988      Y228.813   
   X408.202      Y228.724   
   X408.431      Y228.694   
   X408.660      Y228.724   
   X408.874      Y228.813   
   X409.058      Y228.954   
   X409.199      Y229.137   
   X409.287      Y229.351   
   X409.331      Y229.685   
   Y238.287   
   X409.281      Y238.622   
   X409.193      Y238.835   
   X409.052      Y239.019   
   X408.868      Y239.160   
   X408.654      Y239.248   
   X408.425      Y239.278   
   X408.196      Y239.248   
   X407.982      Y239.160   
   X407.798      Y239.019   
   X407.658      Y238.835   
   X407.569      Y238.622   
   X407.525      Y238.288   
(Pass: 2)
   Z4.300      F100 
   Y229.686    F400 
   X407.575      Y229.351   
   X407.664      Y229.137   
   X407.804      Y228.954   
   X407.988      Y228.813   
   X408.202      Y228.724   
   X408.431      Y228.694   
   X408.660      Y228.724   
   X408.874      Y228.813   
   X409.058      Y228.954   
   X409.199      Y229.137   
   X409.287      Y229.351   
   X409.331      Y229.685   
   Y238.287   
   X409.281      Y238.622   
   X409.193      Y238.835   
   X409.052      Y239.019   
   X408.868      Y239.160   
   X408.654      Y239.248   
   X408.425      Y239.278   
   X408.196      Y239.248   
   X407.982      Y239.160   
   X407.798      Y239.019   
   X407.658      Y238.835   
   X407.569      Y238.622   
   X407.525      Y238.288   
(Pass: 3)
   Z3.300      F100 
   Y229.686    F400 
   X407.575      Y229.351   
   X407.664      Y229.137   
   X407.804      Y228.954   
   X407.988      Y228.813   
   X408.202      Y228.724   
   X408.431      Y228.694   
   X408.660      Y228.724   
   X408.874      Y228.813   
   X409.058      Y228.954   
   X409.199      Y229.137   
   X409.287      Y229.351   
   X409.331      Y229.685   
   Y238.287   
   X409.281      Y238.622   
   X409.193      Y238.835   
   X409.052      Y239.019   
   X408.868      Y239.160   
   X408.654      Y239.248   
   X408.425      Y239.278   
   X408.196      Y239.248   
   X407.982      Y239.160   
   X407.798      Y239.019   
   X407.658      Y238.835   
   X407.569      Y238.622   
   X407.525      Y238.288   
(Pass: 4)
   Z2.300      F100 
   Y229.686    F400 
   X407.575      Y229.351   
   X407.664      Y229.137   
   X407.804      Y228.954   
   X407.988      Y228.813   
   X408.202      Y228.724   
   X408.431      Y228.694   
   X408.660      Y228.724   
   X408.874      Y228.813   
   X409.058      Y228.954   
   X409.199      Y229.137   
   X409.287      Y229.351   
   X409.331      Y229.685   
   Y238.287   
   X409.281      Y238.622   
   X409.193      Y238.835   
   X409.052      Y239.019   
   X408.868      Y239.160   
   X408.654      Y239.248   
   X408.425      Y239.278   
   X408.196      Y239.248   
   X407.982      Y239.160   
   X407.798      Y239.019   
   X407.658      Y238.835   
   X407.569      Y238.622   
   X407.525      Y238.288   
(Pass: 5)
   Z1.300      F100 
   Y229.686    F400 
   X407.575      Y229.351   
   X407.664      Y229.137   
   X407.804      Y228.954   
   X407.988      Y228.813   
   X408.202      Y228.724   
   X408.431      Y228.694   
   X408.660      Y228.724   
   X408.874      Y228.813   
   X409.058      Y228.954   
   X409.199      Y229.137   
   X409.287      Y229.351   
   X409.331      Y229.685   
   Y238.287   
   X409.281      Y238.622   
   X409.193      Y238.835   
   X409.052      Y239.019   
   X408.868      Y239.160   
   X408.654      Y239.248   
   X408.425      Y239.278   
   X408.196      Y239.248   
   X407.982      Y239.160   
   X407.798      Y239.019   
   X407.658      Y238.835   
   X407.569      Y238.622   
   X407.525      Y238.288   
(Pass: 6)
   Z0.300      F100 
   Y229.686    F400 
   X407.575      Y229.351   
   X407.664      Y229.137   
   X407.804      Y228.954   
   X407.988      Y228.813   
   X408.202      Y228.724   
   X408.431      Y228.694   
   X408.660      Y228.724   
   X408.874      Y228.813   
   X409.058      Y228.954   
   X409.199      Y229.137   
   X409.287      Y229.351   
   X409.331      Y229.685   
   Y238.287   
   X409.281      Y238.622   
   X409.193      Y238.835   
   X409.052      Y239.019   
   X408.868      Y239.160   
   X408.654      Y239.248   
   X408.425      Y239.278   
   X408.196      Y239.248   
   X407.982      Y239.160   
   X407.798      Y239.019   
   X407.658      Y238.835   
   X407.569      Y238.622   
   X407.525      Y238.288   
(Pass: 7)
   Z0.000      F100 
   Y229.686    F400 
   X407.575      Y229.351   
   X407.664      Y229.137   
   X407.804      Y228.954   
   X407.988      Y228.813   
   X408.202      Y228.724   
   X408.431      Y228.694   
   X408.660      Y228.724   
   X408.874      Y228.813   
   X409.058      Y228.954   
   X409.199      Y229.137   
   X409.287      Y229.351   
   X409.331      Y229.685   
   Y238.287   
   X409.281      Y238.622   
   X409.193      Y238.835   
   X409.052      Y239.019   
   X408.868      Y239.160   
   X408.654      Y239.248   
   X408.425      Y239.278   
   X408.196      Y239.248   
   X407.982      Y239.160   
   X407.798      Y239.019   
   X407.658      Y238.835   
   X407.569      Y238.622   
   X407.525      Y238.288   
G0   Z21.300    
(Pass: 1)
   X417.515   
G1   Z5.300      F100 
   Y229.686    F400 
   X417.565      Y229.351   
   X417.654      Y229.137   
   X417.795      Y228.954   
   X417.978      Y228.813   
   X418.192      Y228.724   
   X418.421      Y228.694   
   X418.651      Y228.724   
   X418.865      Y228.813   
   X419.048      Y228.954   
   X419.189      Y229.137   
   X419.277      Y229.351   
   X419.321      Y229.685   
   Y238.287   
   X419.271      Y238.622   
   X419.183      Y238.835   
   X419.042      Y239.019   
   X418.859      Y239.160   
   X418.645      Y239.248   
   X418.415      Y239.278   
   X418.186      Y239.248   
   X417.972      Y239.160   
   X417.789      Y239.019   
   X417.648      Y238.835   
   X417.559      Y238.622   
   X417.515      Y238.288   
(Pass: 2)
   Z4.300      F100 
   Y229.686    F400 
   X417.565      Y229.351   
   X417.654      Y229.137   
   X417.795      Y228.954   
   X417.978      Y228.813   
   X418.192      Y228.724   
   X418.421      Y228.694   
   X418.651      Y228.724   
   X418.865      Y228.813   
   X419.048      Y228.954   
   X419.189      Y229.137   
   X419.277      Y229.351   
   X419.321      Y229.685   
   Y238.287   
   X419.271      Y238.622   
   X419.183      Y238.835   
   X419.042      Y239.019   
   X418.859      Y239.160   
   X418.645      Y239.248   
   X418.415      Y239.278   
   X418.186      Y239.248   
   X417.972      Y239.160   
   X417.789      Y239.019   
   X417.648      Y238.835   
   X417.559      Y238.622   
   X417.515      Y238.288   
(Pass: 3)
   Z3.300      F100 
   Y229.686    F400 
   X417.565      Y229.351   
   X417.654      Y229.137   
   X417.795      Y228.954   
   X417.978      Y228.813   
   X418.192      Y228.724   
   X418.421      Y228.694   
   X418.651      Y228.724   
   X418.865      Y228.813   
   X419.048      Y228.954   
   X419.189      Y229.137   
   X419.277      Y229.351   
   X419.321      Y229.685   
   Y238.287   
   X419.271      Y238.622   
   X419.183      Y238.835   
   X419.042      Y239.019   
   X418.859      Y239.160   
   X418.645      Y239.248   
   X418.415      Y239.278   
   X418.186      Y239.248   
   X417.972      Y239.160   
   X417.789      Y239.019   
   X417.648      Y238.835   
   X417.559      Y238.622   
   X417.515      Y238.288   
(Pass: 4)
   Z2.300      F100 
   Y229.686    F400 
   X417.565      Y229.351   
   X417.654      Y229.137   
   X417.795      Y228.954   
   X417.978      Y228.813   
   X418.192      Y228.724   
   X418.421      Y228.694   
   X418.651      Y228.724   
   X418.865      Y228.813   
   X419.048      Y228.954   
   X419.189      Y229.137   
   X419.277      Y229.351   
   X419.321      Y229.685   
   Y238.287   
   X419.271      Y238.622   
   X419.183      Y238.835   
   X419.042      Y239.019   
   X418.859      Y239.160   
   X418.645      Y239.248   
   X418.415      Y239.278   
   X418.186      Y239.248   
   X417.972      Y239.160   
   X417.789      Y239.019   
   X417.648      Y238.835   
   X417.559      Y238.622   
   X417.515      Y238.288   
(Pass: 5)
   Z1.300      F100 
   Y229.686    F400 
   X417.565      Y229.351   
   X417.654      Y229.137   
   X417.795      Y228.954   
   X417.978      Y228.813   
   X418.192      Y228.724   
   X418.421      Y228.694   
   X418.651      Y228.724   
   X418.865      Y228.813   
   X419.048      Y228.954   
   X419.189      Y229.137   
   X419.277      Y229.351   
   X419.321      Y229.685   
   Y238.287   
   X419.271      Y238.622   
   X419.183      Y238.835   
   X419.042      Y239.019   
   X418.859      Y239.160   
   X418.645      Y239.248   
   X418.415      Y239.278   
   X418.186      Y239.248   
   X417.972      Y239.160   
   X417.789      Y239.019   
   X417.648      Y238.835   
   X417.559      Y238.622   
   X417.515      Y238.288   
(Pass: 6)
   Z0.300      F100 
   Y229.686    F400 
   X417.565      Y229.351   
   X417.654      Y229.137   
   X417.795      Y228.954   
   X417.978      Y228.813   
   X418.192      Y228.724   
   X418.421      Y228.694   
   X418.651      Y228.724   
   X418.865      Y228.813   
   X419.048      Y228.954   
   X419.189      Y229.137   
   X419.277      Y229.351   
   X419.321      Y229.685   
   Y238.287   
   X419.271      Y238.622   
   X419.183      Y238.835   
   X419.042      Y239.019   
   X418.859      Y239.160   
   X418.645      Y239.248   
   X418.415      Y239.278   
   X418.186      Y239.248   
   X417.972      Y239.160   
   X417.789      Y239.019   
   X417.648      Y238.835   
   X417.559      Y238.622   
   X417.515      Y238.288   
(Pass: 7)
   Z0.000      F100 
   Y229.686    F400 
   X417.565      Y229.351   
   X417.654      Y229.137   
   X417.795      Y228.954   
   X417.978      Y228.813   
   X418.192      Y228.724   
   X418.421      Y228.694   
   X418.651      Y228.724   
   X418.865      Y228.813   
   X419.048      Y228.954   
   X419.189      Y229.137   
   X419.277      Y229.351   
   X419.321      Y229.685   
   Y238.287   
   X419.271      Y238.622   
   X419.183      Y238.835   
   X419.042      Y239.019   
   X418.859      Y239.160   
   X418.645      Y239.248   
   X418.415      Y239.278   
   X418.186      Y239.248   
   X417.972      Y239.160   
   X417.789      Y239.019   
   X417.648      Y238.835   
   X417.559      Y238.622   
   X417.515      Y238.288   
G0   Z21.300    
(Pass: 1)
   X427.515   
G1   Z5.300      F100 
   Y229.686    F400 
   X427.565      Y229.351   
   X427.654      Y229.137   
   X427.795      Y228.954   
   X427.978      Y228.813   
   X428.192      Y228.724   
   X428.421      Y228.694   
   X428.651      Y228.724   
   X428.865      Y228.813   
   X429.048      Y228.954   
   X429.189      Y229.137   
   X429.277      Y229.351   
   X429.321      Y229.685   
   Y238.287   
   X429.271      Y238.622   
   X429.183      Y238.835   
   X429.042      Y239.019   
   X428.859      Y239.160   
   X428.645      Y239.248   
   X428.415      Y239.278   
   X428.186      Y239.248   
   X427.972      Y239.160   
   X427.789      Y239.019   
   X427.648      Y238.835   
   X427.559      Y238.622   
   X427.515      Y238.288   
(Pass: 2)
   Z4.300      F100 
   Y229.686    F400 
   X427.565      Y229.351   
   X427.654      Y229.137   
   X427.795      Y228.954   
   X427.978      Y228.813   
   X428.192      Y228.724   
   X428.421      Y228.694   
   X428.651      Y228.724   
   X428.865      Y228.813   
   X429.048      Y228.954   
   X429.189      Y229.137   
   X429.277      Y229.351   
   X429.321      Y229.685   
   Y238.287   
   X429.271      Y238.622   
   X429.183      Y238.835   
   X429.042      Y239.019   
   X428.859      Y239.160   
   X428.645      Y239.248   
   X428.415      Y239.278   
   X428.186      Y239.248   
   X427.972      Y239.160   
   X427.789      Y239.019   
   X427.648      Y238.835   
   X427.559      Y238.622   
   X427.515      Y238.288   
(Pass: 3)
   Z3.300      F100 
   Y229.686    F400 
   X427.565      Y229.351   
