%
(Generated by SketchUcam {1.2})
(File: Router Plates.skp)
(Bit diameter: 3.2mm)
(Feed rate: 400.0mm/min)
(Plunge Feed rate: 100.0mm/min)
(Material Thickness: 6.3mm)
(Material length: 304.0mm X width: 608.0mm)
(Overhead Gantry: true)
(Retract feed rate NOT limited to plunge feed rate)
(Multipass enabled, Depth = 1.0mm)
(Optimization is ON)
(Z ZERO IS TABLETOP)
(www.PhlatBoyz.com)
G90 G21 G49 
M3 S15000
G0   Z21.300    
(Pass: 1)
   X448.444      Y22.257    
G1   Z5.300      F100 
G17 G2   X448.5105     Y21.7511      R1.9685     F400 
   X448.7058     Y21.2797      R1.9685    
   X449.0165     Y20.8748      R1.9685    
   X449.4213     Y20.5642      R1.9685    
   X449.8927     Y20.3689      R1.9685    
   X450.3986     Y20.3023      R1.9685    
   X450.9045     Y20.3689      R1.9685    
   X451.3760     Y20.5642      R1.9685    
   X451.7808     Y20.8748      R1.9685    
   X452.0914     Y21.2797      R1.9685    
   X452.2867     Y21.7511      R1.9685    
   X452.3533     Y22.2570      R1.9685    
   X452.2867     Y22.7629      R1.9685    
   X452.0914     Y23.2344      R1.9685    
   X451.7808     Y23.6392      R1.9685    
   X451.3760     Y23.9498      R1.9685    
   X450.9045     Y24.1451      R1.9685    
   X450.3986     Y24.2117      R1.9685    
   X449.8927     Y24.1451      R1.9685    
   X449.4213     Y23.9498      R1.9685    
   X449.0165     Y23.6392      R1.9685    
   X448.7058     Y23.2344      R1.9685    
   X448.5105     Y22.7629      R1.9685    
   X448.4439     Y22.2570      R1.9685    
(Pass: 2)
G1   Z4.300      F100 
G17 G2   X448.5105     Y21.7511      R1.9685     F400 
   X448.7058     Y21.2797      R1.9685    
   X449.0165     Y20.8748      R1.9685    
   X449.4213     Y20.5642      R1.9685    
   X449.8927     Y20.3689      R1.9685    
   X450.3986     Y20.3023      R1.9685    
   X450.9045     Y20.3689      R1.9685    
   X451.3760     Y20.5642      R1.9685    
   X451.7808     Y20.8748      R1.9685    
   X452.0914     Y21.2797      R1.9685    
   X452.2867     Y21.7511      R1.9685    
   X452.3533     Y22.2570      R1.9685    
   X452.2867     Y22.7629      R1.9685    
   X452.0914     Y23.2344      R1.9685    
   X451.7808     Y23.6392      R1.9685    
   X451.3760     Y23.9498      R1.9685    
   X450.9045     Y24.1451      R1.9685    
   X450.3986     Y24.2117      R1.9685    
   X449.8927     Y24.1451      R1.9685    
   X449.4213     Y23.9498      R1.9685    
   X449.0165     Y23.6392      R1.9685    
   X448.7058     Y23.2344      R1.9685    
   X448.5105     Y22.7629      R1.9685    
   X448.4439     Y22.2570      R1.9685    
(Pass: 3)
G1   Z3.300      F100 
G17 G2   X448.5105     Y21.7511      R1.9685     F400 
   X448.7058     Y21.2797      R1.9685    
   X449.0165     Y20.8748      R1.9685    
   X449.4213     Y20.5642      R1.9685    
   X449.8927     Y20.3689      R1.9685    
   X450.3986     Y20.3023      R1.9685    
   X450.9045     Y20.3689      R1.9685    
   X451.3760     Y20.5642      R1.9685    
   X451.7808     Y20.8748      R1.9685    
   X452.0914     Y21.2797      R1.9685    
   X452.2867     Y21.7511      R1.9685    
   X452.3533     Y22.2570      R1.9685    
   X452.2867     Y22.7629      R1.9685    
   X452.0914     Y23.2344      R1.9685    
   X451.7808     Y23.6392      R1.9685    
   X451.3760     Y23.9498      R1.9685    
   X450.9045     Y24.1451      R1.9685    
   X450.3986     Y24.2117      R1.9685    
   X449.8927     Y24.1451      R1.9685    
   X449.4213     Y23.9498      R1.9685    
   X449.0165     Y23.6392      R1.9685    
   X448.7058     Y23.2344      R1.9685    
   X448.5105     Y22.7629      R1.9685    
   X448.4439     Y22.2570      R1.9685    
(Pass: 4)
G1   Z2.300      F100 
G17 G2   X448.5105     Y21.7511      R1.9685     F400 
   X448.7058     Y21.2797      R1.9685    
   X449.0165     Y20.8748      R1.9685    
   X449.4213     Y20.5642      R1.9685    
   X449.8927     Y20.3689      R1.9685    
   X450.3986     Y20.3023      R1.9685    
   X450.9045     Y20.3689      R1.9685    
   X451.3760     Y20.5642      R1.9685    
   X451.7808     Y20.8748      R1.9685    
   X452.0914     Y21.2797      R1.9685    
   X452.2867     Y21.7511      R1.9685    
   X452.3533     Y22.2570      R1.9685    
   X452.2867     Y22.7629      R1.9685    
   X452.0914     Y23.2344      R1.9685    
   X451.7808     Y23.6392      R1.9685    
   X451.3760     Y23.9498      R1.9685    
   X450.9045     Y24.1451      R1.9685    
   X450.3986     Y24.2117      R1.9685    
   X449.8927     Y24.1451      R1.9685    
   X449.4213     Y23.9498      R1.9685    
   X449.0165     Y23.6392      R1.9685    
   X448.7058     Y23.2344      R1.9685    
   X448.5105     Y22.7629      R1.9685    
   X448.4439     Y22.2570      R1.9685    
(Pass: 5)
G1   Z1.300      F100 
G17 G2   X448.5105     Y21.7511      R1.9685     F400 
   X448.7058     Y21.2797      R1.9685    
   X449.0165     Y20.8748      R1.9685    
   X449.4213     Y20.5642      R1.9685    
   X449.8927     Y20.3689      R1.9685    
   X450.3986     Y20.3023      R1.9685    
   X450.9045     Y20.3689      R1.9685    
   X451.3760     Y20.5642      R1.9685    
   X451.7808     Y20.8748      R1.9685    
   X452.0914     Y21.2797      R1.9685    
   X452.2867     Y21.7511      R1.9685    
   X452.3533     Y22.2570      R1.9685    
   X452.2867     Y22.7629      R1.9685    
   X452.0914     Y23.2344      R1.9685    
   X451.7808     Y23.6392      R1.9685    
   X451.3760     Y23.9498      R1.9685    
   X450.9045     Y24.1451      R1.9685    
   X450.3986     Y24.2117      R1.9685    
   X449.8927     Y24.1451      R1.9685    
   X449.4213     Y23.9498      R1.9685    
   X449.0165     Y23.6392      R1.9685    
   X448.7058     Y23.2344      R1.9685    
   X448.5105     Y22.7629      R1.9685    
   X448.4439     Y22.2570      R1.9685    
(Pass: 6)
G1   Z0.300      F100 
G17 G2   X448.5105     Y21.7511      R1.9685     F400 
   X448.7058     Y21.2797      R1.9685    
   X449.0165     Y20.8748      R1.9685    
   X449.4213     Y20.5642      R1.9685    
   X449.8927     Y20.3689      R1.9685    
   X450.3986     Y20.3023      R1.9685    
   X450.9045     Y20.3689      R1.9685    
   X451.3760     Y20.5642      R1.9685    
   X451.7808     Y20.8748      R1.9685    
   X452.0914     Y21.2797      R1.9685    
   X452.2867     Y21.7511      R1.9685    
   X452.3533     Y22.2570      R1.9685    
   X452.2867     Y22.7629      R1.9685    
   X452.0914     Y23.2344      R1.9685    
   X451.7808     Y23.6392      R1.9685    
   X451.3760     Y23.9498      R1.9685    
   X450.9045     Y24.1451      R1.9685    
   X450.3986     Y24.2117      R1.9685    
   X449.8927     Y24.1451      R1.9685    
   X449.4213     Y23.9498      R1.9685    
   X449.0165     Y23.6392      R1.9685    
   X448.7058     Y23.2344      R1.9685    
   X448.5105     Y22.7629      R1.9685    
   X448.4439     Y22.2570      R1.9685    
(Pass: 7)
G1   Z0.000      F100 
G17 G2   X448.5105     Y21.7511      R1.9685     F400 
   X448.7058     Y21.2797      R1.9685    
   X449.0165     Y20.8748      R1.9685    
   X449.4213     Y20.5642      R1.9685    
   X449.8927     Y20.3689      R1.9685    
   X450.3986     Y20.3023      R1.9685    
   X450.9045     Y20.3689      R1.9685    
   X451.3760     Y20.5642      R1.9685    
   X451.7808     Y20.8748      R1.9685    
   X452.0914     Y21.2797      R1.9685    
   X452.2867     Y21.7511      R1.9685    
   X452.3533     Y22.2570      R1.9685    
   X452.2867     Y22.7629      R1.9685    
   X452.0914     Y23.2344      R1.9685    
   X451.7808     Y23.6392      R1.9685    
   X451.3760     Y23.9498      R1.9685    
   X450.9045     Y24.1451      R1.9685    
   X450.3986     Y24.2117      R1.9685    
   X449.8927     Y24.1451      R1.9685    
   X449.4213     Y23.9498      R1.9685    
   X449.0165     Y23.6392      R1.9685    
   X448.7058     Y23.2344      R1.9685    
   X448.5105     Y22.7629      R1.9685    
   X448.4439     Y22.2570      R1.9685    
G0   Z21.300    
(Pass: 1)
   X466.513      Y20.747    
G1   Z5.300      F100 
G17 G2   X466.5429     Y20.5173      R0.9000     F400 
   X466.6314     Y20.3036      R0.9000    
   X466.7722     Y20.1201      R0.9000    
   X466.9558     Y19.9792      R0.9000    
   X467.1695     Y19.8907      R0.9000    
   X467.3989     Y19.8605      R0.9000    
   X467.6282     Y19.8907      R0.9000    
   X467.8420     Y19.9792      R0.9000    
   X468.0255     Y20.1201      R0.9000    
   X468.1663     Y20.3036      R0.9000    
   X468.2549     Y20.5173      R0.9000    
   X468.2851     Y20.7467      R0.9000    
   X468.2549     Y20.9761      R0.9000    
   X468.1663     Y21.1898      R0.9000    
   X468.0255     Y21.3733      R0.9000    
   X467.8420     Y21.5142      R0.9000    
   X467.6282     Y21.6027      R0.9000    
   X467.3989     Y21.6329      R0.9000    
   X467.1695     Y21.6027      R0.9000    
   X466.9558     Y21.5142      R0.9000    
   X466.7722     Y21.3733      R0.9000    
   X466.6314     Y21.1898      R0.9000    
   X466.5429     Y20.9761      R0.9000    
   X466.5127     Y20.7467      R0.9000    
(Pass: 2)
G1   Z4.300      F100 
G17 G2   X466.5429     Y20.5173      R0.9000     F400 
   X466.6314     Y20.3036      R0.9000    
   X466.7722     Y20.1201      R0.9000    
   X466.9558     Y19.9792      R0.9000    
   X467.1695     Y19.8907      R0.9000    
   X467.3989     Y19.8605      R0.9000    
   X467.6282     Y19.8907      R0.9000    
   X467.8420     Y19.9792      R0.9000    
   X468.0255     Y20.1201      R0.9000    
   X468.1663     Y20.3036      R0.9000    
   X468.2549     Y20.5173      R0.9000    
   X468.2851     Y20.7467      R0.9000    
   X468.2549     Y20.9761      R0.9000    
   X468.1663     Y21.1898      R0.9000    
   X468.0255     Y21.3733      R0.9000    
   X467.8420     Y21.5142      R0.9000    
   X467.6282     Y21.6027      R0.9000    
   X467.3989     Y21.6329      R0.9000    
   X467.1695     Y21.6027      R0.9000    
   X466.9558     Y21.5142      R0.9000    
   X466.7722     Y21.3733      R0.9000    
   X466.6314     Y21.1898      R0.9000    
   X466.5429     Y20.9761      R0.9000    
   X466.5127     Y20.7467      R0.9000    
(Pass: 3)
G1   Z3.300      F100 
G17 G2   X466.5429     Y20.5173      R0.9000     F400 
   X466.6314     Y20.3036      R0.9000    
   X466.7722     Y20.1201      R0.9000    
   X466.9558     Y19.9792      R0.9000    
   X467.1695     Y19.8907      R0.9000    
   X467.3989     Y19.8605      R0.9000    
   X467.6282     Y19.8907      R0.9000    
   X467.8420     Y19.9792      R0.9000    
   X468.0255     Y20.1201      R0.9000    
   X468.1663     Y20.3036      R0.9000    
   X468.2549     Y20.5173      R0.9000    
   X468.2851     Y20.7467      R0.9000    
   X468.2549     Y20.9761      R0.9000    
   X468.1663     Y21.1898      R0.9000    
   X468.0255     Y21.3733      R0.9000    
   X467.8420     Y21.5142      R0.9000    
   X467.6282     Y21.6027      R0.9000    
   X467.3989     Y21.6329      R0.9000    
   X467.1695     Y21.6027      R0.9000    
   X466.9558     Y21.5142      R0.9000    
   X466.7722     Y21.3733      R0.9000    
   X466.6314     Y21.1898      R0.9000    
   X466.5429     Y20.9761      R0.9000    
   X466.5127     Y20.7467      R0.9000    
(Pass: 4)
G1   Z2.300      F100 
G17 G2   X466.5429     Y20.5173      R0.9000     F400 
   X466.6314     Y20.3036      R0.9000    
   X466.7722     Y20.1201      R0.9000    
   X466.9558     Y19.9792      R0.9000    
   X467.1695     Y19.8907      R0.9000    
   X467.3989     Y19.8605      R0.9000    
   X467.6282     Y19.8907      R0.9000    
   X467.8420     Y19.9792      R0.9000    
   X468.0255     Y20.1201      R0.9000    
   X468.1663     Y20.3036      R0.9000    
   X468.2549     Y20.5173      R0.9000    
   X468.2851     Y20.7467      R0.9000    
   X468.2549     Y20.9761      R0.9000    
   X468.1663     Y21.1898      R0.9000    
   X468.0255     Y21.3733      R0.9000    
   X467.8420     Y21.5142      R0.9000    
   X467.6282     Y21.6027      R0.9000    
   X467.3989     Y21.6329      R0.9000    
   X467.1695     Y21.6027      R0.9000    
   X466.9558     Y21.5142      R0.9000    
   X466.7722     Y21.3733      R0.9000    
   X466.6314     Y21.1898      R0.9000    
   X466.5429     Y20.9761      R0.9000    
   X466.5127     Y20.7467      R0.9000    
(Pass: 5)
G1   Z1.300      F100 
G17 G2   X466.5429     Y20.5173      R0.9000     F400 
   X466.6314     Y20.3036      R0.9000    
   X466.7722     Y20.1201      R0.9000    
   X466.9558     Y19.9792      R0.9000    
   X467.1695     Y19.8907      R0.9000    
   X467.3989     Y19.8605      R0.9000    
   X467.6282     Y19.8907      R0.9000    
   X467.8420     Y19.9792      R0.9000    
   X468.0255     Y20.1201      R0.9000    
   X468.1663     Y20.3036      R0.9000    
   X468.2549     Y20.5173      R0.9000    
   X468.2851     Y20.7467      R0.9000    
   X468.2549     Y20.9761      R0.9000    
   X468.1663     Y21.1898      R0.9000    
   X468.0255     Y21.3733      R0.9000    
   X467.8420     Y21.5142      R0.9000    
   X467.6282     Y21.6027      R0.9000    
   X467.3989     Y21.6329      R0.9000    
   X467.1695     Y21.6027      R0.9000    
   X466.9558     Y21.5142      R0.9000    
   X466.7722     Y21.3733      R0.9000    
   X466.6314     Y21.1898      R0.9000    
   X466.5429     Y20.9761      R0.9000    
   X466.5127     Y20.7467      R0.9000    
(Pass: 6)
G1   Z0.300      F100 
G17 G2   X466.5429     Y20.5173      R0.9000     F400 
   X466.6314     Y20.3036      R0.9000    
   X466.7722     Y20.1201      R0.9000    
   X466.9558     Y19.9792      R0.9000    
   X467.1695     Y19.8907      R0.9000    
   X467.3989     Y19.8605      R0.9000    
   X467.6282     Y19.8907      R0.9000    
   X467.8420     Y19.9792      R0.9000    
   X468.0255     Y20.1201      R0.9000    
   X468.1663     Y20.3036      R0.9000    
   X468.2549     Y20.5173      R0.9000    
   X468.2851     Y20.7467      R0.9000    
   X468.2549     Y20.9761      R0.9000    
   X468.1663     Y21.1898      R0.9000    
   X468.0255     Y21.3733      R0.9000    
   X467.8420     Y21.5142      R0.9000    
   X467.6282     Y21.6027      R0.9000    
   X467.3989     Y21.6329      R0.9000    
   X467.1695     Y21.6027      R0.9000    
   X466.9558     Y21.5142      R0.9000    
   X466.7722     Y21.3733      R0.9000    
   X466.6314     Y21.1898      R0.9000    
   X466.5429     Y20.9761      R0.9000    
   X466.5127     Y20.7467      R0.9000    
(Pass: 7)
G1   Z0.000      F100 
G17 G2   X466.5429     Y20.5173      R0.9000     F400 
   X466.6314     Y20.3036      R0.9000    
   X466.7722     Y20.1201      R0.9000    
   X466.9558     Y19.9792      R0.9000    
   X467.1695     Y19.8907      R0.9000    
   X467.3989     Y19.8605      R0.9000    
   X467.6282     Y19.8907      R0.9000    
   X467.8420     Y19.9792      R0.9000    
   X468.0255     Y20.1201      R0.9000    
   X468.1663     Y20.3036      R0.9000    
   X468.2549     Y20.5173      R0.9000    
   X468.2851     Y20.7467      R0.9000    
   X468.2549     Y20.9761      R0.9000    
   X468.1663     Y21.1898      R0.9000    
   X468.0255     Y21.3733      R0.9000    
   X467.8420     Y21.5142      R0.9000    
   X467.6282     Y21.6027      R0.9000    
   X467.3989     Y21.6329      R0.9000    
   X467.1695     Y21.6027      R0.9000    
   X466.9558     Y21.5142      R0.9000    
   X466.7722     Y21.3733      R0.9000    
   X466.6314     Y21.1898      R0.9000    
   X466.5429     Y20.9761      R0.9000    
   X466.5127     Y20.7467      R0.9000    
G0   Z21.300    
(Pass: 1)
   X475.372   
G1   Z5.300      F100 
G17 G2   X475.4381     Y20.2408      R1.9685     F400 
   X475.6334     Y19.7694      R1.9685    
   X475.9441     Y19.3645      R1.9685    
   X476.3489     Y19.0539      R1.9685    
   X476.8203     Y18.8586      R1.9685    
   X477.3262     Y18.7920      R1.9685    
   X477.8321     Y18.8586      R1.9685    
   X478.3036     Y19.0539      R1.9685    
   X478.7084     Y19.3645      R1.9685    
   X479.0190     Y19.7694      R1.9685    
   X479.2143     Y20.2408      R1.9685    
   X479.2809     Y20.7467      R1.9685    
   X479.2143     Y21.2526      R1.9685    
   X479.0190     Y21.7241      R1.9685    
   X478.7084     Y22.1289      R1.9685    
   X478.3036     Y22.4395      R1.9685    
   X477.8321     Y22.6348      R1.9685    
   X477.3262     Y22.7014      R1.9685    
   X476.8203     Y22.6348      R1.9685    
   X476.3489     Y22.4395      R1.9685    
   X475.9441     Y22.1289      R1.9685    
   X475.6334     Y21.7241      R1.9685    
   X475.4381     Y21.2526      R1.9685    
   X475.3715     Y20.7467      R1.9685    
(Pass: 2)
G1   Z4.300      F100 
G17 G2   X475.4381     Y20.2408      R1.9685     F400 
   X475.6334     Y19.7694      R1.9685    
   X475.9441     Y19.3645      R1.9685    
   X476.3489     Y19.0539      R1.9685    
   X476.8203     Y18.8586      R1.9685    
   X477.3262     Y18.7920      R1.9685    
   X477.8321     Y18.8586      R1.9685    
   X478.3036     Y19.0539      R1.9685    
   X478.7084     Y19.3645      R1.9685    
   X479.0190     Y19.7694      R1.9685    
   X479.2143     Y20.2408      R1.9685    
   X479.2809     Y20.7467      R1.9685    
   X479.2143     Y21.2526      R1.9685    
   X479.0190     Y21.7241      R1.9685    
   X478.7084     Y22.1289      R1.9685    
   X478.3036     Y22.4395      R1.9685    
   X477.8321     Y22.6348      R1.9685    
   X477.3262     Y22.7014      R1.9685    
   X476.8203     Y22.6348      R1.9685    
   X476.3489     Y22.4395      R1.9685    
   X475.9441     Y22.1289      R1.9685    
   X475.6334     Y21.7241      R1.9685    
   X475.4381     Y21.2526      R1.9685    
   X475.3715     Y20.7467      R1.9685    
(Pass: 3)
G1   Z3.300      F100 
G17 G2   X475.4381     Y20.2408      R1.9685     F400 
   X475.6334     Y19.7694      R1.9685    
   X475.9441     Y19.3645      R1.9685    
   X476.3489     Y19.0539      R1.9685    
   X476.8203     Y18.8586      R1.9685    
   X477.3262     Y18.7920      R1.9685    
   X477.8321     Y18.8586      R1.9685    
   X478.3036     Y19.0539      R1.9685    
   X478.7084     Y19.3645      R1.9685    
   X479.0190     Y19.7694      R1.9685    
   X479.2143     Y20.2408      R1.9685    
   X479.2809     Y20.7467      R1.9685    
   X479.2143     Y21.2526      R1.9685    
   X479.0190     Y21.7241      R1.9685    
   X478.7084     Y22.1289      R1.9685    
   X478.3036     Y22.4395      R1.9685    
   X477.8321     Y22.6348      R1.9685    
   X477.3262     Y22.7014      R1.9685    
   X476.8203     Y22.6348      R1.9685    
   X476.3489     Y22.4395      R1.9685    
   X475.9441     Y22.1289      R1.9685    
   X475.6334     Y21.7241      R1.9685    
   X475.4381     Y21.2526      R1.9685    
   X475.3715     Y20.7467      R1.9685    
(Pass: 4)
G1   Z2.300      F100 
G17 G2   X475.4381     Y20.2408      R1.9685     F400 
   X475.6334     Y19.7694      R1.9685    
   X475.9441     Y19.3645      R1.9685    
   X476.3489     Y19.0539      R1.9685    
   X476.8203     Y18.8586      R1.9685    
   X477.3262     Y18.7920      R1.9685    
   X477.8321     Y18.8586      R1.9685    
   X478.3036     Y19.0539      R1.9685    
   X478.7084     Y19.3645      R1.9685    
   X479.0190     Y19.7694      R1.9685    
   X479.2143     Y20.2408      R1.9685    
   X479.2809     Y20.7467      R1.9685    
   X479.2143     Y21.2526      R1.9685    
   X479.0190     Y21.7241      R1.9685    
   X478.7084     Y22.1289      R1.9685    
   X478.3036     Y22.4395      R1.9685    
   X477.8321     Y22.6348      R1.9685    
   X477.3262     Y22.7014      R1.9685    
   X476.8203     Y22.6348      R1.9685    
   X476.3489     Y22.4395      R1.9685    
   X475.9441     Y22.1289      R1.9685    
   X475.6334     Y21.7241      R1.9685    
   X475.4381     Y21.2526      R1.9685    
   X475.3715     Y20.7467      R1.9685    
(Pass: 5)
G1   Z1.300      F100 
G17 G2   X475.4381     Y20.2408      R1.9685     F400 
   X475.6334     Y19.7694      R1.9685    
   X475.9441     Y19.3645      R1.9685    
   X476.3489     Y19.0539      R1.9685    
   X476.8203     Y18.8586      R1.9685    
   X477.3262     Y18.7920      R1.9685    
   X477.8321     Y18.8586      R1.9685    
   X478.3036     Y19.0539      R1.9685    
   X478.7084     Y19.3645      R1.9685    
   X479.0190     Y19.7694      R1.9685    
   X479.2143     Y20.2408      R1.9685    
   X479.2809     Y20.7467      R1.9685    
   X479.2143     Y21.2526      R1.9685    
   X479.0190     Y21.7241      R1.9685    
   X478.7084     Y22.1289      R1.9685    
   X478.3036     Y22.4395      R1.9685    
   X477.8321     Y22.6348      R1.9685    
   X477.3262     Y22.7014      R1.9685    
   X476.8203     Y22.6348      R1.9685    
   X476.3489     Y22.4395      R1.9685    
   X475.9441     Y22.1289      R1.9685    
   X475.6334     Y21.7241      R1.9685    
   X475.4381     Y21.2526      R1.9685    
   X475.3715     Y20.7467      R1.9685    
(Pass: 6)
G1   Z0.300      F100 
G17 G2   X475.4381     Y20.2408      R1.9685     F400 
   X475.6334     Y19.7694      R1.9685    
   X475.9441     Y19.3645      R1.9685    
   X476.3489     Y19.0539      R1.9685    
   X476.8203     Y18.8586      R1.9685    
   X477.3262     Y18.7920      R1.9685    
   X477.8321     Y18.8586      R1.9685    
   X478.3036     Y19.0539      R1.9685    
   X478.7084     Y19.3645      R1.9685    
   X479.0190     Y19.7694      R1.9685    
   X479.2143     Y20.2408      R1.9685    
   X479.2809     Y20.7467      R1.9685    
   X479.2143     Y21.2526      R1.9685    
   X479.0190     Y21.7241      R1.9685    
   X478.7084     Y22.1289      R1.9685    
   X478.3036     Y22.4395      R1.9685    
   X477.8321     Y22.6348      R1.9685    
   X477.3262     Y22.7014      R1.9685    
   X476.8203     Y22.6348      R1.9685    
   X476.3489     Y22.4395      R1.9685    
   X475.9441     Y22.1289      R1.9685    
   X475.6334     Y21.7241      R1.9685    
   X475.4381     Y21.2526      R1.9685    
   X475.3715     Y20.7467      R1.9685    
(Pass: 7)
G1   Z0.000      F100 
G17 G2   X475.4381     Y20.2408      R1.9685     F400 
   X475.6334     Y19.7694      R1.9685    
   X475.9441     Y19.3645      R1.9685    
   X476.3489     Y19.0539      R1.9685    
   X476.8203     Y18.8586      R1.9685    
   X477.3262     Y18.7920      R1.9685    
   X477.8321     Y18.8586      R1.9685    
   X478.3036     Y19.0539      R1.9685    
   X478.7084     Y19.3645      R1.9685    
   X479.0190     Y19.7694      R1.9685    
   X479.2143     Y20.2408      R1.9685    
   X479.2809     Y20.7467      R1.9685    
   X479.2143     Y21.2526      R1.9685    
   X479.0190     Y21.7241      R1.9685    
   X478.7084     Y22.1289      R1.9685    
   X478.3036     Y22.4395      R1.9685    
   X477.8321     Y22.6348      R1.9685    
   X477.3262     Y22.7014      R1.9685    
   X476.8203     Y22.6348      R1.9685    
   X476.3489     Y22.4395      R1.9685    
   X475.9441     Y22.1289      R1.9685    
   X475.6334     Y21.7241      R1.9685    
   X475.4381     Y21.2526      R1.9685    
   X475.3715     Y20.7467      R1.9685    
G0   Z21.300    
(Pass: 1)
   X477.097      Y29.891    
G1   Z5.300      F100 
G17 G2   X477.3262     Y29.8605      R0.9000     F400 
   X477.5556     Y29.8907      R0.9000    
   X477.7693     Y29.9792      R0.9000    
   X477.9529     Y30.1201      R0.9000    
   X478.0937     Y30.3036      R0.9000    
   X478.1822     Y30.5173      R0.9000    
   X478.2124     Y30.7467      R0.9000    
   X478.1822     Y30.9761      R0.9000    
   X478.0937     Y31.1898      R0.9000    
   X477.9529     Y31.3733      R0.9000    
   X477.7693     Y31.5142      R0.9000    
   X477.5556     Y31.6027      R0.9000    
   X477.3262     Y31.6329      R0.9000    
   X477.0969     Y31.6027      R0.9000    
   X476.8831     Y31.5142      R0.9000    
   X476.6996     Y31.3733      R0.9000    
   X476.5588     Y31.1898      R0.9000    
   X476.4702     Y30.9761      R0.9000    
   X476.4400     Y30.7467      R0.9000    
   X476.4702     Y30.5173      R0.9000    
   X476.5588     Y30.3036      R0.9000    
   X476.6996     Y30.1201      R0.9000    
   X476.8831     Y29.9792      R0.9000    
   X477.0969     Y29.8907      R0.9000    
(Pass: 2)
G1   Z4.300      F100 
G17 G2   X477.3262     Y29.8605      R0.9000     F400 
   X477.5556     Y29.8907      R0.9000    
   X477.7693     Y29.9792      R0.9000    
   X477.9529     Y30.1201      R0.9000    
   X478.0937     Y30.3036      R0.9000    
   X478.1822     Y30.5173      R0.9000    
   X478.2124     Y30.7467      R0.9000    
   X478.1822     Y30.9761      R0.9000    
   X478.0937     Y31.1898      R0.9000    
   X477.9529     Y31.3733      R0.9000    
   X477.7693     Y31.5142      R0.9000    
   X477.5556     Y31.6027      R0.9000    
   X477.3262     Y31.6329      R0.9000    
   X477.0969     Y31.6027      R0.9000    
   X476.8831     Y31.5142      R0.9000    
   X476.6996     Y31.3733      R0.9000    
   X476.5588     Y31.1898      R0.9000    
   X476.4702     Y30.9761      R0.9000    
   X476.4400     Y30.7467      R0.9000    
   X476.4702     Y30.5173      R0.9000    
   X476.5588     Y30.3036      R0.9000    
   X476.6996     Y30.1201      R0.9000    
   X476.8831     Y29.9792      R0.9000    
   X477.0969     Y29.8907      R0.9000    
(Pass: 3)
G1   Z3.300      F100 
G17 G2   X477.3262     Y29.8605      R0.9000     F400 
   X477.5556     Y29.8907      R0.9000    
   X477.7693     Y29.9792      R0.9000    
   X477.9529     Y30.1201      R0.9000    
   X478.0937     Y30.3036      R0.9000    
   X478.1822     Y30.5173      R0.9000    
   X478.2124     Y30.7467      R0.9000    
   X478.1822     Y30.9761      R0.9000    
   X478.0937     Y31.1898      R0.9000    
   X477.9529     Y31.3733      R0.9000    
   X477.7693     Y31.5142      R0.9000    
   X477.5556     Y31.6027      R0.9000    
   X477.3262     Y31.6329      R0.9000    
   X477.0969     Y31.6027      R0.9000    
   X476.8831     Y31.5142      R0.9000    
   X476.6996     Y31.3733      R0.9000    
   X476.5588     Y31.1898      R0.9000    
   X476.4702     Y30.9761      R0.9000    
   X476.4400     Y30.7467      R0.9000    
   X476.4702     Y30.5173      R0.9000    
   X476.5588     Y30.3036      R0.9000    
   X476.6996     Y30.1201      R0.9000    
   X476.8831     Y29.9792      R0.9000    
   X477.0969     Y29.8907      R0.9000    
(Pass: 4)
G1   Z2.300      F100 
G17 G2   X477.3262     Y29.8605      R0.9000     F400 
   X477.5556     Y29.8907      R0.9000    
   X477.7693     Y29.9792      R0.9000    
   X477.9529     Y30.1201      R0.9000    
   X478.0937     Y30.3036      R0.9000    
   X478.1822     Y30.5173      R0.9000    
   X478.2124     Y30.7467      R0.9000    
   X478.1822     Y30.9761      R0.9000    
   X478.0937     Y31.1898      R0.9000    
   X477.9529     Y31.3733      R0.9000    
   X477.7693     Y31.5142      R0.9000    
   X477.5556     Y31.6027      R0.9000    
   X477.3262     Y31.6329      R0.9000    
   X477.0969     Y31.6027      R0.9000    
   X476.8831     Y31.5142      R0.9000    
   X476.6996     Y31.3733      R0.9000    
   X476.5588     Y31.1898      R0.9000    
   X476.4702     Y30.9761      R0.9000    
   X476.4400     Y30.7467      R0.9000    
   X476.4702     Y30.5173      R0.9000    
   X476.5588     Y30.3036      R0.9000    
   X476.6996     Y30.1201      R0.9000    
   X476.8831     Y29.9792      R0.9000    
   X477.0969     Y29.8907      R0.9000    
(Pass: 5)
G1   Z1.300      F100 
G17 G2   X477.3262     Y29.8605      R0.9000     F400 
   X477.5556     Y29.8907      R0.9000    
   X477.7693     Y29.9792      R0.9000    
   X477.9529     Y30.1201      R0.9000    
   X478.0937     Y30.3036      R0.9000    
   X478.1822     Y30.5173      R0.9000    
   X478.2124     Y30.7467      R0.9000    
   X478.1822     Y30.9761      R0.9000    
   X478.0937     Y31.1898      R0.9000    
   X477.9529     Y31.3733      R0.9000    
   X477.7693     Y31.5142      R0.9000    
   X477.5556     Y31.6027      R0.9000    
   X477.3262     Y31.6329      R0.9000    
   X477.0969     Y31.6027      R0.9000    
   X476.8831     Y31.5142      R0.9000    
   X476.6996     Y31.3733      R0.9000    
   X476.5588     Y31.1898      R0.9000    
   X476.4702     Y30.9761      R0.9000    
   X476.4400     Y30.7467      R0.9000    
   X476.4702     Y30.5173      R0.9000    
   X476.5588     Y30.3036      R0.9000    
   X476.6996     Y30.1201      R0.9000    
   X476.8831     Y29.9792      R0.9000    
   X477.0969     Y29.8907      R0.9000    
(Pass: 6)
G1   Z0.300      F100 
G17 G2   X477.3262     Y29.8605      R0.9000     F400 
   X477.5556     Y29.8907      R0.9000    
   X477.7693     Y29.9792      R0.9000    
   X477.9529     Y30.1201      R0.9000    
   X478.0937     Y30.3036      R0.9000    
   X478.1822     Y30.5173      R0.9000    
   X478.2124     Y30.7467      R0.9000    
   X478.1822     Y30.9761      R0.9000    
   X478.0937     Y31.1898      R0.9000    
   X477.9529     Y31.3733      R0.9000    
   X477.7693     Y31.5142      R0.9000    
   X477.5556     Y31.6027      R0.9000    
   X477.3262     Y31.6329      R0.9000    
   X477.0969     Y31.6027      R0.9000    
   X476.8831     Y31.5142      R0.9000    
   X476.6996     Y31.3733      R0.9000    
   X476.5588     Y31.1898      R0.9000    
   X476.4702     Y30.9761      R0.9000    
   X476.4400     Y30.7467      R0.9000    
   X476.4702     Y30.5173      R0.9000    
   X476.5588     Y30.3036      R0.9000    
   X476.6996     Y30.1201      R0.9000    
   X476.8831     Y29.9792      R0.9000    
   X477.0969     Y29.8907      R0.9000    
(Pass: 7)
G1   Z0.000      F100 
G17 G2   X477.3262     Y29.8605      R0.9000     F400 
   X477.5556     Y29.8907      R0.9000    
   X477.7693     Y29.9792      R0.9000    
   X477.9529     Y30.1201      R0.9000    
   X478.0937     Y30.3036      R0.9000    
   X478.1822     Y30.5173      R0.9000    
   X478.2124     Y30.7467      R0.9000    
   X478.1822     Y30.9761      R0.9000    
   X478.0937     Y31.1898      R0.9000    
   X477.9529     Y31.3733      R0.9000    
   X477.7693     Y31.5142      R0.9000    
   X477.5556     Y31.6027      R0.9000    
   X477.3262     Y31.6329      R0.9000    
   X477.0969     Y31.6027      R0.9000    
   X476.8831     Y31.5142      R0.9000    
   X476.6996     Y31.3733      R0.9000    
   X476.5588     Y31.1898      R0.9000    
   X476.4702     Y30.9761      R0.9000    
   X476.4400     Y30.7467      R0.9000    
   X476.4702     Y30.5173      R0.9000    
   X476.5588     Y30.3036      R0.9000    
   X476.6996     Y30.1201      R0.9000    
   X476.8831     Y29.9792      R0.9000    
   X477.0969     Y29.8907      R0.9000    
G0   Z21.300    
(Pass: 1)
   X468.268      Y30.517    
G1   Z5.300      F100 
G17 G2   X468.2981     Y30.7467      R0.9000     F400 
   X468.2679     Y30.9761      R0.9000    
   X468.1794     Y31.1898      R0.9000    
   X468.0385     Y31.3733      R0.9000    
   X467.8550     Y31.5142      R0.9000    
   X467.6413     Y31.6027      R0.9000    
   X467.4119     Y31.6329      R0.9000    
   X467.1825     Y31.6027      R0.9000    
   X466.9688     Y31.5142      R0.9000    
   X466.7853     Y31.3733      R0.9000    
   X466.6444     Y31.1898      R0.9000    
   X466.5559     Y30.9761      R0.9000    
   X466.5257     Y30.7467      R0.9000    
   X466.5559     Y30.5173      R0.9000    
   X466.6444     Y30.3036      R0.9000    
   X466.7853     Y30.1201      R0.9000    
   X466.9688     Y29.9792      R0.9000    
   X467.1825     Y29.8907      R0.9000    
   X467.4119     Y29.8605      R0.9000    
   X467.6413     Y29.8907      R0.9000    
   X467.8550     Y29.9792      R0.9000    
   X468.0385     Y30.1201      R0.9000    
   X468.1794     Y30.3036      R0.9000    
   X468.2679     Y30.5173      R0.9000    
(Pass: 2)
G1   Z4.300      F100 
G17 G2   X468.2981     Y30.7467      R0.9000     F400 
   X468.2679     Y30.9761      R0.9000    
   X468.1794     Y31.1898      R0.9000    
   X468.0385     Y31.3733      R0.9000    
   X467.8550     Y31.5142      R0.9000    
   X467.6413     Y31.6027      R0.9000    
   X467.4119     Y31.6329      R0.9000    
   X467.1825     Y31.6027      R0.9000    
   X466.9688     Y31.5142      R0.9000    
   X466.7853     Y31.3733      R0.9000    
   X466.6444     Y31.1898      R0.9000    
   X466.5559     Y30.9761      R0.9000    
   X466.5257     Y30.7467      R0.9000    
   X466.5559     Y30.5173      R0.9000    
   X466.6444     Y30.3036      R0.9000    
   X466.7853     Y30.1201      R0.9000    
   X466.9688     Y29.9792      R0.9000    
   X467.1825     Y29.8907      R0.9000    
   X467.4119     Y29.8605      R0.9000    
   X467.6413     Y29.8907      R0.9000    
   X467.8550     Y29.9792      R0.9000    
   X468.0385     Y30.1201      R0.9000    
   X468.1794     Y30.3036      R0.9000    
   X468.2679     Y30.5173      R0.9000    
(Pass: 3)
G1   Z3.300      F100 
G17 G2   X468.2981     Y30.7467      R0.9000     F400 
   X468.2679     Y30.9761      R0.9000    
   X468.1794     Y31.1898      R0.9000    
   X468.0385     Y31.3733      R0.9000    
   X467.8550     Y31.5142      R0.9000    
   X467.6413     Y31.6027      R0.9000    
   X467.4119     Y31.6329      R0.9000    
   X467.1825     Y31.6027      R0.9000    
   X466.9688     Y31.5142      R0.9000    
   X466.7853     Y31.3733      R0.9000    
   X466.6444     Y31.1898      R0.9000    
   X466.5559     Y30.9761      R0.9000    
   X466.5257     Y30.7467      R0.9000    
   X466.5559     Y30.5173      R0.9000    
   X466.6444     Y30.3036      R0.9000    
   X466.7853     Y30.1201      R0.9000    
   X466.9688     Y29.9792      R0.9000    
   X467.1825     Y29.8907      R0.9000    
   X467.4119     Y29.8605      R0.9000    
   X467.6413     Y29.8907      R0.9000    
   X467.8550     Y29.9792      R0.9000    
   X468.0385     Y30.1201      R0.9000    
   X468.1794     Y30.3036      R0.9000    
   X468.2679     Y30.5173      R0.9000    
(Pass: 4)
G1   Z2.300      F100 
G17 G2   X468.2981     Y30.7467      R0.9000     F400 
   X468.2679     Y30.9761      R0.9000    
   X468.1794     Y31.1898      R0.9000    
   X468.0385     Y31.3733      R0.9000    
   X467.8550     Y31.5142      R0.9000    
   X467.6413     Y31.6027      R0.9000    
   X467.4119     Y31.6329      R0.9000    
   X467.1825     Y31.6027      R0.9000    
   X466.9688     Y31.5142      R0.9000    
   X466.7853     Y31.3733      R0.9000    
   X466.6444     Y31.1898      R0.9000    
   X466.5559     Y30.9761      R0.9000    
   X466.5257     Y30.7467      R0.9000    
   X466.5559     Y30.5173      R0.9000    
   X466.6444     Y30.3036      R0.9000    
   X466.7853     Y30.1201      R0.9000    
   X466.9688     Y29.9792      R0.9000    
   X467.1825     Y29.8907      R0.9000    
   X467.4119     Y29.8605      R0.9000    
   X467.6413     Y29.8907      R0.9000    
   X467.8550     Y29.9792      R0.9000    
   X468.0385     Y30.1201      R0.9000    
   X468.1794     Y30.3036      R0.9000    
   X468.2679     Y30.5173      R0.9000    
(Pass: 5)
G1   Z1.300      F100 
G17 G2   X468.2981     Y30.7467      R0.9000     F400 
   X468.2679     Y30.9761      R0.9000    
   X468.1794     Y31.1898      R0.9000    
   X468.0385     Y31.3733      R0.9000    
   X467.8550     Y31.5142      R0.9000    
   X467.6413     Y31.6027      R0.9000    
   X467.4119     Y31.6329      R0.9000    
   X467.1825     Y31.6027      R0.9000    
   X466.9688     Y31.5142      R0.9000    
   X466.7853     Y31.3733      R0.9000    
   X466.6444     Y31.1898      R0.9000    
   X466.5559     Y30.9761      R0.9000    
   X466.5257     Y30.7467      R0.9000    
   X466.5559     Y30.5173      R0.9000    
   X466.6444     Y30.3036      R0.9000    
   X466.7853     Y30.1201      R0.9000    
   X466.9688     Y29.9792      R0.9000    
   X467.1825     Y29.8907      R0.9000    
   X467.4119     Y29.8605      R0.9000    
   X467.6413     Y29.8907      R0.9000    
   X467.8550     Y29.9792      R0.9000    
   X468.0385     Y30.1201      R0.9000    
   X468.1794     Y30.3036      R0.9000    
   X468.2679     Y30.5173      R0.9000    
(Pass: 6)
G1   Z0.300      F100 
G17 G2   X468.2981     Y30.7467      R0.9000     F400 
   X468.2679     Y30.9761      R0.9000    
   X468.1794     Y31.1898      R0.9000    
   X468.0385     Y31.3733      R0.9000    
   X467.8550     Y31.5142      R0.9000    
   X467.6413     Y31.6027      R0.9000    
   X467.4119     Y31.6329      R0.9000    
   X467.1825     Y31.6027      R0.9000    
   X466.9688     Y31.5142      R0.9000    
   X466.7853     Y31.3733      R0.9000    
   X466.6444     Y31.1898      R0.9000    
   X466.5559     Y30.9761      R0.9000    
   X466.5257     Y30.7467      R0.9000    
   X466.5559     Y30.5173      R0.9000    
   X466.6444     Y30.3036      R0.9000    
   X466.7853     Y30.1201      R0.9000    
   X466.9688     Y29.9792      R0.9000    
   X467.1825     Y29.8907      R0.9000    
   X467.4119     Y29.8605      R0.9000    
   X467.6413     Y29.8907      R0.9000    
   X467.8550     Y29.9792      R0.9000    
   X468.0385     Y30.1201      R0.9000    
   X468.1794     Y30.3036      R0.9000    
   X468.2679     Y30.5173      R0.9000    
(Pass: 7)
G1   Z0.000      F100 
G17 G2   X468.2981     Y30.7467      R0.9000     F400 
   X468.2679     Y30.9761      R0.9000    
   X468.1794     Y31.1898      R0.9000    
   X468.0385     Y31.3733      R0.9000    
   X467.8550     Y31.5142      R0.9000    
   X467.6413     Y31.6027      R0.9000    
   X467.4119     Y31.6329      R0.9000    
   X467.1825     Y31.6027      R0.9000    
   X466.9688     Y31.5142      R0.9000    
   X466.7853     Y31.3733      R0.9000    
   X466.6444     Y31.1898      R0.9000    
   X466.5559     Y30.9761      R0.9000    
   X466.5257     Y30.7467      R0.9000    
   X466.5559     Y30.5173      R0.9000    
   X466.6444     Y30.3036      R0.9000    
   X466.7853     Y30.1201      R0.9000    
   X466.9688     Y29.9792      R0.9000    
   X467.1825     Y29.8907      R0.9000    
   X467.4119     Y29.8605      R0.9000    
   X467.6413     Y29.8907      R0.9000    
   X467.8550     Y29.9792      R0.9000    
   X468.0385     Y30.1201      R0.9000    
   X468.1794     Y30.3036      R0.9000    
   X468.2679     Y30.5173      R0.9000    
G0   Z21.300    
(Pass: 1)
   X467.399      Y50.501    
G1   Z5.300      F100 
G17 G2   X467.6282     Y50.5307      R0.9000     F400 
   X467.8420     Y50.6192      R0.9000    
   X468.0255     Y50.7601      R0.9000    
   X468.1663     Y50.9436      R0.9000    
   X468.2549     Y51.1573      R0.9000    
   X468.2851     Y51.3867      R0.9000    
   X468.2549     Y51.6161      R0.9000    
   X468.1663     Y51.8298      R0.9000    
   X468.0255     Y52.0133      R0.9000    
   X467.8420     Y52.1542      R0.9000    
   X467.6282     Y52.2427      R0.9000    
   X467.3989     Y52.2729      R0.9000    
   X467.1695     Y52.2427      R0.9000    
   X466.9558     Y52.1542      R0.9000    
   X466.7722     Y52.0133      R0.9000    
   X466.6314     Y51.8298      R0.9000    
   X466.5429     Y51.6161      R0.9000    
   X466.5127     Y51.3867      R0.9000    
   X466.5429     Y51.1573      R0.9000    
   X466.6314     Y50.9436      R0.9000    
   X466.7722     Y50.7601      R0.9000    
   X466.9558     Y50.6192      R0.9000    
   X467.1695     Y50.5307      R0.9000    
   X467.3989     Y50.5005      R0.9000    
(Pass: 2)
G1   Z4.300      F100 
G17 G2   X467.6282     Y50.5307      R0.9000     F400 
   X467.8420     Y50.6192      R0.9000    
   X468.0255     Y50.7601      R0.9000    
   X468.1663     Y50.9436      R0.9000    
   X468.2549     Y51.1573      R0.9000    
   X468.2851     Y51.3867      R0.9000    
   X468.2549     Y51.6161      R0.9000    
   X468.1663     Y51.8298      R0.9000    
   X468.0255     Y52.0133      R0.9000    
   X467.8420     Y52.1542      R0.9000    
   X467.6282     Y52.2427      R0.9000    
   X467.3989     Y52.2729      R0.9000    
   X467.1695     Y52.2427      R0.9000    
   X466.9558     Y52.1542      R0.9000    
   X466.7722     Y52.0133      R0.9000    
   X466.6314     Y51.8298      R0.9000    
   X466.5429     Y51.6161      R0.9000    
   X466.5127     Y51.3867      R0.9000    
   X466.5429     Y51.1573      R0.9000    
   X466.6314     Y50.9436      R0.9000    
   X466.7722     Y50.7601      R0.9000    
   X466.9558     Y50.6192      R0.9000    
   X467.1695     Y50.5307      R0.9000    
   X467.3989     Y50.5005      R0.9000    
(Pass: 3)
G1   Z3.300      F100 
G17 G2   X467.6282     Y50.5307      R0.9000     F400 
   X467.8420     Y50.6192      R0.9000    
   X468.0255     Y50.7601      R0.9000    
   X468.1663     Y50.9436      R0.9000    
   X468.2549     Y51.1573      R0.9000    
   X468.2851     Y51.3867      R0.9000    
   X468.2549     Y51.6161      R0.9000    
   X468.1663     Y51.8298      R0.9000    
   X468.0255     Y52.0133      R0.9000    
   X467.8420     Y52.1542      R0.9000    
   X467.6282     Y52.2427      R0.9000    
   X467.3989     Y52.2729      R0.9000    
   X467.1695     Y52.2427      R0.9000    
   X466.9558     Y52.1542      R0.9000    
   X466.7722     Y52.0133      R0.9000    
   X466.6314     Y51.8298      R0.9000    
   X466.5429     Y51.6161      R0.9000    
   X466.5127     Y51.3867      R0.9000    
   X466.5429     Y51.1573      R0.9000    
   X466.6314     Y50.9436      R0.9000    
   X466.7722     Y50.7601      R0.9000    
   X466.9558     Y50.6192      R0.9000    
   X467.1695     Y50.5307      R0.9000    
   X467.3989     Y50.5005      R0.9000    
(Pass: 4)
G1   Z2.300      F100 
G17 G2   X467.6282     Y50.5307      R0.9000     F400 
   X467.8420     Y50.6192      R0.9000    
   X468.0255     Y50.7601      R0.9000    
   X468.1663     Y50.9436      R0.9000    
   X468.2549     Y51.1573      R0.9000    
   X468.2851     Y51.3867      R0.9000    
   X468.2549     Y51.6161      R0.9000    
   X468.1663     Y51.8298      R0.9000    
   X468.0255     Y52.0133      R0.9000    
   X467.8420     Y52.1542      R0.9000    
   X467.6282     Y52.2427      R0.9000    
   X467.3989     Y52.2729      R0.9000    
   X467.1695     Y52.2427      R0.9000    
   X466.9558     Y52.1542      R0.9000    
   X466.7722     Y52.0133      R0.9000    
   X466.6314     Y51.8298      R0.9000    
   X466.5429     Y51.6161      R0.9000    
   X466.5127     Y51.3867      R0.9000    
   X466.5429     Y51.1573      R0.9000    
   X466.6314     Y50.9436      R0.9000    
   X466.7722     Y50.7601      R0.9000    
   X466.9558     Y50.6192      R0.9000    
   X467.1695     Y50.5307      R0.9000    
   X467.3989     Y50.5005      R0.9000    
(Pass: 5)
G1   Z1.300      F100 
G17 G2   X467.6282     Y50.5307      R0.9000     F400 
   X467.8420     Y50.6192      R0.9000    
   X468.0255     Y50.7601      R0.9000    
   X468.1663     Y50.9436      R0.9000    
   X468.2549     Y51.1573      R0.9000    
   X468.2851     Y51.3867      R0.9000    
   X468.2549     Y51.6161      R0.9000    
   X468.1663     Y51.8298      R0.9000    
   X468.0255     Y52.0133      R0.9000    
   X467.8420     Y52.1542      R0.9000    
   X467.6282     Y52.2427      R0.9000    
   X467.3989     Y52.2729      R0.9000    
   X467.1695     Y52.2427      R0.9000    
   X466.9558     Y52.1542      R0.9000    
   X466.7722     Y52.0133      R0.9000    
   X466.6314     Y51.8298      R0.9000    
   X466.5429     Y51.6161      R0.9000    
   X466.5127     Y51.3867      R0.9000    
   X466.5429     Y51.1573      R0.9000    
   X466.6314     Y50.9436      R0.9000    
   X466.7722     Y50.7601      R0.9000    
   X466.9558     Y50.6192      R0.9000    
   X467.1695     Y50.5307      R0.9000    
   X467.3989     Y50.5005      R0.9000    
(Pass: 6)
G1   Z0.300      F100 
G17 G2   X467.6282     Y50.5307      R0.9000     F400 
   X467.8420     Y50.6192      R0.9000    
   X468.0255     Y50.7601      R0.9000    
   X468.1663     Y50.9436      R0.9000    
   X468.2549     Y51.1573      R0.9000    
   X468.2851     Y51.3867      R0.9000    
   X468.2549     Y51.6161      R0.9000    
   X468.1663     Y51.8298      R0.9000    
   X468.0255     Y52.0133      R0.9000    
   X467.8420     Y52.1542      R0.9000    
   X467.6282     Y52.2427      R0.9000    
   X467.3989     Y52.2729      R0.9000    
   X467.1695     Y52.2427      R0.9000    
   X466.9558     Y52.1542      R0.9000    
   X466.7722     Y52.0133      R0.9000    
   X466.6314     Y51.8298      R0.9000    
   X466.5429     Y51.6161      R0.9000    
   X466.5127     Y51.3867      R0.9000    
   X466.5429     Y51.1573      R0.9000    
   X466.6314     Y50.9436      R0.9000    
   X466.7722     Y50.7601      R0.9000    
   X466.9558     Y50.6192      R0.9000    
   X467.1695     Y50.5307      R0.9000    
   X467.3989     Y50.5005      R0.9000    
(Pass: 7)
G1   Z0.000      F100 
G17 G2   X467.6282     Y50.5307      R0.9000     F400 
   X467.8420     Y50.6192      R0.9000    
   X468.0255     Y50.7601      R0.9000    
   X468.1663     Y50.9436      R0.9000    
   X468.2549     Y51.1573      R0.9000    
   X468.2851     Y51.3867      R0.9000    
   X468.2549     Y51.6161      R0.9000    
   X468.1663     Y51.8298      R0.9000    
   X468.0255     Y52.0133      R0.9000    
   X467.8420     Y52.1542      R0.9000    
   X467.6282     Y52.2427      R0.9000    
   X467.3989     Y52.2729      R0.9000    
   X467.1695     Y52.2427      R0.9000    
   X466.9558     Y52.1542      R0.9000    
   X466.7722     Y52.0133      R0.9000    
   X466.6314     Y51.8298      R0.9000    
   X466.5429     Y51.6161      R0.9000    
   X466.5127     Y51.3867      R0.9000    
   X466.5429     Y51.1573      R0.9000    
   X466.6314     Y50.9436      R0.9000    
   X466.7722     Y50.7601      R0.9000    
   X466.9558     Y50.6192      R0.9000    
   X467.1695     Y50.5307      R0.9000    
   X467.3989     Y50.5005      R0.9000    
G0   Z21.300    
(Pass: 1)
   X475.372      Y51.387    
G1   Z5.300      F100 
G17 G2   X475.4381     Y50.8808      R1.9685     F400 
   X475.6334     Y50.4094      R1.9685    
   X475.9441     Y50.0045      R1.9685    
   X476.3489     Y49.6939      R1.9685    
   X476.8203     Y49.4986      R1.9685    
   X477.3262     Y49.4320      R1.9685    
   X477.8321     Y49.4986      R1.9685    
   X478.3036     Y49.6939      R1.9685    
   X478.7084     Y50.0045      R1.9685    
   X479.0190     Y50.4094      R1.9685    
   X479.2143     Y50.8808      R1.9685    
   X479.2809     Y51.3867      R1.9685    
   X479.2143     Y51.8926      R1.9685    
   X479.0190     Y52.3641      R1.9685    
   X478.7084     Y52.7689      R1.9685    
   X478.3036     Y53.0795      R1.9685    
   X477.8321     Y53.2748      R1.9685    
   X477.3262     Y53.3414      R1.9685    
   X476.8203     Y53.2748      R1.9685    
   X476.3489     Y53.0795      R1.9685    
   X475.9441     Y52.7689      R1.9685    
   X475.6334     Y52.3641      R1.9685    
   X475.4381     Y51.8926      R1.9685    
   X475.3715     Y51.3867      R1.9685    
(Pass: 2)
G1   Z4.300      F100 
G17 G2   X475.4381     Y50.8808      R1.9685     F400 
   X475.6334     Y50.4094      R1.9685    
   X475.9441     Y50.0045      R1.9685    
   X476.3489     Y49.6939      R1.9685    
   X476.8203     Y49.4986      R1.9685    
   X477.3262     Y49.4320      R1.9685    
   X477.8321     Y49.4986      R1.9685    
   X478.3036     Y49.6939      R1.9685    
   X478.7084     Y50.0045      R1.9685    
   X479.0190     Y50.4094      R1.9685    
   X479.2143     Y50.8808      R1.9685    
   X479.2809     Y51.3867      R1.9685    
   X479.2143     Y51.8926      R1.9685    
   X479.0190     Y52.3641      R1.9685    
   X478.7084     Y52.7689      R1.9685    
   X478.3036     Y53.0795      R1.9685    
   X477.8321     Y53.2748      R1.9685    
   X477.3262     Y53.3414      R1.9685    
   X476.8203     Y53.2748      R1.9685    
   X476.3489     Y53.0795      R1.9685    
   X475.9441     Y52.7689      R1.9685    
   X475.6334     Y52.3641      R1.9685    
   X475.4381     Y51.8926      R1.9685    
   X475.3715     Y51.3867      R1.9685    
(Pass: 3)
G1   Z3.300      F100 
G17 G2   X475.4381     Y50.8808      R1.9685     F400 
   X475.6334     Y50.4094      R1.9685    
   X475.9441     Y50.0045      R1.9685    
   X476.3489     Y49.6939      R1.9685    
   X476.8203     Y49.4986      R1.9685    
   X477.3262     Y49.4320      R1.9685    
   X477.8321     Y49.4986      R1.9685    
   X478.3036     Y49.6939      R1.9685    
   X478.7084     Y50.0045      R1.9685    
   X479.0190     Y50.4094      R1.9685    
   X479.2143     Y50.8808      R1.9685    
   X479.2809     Y51.3867      R1.9685    
   X479.2143     Y51.8926      R1.9685    
   X479.0190     Y52.3641      R1.9685    
   X478.7084     Y52.7689      R1.9685    
   X478.3036     Y53.0795      R1.9685    
   X477.8321     Y53.2748      R1.9685    
   X477.3262     Y53.3414      R1.9685    
   X476.8203     Y53.2748      R1.9685    
   X476.3489     Y53.0795      R1.9685    
   X475.9441     Y52.7689      R1.9685    
   X475.6334     Y52.3641      R1.9685    
   X475.4381     Y51.8926      R1.9685    
   X475.3715     Y51.3867      R1.9685    
(Pass: 4)
G1   Z2.300      F100 
G17 G2   X475.4381     Y50.8808      R1.9685     F400 
   X475.6334     Y50.4094      R1.9685    
   X475.9441     Y50.0045      R1.9685    
   X476.3489     Y49.6939      R1.9685    
   X476.8203     Y49.4986      R1.9685    
   X477.3262     Y49.4320      R1.9685    
   X477.8321     Y49.4986      R1.9685    
   X478.3036     Y49.6939      R1.9685    
   X478.7084     Y50.0045      R1.9685    
   X479.0190     Y50.4094      R1.9685    
   X479.2143     Y50.8808      R1.9685    
   X479.2809     Y51.3867      R1.9685    
   X479.2143     Y51.8926      R1.9685    
   X479.0190     Y52.3641      R1.9685    
   X478.7084     Y52.7689      R1.9685    
   X478.3036     Y53.0795      R1.9685    
   X477.8321     Y53.2748      R1.9685    
   X477.3262     Y53.3414      R1.9685    
   X476.8203     Y53.2748      R1.9685    
   X476.3489     Y53.0795      R1.9685    
   X475.9441     Y52.7689      R1.9685    
   X475.6334     Y52.3641      R1.9685    
   X475.4381     Y51.8926      R1.9685    
   X475.3715     Y51.3867      R1.9685    
(Pass: 5)
G1   Z1.300      F100 
G17 G2   X475.4381     Y50.8808      R1.9685     F400 
   X475.6334     Y50.4094      R1.9685    
   X475.9441     Y50.0045      R1.9685    
   X476.3489     Y49.6939      R1.9685    
   X476.8203     Y49.4986      R1.9685    
   X477.3262     Y49.4320      R1.9685    
   X477.8321     Y49.4986      R1.9685    
   X478.3036     Y49.6939      R1.9685    
   X478.7084     Y50.0045      R1.9685    
   X479.0190     Y50.4094      R1.9685    
   X479.2143     Y50.8808      R1.9685    
   X479.2809     Y51.3867      R1.9685    
   X479.2143     Y51.8926      R1.9685    
   X479.0190     Y52.3641      R1.9685    
   X478.7084     Y52.7689      R1.9685    
   X478.3036     Y53.0795      R1.9685    
   X477.8321     Y53.2748      R1.9685    
   X477.3262     Y53.3414      R1.9685    
   X476.8203     Y53.2748      R1.9685    
   X476.3489     Y53.0795      R1.9685    
   X475.9441     Y52.7689      R1.9685    
   X475.6334     Y52.3641      R1.9685    
   X475.4381     Y51.8926      R1.9685    
   X475.3715     Y51.3867      R1.9685    
(Pass: 6)
G1   Z0.300      F100 
G17 G2   X475.4381     Y50.8808      R1.9685     F400 
   X475.6334     Y50.4094      R1.9685    
   X475.9441     Y50.0045      R1.9685    
   X476.3489     Y49.6939      R1.9685    
   X476.8203     Y49.4986      R1.9685    
   X477.3262     Y49.4320      R1.9685    
   X477.8321     Y49.4986      R1.9685    
   X478.3036     Y49.6939      R1.9685    
   X478.7084     Y50.0045      R1.9685    
   X479.0190     Y50.4094      R1.9685    
   X479.2143     Y50.8808      R1.9685    
   X479.2809     Y51.3867      R1.9685    
   X479.2143     Y51.8926      R1.9685    
   X479.0190     Y52.3641      R1.9685    
   X478.7084     Y52.7689      R1.9685    
   X478.3036     Y53.0795      R1.9685    
   X477.8321     Y53.2748      R1.9685    
   X477.3262     Y53.3414      R1.9685    
   X476.8203     Y53.2748      R1.9685    
   X476.3489     Y53.0795      R1.9685    
   X475.9441     Y52.7689      R1.9685    
   X475.6334     Y52.3641      R1.9685    
   X475.4381     Y51.8926      R1.9685    
   X475.3715     Y51.3867      R1.9685    
(Pass: 7)
G1   Z0.000      F100 
G17 G2   X475.4381     Y50.8808      R1.9685     F400 
   X475.6334     Y50.4094      R1.9685    
   X475.9441     Y50.0045      R1.9685    
   X476.3489     Y49.6939      R1.9685    
   X476.8203     Y49.4986      R1.9685    
   X477.3262     Y49.4320      R1.9685    
   X477.8321     Y49.4986      R1.9685    
   X478.3036     Y49.6939      R1.9685    
   X478.7084     Y50.0045      R1.9685    
   X479.0190     Y50.4094      R1.9685    
   X479.2143     Y50.8808      R1.9685    
   X479.2809     Y51.3867      R1.9685    
   X479.2143     Y51.8926      R1.9685    
   X479.0190     Y52.3641      R1.9685    
   X478.7084     Y52.7689      R1.9685    
   X478.3036     Y53.0795      R1.9685    
   X477.8321     Y53.2748      R1.9685    
   X477.3262     Y53.3414      R1.9685    
   X476.8203     Y53.2748      R1.9685    
   X476.3489     Y53.0795      R1.9685    
   X475.9441     Y52.7689      R1.9685    
   X475.6334     Y52.3641      R1.9685    
   X475.4381     Y51.8926      R1.9685    
   X475.3715     Y51.3867      R1.9685    
G0   Z21.300    
(Pass: 1)
   X477.097      Y70.531    
G1   Z5.300      F100 
G17 G2   X477.3262     Y70.5005      R0.9000     F400 
   X477.5556     Y70.5307      R0.9000    
   X477.7693     Y70.6192      R0.9000    
   X477.9529     Y70.7601      R0.9000    
   X478.0937     Y70.9436      R0.9000    
   X478.1822     Y71.1573      R0.9000    
   X478.2124     Y71.3867      R0.9000    
   X478.1822     Y71.6161      R0.9000    
   X478.0937     Y71.8298      R0.9000    
   X477.9529     Y72.0133      R0.9000    
   X477.7693     Y72.1542      R0.9000    
   X477.5556     Y72.2427      R0.9000    
   X477.3262     Y72.2729      R0.9000    
   X477.0969     Y72.2427      R0.9000    
   X476.8831     Y72.1542      R0.9000    
   X476.6996     Y72.0133      R0.9000    
   X476.5588     Y71.8298      R0.9000    
   X476.4702     Y71.6161      R0.9000    
   X476.4400     Y71.3867      R0.9000    
   X476.4702     Y71.1573      R0.9000    
   X476.5588     Y70.9436      R0.9000    
   X476.6996     Y70.7601      R0.9000    
   X476.8831     Y70.6192      R0.9000    
   X477.0969     Y70.5307      R0.9000    
(Pass: 2)
G1   Z4.300      F100 
G17 G2   X477.3262     Y70.5005      R0.9000     F400 
   X477.5556     Y70.5307      R0.9000    
   X477.7693     Y70.6192      R0.9000    
   X477.9529     Y70.7601      R0.9000    
   X478.0937     Y70.9436      R0.9000    
   X478.1822     Y71.1573      R0.9000    
   X478.2124     Y71.3867      R0.9000    
   X478.1822     Y71.6161      R0.9000    
   X478.0937     Y71.8298      R0.9000    
   X477.9529     Y72.0133      R0.9000    
   X477.7693     Y72.1542      R0.9000    
   X477.5556     Y72.2427      R0.9000    
   X477.3262     Y72.2729      R0.9000    
   X477.0969     Y72.2427      R0.9000    
   X476.8831     Y72.1542      R0.9000    
   X476.6996     Y72.0133      R0.9000    
   X476.5588     Y71.8298      R0.9000    
   X476.4702     Y71.6161      R0.9000    
   X476.4400     Y71.3867      R0.9000    
   X476.4702     Y71.1573      R0.9000    
   X476.5588     Y70.9436      R0.9000    
   X476.6996     Y70.7601      R0.9000    
   X476.8831     Y70.6192      R0.9000    
   X477.0969     Y70.5307      R0.9000    
(Pass: 3)
G1   Z3.300      F100 
G17 G2   X477.3262     Y70.5005      R0.9000     F400 
   X477.5556     Y70.5307      R0.9000    
   X477.7693     Y70.6192      R0.9000    
   X477.9529     Y70.7601      R0.9000    
   X478.0937     Y70.9436      R0.9000    
   X478.1822     Y71.1573      R0.9000    
   X478.2124     Y71.3867      R0.9000    
   X478.1822     Y71.6161      R0.9000    
   X478.0937     Y71.8298      R0.9000    
   X477.9529     Y72.0133      R0.9000    
   X477.7693     Y72.1542      R0.9000    
   X477.5556     Y72.2427      R0.9000    
   X477.3262     Y72.2729      R0.9000    
   X477.0969     Y72.2427      R0.9000    
   X476.8831     Y72.1542      R0.9000    
   X476.6996     Y72.0133      R0.9000    
   X476.5588     Y71.8298      R0.9000    
   X476.4702     Y71.6161      R0.9000    
   X476.4400     Y71.3867      R0.9000    
   X476.4702     Y71.1573      R0.9000    
   X476.5588     Y70.9436      R0.9000    
   X476.6996     Y70.7601      R0.9000    
   X476.8831     Y70.6192      R0.9000    
   X477.0969     Y70.5307      R0.9000    
(Pass: 4)
G1   Z2.300      F100 
G17 G2   X477.3262     Y70.5005      R0.9000     F400 
   X477.5556     Y70.5307      R0.9000    
   X477.7693     Y70.6192      R0.9000    
   X477.9529     Y70.7601      R0.9000    
   X478.0937     Y70.9436      R0.9000    
   X478.1822     Y71.1573      R0.9000    
   X478.2124     Y71.3867      R0.9000    
   X478.1822     Y71.6161      R0.9000    
   X478.0937     Y71.8298      R0.9000    
   X477.9529     Y72.0133      R0.9000    
   X477.7693     Y72.1542      R0.9000    
   X477.5556     Y72.2427      R0.9000    
   X477.3262     Y72.2729      R0.9000    
   X477.0969     Y72.2427      R0.9000    
   X476.8831     Y72.1542      R0.9000    
   X476.6996     Y72.0133      R0.9000    
   X476.5588     Y71.8298      R0.9000    
   X476.4702     Y71.6161      R0.9000    
   X476.4400     Y71.3867      R0.9000    
   X476.4702     Y71.1573      R0.9000    
   X476.5588     Y70.9436      R0.9000    
   X476.6996     Y70.7601      R0.9000    
   X476.8831     Y70.6192      R0.9000    
   X477.0969     Y70.5307      R0.9000    
(Pass: 5)
G1   Z1.300      F100 
G17 G2   X477.3262     Y70.5005      R0.9000     F400 
   X477.5556     Y70.5307      R0.9000    
   X477.7693     Y70.6192      R0.9000    
   X477.9529     Y70.7601      R0.9000    
   X478.0937     Y70.9436      R0.9000    
   X478.1822     Y71.1573      R0.9000    
   X478.2124     Y71.3867      R0.9000    
   X478.1822     Y71.6161      R0.9000    
   X478.0937     Y71.8298      R0.9000    
   X477.9529     Y72.0133      R0.9000    
   X477.7693     Y72.1542      R0.9000    
   X477.5556     Y72.2427      R0.9000    
   X477.3262     Y72.2729      R0.9000    
   X477.0969     Y72.2427      R0.9000    
   X476.8831     Y72.1542      R0.9000    
   X476.6996     Y72.0133      R0.9000    
   X476.5588     Y71.8298      R0.9000    
   X476.4702     Y71.6161      R0.9000    
   X476.4400     Y71.3867      R0.9000    
   X476.4702     Y71.1573      R0.9000    
   X476.5588     Y70.9436      R0.9000    
   X476.6996     Y70.7601      R0.9000    
   X476.8831     Y70.6192      R0.9000    
   X477.0969     Y70.5307      R0.9000    
(Pass: 6)
G1   Z0.300      F100 
G17 G2   X477.3262     Y70.5005      R0.9000     F400 
   X477.5556     Y70.5307      R0.9000    
   X477.7693     Y70.6192      R0.9000    
   X477.9529     Y70.7601      R0.9000    
   X478.0937     Y70.9436      R0.9000    
   X478.1822     Y71.1573      R0.9000    
   X478.2124     Y71.3867      R0.9000    
   X478.1822     Y71.6161      R0.9000    
   X478.0937     Y71.8298      R0.9000    
   X477.9529     Y72.0133      R0.9000    
   X477.7693     Y72.1542      R0.9000    
   X477.5556     Y72.2427      R0.9000    
   X477.3262     Y72.2729      R0.9000    
   X477.0969     Y72.2427      R0.9000    
   X476.8831     Y72.1542      R0.9000    
   X476.6996     Y72.0133      R0.9000    
   X476.5588     Y71.8298      R0.9000    
   X476.4702     Y71.6161      R0.9000    
   X476.4400     Y71.3867      R0.9000    
   X476.4702     Y71.1573      R0.9000    
   X476.5588     Y70.9436      R0.9000    
   X476.6996     Y70.7601      R0.9000    
   X476.8831     Y70.6192      R0.9000    
   X477.0969     Y70.5307      R0.9000    
(Pass: 7)
G1   Z0.000      F100 
G17 G2   X477.3262     Y70.5005      R0.9000     F400 
   X477.5556     Y70.5307      R0.9000    
   X477.7693     Y70.6192      R0.9000    
   X477.9529     Y70.7601      R0.9000    
   X478.0937     Y70.9436      R0.9000    
   X478.1822     Y71.1573      R0.9000    
   X478.2124     Y71.3867      R0.9000    
   X478.1822     Y71.6161      R0.9000    
   X478.0937     Y71.8298      R0.9000    
   X477.9529     Y72.0133      R0.9000    
   X477.7693     Y72.1542      R0.9000    
   X477.5556     Y72.2427      R0.9000    
   X477.3262     Y72.2729      R0.9000    
   X477.0969     Y72.2427      R0.9000    
   X476.8831     Y72.1542      R0.9000    
   X476.6996     Y72.0133      R0.9000    
   X476.5588     Y71.8298      R0.9000    
   X476.4702     Y71.6161      R0.9000    
   X476.4400     Y71.3867      R0.9000    
   X476.4702     Y71.1573      R0.9000    
   X476.5588     Y70.9436      R0.9000    
   X476.6996     Y70.7601      R0.9000    
   X476.8831     Y70.6192      R0.9000    
   X477.0969     Y70.5307      R0.9000    
G0   Z21.300    
(Pass: 1)
   X468.268      Y71.157    
G1   Z5.300      F100 
G17 G2   X468.2981     Y71.3867      R0.9000     F400 
   X468.2679     Y71.6161      R0.9000    
   X468.1794     Y71.8298      R0.9000    
   X468.0385     Y72.0133      R0.9000    
   X467.8550     Y72.1542      R0.9000    
   X467.6413     Y72.2427      R0.9000    
   X467.4119     Y72.2729      R0.9000    
   X467.1825     Y72.2427      R0.9000    
   X466.9688     Y72.1542      R0.9000    
   X466.7853     Y72.0133      R0.9000    
   X466.6444     Y71.8298      R0.9000    
   X466.5559     Y71.6161      R0.9000    
   X466.5257     Y71.3867      R0.9000    
   X466.5559     Y71.1573      R0.9000    
   X466.6444     Y70.9436      R0.9000    
   X466.7853     Y70.7601      R0.9000    
   X466.9688     Y70.6192      R0.9000    
   X467.1825     Y70.5307      R0.9000    
   X467.4119     Y70.5005      R0.9000    
   X467.6413     Y70.5307      R0.9000    
   X467.8550     Y70.6192      R0.9000    
   X468.0385     Y70.7601      R0.9000    
   X468.1794     Y70.9436      R0.9000    
   X468.2679     Y71.1573      R0.9000    
(Pass: 2)
G1   Z4.300      F100 
G17 G2   X468.2981     Y71.3867      R0.9000     F400 
   X468.2679     Y71.6161      R0.9000    
   X468.1794     Y71.8298      R0.9000    
   X468.0385     Y72.0133      R0.9000    
   X467.8550     Y72.1542      R0.9000    
   X467.6413     Y72.2427      R0.9000    
   X467.4119     Y72.2729      R0.9000    
   X467.1825     Y72.2427      R0.9000    
   X466.9688     Y72.1542      R0.9000    
   X466.7853     Y72.0133      R0.9000    
   X466.6444     Y71.8298      R0.9000    
   X466.5559     Y71.6161      R0.9000    
   X466.5257     Y71.3867      R0.9000    
   X466.5559     Y71.1573      R0.9000    
   X466.6444     Y70.9436      R0.9000    
   X466.7853     Y70.7601      R0.9000    
   X466.9688     Y70.6192      R0.9000    
   X467.1825     Y70.5307      R0.9000    
   X467.4119     Y70.5005      R0.9000    
   X467.6413     Y70.5307      R0.9000    
   X467.8550     Y70.6192      R0.9000    
   X468.0385     Y70.7601      R0.9000    
   X468.1794     Y70.9436      R0.9000    
   X468.2679     Y71.1573      R0.9000    
(Pass: 3)
G1   Z3.300      F100 
G17 G2   X468.2981     Y71.3867      R0.9000     F400 
   X468.2679     Y71.6161      R0.9000    
   X468.1794     Y71.8298      R0.9000    
   X468.0385     Y72.0133      R0.9000    
   X467.8550     Y72.1542      R0.9000    
   X467.6413     Y72.2427      R0.9000    
   X467.4119     Y72.2729      R0.9000    
   X467.1825     Y72.2427      R0.9000    
   X466.9688     Y72.1542      R0.9000    
   X466.7853     Y72.0133      R0.9000    
   X466.6444     Y71.8298      R0.9000    
   X466.5559     Y71.6161      R0.9000    
   X466.5257     Y71.3867      R0.9000    
   X466.5559     Y71.1573      R0.9000    
   X466.6444     Y70.9436      R0.9000    
   X466.7853     Y70.7601      R0.9000    
   X466.9688     Y70.6192      R0.9000    
   X467.1825     Y70.5307      R0.9000    
   X467.4119     Y70.5005      R0.9000    
   X467.6413     Y70.5307      R0.9000    
   X467.8550     Y70.6192      R0.9000    
   X468.0385     Y70.7601      R0.9000    
   X468.1794     Y70.9436      R0.9000    
   X468.2679     Y71.1573      R0.9000    
(Pass: 4)
G1   Z2.300      F100 
G17 G2   X468.2981     Y71.3867      R0.9000     F400 
   X468.2679     Y71.6161      R0.9000    
   X468.1794     Y71.8298      R0.9000    
   X468.0385     Y72.0133      R0.9000    
   X467.8550     Y72.1542      R0.9000    
   X467.6413     Y72.2427      R0.9000    
   X467.4119     Y72.2729      R0.9000    
   X467.1825     Y72.2427      R0.9000    
   X466.9688     Y72.1542      R0.9000    
   X466.7853     Y72.0133      R0.9000    
   X466.6444     Y71.8298      R0.9000    
   X466.5559     Y71.6161      R0.9000    
   X466.5257     Y71.3867      R0.9000    
   X466.5559     Y71.1573      R0.9000    
   X466.6444     Y70.9436      R0.9000    
   X466.7853     Y70.7601      R0.9000    
   X466.9688     Y70.6192      R0.9000    
   X467.1825     Y70.5307      R0.9000    
   X467.4119     Y70.5005      R0.9000    
   X467.6413     Y70.5307      R0.9000    
   X467.8550     Y70.6192      R0.9000    
   X468.0385     Y70.7601      R0.9000    
   X468.1794     Y70.9436      R0.9000    
   X468.2679     Y71.1573      R0.9000    
(Pass: 5)
G1   Z1.300      F100 
G17 G2   X468.2981     Y71.3867      R0.9000     F400 
   X468.2679     Y71.6161      R0.9000    
   X468.1794     Y71.8298      R0.9000    
   X468.0385     Y72.0133      R0.9000    
   X467.8550     Y72.1542      R0.9000    
   X467.6413     Y72.2427      R0.9000    
   X467.4119     Y72.2729      R0.9000    
   X467.1825     Y72.2427      R0.9000    
   X466.9688     Y72.1542      R0.9000    
   X466.7853     Y72.0133      R0.9000    
   X466.6444     Y71.8298      R0.9000    
   X466.5559     Y71.6161      R0.9000    
   X466.5257     Y71.3867      R0.9000    
   X466.5559     Y71.1573      R0.9000    
   X466.6444     Y70.9436      R0.9000    
   X466.7853     Y70.7601      R0.9000    
   X466.9688     Y70.6192      R0.9000    
   X467.1825     Y70.5307      R0.9000    
   X467.4119     Y70.5005      R0.9000    
   X467.6413     Y70.5307      R0.9000    
   X467.8550     Y70.6192      R0.9000    
   X468.0385     Y70.7601      R0.9000    
   X468.1794     Y70.9436      R0.9000    
   X468.2679     Y71.1573      R0.9000    
(Pass: 6)
G1   Z0.300      F100 
G17 G2   X468.2981     Y71.3867      R0.9000     F400 
   X468.2679     Y71.6161      R0.9000    
   X468.1794     Y71.8298      R0.9000    
   X468.0385     Y72.0133      R0.9000    
   X467.8550     Y72.1542      R0.9000    
   X467.6413     Y72.2427      R0.9000    
   X467.4119     Y72.2729      R0.9000    
   X467.1825     Y72.2427      R0.9000    
   X466.9688     Y72.1542      R0.9000    
   X466.7853     Y72.0133      R0.9000    
   X466.6444     Y71.8298      R0.9000    
   X466.5559     Y71.6161      R0.9000    
   X466.5257     Y71.3867      R0.9000    
   X466.5559     Y71.1573      R0.9000    
   X466.6444     Y70.9436      R0.9000    
   X466.7853     Y70.7601      R0.9000    
   X466.9688     Y70.6192      R0.9000    
   X467.1825     Y70.5307      R0.9000    
   X467.4119     Y70.5005      R0.9000    
   X467.6413     Y70.5307      R0.9000    
   X467.8550     Y70.6192      R0.9000    
   X468.0385     Y70.7601      R0.9000    
   X468.1794     Y70.9436      R0.9000    
   X468.2679     Y71.1573      R0.9000    
(Pass: 7)
G1   Z0.000      F100 
G17 G2   X468.2981     Y71.3867      R0.9000     F400 
   X468.2679     Y71.6161      R0.9000    
   X468.1794     Y71.8298      R0.9000    
   X468.0385     Y72.0133      R0.9000    
   X467.8550     Y72.1542      R0.9000    
   X467.6413     Y72.2427      R0.9000    
   X467.4119     Y72.2729      R0.9000    
   X467.1825     Y72.2427      R0.9000    
   X466.9688     Y72.1542      R0.9000    
   X466.7853     Y72.0133      R0.9000    
   X466.6444     Y71.8298      R0.9000    
   X466.5559     Y71.6161      R0.9000    
   X466.5257     Y71.3867      R0.9000    
   X466.5559     Y71.1573      R0.9000    
   X466.6444     Y70.9436      R0.9000    
   X466.7853     Y70.7601      R0.9000    
   X466.9688     Y70.6192      R0.9000    
   X467.1825     Y70.5307      R0.9000    
   X467.4119     Y70.5005      R0.9000    
   X467.6413     Y70.5307      R0.9000    
   X467.8550     Y70.6192      R0.9000    
   X468.0385     Y70.7601      R0.9000    
   X468.1794     Y70.9436      R0.9000    
   X468.2679     Y71.1573      R0.9000    
G0   Z21.300    
(Pass: 1)
   X467.399      Y80.501    
G1   Z5.300      F100 
G17 G2   X467.6282     Y80.5307      R0.9000     F400 
   X467.8420     Y80.6192      R0.9000    
   X468.0255     Y80.7601      R0.9000    
   X468.1663     Y80.9436      R0.9000    
   X468.2549     Y81.1573      R0.9000    
   X468.2851     Y81.3867      R0.9000    
   X468.2549     Y81.6161      R0.9000    
   X468.1663     Y81.8298      R0.9000    
   X468.0255     Y82.0133      R0.9000    
   X467.8420     Y82.1542      R0.9000    
   X467.6282     Y82.2427      R0.9000    
   X467.3989     Y82.2729      R0.9000    
   X467.1695     Y82.2427      R0.9000    
   X466.9558     Y82.1542      R0.9000    
   X466.7722     Y82.0133      R0.9000    
   X466.6314     Y81.8298      R0.9000    
   X466.5429     Y81.6161      R0.9000    
   X466.5127     Y81.3867      R0.9000    
   X466.5429     Y81.1573      R0.9000    
   X466.6314     Y80.9436      R0.9000    
   X466.7722     Y80.7601      R0.9000    
   X466.9558     Y80.6192      R0.9000    
   X467.1695     Y80.5307      R0.9000    
   X467.3989     Y80.5005      R0.9000    
(Pass: 2)
G1   Z4.300      F100 
G17 G2   X467.6282     Y80.5307      R0.9000     F400 
   X467.8420     Y80.6192      R0.9000    
   X468.0255     Y80.7601      R0.9000    
   X468.1663     Y80.9436      R0.9000    
   X468.2549     Y81.1573      R0.9000    
   X468.2851     Y81.3867      R0.9000    
   X468.2549     Y81.6161      R0.9000    
   X468.1663     Y81.8298      R0.9000    
   X468.0255     Y82.0133      R0.9000    
   X467.8420     Y82.1542      R0.9000    
   X467.6282     Y82.2427      R0.9000    
   X467.3989     Y82.2729      R0.9000    
   X467.1695     Y82.2427      R0.9000    
   X466.9558     Y82.1542      R0.9000    
   X466.7722     Y82.0133      R0.9000    
   X466.6314     Y81.8298      R0.9000    
   X466.5429     Y81.6161      R0.9000    
   X466.5127     Y81.3867      R0.9000    
   X466.5429     Y81.1573      R0.9000    
   X466.6314     Y80.9436      R0.9000    
   X466.7722     Y80.7601      R0.9000    
   X466.9558     Y80.6192      R0.9000    
   X467.1695     Y80.5307      R0.9000    
   X467.3989     Y80.5005      R0.9000    
(Pass: 3)
G1   Z3.300      F100 
G17 G2   X467.6282     Y80.5307      R0.9000     F400 
   X467.8420     Y80.6192      R0.9000    
   X468.0255     Y80.7601      R0.9000    
   X468.1663     Y80.9436      R0.9000    
   X468.2549     Y81.1573      R0.9000    
   X468.2851     Y81.3867      R0.9000    
   X468.2549     Y81.6161      R0.9000    
   X468.1663     Y81.8298      R0.9000    
   X468.0255     Y82.0133      R0.9000    
   X467.8420     Y82.1542      R0.9000    
   X467.6282     Y82.2427      R0.9000    
   X467.3989     Y82.2729      R0.9000    
   X467.1695     Y82.2427      R0.9000    
   X466.9558     Y82.1542      R0.9000    
   X466.7722     Y82.0133      R0.9000    
   X466.6314     Y81.8298      R0.9000    
   X466.5429     Y81.6161      R0.9000    
   X466.5127     Y81.3867      R0.9000    
   X466.5429     Y81.1573      R0.9000    
   X466.6314     Y80.9436      R0.9000    
   X466.7722     Y80.7601      R0.9000    
   X466.9558     Y80.6192      R0.9000    
   X467.1695     Y80.5307      R0.9000    
   X467.3989     Y80.5005      R0.9000    
(Pass: 4)
G1   Z2.300      F100 
G17 G2   X467.6282     Y80.5307      R0.9000     F400 
   X467.8420     Y80.6192      R0.9000    
   X468.0255     Y80.7601      R0.9000    
   X468.1663     Y80.9436      R0.9000    
   X468.2549     Y81.1573      R0.9000    
   X468.2851     Y81.3867      R0.9000    
   X468.2549     Y81.6161      R0.9000    
   X468.1663     Y81.8298      R0.9000    
   X468.0255     Y82.0133      R0.9000    
   X467.8420     Y82.1542      R0.9000    
   X467.6282     Y82.2427      R0.9000    
   X467.3989     Y82.2729      R0.9000    
   X467.1695     Y82.2427      R0.9000    
   X466.9558     Y82.1542      R0.9000    
   X466.7722     Y82.0133      R0.9000    
   X466.6314     Y81.8298      R0.9000    
   X466.5429     Y81.6161      R0.9000    
   X466.5127     Y81.3867      R0.9000    
   X466.5429     Y81.1573      R0.9000    
   X466.6314     Y80.9436      R0.9000    
   X466.7722     Y80.7601      R0.9000    
   X466.9558     Y80.6192      R0.9000    
   X467.1695     Y80.5307      R0.9000    
   X467.3989     Y80.5005      R0.9000    
(Pass: 5)
G1   Z1.300      F100 
G17 G2   X467.6282     Y80.5307      R0.9000     F400 
   X467.8420     Y80.6192      R0.9000    
   X468.0255     Y80.7601      R0.9000    
   X468.1663     Y80.9436      R0.9000    
   X468.2549     Y81.1573      R0.9000    
   X468.2851     Y81.3867      R0.9000    
   X468.2549     Y81.6161      R0.9000    
   X468.1663     Y81.8298      R0.9000    
   X468.0255     Y82.0133      R0.9000    
   X467.8420     Y82.1542      R0.9000    
   X467.6282     Y82.2427      R0.9000    
   X467.3989     Y82.2729      R0.9000    
   X467.1695     Y82.2427      R0.9000    
   X466.9558     Y82.1542      R0.9000    
   X466.7722     Y82.0133      R0.9000    
   X466.6314     Y81.8298      R0.9000    
   X466.5429     Y81.6161      R0.9000    
   X466.5127     Y81.3867      R0.9000    
   X466.5429     Y81.1573      R0.9000    
   X466.6314     Y80.9436      R0.9000    
   X466.7722     Y80.7601      R0.9000    
   X466.9558     Y80.6192      R0.9000    
   X467.1695     Y80.5307      R0.9000    
   X467.3989     Y80.5005      R0.9000    
(Pass: 6)
G1   Z0.300      F100 
G17 G2   X467.6282     Y80.5307      R0.9000     F400 
   X467.8420     Y80.6192      R0.9000    
   X468.0255     Y80.7601      R0.9000    
   X468.1663     Y80.9436      R0.9000    
   X468.2549     Y81.1573      R0.9000    
   X468.2851     Y81.3867      R0.9000    
   X468.2549     Y81.6161      R0.9000    
   X468.1663     Y81.8298      R0.9000    
   X468.0255     Y82.0133      R0.9000    
   X467.8420     Y82.1542      R0.9000    
   X467.6282     Y82.2427      R0.9000    
   X467.3989     Y82.2729      R0.9000    
   X467.1695     Y82.2427      R0.9000    
   X466.9558     Y82.1542      R0.9000    
   X466.7722     Y82.0133      R0.9000    
   X466.6314     Y81.8298      R0.9000    
   X466.5429     Y81.6161      R0.9000    
   X466.5127     Y81.3867      R0.9000    
   X466.5429     Y81.1573      R0.9000    
   X466.6314     Y80.9436      R0.9000    
   X466.7722     Y80.7601      R0.9000    
   X466.9558     Y80.6192      R0.9000    
   X467.1695     Y80.5307      R0.9000    
   X467.3989     Y80.5005      R0.9000    
(Pass: 7)
G1   Z0.000      F100 
G17 G2   X467.6282     Y80.5307      R0.9000     F400 
   X467.8420     Y80.6192      R0.9000    
   X468.0255     Y80.7601      R0.9000    
   X468.1663     Y80.9436      R0.9000    
   X468.2549     Y81.1573      R0.9000    
   X468.2851     Y81.3867      R0.9000    
   X468.2549     Y81.6161      R0.9000    
   X468.1663     Y81.8298      R0.9000    
   X468.0255     Y82.0133      R0.9000    
   X467.8420     Y82.1542      R0.9000    
   X467.6282     Y82.2427      R0.9000    
   X467.3989     Y82.2729      R0.9000    
   X467.1695     Y82.2427      R0.9000    
   X466.9558     Y82.1542      R0.9000    
   X466.7722     Y82.0133      R0.9000    
   X466.6314     Y81.8298      R0.9000    
   X466.5429     Y81.6161      R0.9000    
   X466.5127     Y81.3867      R0.9000    
   X466.5429     Y81.1573      R0.9000    
   X466.6314     Y80.9436      R0.9000    
   X466.7722     Y80.7601      R0.9000    
   X466.9558     Y80.6192      R0.9000    
   X467.1695     Y80.5307      R0.9000    
   X467.3989     Y80.5005      R0.9000    
G0   Z21.300    
(Pass: 1)
   X475.372      Y81.387    
G1   Z5.300      F100 
G17 G2   X475.4381     Y80.8808      R1.9685     F400 
   X475.6334     Y80.4094      R1.9685    
   X475.9441     Y80.0045      R1.9685    
   X476.3489     Y79.6939      R1.9685    
   X476.8203     Y79.4986      R1.9685    
   X477.3262     Y79.4320      R1.9685    
   X477.8321     Y79.4986      R1.9685    
   X478.3036     Y79.6939      R1.9685    
   X478.7084     Y80.0045      R1.9685    
   X479.0190     Y80.4094      R1.9685    
   X479.2143     Y80.8808      R1.9685    
   X479.2809     Y81.3867      R1.9685    
   X479.2143     Y81.8926      R1.9685    
   X479.0190     Y82.3641      R1.9685    
   X478.7084     Y82.7689      R1.9685    
   X478.3036     Y83.0795      R1.9685    
   X477.8321     Y83.2748      R1.9685    
   X477.3262     Y83.3414      R1.9685    
   X476.8203     Y83.2748      R1.9685    
   X476.3489     Y83.0795      R1.9685    
   X475.9441     Y82.7689      R1.9685    
   X475.6334     Y82.3641      R1.9685    
   X475.4381     Y81.8926      R1.9685    
   X475.3715     Y81.3867      R1.9685    
(Pass: 2)
G1   Z4.300      F100 
G17 G2   X475.4381     Y80.8808      R1.9685     F400 
   X475.6334     Y80.4094      R1.9685    
   X475.9441     Y80.0045      R1.9685    
   X476.3489     Y79.6939      R1.9685    
   X476.8203     Y79.4986      R1.9685    
   X477.3262     Y79.4320      R1.9685    
   X477.8321     Y79.4986      R1.9685    
   X478.3036     Y79.6939      R1.9685    
   X478.7084     Y80.0045      R1.9685    
   X479.0190     Y80.4094      R1.9685    
   X479.2143     Y80.8808      R1.9685    
   X479.2809     Y81.3867      R1.9685    
   X479.2143     Y81.8926      R1.9685    
   X479.0190     Y82.3641      R1.9685    
   X478.7084     Y82.7689      R1.9685    
   X478.3036     Y83.0795      R1.9685    
   X477.8321     Y83.2748      R1.9685    
   X477.3262     Y83.3414      R1.9685    
   X476.8203     Y83.2748      R1.9685    
   X476.3489     Y83.0795      R1.9685    
   X475.9441     Y82.7689      R1.9685    
   X475.6334     Y82.3641      R1.9685    
   X475.4381     Y81.8926      R1.9685    
   X475.3715     Y81.3867      R1.9685    
(Pass: 3)
G1   Z3.300      F100 
G17 G2   X475.4381     Y80.8808      R1.9685     F400 
   X475.6334     Y80.4094      R1.9685    
   X475.9441     Y80.0045      R1.9685    
   X476.3489     Y79.6939      R1.9685    
   X476.8203     Y79.4986      R1.9685    
   X477.3262     Y79.4320      R1.9685    
   X477.8321     Y79.4986      R1.9685    
   X478.3036     Y79.6939      R1.9685    
   X478.7084     Y80.0045      R1.9685    
   X479.0190     Y80.4094      R1.9685    
   X479.2143     Y80.8808      R1.9685    
   X479.2809     Y81.3867      R1.9685    
   X479.2143     Y81.8926      R1.9685    
   X479.0190     Y82.3641      R1.9685    
   X478.7084     Y82.7689      R1.9685    
   X478.3036     Y83.0795      R1.9685    
   X477.8321     Y83.2748      R1.9685    
   X477.3262     Y83.3414      R1.9685    
   X476.8203     Y83.2748      R1.9685    
   X476.3489     Y83.0795      R1.9685    
   X475.9441     Y82.7689      R1.9685    
   X475.6334     Y82.3641      R1.9685    
   X475.4381     Y81.8926      R1.9685    
   X475.3715     Y81.3867      R1.9685    
(Pass: 4)
G1   Z2.300      F100 
G17 G2   X475.4381     Y80.8808      R1.9685     F400 
   X475.6334     Y80.4094      R1.9685    
   X475.9441     Y80.0045      R1.9685    
   X476.3489     Y79.6939      R1.9685    
   X476.8203     Y79.4986      R1.9685    
   X477.3262     Y79.4320      R1.9685    
   X477.8321     Y79.4986      R1.9685    
   X478.3036     Y79.6939      R1.9685    
   X478.7084     Y80.0045      R1.9685    
   X479.0190     Y80.4094      R1.9685    
   X479.2143     Y80.8808      R1.9685    
   X479.2809     Y81.3867      R1.9685    
   X479.2143     Y81.8926      R1.9685    
   X479.0190     Y82.3641      R1.9685    
   X478.7084     Y82.7689      R1.9685    
   X478.3036     Y83.0795      R1.9685    
   X477.8321     Y83.2748      R1.9685    
   X477.3262     Y83.3414      R1.9685    
   X476.8203     Y83.2748      R1.9685    
   X476.3489     Y83.0795      R1.9685    
   X475.9441     Y82.7689      R1.9685    
   X475.6334     Y82.3641      R1.9685    
   X475.4381     Y81.8926      R1.9685    
   X475.3715     Y81.3867      R1.9685    
(Pass: 5)
G1   Z1.300      F100 
G17 G2   X475.4381     Y80.8808      R1.9685     F400 
   X475.6334     Y80.4094      R1.9685    
   X475.9441     Y80.0045      R1.9685    
   X476.3489     Y79.6939      R1.9685    
   X476.8203     Y79.4986      R1.9685    
   X477.3262     Y79.4320      R1.9685    
   X477.8321     Y79.4986      R1.9685    
   X478.3036     Y79.6939      R1.9685    
   X478.7084     Y80.0045      R1.9685    
   X479.0190     Y80.4094      R1.9685    
   X479.2143     Y80.8808      R1.9685    
   X479.2809     Y81.3867      R1.9685    
   X479.2143     Y81.8926      R1.9685    
   X479.0190     Y82.3641      R1.9685    
   X478.7084     Y82.7689      R1.9685    
   X478.3036     Y83.0795      R1.9685    
   X477.8321     Y83.2748      R1.9685    
   X477.3262     Y83.3414      R1.9685    
   X476.8203     Y83.2748      R1.9685    
   X476.3489     Y83.0795      R1.9685    
   X475.9441     Y82.7689      R1.9685    
   X475.6334     Y82.3641      R1.9685    
   X475.4381     Y81.8926      R1.9685    
   X475.3715     Y81.3867      R1.9685    
(Pass: 6)
G1   Z0.300      F100 
G17 G2   X475.4381     Y80.8808      R1.9685     F400 
   X475.6334     Y80.4094      R1.9685    
   X475.9441     Y80.0045      R1.9685    
   X476.3489     Y79.6939      R1.9685    
   X476.8203     Y79.4986      R1.9685    
   X477.3262     Y79.4320      R1.9685    
   X477.8321     Y79.4986      R1.9685    
   X478.3036     Y79.6939      R1.9685    
   X478.7084     Y80.0045      R1.9685    
   X479.0190     Y80.4094      R1.9685    
   X479.2143     Y80.8808      R1.9685    
   X479.2809     Y81.3867      R1.9685    
   X479.2143     Y81.8926      R1.9685    
   X479.0190     Y82.3641      R1.9685    
   X478.7084     Y82.7689      R1.9685    
   X478.3036     Y83.0795      R1.9685    
   X477.8321     Y83.2748      R1.9685    
   X477.3262     Y83.3414      R1.9685    
   X476.8203     Y83.2748      R1.9685    
   X476.3489     Y83.0795      R1.9685    
   X475.9441     Y82.7689      R1.9685    
   X475.6334     Y82.3641      R1.9685    
   X475.4381     Y81.8926      R1.9685    
   X475.3715     Y81.3867      R1.9685    
(Pass: 7)
G1   Z0.000      F100 
G17 G2   X475.4381     Y80.8808      R1.9685     F400 
   X475.6334     Y80.4094      R1.9685    
   X475.9441     Y80.0045      R1.9685    
   X476.3489     Y79.6939      R1.9685    
   X476.8203     Y79.4986      R1.9685    
   X477.3262     Y79.4320      R1.9685    
   X477.8321     Y79.4986      R1.9685    
   X478.3036     Y79.6939      R1.9685    
   X478.7084     Y80.0045      R1.9685    
   X479.0190     Y80.4094      R1.9685    
   X479.2143     Y80.8808      R1.9685    
   X479.2809     Y81.3867      R1.9685    
   X479.2143     Y81.8926      R1.9685    
   X479.0190     Y82.3641      R1.9685    
   X478.7084     Y82.7689      R1.9685    
   X478.3036     Y83.0795      R1.9685    
   X477.8321     Y83.2748      R1.9685    
   X477.3262     Y83.3414      R1.9685    
   X476.8203     Y83.2748      R1.9685    
   X476.3489     Y83.0795      R1.9685    
   X475.9441     Y82.7689      R1.9685    
   X475.6334     Y82.3641      R1.9685    
   X475.4381     Y81.8926      R1.9685    
   X475.3715     Y81.3867      R1.9685    
G0   Z21.300    
(Pass: 1)
   X475.399      Y101.511   
G1   Z5.300      F100 
G17 G2   X475.6280     Y101.5410     R0.9000     F400 
   X475.8417     Y101.6295     R0.9000    
   X476.0253     Y101.7704     R0.9000    
   X476.1661     Y101.9539     R0.9000    
   X476.2546     Y102.1677     R0.9000    
   X476.2848     Y102.3970     R0.9000    
   X476.2546     Y102.6264     R0.9000    
   X476.1661     Y102.8401     R0.9000    
   X476.0253     Y103.0236     R0.9000    
   X475.8417     Y103.1645     R0.9000    
   X475.6280     Y103.2530     R0.9000    
   X475.3986     Y103.2832     R0.9000    
   X475.1693     Y103.2530     R0.9000    
   X474.9555     Y103.1645     R0.9000    
   X474.7720     Y103.0236     R0.9000    
   X474.6312     Y102.8401     R0.9000    
   X474.5426     Y102.6264     R0.9000    
   X474.5124     Y102.3970     R0.9000    
   X474.5426     Y102.1677     R0.9000    
   X474.6312     Y101.9539     R0.9000    
   X474.7720     Y101.7704     R0.9000    
   X474.9555     Y101.6295     R0.9000    
   X475.1693     Y101.5410     R0.9000    
   X475.3986     Y101.5108     R0.9000    
(Pass: 2)
G1   Z4.300      F100 
G17 G2   X475.6280     Y101.5410     R0.9000     F400 
   X475.8417     Y101.6295     R0.9000    
   X476.0253     Y101.7704     R0.9000    
   X476.1661     Y101.9539     R0.9000    
   X476.2546     Y102.1677     R0.9000    
   X476.2848     Y102.3970     R0.9000    
   X476.2546     Y102.6264     R0.9000    
   X476.1661     Y102.8401     R0.9000    
   X476.0253     Y103.0236     R0.9000    
   X475.8417     Y103.1645     R0.9000    
   X475.6280     Y103.2530     R0.9000    
   X475.3986     Y103.2832     R0.9000    
   X475.1693     Y103.2530     R0.9000    
   X474.9555     Y103.1645     R0.9000    
   X474.7720     Y103.0236     R0.9000    
   X474.6312     Y102.8401     R0.9000    
   X474.5426     Y102.6264     R0.9000    
   X474.5124     Y102.3970     R0.9000    
   X474.5426     Y102.1677     R0.9000    
   X474.6312     Y101.9539     R0.9000    
   X474.7720     Y101.7704     R0.9000    
   X474.9555     Y101.6295     R0.9000    
   X475.1693     Y101.5410     R0.9000    
   X475.3986     Y101.5108     R0.9000    
(Pass: 3)
G1   Z3.300      F100 
G17 G2   X475.6280     Y101.5410     R0.9000     F400 
   X475.8417     Y101.6295     R0.9000    
   X476.0253     Y101.7704     R0.9000    
   X476.1661     Y101.9539     R0.9000    
   X476.2546     Y102.1677     R0.9000    
   X476.2848     Y102.3970     R0.9000    
   X476.2546     Y102.6264     R0.9000    
   X476.1661     Y102.8401     R0.9000    
   X476.0253     Y103.0236     R0.9000    
   X475.8417     Y103.1645     R0.9000    
   X475.6280     Y103.2530     R0.9000    
   X475.3986     Y103.2832     R0.9000    
   X475.1693     Y103.2530     R0.9000    
   X474.9555     Y103.1645     R0.9000    
   X474.7720     Y103.0236     R0.9000    
   X474.6312     Y102.8401     R0.9000    
   X474.5426     Y102.6264     R0.9000    
   X474.5124     Y102.3970     R0.9000    
   X474.5426     Y102.1677     R0.9000    
   X474.6312     Y101.9539     R0.9000    
   X474.7720     Y101.7704     R0.9000    
   X474.9555     Y101.6295     R0.9000    
   X475.1693     Y101.5410     R0.9000    
   X475.3986     Y101.5108     R0.9000    
(Pass: 4)
G1   Z2.300      F100 
G17 G2   X475.6280     Y101.5410     R0.9000     F400 
   X475.8417     Y101.6295     R0.9000    
   X476.0253     Y101.7704     R0.9000    
   X476.1661     Y101.9539     R0.9000    
   X476.2546     Y102.1677     R0.9000    
   X476.2848     Y102.3970     R0.9000    
   X476.2546     Y102.6264     R0.9000    
   X476.1661     Y102.8401     R0.9000    
   X476.0253     Y103.0236     R0.9000    
   X475.8417     Y103.1645     R0.9000    
   X475.6280     Y103.2530     R0.9000    
   X475.3986     Y103.2832     R0.9000    
   X475.1693     Y103.2530     R0.9000    
   X474.9555     Y103.1645     R0.9000    
   X474.7720     Y103.0236     R0.9000    
   X474.6312     Y102.8401     R0.9000    
   X474.5426     Y102.6264     R0.9000    
   X474.5124     Y102.3970     R0.9000    
   X474.5426     Y102.1677     R0.9000    
   X474.6312     Y101.9539     R0.9000    
   X474.7720     Y101.7704     R0.9000    
   X474.9555     Y101.6295     R0.9000    
   X475.1693     Y101.5410     R0.9000    
   X475.3986     Y101.5108     R0.9000    
(Pass: 5)
G1   Z1.300      F100 
G17 G2   X475.6280     Y101.5410     R0.9000     F400 
   X475.8417     Y101.6295     R0.9000    
   X476.0253     Y101.7704     R0.9000    
   X476.1661     Y101.9539     R0.9000    
   X476.2546     Y102.1677     R0.9000    
   X476.2848     Y102.3970     R0.9000    
   X476.2546     Y102.6264     R0.9000    
   X476.1661     Y102.8401     R0.9000    
   X476.0253     Y103.0236     R0.9000    
   X475.8417     Y103.1645     R0.9000    
   X475.6280     Y103.2530     R0.9000    
   X475.3986     Y103.2832     R0.9000    
   X475.1693     Y103.2530     R0.9000    
   X474.9555     Y103.1645     R0.9000    
   X474.7720     Y103.0236     R0.9000    
   X474.6312     Y102.8401     R0.9000    
   X474.5426     Y102.6264     R0.9000    
   X474.5124     Y102.3970     R0.9000    
   X474.5426     Y102.1677     R0.9000    
   X474.6312     Y101.9539     R0.9000    
   X474.7720     Y101.7704     R0.9000    
   X474.9555     Y101.6295     R0.9000    
   X475.1693     Y101.5410     R0.9000    
   X475.3986     Y101.5108     R0.9000    
(Pass: 6)
G1   Z0.300      F100 
G17 G2   X475.6280     Y101.5410     R0.9000     F400 
   X475.8417     Y101.6295     R0.9000    
   X476.0253     Y101.7704     R0.9000    
   X476.1661     Y101.9539     R0.9000    
   X476.2546     Y102.1677     R0.9000    
   X476.2848     Y102.3970     R0.9000    
   X476.2546     Y102.6264     R0.9000    
   X476.1661     Y102.8401     R0.9000    
   X476.0253     Y103.0236     R0.9000    
   X475.8417     Y103.1645     R0.9000    
   X475.6280     Y103.2530     R0.9000    
   X475.3986     Y103.2832     R0.9000    
   X475.1693     Y103.2530     R0.9000    
   X474.9555     Y103.1645     R0.9000    
   X474.7720     Y103.0236     R0.9000    
   X474.6312     Y102.8401     R0.9000    
   X474.5426     Y102.6264     R0.9000    
   X474.5124     Y102.3970     R0.9000    
   X474.5426     Y102.1677     R0.9000    
   X474.6312     Y101.9539     R0.9000    
   X474.7720     Y101.7704     R0.9000    
   X474.9555     Y101.6295     R0.9000    
   X475.1693     Y101.5410     R0.9000    
   X475.3986     Y101.5108     R0.9000    
(Pass: 7)
G1   Z0.000      F100 
G17 G2   X475.6280     Y101.5410     R0.9000     F400 
   X475.8417     Y101.6295     R0.9000    
   X476.0253     Y101.7704     R0.9000    
   X476.1661     Y101.9539     R0.9000    
   X476.2546     Y102.1677     R0.9000    
   X476.2848     Y102.3970     R0.9000    
   X476.2546     Y102.6264     R0.9000    
   X476.1661     Y102.8401     R0.9000    
   X476.0253     Y103.0236     R0.9000    
   X475.8417     Y103.1645     R0.9000    
   X475.6280     Y103.2530     R0.9000    
   X475.3986     Y103.2832     R0.9000    
   X475.1693     Y103.2530     R0.9000    
   X474.9555     Y103.1645     R0.9000    
   X474.7720     Y103.0236     R0.9000    
   X474.6312     Y102.8401     R0.9000    
   X474.5426     Y102.6264     R0.9000    
   X474.5124     Y102.3970     R0.9000    
   X474.5426     Y102.1677     R0.9000    
   X474.6312     Y101.9539     R0.9000    
   X474.7720     Y101.7704     R0.9000    
   X474.9555     Y101.6295     R0.9000    
   X475.1693     Y101.5410     R0.9000    
   X475.3986     Y101.5108     R0.9000    
G0   Z21.300    
(Pass: 1)
   X451.255      Y102.168   
G1   Z5.300      F100 
G17 G2   X451.2848     Y102.3970     R0.9000     F400 
   X451.2546     Y102.6264     R0.9000    
   X451.1661     Y102.8401     R0.9000    
   X451.0253     Y103.0236     R0.9000    
   X450.8417     Y103.1645     R0.9000    
   X450.6280     Y103.2530     R0.9000    
   X450.3986     Y103.2832     R0.9000    
   X450.1693     Y103.2530     R0.9000    
   X449.9555     Y103.1645     R0.9000    
   X449.7720     Y103.0236     R0.9000    
   X449.6312     Y102.8401     R0.9000    
   X449.5426     Y102.6264     R0.9000    
   X449.5124     Y102.3970     R0.9000    
   X449.5426     Y102.1677     R0.9000    
   X449.6312     Y101.9539     R0.9000    
   X449.7720     Y101.7704     R0.9000    
   X449.9555     Y101.6295     R0.9000    
   X450.1693     Y101.5410     R0.9000    
   X450.3986     Y101.5108     R0.9000    
   X450.6280     Y101.5410     R0.9000    
   X450.8417     Y101.6295     R0.9000    
   X451.0253     Y101.7704     R0.9000    
   X451.1661     Y101.9539     R0.9000    
   X451.2546     Y102.1677     R0.9000    
(Pass: 2)
G1   Z4.300      F100 
G17 G2   X451.2848     Y102.3970     R0.9000     F400 
   X451.2546     Y102.6264     R0.9000    
   X451.1661     Y102.8401     R0.9000    
   X451.0253     Y103.0236     R0.9000    
   X450.8417     Y103.1645     R0.9000    
   X450.6280     Y103.2530     R0.9000    
   X450.3986     Y103.2832     R0.9000    
   X450.1693     Y103.2530     R0.9000    
   X449.9555     Y103.1645     R0.9000    
   X449.7720     Y103.0236     R0.9000    
   X449.6312     Y102.8401     R0.9000    
   X449.5426     Y102.6264     R0.9000    
   X449.5124     Y102.3970     R0.9000    
   X449.5426     Y102.1677     R0.9000    
   X449.6312     Y101.9539     R0.9000    
   X449.7720     Y101.7704     R0.9000    
   X449.9555     Y101.6295     R0.9000    
   X450.1693     Y101.5410     R0.9000    
   X450.3986     Y101.5108     R0.9000    
   X450.6280     Y101.5410     R0.9000    
   X450.8417     Y101.6295     R0.9000    
   X451.0253     Y101.7704     R0.9000    
   X451.1661     Y101.9539     R0.9000    
   X451.2546     Y102.1677     R0.9000    
(Pass: 3)
G1   Z3.300      F100 
G17 G2   X451.2848     Y102.3970     R0.9000     F400 
   X451.2546     Y102.6264     R0.9000    
   X451.1661     Y102.8401     R0.9000    
   X451.0253     Y103.0236     R0.9000    
   X450.8417     Y103.1645     R0.9000    
   X450.6280     Y103.2530     R0.9000    
   X450.3986     Y103.2832     R0.9000    
   X450.1693     Y103.2530     R0.9000    
   X449.9555     Y103.1645     R0.9000    
   X449.7720     Y103.0236     R0.9000    
   X449.6312     Y102.8401     R0.9000    
   X449.5426     Y102.6264     R0.9000    
   X449.5124     Y102.3970     R0.9000    
   X449.5426     Y102.1677     R0.9000    
   X449.6312     Y101.9539     R0.9000    
   X449.7720     Y101.7704     R0.9000    
   X449.9555     Y101.6295     R0.9000    
   X450.1693     Y101.5410     R0.9000    
   X450.3986     Y101.5108     R0.9000    
   X450.6280     Y101.5410     R0.9000    
   X450.8417     Y101.6295     R0.9000    
   X451.0253     Y101.7704     R0.9000    
   X451.1661     Y101.9539     R0.9000    
   X451.2546     Y102.1677     R0.9000    
(Pass: 4)
G1   Z2.300      F100 
G17 G2   X451.2848     Y102.3970     R0.9000     F400 
   X451.2546     Y102.6264     R0.9000    
   X451.1661     Y102.8401     R0.9000    
   X451.0253     Y103.0236     R0.9000    
   X450.8417     Y103.1645     R0.9000    
   X450.6280     Y103.2530     R0.9000    
   X450.3986     Y103.2832     R0.9000    
   X450.1693     Y103.2530     R0.9000    
   X449.9555     Y103.1645     R0.9000    
   X449.7720     Y103.0236     R0.9000    
   X449.6312     Y102.8401     R0.9000    
   X449.5426     Y102.6264     R0.9000    
   X449.5124     Y102.3970     R0.9000    
   X449.5426     Y102.1677     R0.9000    
   X449.6312     Y101.9539     R0.9000    
   X449.7720     Y101.7704     R0.9000    
   X449.9555     Y101.6295     R0.9000    
   X450.1693     Y101.5410     R0.9000    
   X450.3986     Y101.5108     R0.9000    
   X450.6280     Y101.5410     R0.9000    
   X450.8417     Y101.6295     R0.9000    
   X451.0253     Y101.7704     R0.9000    
   X451.1661     Y101.9539     R0.9000    
   X451.2546     Y102.1677     R0.9000    
(Pass: 5)
G1   Z1.300      F100 
G17 G2   X451.2848     Y102.3970     R0.9000     F400 
   X451.2546     Y102.6264     R0.9000    
   X451.1661     Y102.8401     R0.9000    
   X451.0253     Y103.0236     R0.9000    
   X450.8417     Y103.1645     R0.9000    
   X450.6280     Y103.2530     R0.9000    
   X450.3986     Y103.2832     R0.9000    
   X450.1693     Y103.2530     R0.9000    
   X449.9555     Y103.1645     R0.9000    
   X449.7720     Y103.0236     R0.9000    
   X449.6312     Y102.8401     R0.9000    
   X449.5426     Y102.6264     R0.9000    
   X449.5124     Y102.3970     R0.9000    
   X449.5426     Y102.1677     R0.9000    
   X449.6312     Y101.9539     R0.9000    
   X449.7720     Y101.7704     R0.9000    
   X449.9555     Y101.6295     R0.9000    
   X450.1693     Y101.5410     R0.9000    
   X450.3986     Y101.5108     R0.9000    
   X450.6280     Y101.5410     R0.9000    
   X450.8417     Y101.6295     R0.9000    
   X451.0253     Y101.7704     R0.9000    
   X451.1661     Y101.9539     R0.9000    
   X451.2546     Y102.1677     R0.9000    
(Pass: 6)
G1   Z0.300      F100 
G17 G2   X451.2848     Y102.3970     R0.9000     F400 
   X451.2546     Y102.6264     R0.9000    
   X451.1661     Y102.8401     R0.9000    
   X451.0253     Y103.0236     R0.9000    
   X450.8417     Y103.1645     R0.9000    
   X450.6280     Y103.2530     R0.9000    
   X450.3986     Y103.2832     R0.9000    
   X450.1693     Y103.2530     R0.9000    
   X449.9555     Y103.1645     R0.9000    
   X449.7720     Y103.0236     R0.9000    
   X449.6312     Y102.8401     R0.9000    
   X449.5426     Y102.6264     R0.9000    
   X449.5124     Y102.3970     R0.9000    
   X449.5426     Y102.1677     R0.9000    
   X449.6312     Y101.9539     R0.9000    
   X449.7720     Y101.7704     R0.9000    
   X449.9555     Y101.6295     R0.9000    
   X450.1693     Y101.5410     R0.9000    
   X450.3986     Y101.5108     R0.9000    
   X450.6280     Y101.5410     R0.9000    
   X450.8417     Y101.6295     R0.9000    
   X451.0253     Y101.7704     R0.9000    
   X451.1661     Y101.9539     R0.9000    
   X451.2546     Y102.1677     R0.9000    
(Pass: 7)
G1   Z0.000      F100 
G17 G2   X451.2848     Y102.3970     R0.9000     F400 
   X451.2546     Y102.6264     R0.9000    
   X451.1661     Y102.8401     R0.9000    
   X451.0253     Y103.0236     R0.9000    
   X450.8417     Y103.1645     R0.9000    
   X450.6280     Y103.2530     R0.9000    
   X450.3986     Y103.2832     R0.9000    
   X450.1693     Y103.2530     R0.9000    
   X449.9555     Y103.1645     R0.9000    
   X449.7720     Y103.0236     R0.9000    
   X449.6312     Y102.8401     R0.9000    
   X449.5426     Y102.6264     R0.9000    
   X449.5124     Y102.3970     R0.9000    
   X449.5426     Y102.1677     R0.9000    
   X449.6312     Y101.9539     R0.9000    
   X449.7720     Y101.7704     R0.9000    
   X449.9555     Y101.6295     R0.9000    
   X450.1693     Y101.5410     R0.9000    
   X450.3986     Y101.5108     R0.9000    
   X450.6280     Y101.5410     R0.9000    
   X450.8417     Y101.6295     R0.9000    
   X451.0253     Y101.7704     R0.9000    
   X451.1661     Y101.9539     R0.9000    
   X451.2546     Y102.1677     R0.9000    
G0   Z21.300    
(Pass: 1)
   X497.121      Y62.013    
G1   Z5.300      F100 
G17 G2   X496.9803     Y61.8298      R0.9000     F400 
   X496.8918     Y61.6161      R0.9000    
   X496.8616     Y61.3867      R0.9000    
   X496.8918     Y61.1573      R0.9000    
   X496.9803     Y60.9436      R0.9000    
   X497.1212     Y60.7601      R0.9000    
   X497.3047     Y60.6192      R0.9000    
   X497.5184     Y60.5307      R0.9000    
   X497.7478     Y60.5005      R0.9000    
   X497.9771     Y60.5307      R0.9000    
   X498.1909     Y60.6192      R0.9000    
   X498.3744     Y60.7601      R0.9000    
   X498.5153     Y60.9436      R0.9000    
   X498.6038     Y61.1573      R0.9000    
   X498.6340     Y61.3867      R0.9000    
   X498.6038     Y61.6161      R0.9000    
   X498.5153     Y61.8298      R0.9000    
   X498.3744     Y62.0133      R0.9000    
   X498.1909     Y62.1542      R0.9000    
   X497.9771     Y62.2427      R0.9000    
   X497.7478     Y62.2729      R0.9000    
