%
(Generated by SketchUcam {1.2})
(File: Router Plates.skp)
(Bit diameter: 3.2mm)
(Feed rate: 400.0mm/min)
(Plunge Feed rate: 100.0mm/min)
(Material Thickness: 6.3mm)
(Material length: 304.0mm X width: 608.0mm)
(Overhead Gantry: true)
(Retract feed rate NOT limited to plunge feed rate)
(Multipass enabled, Depth = 1.0mm)
(Optimization is ON)
(Z ZERO IS TABLETOP)
(www.PhlatBoyz.com)
G90 G21 G49 
M3 S15000
G0   Z21.300    
(Pass: 1)
   X22.528       Y22.474    
G1   Z5.300      F100 
G17 G3   X22.2172      Y22.8791      R1.9685     F400 
G1   X22.933       Y22.164    
G17 G3   X22.5279      Y22.4742      R1.9685    
G1   X23.404       Y21.968    
G17 G3   X22.9327      Y22.1636      R1.9685    
G1   X23.910       Y21.902    
G17 G3   X23.4041      Y21.9683      R1.9685    
G1   X24.416    
G17 G3   X23.9100      Y21.9017      R1.9685    
G1   X24.887       Y22.164    
G17 G3   X24.4159      Y21.9683      R1.9685    
G1   X25.292       Y22.474    
G17 G3   X24.8874      Y22.1636      R1.9685    
G1   X25.603       Y22.879    
G17 G3   X25.2922      Y22.4742      R1.9685    
G1   X25.798       Y23.350    
G17 G3   X25.6028      Y22.8791      R1.9685    
G1   X25.865       Y23.856    
G17 G3   X25.7981      Y23.3505      R1.9685    
G1   Y24.362    
G17 G3   X25.8647      Y23.8564      R1.9685    
G1   X25.603       Y24.834    
G17 G3   X25.7981      Y24.3623      R1.9685    
G1   X25.292       Y25.239    
G17 G3   X25.6028      Y24.8338      R1.9685    
G1   X24.887       Y25.549    
G17 G3   X25.2922      Y25.2386      R1.9685    
G1   X24.416       Y25.744    
G17 G3   X24.8874      Y25.5492      R1.9685    
G1   X23.910       Y25.811    
G17 G3   X24.4159      Y25.7445      R1.9685    
G1   X23.404    
G17 G3   X23.9100      Y25.8111      R1.9685    
G1   X22.933       Y25.549    
G17 G3   X23.4041      Y25.7445      R1.9685    
G1   X22.528       Y25.239    
G17 G3   X22.9327      Y25.5492      R1.9685    
G1   X22.217       Y24.834    
G17 G3   X22.5279      Y25.2386      R1.9685    
G1   X22.022       Y24.362    
G17 G3   X22.2172      Y24.8338      R1.9685    
G1   X21.955       Y23.856    
G17 G3   X22.0219      Y24.3623      R1.9685    
G1   Y23.350    
G17 G3   X21.9553      Y23.8564      R1.9685    
G1   X22.217       Y22.879    
G17 G3   X22.0219      Y23.3505      R1.9685    
(Pass: 2)
G1   X22.528       Y22.474    
   Z4.300      F100 
G17 G3   X22.2172      Y22.8791      R1.9685     F400 
G1   X22.933       Y22.164    
G17 G3   X22.5279      Y22.4742      R1.9685    
G1   X23.404       Y21.968    
G17 G3   X22.9327      Y22.1636      R1.9685    
G1   X23.910       Y21.902    
G17 G3   X23.4041      Y21.9683      R1.9685    
G1   X24.416    
G17 G3   X23.9100      Y21.9017      R1.9685    
G1   X24.887       Y22.164    
G17 G3   X24.4159      Y21.9683      R1.9685    
G1   X25.292       Y22.474    
G17 G3   X24.8874      Y22.1636      R1.9685    
G1   X25.603       Y22.879    
G17 G3   X25.2922      Y22.4742      R1.9685    
G1   X25.798       Y23.350    
G17 G3   X25.6028      Y22.8791      R1.9685    
G1   X25.865       Y23.856    
G17 G3   X25.7981      Y23.3505      R1.9685    
G1   Y24.362    
G17 G3   X25.8647      Y23.8564      R1.9685    
G1   X25.603       Y24.834    
G17 G3   X25.7981      Y24.3623      R1.9685    
G1   X25.292       Y25.239    
G17 G3   X25.6028      Y24.8338      R1.9685    
G1   X24.887       Y25.549    
G17 G3   X25.2922      Y25.2386      R1.9685    
G1   X24.416       Y25.744    
G17 G3   X24.8874      Y25.5492      R1.9685    
G1   X23.910       Y25.811    
G17 G3   X24.4159      Y25.7445      R1.9685    
G1   X23.404    
G17 G3   X23.9100      Y25.8111      R1.9685    
G1   X22.933       Y25.549    
G17 G3   X23.4041      Y25.7445      R1.9685    
G1   X22.528       Y25.239    
G17 G3   X22.9327      Y25.5492      R1.9685    
G1   X22.217       Y24.834    
G17 G3   X22.5279      Y25.2386      R1.9685    
G1   X22.022       Y24.362    
G17 G3   X22.2172      Y24.8338      R1.9685    
G1   X21.955       Y23.856    
G17 G3   X22.0219      Y24.3623      R1.9685    
G1   Y23.350    
G17 G3   X21.9553      Y23.8564      R1.9685    
G1   X22.217       Y22.879    
G17 G3   X22.0219      Y23.3505      R1.9685    
(Pass: 3)
G1   X22.528       Y22.474    
   Z3.300      F100 
G17 G3   X22.2172      Y22.8791      R1.9685     F400 
G1   X22.933       Y22.164    
G17 G3   X22.5279      Y22.4742      R1.9685    
G1   X23.404       Y21.968    
G17 G3   X22.9327      Y22.1636      R1.9685    
G1   X23.910       Y21.902    
G17 G3   X23.4041      Y21.9683      R1.9685    
G1   X24.416    
G17 G3   X23.9100      Y21.9017      R1.9685    
G1   X24.887       Y22.164    
G17 G3   X24.4159      Y21.9683      R1.9685    
G1   X25.292       Y22.474    
G17 G3   X24.8874      Y22.1636      R1.9685    
G1   X25.603       Y22.879    
G17 G3   X25.2922      Y22.4742      R1.9685    
G1   X25.798       Y23.350    
G17 G3   X25.6028      Y22.8791      R1.9685    
G1   X25.865       Y23.856    
G17 G3   X25.7981      Y23.3505      R1.9685    
G1   Y24.362    
G17 G3   X25.8647      Y23.8564      R1.9685    
G1   X25.603       Y24.834    
G17 G3   X25.7981      Y24.3623      R1.9685    
G1   X25.292       Y25.239    
G17 G3   X25.6028      Y24.8338      R1.9685    
G1   X24.887       Y25.549    
G17 G3   X25.2922      Y25.2386      R1.9685    
G1   X24.416       Y25.744    
G17 G3   X24.8874      Y25.5492      R1.9685    
G1   X23.910       Y25.811    
G17 G3   X24.4159      Y25.7445      R1.9685    
G1   X23.404    
G17 G3   X23.9100      Y25.8111      R1.9685    
G1   X22.933       Y25.549    
G17 G3   X23.4041      Y25.7445      R1.9685    
G1   X22.528       Y25.239    
G17 G3   X22.9327      Y25.5492      R1.9685    
G1   X22.217       Y24.834    
G17 G3   X22.5279      Y25.2386      R1.9685    
G1   X22.022       Y24.362    
G17 G3   X22.2172      Y24.8338      R1.9685    
G1   X21.955       Y23.856    
G17 G3   X22.0219      Y24.3623      R1.9685    
G1   Y23.350    
G17 G3   X21.9553      Y23.8564      R1.9685    
G1   X22.217       Y22.879    
G17 G3   X22.0219      Y23.3505      R1.9685    
(Pass: 4)
G1   X22.528       Y22.474    
   Z2.300      F100 
G17 G3   X22.2172      Y22.8791      R1.9685     F400 
G1   X22.933       Y22.164    
G17 G3   X22.5279      Y22.4742      R1.9685    
G1   X23.404       Y21.968    
G17 G3   X22.9327      Y22.1636      R1.9685    
G1   X23.910       Y21.902    
G17 G3   X23.4041      Y21.9683      R1.9685    
G1   X24.416    
G17 G3   X23.9100      Y21.9017      R1.9685    
G1   X24.887       Y22.164    
G17 G3   X24.4159      Y21.9683      R1.9685    
G1   X25.292       Y22.474    
G17 G3   X24.8874      Y22.1636      R1.9685    
G1   X25.603       Y22.879    
G17 G3   X25.2922      Y22.4742      R1.9685    
G1   X25.798       Y23.350    
G17 G3   X25.6028      Y22.8791      R1.9685    
G1   X25.865       Y23.856    
G17 G3   X25.7981      Y23.3505      R1.9685    
G1   Y24.362    
G17 G3   X25.8647      Y23.8564      R1.9685    
G1   X25.603       Y24.834    
G17 G3   X25.7981      Y24.3623      R1.9685    
G1   X25.292       Y25.239    
G17 G3   X25.6028      Y24.8338      R1.9685    
G1   X24.887       Y25.549    
G17 G3   X25.2922      Y25.2386      R1.9685    
G1   X24.416       Y25.744    
G17 G3   X24.8874      Y25.5492      R1.9685    
G1   X23.910       Y25.811    
G17 G3   X24.4159      Y25.7445      R1.9685    
G1   X23.404    
G17 G3   X23.9100      Y25.8111      R1.9685    
G1   X22.933       Y25.549    
G17 G3   X23.4041      Y25.7445      R1.9685    
G1   X22.528       Y25.239    
G17 G3   X22.9327      Y25.5492      R1.9685    
G1   X22.217       Y24.834    
G17 G3   X22.5279      Y25.2386      R1.9685    
G1   X22.022       Y24.362    
G17 G3   X22.2172      Y24.8338      R1.9685    
G1   X21.955       Y23.856    
G17 G3   X22.0219      Y24.3623      R1.9685    
G1   Y23.350    
G17 G3   X21.9553      Y23.8564      R1.9685    
G1   X22.217       Y22.879    
G17 G3   X22.0219      Y23.3505      R1.9685    
(Pass: 5)
G1   X22.528       Y22.474    
   Z1.300      F100 
G17 G3   X22.2172      Y22.8791      R1.9685     F400 
G1   X22.933       Y22.164    
G17 G3   X22.5279      Y22.4742      R1.9685    
G1   X23.404       Y21.968    
G17 G3   X22.9327      Y22.1636      R1.9685    
G1   X23.910       Y21.902    
G17 G3   X23.4041      Y21.9683      R1.9685    
G1   X24.416    
G17 G3   X23.9100      Y21.9017      R1.9685    
G1   X24.887       Y22.164    
G17 G3   X24.4159      Y21.9683      R1.9685    
G1   X25.292       Y22.474    
G17 G3   X24.8874      Y22.1636      R1.9685    
G1   X25.603       Y22.879    
G17 G3   X25.2922      Y22.4742      R1.9685    
G1   X25.798       Y23.350    
G17 G3   X25.6028      Y22.8791      R1.9685    
G1   X25.865       Y23.856    
G17 G3   X25.7981      Y23.3505      R1.9685    
G1   Y24.362    
G17 G3   X25.8647      Y23.8564      R1.9685    
G1   X25.603       Y24.834    
G17 G3   X25.7981      Y24.3623      R1.9685    
G1   X25.292       Y25.239    
G17 G3   X25.6028      Y24.8338      R1.9685    
G1   X24.887       Y25.549    
G17 G3   X25.2922      Y25.2386      R1.9685    
G1   X24.416       Y25.744    
G17 G3   X24.8874      Y25.5492      R1.9685    
G1   X23.910       Y25.811    
G17 G3   X24.4159      Y25.7445      R1.9685    
G1   X23.404    
G17 G3   X23.9100      Y25.8111      R1.9685    
G1   X22.933       Y25.549    
G17 G3   X23.4041      Y25.7445      R1.9685    
G1   X22.528       Y25.239    
G17 G3   X22.9327      Y25.5492      R1.9685    
G1   X22.217       Y24.834    
G17 G3   X22.5279      Y25.2386      R1.9685    
G1   X22.022       Y24.362    
G17 G3   X22.2172      Y24.8338      R1.9685    
G1   X21.955       Y23.856    
G17 G3   X22.0219      Y24.3623      R1.9685    
G1   Y23.350    
G17 G3   X21.9553      Y23.8564      R1.9685    
G1   X22.217       Y22.879    
G17 G3   X22.0219      Y23.3505      R1.9685    
(Pass: 6)
G1   X22.528       Y22.474    
   Z0.300      F100 
G17 G3   X22.2172      Y22.8791      R1.9685     F400 
G1   X22.933       Y22.164    
G17 G3   X22.5279      Y22.4742      R1.9685    
G1   X23.404       Y21.968    
G17 G3   X22.9327      Y22.1636      R1.9685    
G1   X23.910       Y21.902    
G17 G3   X23.4041      Y21.9683      R1.9685    
G1   X24.416    
G17 G3   X23.9100      Y21.9017      R1.9685    
G1   X24.887       Y22.164    
G17 G3   X24.4159      Y21.9683      R1.9685    
G1   X25.292       Y22.474    
G17 G3   X24.8874      Y22.1636      R1.9685    
G1   X25.603       Y22.879    
G17 G3   X25.2922      Y22.4742      R1.9685    
G1   X25.798       Y23.350    
G17 G3   X25.6028      Y22.8791      R1.9685    
G1   X25.865       Y23.856    
G17 G3   X25.7981      Y23.3505      R1.9685    
G1   Y24.362    
G17 G3   X25.8647      Y23.8564      R1.9685    
G1   X25.603       Y24.834    
G17 G3   X25.7981      Y24.3623      R1.9685    
G1   X25.292       Y25.239    
G17 G3   X25.6028      Y24.8338      R1.9685    
G1   X24.887       Y25.549    
G17 G3   X25.2922      Y25.2386      R1.9685    
G1   X24.416       Y25.744    
G17 G3   X24.8874      Y25.5492      R1.9685    
G1   X23.910       Y25.811    
G17 G3   X24.4159      Y25.7445      R1.9685    
G1   X23.404    
G17 G3   X23.9100      Y25.8111      R1.9685    
G1   X22.933       Y25.549    
G17 G3   X23.4041      Y25.7445      R1.9685    
G1   X22.528       Y25.239    
G17 G3   X22.9327      Y25.5492      R1.9685    
G1   X22.217       Y24.834    
G17 G3   X22.5279      Y25.2386      R1.9685    
G1   X22.022       Y24.362    
G17 G3   X22.2172      Y24.8338      R1.9685    
G1   X21.955       Y23.856    
G17 G3   X22.0219      Y24.3623      R1.9685    
G1   Y23.350    
G17 G3   X21.9553      Y23.8564      R1.9685    
G1   X22.217       Y22.879    
G17 G3   X22.0219      Y23.3505      R1.9685    
(Pass: 7)
G1   X22.528       Y22.474    
   Z0.000      F100 
G17 G3   X22.2172      Y22.8791      R1.9685     F400 
G1   X22.933       Y22.164    
G17 G3   X22.5279      Y22.4742      R1.9685    
G1   X23.404       Y21.968    
G17 G3   X22.9327      Y22.1636      R1.9685    
G1   X23.910       Y21.902    
G17 G3   X23.4041      Y21.9683      R1.9685    
G1   X24.416    
G17 G3   X23.9100      Y21.9017      R1.9685    
G1   X24.887       Y22.164    
G17 G3   X24.4159      Y21.9683      R1.9685    
G1   X25.292       Y22.474    
G17 G3   X24.8874      Y22.1636      R1.9685    
G1   X25.603       Y22.879    
G17 G3   X25.2922      Y22.4742      R1.9685    
G1   X25.798       Y23.350    
G17 G3   X25.6028      Y22.8791      R1.9685    
G1   X25.865       Y23.856    
G17 G3   X25.7981      Y23.3505      R1.9685    
G1   Y24.362    
G17 G3   X25.8647      Y23.8564      R1.9685    
G1   X25.603       Y24.834    
G17 G3   X25.7981      Y24.3623      R1.9685    
G1   X25.292       Y25.239    
G17 G3   X25.6028      Y24.8338      R1.9685    
G1   X24.887       Y25.549    
G17 G3   X25.2922      Y25.2386      R1.9685    
G1   X24.416       Y25.744    
G17 G3   X24.8874      Y25.5492      R1.9685    
G1   X23.910       Y25.811    
G17 G3   X24.4159      Y25.7445      R1.9685    
G1   X23.404    
G17 G3   X23.9100      Y25.8111      R1.9685    
G1   X22.933       Y25.549    
G17 G3   X23.4041      Y25.7445      R1.9685    
G1   X22.528       Y25.239    
G17 G3   X22.9327      Y25.5492      R1.9685    
G1   X22.217       Y24.834    
G17 G3   X22.5279      Y25.2386      R1.9685    
G1   X22.022       Y24.362    
G17 G3   X22.2172      Y24.8338      R1.9685    
G1   X21.955       Y23.856    
G17 G3   X22.0219      Y24.3623      R1.9685    
G1   Y23.350    
G17 G3   X21.9553      Y23.8564      R1.9685    
G1   X22.217       Y22.879    
G17 G3   X22.0219      Y23.3505      R1.9685    
G0   Z21.300    
(Pass: 1)
   X14.653       Y33.394    
G1   Z5.300      F100 
G17 G3   X14.4393      Y33.3051      R0.9000     F400 
G1   X14.837       Y33.534    
G17 G3   X14.6530      Y33.3936      R0.9000    
G1   X14.977       Y33.718    
G17 G3   X14.8365      Y33.5345      R0.9000    
G1   X15.066       Y33.932    
G17 G3   X14.9774      Y33.7180      R0.9000    
G1   X15.096       Y34.161    
G17 G3   X15.0659      Y33.9317      R0.9000    
G1   Y34.390    
G17 G3   X15.0961      Y34.1611      R0.9000    
G1   X14.977       Y34.604    
G17 G3   X15.0659      Y34.3905      R0.9000    
G1   X14.837       Y34.788    
G17 G3   X14.9774      Y34.6042      R0.9000    
G1   X14.653       Y34.929    
G17 G3   X14.8365      Y34.7877      R0.9000    
G1   X14.439       Y35.017    
G17 G3   X14.6530      Y34.9286      R0.9000    
G1   X14.210       Y35.047    
G17 G3   X14.4393      Y35.0171      R0.9000    
G1   X13.981    
G17 G3   X14.2099      Y35.0473      R0.9000    
G1   X13.767       Y34.929    
G17 G3   X13.9805      Y35.0171      R0.9000    
G1   X13.583       Y34.788    
G17 G3   X13.7668      Y34.9286      R0.9000    
G1   X13.442       Y34.604    
G17 G3   X13.5833      Y34.7877      R0.9000    
G1   X13.354       Y34.390    
G17 G3   X13.4424      Y34.6042      R0.9000    
G1   X13.324       Y34.161    
G17 G3   X13.3539      Y34.3905      R0.9000    
G1   Y33.932    
G17 G3   X13.3237      Y34.1611      R0.9000    
G1   X13.442       Y33.718    
G17 G3   X13.3539      Y33.9317      R0.9000    
G1   X13.583       Y33.534    
G17 G3   X13.4424      Y33.7180      R0.9000    
G1   X13.767       Y33.394    
G17 G3   X13.5833      Y33.5345      R0.9000    
G1   X13.981       Y33.305    
G17 G3   X13.7668      Y33.3936      R0.9000    
G1   X14.210       Y33.275    
G17 G3   X13.9805      Y33.3051      R0.9000    
G1   X14.439    
G17 G3   X14.2099      Y33.2749      R0.9000    
(Pass: 2)
G1   X14.653       Y33.394    
   Z4.300      F100 
G17 G3   X14.4393      Y33.3051      R0.9000     F400 
G1   X14.837       Y33.534    
G17 G3   X14.6530      Y33.3936      R0.9000    
G1   X14.977       Y33.718    
G17 G3   X14.8365      Y33.5345      R0.9000    
G1   X15.066       Y33.932    
G17 G3   X14.9774      Y33.7180      R0.9000    
G1   X15.096       Y34.161    
G17 G3   X15.0659      Y33.9317      R0.9000    
G1   Y34.390    
G17 G3   X15.0961      Y34.1611      R0.9000    
G1   X14.977       Y34.604    
G17 G3   X15.0659      Y34.3905      R0.9000    
G1   X14.837       Y34.788    
G17 G3   X14.9774      Y34.6042      R0.9000    
G1   X14.653       Y34.929    
G17 G3   X14.8365      Y34.7877      R0.9000    
G1   X14.439       Y35.017    
G17 G3   X14.6530      Y34.9286      R0.9000    
G1   X14.210       Y35.047    
G17 G3   X14.4393      Y35.0171      R0.9000    
G1   X13.981    
G17 G3   X14.2099      Y35.0473      R0.9000    
G1   X13.767       Y34.929    
G17 G3   X13.9805      Y35.0171      R0.9000    
G1   X13.583       Y34.788    
G17 G3   X13.7668      Y34.9286      R0.9000    
G1   X13.442       Y34.604    
G17 G3   X13.5833      Y34.7877      R0.9000    
G1   X13.354       Y34.390    
G17 G3   X13.4424      Y34.6042      R0.9000    
G1   X13.324       Y34.161    
G17 G3   X13.3539      Y34.3905      R0.9000    
G1   Y33.932    
G17 G3   X13.3237      Y34.1611      R0.9000    
G1   X13.442       Y33.718    
G17 G3   X13.3539      Y33.9317      R0.9000    
G1   X13.583       Y33.534    
G17 G3   X13.4424      Y33.7180      R0.9000    
G1   X13.767       Y33.394    
G17 G3   X13.5833      Y33.5345      R0.9000    
G1   X13.981       Y33.305    
G17 G3   X13.7668      Y33.3936      R0.9000    
G1   X14.210       Y33.275    
G17 G3   X13.9805      Y33.3051      R0.9000    
G1   X14.439    
G17 G3   X14.2099      Y33.2749      R0.9000    
(Pass: 3)
G1   X14.653       Y33.394    
   Z3.300      F100 
G17 G3   X14.4393      Y33.3051      R0.9000     F400 
G1   X14.837       Y33.534    
G17 G3   X14.6530      Y33.3936      R0.9000    
G1   X14.977       Y33.718    
G17 G3   X14.8365      Y33.5345      R0.9000    
G1   X15.066       Y33.932    
G17 G3   X14.9774      Y33.7180      R0.9000    
G1   X15.096       Y34.161    
G17 G3   X15.0659      Y33.9317      R0.9000    
G1   Y34.390    
G17 G3   X15.0961      Y34.1611      R0.9000    
G1   X14.977       Y34.604    
G17 G3   X15.0659      Y34.3905      R0.9000    
G1   X14.837       Y34.788    
G17 G3   X14.9774      Y34.6042      R0.9000    
G1   X14.653       Y34.929    
G17 G3   X14.8365      Y34.7877      R0.9000    
G1   X14.439       Y35.017    
G17 G3   X14.6530      Y34.9286      R0.9000    
G1   X14.210       Y35.047    
G17 G3   X14.4393      Y35.0171      R0.9000    
G1   X13.981    
G17 G3   X14.2099      Y35.0473      R0.9000    
G1   X13.767       Y34.929    
G17 G3   X13.9805      Y35.0171      R0.9000    
G1   X13.583       Y34.788    
G17 G3   X13.7668      Y34.9286      R0.9000    
G1   X13.442       Y34.604    
G17 G3   X13.5833      Y34.7877      R0.9000    
G1   X13.354       Y34.390    
G17 G3   X13.4424      Y34.6042      R0.9000    
G1   X13.324       Y34.161    
G17 G3   X13.3539      Y34.3905      R0.9000    
G1   Y33.932    
G17 G3   X13.3237      Y34.1611      R0.9000    
G1   X13.442       Y33.718    
G17 G3   X13.3539      Y33.9317      R0.9000    
G1   X13.583       Y33.534    
G17 G3   X13.4424      Y33.7180      R0.9000    
G1   X13.767       Y33.394    
G17 G3   X13.5833      Y33.5345      R0.9000    
G1   X13.981       Y33.305    
G17 G3   X13.7668      Y33.3936      R0.9000    
G1   X14.210       Y33.275    
G17 G3   X13.9805      Y33.3051      R0.9000    
G1   X14.439    
G17 G3   X14.2099      Y33.2749      R0.9000    
(Pass: 4)
G1   X14.653       Y33.394    
   Z2.300      F100 
G17 G3   X14.4393      Y33.3051      R0.9000     F400 
G1   X14.837       Y33.534    
G17 G3   X14.6530      Y33.3936      R0.9000    
G1   X14.977       Y33.718    
G17 G3   X14.8365      Y33.5345      R0.9000    
G1   X15.066       Y33.932    
G17 G3   X14.9774      Y33.7180      R0.9000    
G1   X15.096       Y34.161    
G17 G3   X15.0659      Y33.9317      R0.9000    
G1   Y34.390    
G17 G3   X15.0961      Y34.1611      R0.9000    
G1   X14.977       Y34.604    
G17 G3   X15.0659      Y34.3905      R0.9000    
G1   X14.837       Y34.788    
G17 G3   X14.9774      Y34.6042      R0.9000    
G1   X14.653       Y34.929    
G17 G3   X14.8365      Y34.7877      R0.9000    
G1   X14.439       Y35.017    
G17 G3   X14.6530      Y34.9286      R0.9000    
G1   X14.210       Y35.047    
G17 G3   X14.4393      Y35.0171      R0.9000    
G1   X13.981    
G17 G3   X14.2099      Y35.0473      R0.9000    
G1   X13.767       Y34.929    
G17 G3   X13.9805      Y35.0171      R0.9000    
G1   X13.583       Y34.788    
G17 G3   X13.7668      Y34.9286      R0.9000    
G1   X13.442       Y34.604    
G17 G3   X13.5833      Y34.7877      R0.9000    
G1   X13.354       Y34.390    
G17 G3   X13.4424      Y34.6042      R0.9000    
G1   X13.324       Y34.161    
G17 G3   X13.3539      Y34.3905      R0.9000    
G1   Y33.932    
G17 G3   X13.3237      Y34.1611      R0.9000    
G1   X13.442       Y33.718    
G17 G3   X13.3539      Y33.9317      R0.9000    
G1   X13.583       Y33.534    
G17 G3   X13.4424      Y33.7180      R0.9000    
G1   X13.767       Y33.394    
G17 G3   X13.5833      Y33.5345      R0.9000    
G1   X13.981       Y33.305    
G17 G3   X13.7668      Y33.3936      R0.9000    
G1   X14.210       Y33.275    
G17 G3   X13.9805      Y33.3051      R0.9000    
G1   X14.439    
G17 G3   X14.2099      Y33.2749      R0.9000    
(Pass: 5)
G1   X14.653       Y33.394    
   Z1.300      F100 
G17 G3   X14.4393      Y33.3051      R0.9000     F400 
G1   X14.837       Y33.534    
G17 G3   X14.6530      Y33.3936      R0.9000    
G1   X14.977       Y33.718    
G17 G3   X14.8365      Y33.5345      R0.9000    
G1   X15.066       Y33.932    
G17 G3   X14.9774      Y33.7180      R0.9000    
G1   X15.096       Y34.161    
G17 G3   X15.0659      Y33.9317      R0.9000    
G1   Y34.390    
G17 G3   X15.0961      Y34.1611      R0.9000    
G1   X14.977       Y34.604    
G17 G3   X15.0659      Y34.3905      R0.9000    
G1   X14.837       Y34.788    
G17 G3   X14.9774      Y34.6042      R0.9000    
G1   X14.653       Y34.929    
G17 G3   X14.8365      Y34.7877      R0.9000    
G1   X14.439       Y35.017    
G17 G3   X14.6530      Y34.9286      R0.9000    
G1   X14.210       Y35.047    
G17 G3   X14.4393      Y35.0171      R0.9000    
G1   X13.981    
G17 G3   X14.2099      Y35.0473      R0.9000    
G1   X13.767       Y34.929    
G17 G3   X13.9805      Y35.0171      R0.9000    
G1   X13.583       Y34.788    
G17 G3   X13.7668      Y34.9286      R0.9000    
G1   X13.442       Y34.604    
G17 G3   X13.5833      Y34.7877      R0.9000    
G1   X13.354       Y34.390    
G17 G3   X13.4424      Y34.6042      R0.9000    
G1   X13.324       Y34.161    
G17 G3   X13.3539      Y34.3905      R0.9000    
G1   Y33.932    
G17 G3   X13.3237      Y34.1611      R0.9000    
G1   X13.442       Y33.718    
G17 G3   X13.3539      Y33.9317      R0.9000    
G1   X13.583       Y33.534    
G17 G3   X13.4424      Y33.7180      R0.9000    
G1   X13.767       Y33.394    
G17 G3   X13.5833      Y33.5345      R0.9000    
G1   X13.981       Y33.305    
G17 G3   X13.7668      Y33.3936      R0.9000    
G1   X14.210       Y33.275    
G17 G3   X13.9805      Y33.3051      R0.9000    
G1   X14.439    
G17 G3   X14.2099      Y33.2749      R0.9000    
(Pass: 6)
G1   X14.653       Y33.394    
   Z0.300      F100 
G17 G3   X14.4393      Y33.3051      R0.9000     F400 
G1   X14.837       Y33.534    
G17 G3   X14.6530      Y33.3936      R0.9000    
G1   X14.977       Y33.718    
G17 G3   X14.8365      Y33.5345      R0.9000    
G1   X15.066       Y33.932    
G17 G3   X14.9774      Y33.7180      R0.9000    
G1   X15.096       Y34.161    
G17 G3   X15.0659      Y33.9317      R0.9000    
G1   Y34.390    
G17 G3   X15.0961      Y34.1611      R0.9000    
G1   X14.977       Y34.604    
G17 G3   X15.0659      Y34.3905      R0.9000    
G1   X14.837       Y34.788    
G17 G3   X14.9774      Y34.6042      R0.9000    
G1   X14.653       Y34.929    
G17 G3   X14.8365      Y34.7877      R0.9000    
G1   X14.439       Y35.017    
G17 G3   X14.6530      Y34.9286      R0.9000    
G1   X14.210       Y35.047    
G17 G3   X14.4393      Y35.0171      R0.9000    
G1   X13.981    
G17 G3   X14.2099      Y35.0473      R0.9000    
G1   X13.767       Y34.929    
G17 G3   X13.9805      Y35.0171      R0.9000    
G1   X13.583       Y34.788    
G17 G3   X13.7668      Y34.9286      R0.9000    
G1   X13.442       Y34.604    
G17 G3   X13.5833      Y34.7877      R0.9000    
G1   X13.354       Y34.390    
G17 G3   X13.4424      Y34.6042      R0.9000    
G1   X13.324       Y34.161    
G17 G3   X13.3539      Y34.3905      R0.9000    
G1   Y33.932    
G17 G3   X13.3237      Y34.1611      R0.9000    
G1   X13.442       Y33.718    
G17 G3   X13.3539      Y33.9317      R0.9000    
G1   X13.583       Y33.534    
G17 G3   X13.4424      Y33.7180      R0.9000    
G1   X13.767       Y33.394    
G17 G3   X13.5833      Y33.5345      R0.9000    
G1   X13.981       Y33.305    
G17 G3   X13.7668      Y33.3936      R0.9000    
G1   X14.210       Y33.275    
G17 G3   X13.9805      Y33.3051      R0.9000    
G1   X14.439    
G17 G3   X14.2099      Y33.2749      R0.9000    
(Pass: 7)
G1   X14.653       Y33.394    
   Z0.000      F100 
G17 G3   X14.4393      Y33.3051      R0.9000     F400 
G1   X14.837       Y33.534    
G17 G3   X14.6530      Y33.3936      R0.9000    
G1   X14.977       Y33.718    
G17 G3   X14.8365      Y33.5345      R0.9000    
G1   X15.066       Y33.932    
G17 G3   X14.9774      Y33.7180      R0.9000    
G1   X15.096       Y34.161    
G17 G3   X15.0659      Y33.9317      R0.9000    
G1   Y34.390    
G17 G3   X15.0961      Y34.1611      R0.9000    
G1   X14.977       Y34.604    
G17 G3   X15.0659      Y34.3905      R0.9000    
G1   X14.837       Y34.788    
G17 G3   X14.9774      Y34.6042      R0.9000    
G1   X14.653       Y34.929    
G17 G3   X14.8365      Y34.7877      R0.9000    
G1   X14.439       Y35.017    
G17 G3   X14.6530      Y34.9286      R0.9000    
G1   X14.210       Y35.047    
G17 G3   X14.4393      Y35.0171      R0.9000    
G1   X13.981    
G17 G3   X14.2099      Y35.0473      R0.9000    
G1   X13.767       Y34.929    
G17 G3   X13.9805      Y35.0171      R0.9000    
G1   X13.583       Y34.788    
G17 G3   X13.7668      Y34.9286      R0.9000    
G1   X13.442       Y34.604    
G17 G3   X13.5833      Y34.7877      R0.9000    
G1   X13.354       Y34.390    
G17 G3   X13.4424      Y34.6042      R0.9000    
G1   X13.324       Y34.161    
G17 G3   X13.3539      Y34.3905      R0.9000    
G1   Y33.932    
G17 G3   X13.3237      Y34.1611      R0.9000    
G1   X13.442       Y33.718    
G17 G3   X13.3539      Y33.9317      R0.9000    
G1   X13.583       Y33.534    
G17 G3   X13.4424      Y33.7180      R0.9000    
G1   X13.767       Y33.394    
G17 G3   X13.5833      Y33.5345      R0.9000    
G1   X13.981       Y33.305    
G17 G3   X13.7668      Y33.3936      R0.9000    
G1   X14.210       Y33.275    
G17 G3   X13.9805      Y33.3051      R0.9000    
G1   X14.439    
G17 G3   X14.2099      Y33.2749      R0.9000    
G0   Z21.300    
(Pass: 1)
   Y43.275    
G1   Z5.300      F100 
G17 G3   X13.9805      Y43.3051      R0.9000     F400 
G1   X14.439    
G17 G3   X14.2098      Y43.2749      R0.9000    
G1   X14.653       Y43.394    
G17 G3   X14.4392      Y43.3051      R0.9000    
G1   X14.836       Y43.534    
G17 G3   X14.6529      Y43.3936      R0.9000    
G1   X14.977       Y43.718    
G17 G3   X14.8365      Y43.5345      R0.9000    
G1   X15.066       Y43.932    
G17 G3   X14.9773      Y43.7180      R0.9000    
G1   X15.096       Y44.161    
G17 G3   X15.0658      Y43.9317      R0.9000    
G1   Y44.390    
G17 G3   X15.0960      Y44.1611      R0.9000    
G1   X14.977       Y44.604    
G17 G3   X15.0658      Y44.3905      R0.9000    
G1   X14.836       Y44.788    
G17 G3   X14.9773      Y44.6042      R0.9000    
G1   X14.653       Y44.929    
G17 G3   X14.8365      Y44.7877      R0.9000    
G1   X14.439       Y45.017    
G17 G3   X14.6529      Y44.9286      R0.9000    
G1   X14.210       Y45.047    
G17 G3   X14.4392      Y45.0171      R0.9000    
G1   X13.980    
G17 G3   X14.2098      Y45.0473      R0.9000    
G1   X13.767       Y44.929    
G17 G3   X13.9805      Y45.0171      R0.9000    
G1   X13.583       Y44.788    
G17 G3   X13.7667      Y44.9286      R0.9000    
G1   X13.442       Y44.604    
G17 G3   X13.5832      Y44.7877      R0.9000    
G1   X13.354       Y44.390    
G17 G3   X13.4424      Y44.6042      R0.9000    
G1   X13.324       Y44.161    
G17 G3   X13.3538      Y44.3905      R0.9000    
G1   Y43.932    
G17 G3   X13.3236      Y44.1611      R0.9000    
G1   X13.442       Y43.718    
G17 G3   X13.3538      Y43.9317      R0.9000    
G1   X13.583       Y43.534    
G17 G3   X13.4424      Y43.7180      R0.9000    
G1   X13.767       Y43.394    
G17 G3   X13.5832      Y43.5345      R0.9000    
G1   X13.980       Y43.305    
G17 G3   X13.7667      Y43.3936      R0.9000    
(Pass: 2)
G1   X14.210       Y43.275    
   Z4.300      F100 
G17 G3   X13.9805      Y43.3051      R0.9000     F400 
G1   X14.439    
G17 G3   X14.2098      Y43.2749      R0.9000    
G1   X14.653       Y43.394    
G17 G3   X14.4392      Y43.3051      R0.9000    
G1   X14.836       Y43.534    
G17 G3   X14.6529      Y43.3936      R0.9000    
G1   X14.977       Y43.718    
G17 G3   X14.8365      Y43.5345      R0.9000    
G1   X15.066       Y43.932    
G17 G3   X14.9773      Y43.7180      R0.9000    
G1   X15.096       Y44.161    
G17 G3   X15.0658      Y43.9317      R0.9000    
G1   Y44.390    
G17 G3   X15.0960      Y44.1611      R0.9000    
G1   X14.977       Y44.604    
G17 G3   X15.0658      Y44.3905      R0.9000    
G1   X14.836       Y44.788    
G17 G3   X14.9773      Y44.6042      R0.9000    
G1   X14.653       Y44.929    
G17 G3   X14.8365      Y44.7877      R0.9000    
G1   X14.439       Y45.017    
G17 G3   X14.6529      Y44.9286      R0.9000    
G1   X14.210       Y45.047    
G17 G3   X14.4392      Y45.0171      R0.9000    
G1   X13.980    
G17 G3   X14.2098      Y45.0473      R0.9000    
G1   X13.767       Y44.929    
G17 G3   X13.9805      Y45.0171      R0.9000    
G1   X13.583       Y44.788    
G17 G3   X13.7667      Y44.9286      R0.9000    
G1   X13.442       Y44.604    
G17 G3   X13.5832      Y44.7877      R0.9000    
G1   X13.354       Y44.390    
G17 G3   X13.4424      Y44.6042      R0.9000    
G1   X13.324       Y44.161    
G17 G3   X13.3538      Y44.3905      R0.9000    
G1   Y43.932    
G17 G3   X13.3236      Y44.1611      R0.9000    
G1   X13.442       Y43.718    
G17 G3   X13.3538      Y43.9317      R0.9000    
G1   X13.583       Y43.534    
G17 G3   X13.4424      Y43.7180      R0.9000    
G1   X13.767       Y43.394    
G17 G3   X13.5832      Y43.5345      R0.9000    
G1   X13.980       Y43.305    
G17 G3   X13.7667      Y43.3936      R0.9000    
(Pass: 3)
G1   X14.210       Y43.275    
   Z3.300      F100 
G17 G3   X13.9805      Y43.3051      R0.9000     F400 
G1   X14.439    
G17 G3   X14.2098      Y43.2749      R0.9000    
G1   X14.653       Y43.394    
G17 G3   X14.4392      Y43.3051      R0.9000    
G1   X14.836       Y43.534    
G17 G3   X14.6529      Y43.3936      R0.9000    
G1   X14.977       Y43.718    
G17 G3   X14.8365      Y43.5345      R0.9000    
G1   X15.066       Y43.932    
G17 G3   X14.9773      Y43.7180      R0.9000    
G1   X15.096       Y44.161    
G17 G3   X15.0658      Y43.9317      R0.9000    
G1   Y44.390    
G17 G3   X15.0960      Y44.1611      R0.9000    
G1   X14.977       Y44.604    
G17 G3   X15.0658      Y44.3905      R0.9000    
G1   X14.836       Y44.788    
G17 G3   X14.9773      Y44.6042      R0.9000    
G1   X14.653       Y44.929    
G17 G3   X14.8365      Y44.7877      R0.9000    
G1   X14.439       Y45.017    
G17 G3   X14.6529      Y44.9286      R0.9000    
G1   X14.210       Y45.047    
G17 G3   X14.4392      Y45.0171      R0.9000    
G1   X13.980    
G17 G3   X14.2098      Y45.0473      R0.9000    
G1   X13.767       Y44.929    
G17 G3   X13.9805      Y45.0171      R0.9000    
G1   X13.583       Y44.788    
G17 G3   X13.7667      Y44.9286      R0.9000    
G1   X13.442       Y44.604    
G17 G3   X13.5832      Y44.7877      R0.9000    
G1   X13.354       Y44.390    
G17 G3   X13.4424      Y44.6042      R0.9000    
G1   X13.324       Y44.161    
G17 G3   X13.3538      Y44.3905      R0.9000    
G1   Y43.932    
G17 G3   X13.3236      Y44.1611      R0.9000    
G1   X13.442       Y43.718    
G17 G3   X13.3538      Y43.9317      R0.9000    
G1   X13.583       Y43.534    
G17 G3   X13.4424      Y43.7180      R0.9000    
G1   X13.767       Y43.394    
G17 G3   X13.5832      Y43.5345      R0.9000    
G1   X13.980       Y43.305    
G17 G3   X13.7667      Y43.3936      R0.9000    
(Pass: 4)
G1   X14.210       Y43.275    
   Z2.300      F100 
G17 G3   X13.9805      Y43.3051      R0.9000     F400 
G1   X14.439    
G17 G3   X14.2098      Y43.2749      R0.9000    
G1   X14.653       Y43.394    
G17 G3   X14.4392      Y43.3051      R0.9000    
G1   X14.836       Y43.534    
G17 G3   X14.6529      Y43.3936      R0.9000    
G1   X14.977       Y43.718    
G17 G3   X14.8365      Y43.5345      R0.9000    
G1   X15.066       Y43.932    
G17 G3   X14.9773      Y43.7180      R0.9000    
G1   X15.096       Y44.161    
G17 G3   X15.0658      Y43.9317      R0.9000    
G1   Y44.390    
G17 G3   X15.0960      Y44.1611      R0.9000    
G1   X14.977       Y44.604    
G17 G3   X15.0658      Y44.3905      R0.9000    
G1   X14.836       Y44.788    
G17 G3   X14.9773      Y44.6042      R0.9000    
G1   X14.653       Y44.929    
G17 G3   X14.8365      Y44.7877      R0.9000    
G1   X14.439       Y45.017    
G17 G3   X14.6529      Y44.9286      R0.9000    
G1   X14.210       Y45.047    
G17 G3   X14.4392      Y45.0171      R0.9000    
G1   X13.980    
G17 G3   X14.2098      Y45.0473      R0.9000    
G1   X13.767       Y44.929    
G17 G3   X13.9805      Y45.0171      R0.9000    
G1   X13.583       Y44.788    
G17 G3   X13.7667      Y44.9286      R0.9000    
G1   X13.442       Y44.604    
G17 G3   X13.5832      Y44.7877      R0.9000    
G1   X13.354       Y44.390    
G17 G3   X13.4424      Y44.6042      R0.9000    
G1   X13.324       Y44.161    
G17 G3   X13.3538      Y44.3905      R0.9000    
G1   Y43.932    
G17 G3   X13.3236      Y44.1611      R0.9000    
G1   X13.442       Y43.718    
G17 G3   X13.3538      Y43.9317      R0.9000    
G1   X13.583       Y43.534    
G17 G3   X13.4424      Y43.7180      R0.9000    
G1   X13.767       Y43.394    
G17 G3   X13.5832      Y43.5345      R0.9000    
G1   X13.980       Y43.305    
G17 G3   X13.7667      Y43.3936      R0.9000    
(Pass: 5)
G1   X14.210       Y43.275    
   Z1.300      F100 
G17 G3   X13.9805      Y43.3051      R0.9000     F400 
G1   X14.439    
G17 G3   X14.2098      Y43.2749      R0.9000    
G1   X14.653       Y43.394    
G17 G3   X14.4392      Y43.3051      R0.9000    
G1   X14.836       Y43.534    
G17 G3   X14.6529      Y43.3936      R0.9000    
G1   X14.977       Y43.718    
G17 G3   X14.8365      Y43.5345      R0.9000    
G1   X15.066       Y43.932    
G17 G3   X14.9773      Y43.7180      R0.9000    
G1   X15.096       Y44.161    
G17 G3   X15.0658      Y43.9317      R0.9000    
G1   Y44.390    
G17 G3   X15.0960      Y44.1611      R0.9000    
G1   X14.977       Y44.604    
G17 G3   X15.0658      Y44.3905      R0.9000    
G1   X14.836       Y44.788    
G17 G3   X14.9773      Y44.6042      R0.9000    
G1   X14.653       Y44.929    
G17 G3   X14.8365      Y44.7877      R0.9000    
G1   X14.439       Y45.017    
G17 G3   X14.6529      Y44.9286      R0.9000    
G1   X14.210       Y45.047    
G17 G3   X14.4392      Y45.0171      R0.9000    
G1   X13.980    
G17 G3   X14.2098      Y45.0473      R0.9000    
G1   X13.767       Y44.929    
G17 G3   X13.9805      Y45.0171      R0.9000    
G1   X13.583       Y44.788    
G17 G3   X13.7667      Y44.9286      R0.9000    
G1   X13.442       Y44.604    
G17 G3   X13.5832      Y44.7877      R0.9000    
G1   X13.354       Y44.390    
G17 G3   X13.4424      Y44.6042      R0.9000    
G1   X13.324       Y44.161    
G17 G3   X13.3538      Y44.3905      R0.9000    
G1   Y43.932    
G17 G3   X13.3236      Y44.1611      R0.9000    
G1   X13.442       Y43.718    
G17 G3   X13.3538      Y43.9317      R0.9000    
G1   X13.583       Y43.534    
G17 G3   X13.4424      Y43.7180      R0.9000    
G1   X13.767       Y43.394    
G17 G3   X13.5832      Y43.5345      R0.9000    
G1   X13.980       Y43.305    
G17 G3   X13.7667      Y43.3936      R0.9000    
(Pass: 6)
G1   X14.210       Y43.275    
   Z0.300      F100 
G17 G3   X13.9805      Y43.3051      R0.9000     F400 
G1   X14.439    
G17 G3   X14.2098      Y43.2749      R0.9000    
G1   X14.653       Y43.394    
G17 G3   X14.4392      Y43.3051      R0.9000    
G1   X14.836       Y43.534    
G17 G3   X14.6529      Y43.3936      R0.9000    
G1   X14.977       Y43.718    
G17 G3   X14.8365      Y43.5345      R0.9000    
G1   X15.066       Y43.932    
G17 G3   X14.9773      Y43.7180      R0.9000    
G1   X15.096       Y44.161    
G17 G3   X15.0658      Y43.9317      R0.9000    
G1   Y44.390    
G17 G3   X15.0960      Y44.1611      R0.9000    
G1   X14.977       Y44.604    
G17 G3   X15.0658      Y44.3905      R0.9000    
G1   X14.836       Y44.788    
G17 G3   X14.9773      Y44.6042      R0.9000    
G1   X14.653       Y44.929    
G17 G3   X14.8365      Y44.7877      R0.9000    
G1   X14.439       Y45.017    
G17 G3   X14.6529      Y44.9286      R0.9000    
G1   X14.210       Y45.047    
G17 G3   X14.4392      Y45.0171      R0.9000    
G1   X13.980    
G17 G3   X14.2098      Y45.0473      R0.9000    
G1   X13.767       Y44.929    
G17 G3   X13.9805      Y45.0171      R0.9000    
G1   X13.583       Y44.788    
G17 G3   X13.7667      Y44.9286      R0.9000    
G1   X13.442       Y44.604    
G17 G3   X13.5832      Y44.7877      R0.9000    
G1   X13.354       Y44.390    
G17 G3   X13.4424      Y44.6042      R0.9000    
G1   X13.324       Y44.161    
G17 G3   X13.3538      Y44.3905      R0.9000    
G1   Y43.932    
G17 G3   X13.3236      Y44.1611      R0.9000    
G1   X13.442       Y43.718    
G17 G3   X13.3538      Y43.9317      R0.9000    
G1   X13.583       Y43.534    
G17 G3   X13.4424      Y43.7180      R0.9000    
G1   X13.767       Y43.394    
G17 G3   X13.5832      Y43.5345      R0.9000    
G1   X13.980       Y43.305    
G17 G3   X13.7667      Y43.3936      R0.9000    
(Pass: 7)
G1   X14.210       Y43.275    
   Z0.000      F100 
G17 G3   X13.9805      Y43.3051      R0.9000     F400 
G1   X14.439    
G17 G3   X14.2098      Y43.2749      R0.9000    
G1   X14.653       Y43.394    
G17 G3   X14.4392      Y43.3051      R0.9000    
G1   X14.836       Y43.534    
G17 G3   X14.6529      Y43.3936      R0.9000    
G1   X14.977       Y43.718    
G17 G3   X14.8365      Y43.5345      R0.9000    
G1   X15.066       Y43.932    
G17 G3   X14.9773      Y43.7180      R0.9000    
G1   X15.096       Y44.161    
G17 G3   X15.0658      Y43.9317      R0.9000    
G1   Y44.390    
G17 G3   X15.0960      Y44.1611      R0.9000    
G1   X14.977       Y44.604    
G17 G3   X15.0658      Y44.3905      R0.9000    
G1   X14.836       Y44.788    
G17 G3   X14.9773      Y44.6042      R0.9000    
G1   X14.653       Y44.929    
G17 G3   X14.8365      Y44.7877      R0.9000    
G1   X14.439       Y45.017    
G17 G3   X14.6529      Y44.9286      R0.9000    
G1   X14.210       Y45.047    
G17 G3   X14.4392      Y45.0171      R0.9000    
G1   X13.980    
G17 G3   X14.2098      Y45.0473      R0.9000    
G1   X13.767       Y44.929    
G17 G3   X13.9805      Y45.0171      R0.9000    
G1   X13.583       Y44.788    
G17 G3   X13.7667      Y44.9286      R0.9000    
G1   X13.442       Y44.604    
G17 G3   X13.5832      Y44.7877      R0.9000    
G1   X13.354       Y44.390    
G17 G3   X13.4424      Y44.6042      R0.9000    
G1   X13.324       Y44.161    
G17 G3   X13.3538      Y44.3905      R0.9000    
G1   Y43.932    
G17 G3   X13.3236      Y44.1611      R0.9000    
G1   X13.442       Y43.718    
G17 G3   X13.3538      Y43.9317      R0.9000    
G1   X13.583       Y43.534    
G17 G3   X13.4424      Y43.7180      R0.9000    
G1   X13.767       Y43.394    
G17 G3   X13.5832      Y43.5345      R0.9000    
G1   X13.980       Y43.305    
G17 G3   X13.7667      Y43.3936      R0.9000    
G0   Z21.300    
(Pass: 1)
   X42.024       Y44.193    
G1   Z5.300      F100 
G17 G3   X42.0540      Y44.4228      R0.9000     F400 
G1   Y43.964    
G17 G3   X42.0238      Y44.1935      R0.9000    
G1   X42.143       Y43.750    
G17 G3   X42.0540      Y43.9641      R0.9000    
G1   X42.283       Y43.567    
G17 G3   X42.1426      Y43.7504      R0.9000    
G1   X42.467       Y43.426    
G17 G3   X42.2834      Y43.5668      R0.9000    
G1   X42.681       Y43.337    
G17 G3   X42.4669      Y43.4260      R0.9000    
G1   X42.910       Y43.307    
G17 G3   X42.6807      Y43.3375      R0.9000    
G1   X43.139    
G17 G3   X42.9100      Y43.3073      R0.9000    
G1   X43.353       Y43.426    
G17 G3   X43.1394      Y43.3375      R0.9000    
G1   X43.537       Y43.567    
G17 G3   X43.3531      Y43.4260      R0.9000    
G1   X43.678       Y43.750    
G17 G3   X43.5367      Y43.5668      R0.9000    
G1   X43.766       Y43.964    
G17 G3   X43.6775      Y43.7504      R0.9000    
G1   X43.796       Y44.193    
G17 G3   X43.7660      Y43.9641      R0.9000    
G1   Y44.423    
G17 G3   X43.7962      Y44.1935      R0.9000    
G1   X43.678       Y44.637    
G17 G3   X43.7660      Y44.4228      R0.9000    
G1   X43.537       Y44.820    
G17 G3   X43.6775      Y44.6366      R0.9000    
G1   X43.353       Y44.961    
G17 G3   X43.5367      Y44.8201      R0.9000    
G1   X43.139       Y45.049    
G17 G3   X43.3531      Y44.9609      R0.9000    
G1   X42.910       Y45.080    
G17 G3   X43.1394      Y45.0495      R0.9000    
G1   X42.681    
G17 G3   X42.9100      Y45.0796      R0.9000    
G1   X42.467       Y44.961    
G17 G3   X42.6807      Y45.0495      R0.9000    
G1   X42.283       Y44.820    
G17 G3   X42.4669      Y44.9609      R0.9000    
G1   X42.143       Y44.637    
G17 G3   X42.2834      Y44.8201      R0.9000    
G1   X42.054       Y44.423    
G17 G3   X42.1426      Y44.6366      R0.9000    
(Pass: 2)
G1   X42.024       Y44.193    
   Z4.300      F100 
G17 G3   X42.0540      Y44.4228      R0.9000     F400 
G1   Y43.964    
G17 G3   X42.0238      Y44.1935      R0.9000    
G1   X42.143       Y43.750    
G17 G3   X42.0540      Y43.9641      R0.9000    
G1   X42.283       Y43.567    
G17 G3   X42.1426      Y43.7504      R0.9000    
G1   X42.467       Y43.426    
G17 G3   X42.2834      Y43.5668      R0.9000    
G1   X42.681       Y43.337    
G17 G3   X42.4669      Y43.4260      R0.9000    
G1   X42.910       Y43.307    
G17 G3   X42.6807      Y43.3375      R0.9000    
G1   X43.139    
G17 G3   X42.9100      Y43.3073      R0.9000    
G1   X43.353       Y43.426    
G17 G3   X43.1394      Y43.3375      R0.9000    
G1   X43.537       Y43.567    
G17 G3   X43.3531      Y43.4260      R0.9000    
G1   X43.678       Y43.750    
G17 G3   X43.5367      Y43.5668      R0.9000    
G1   X43.766       Y43.964    
G17 G3   X43.6775      Y43.7504      R0.9000    
G1   X43.796       Y44.193    
G17 G3   X43.7660      Y43.9641      R0.9000    
G1   Y44.423    
G17 G3   X43.7962      Y44.1935      R0.9000    
G1   X43.678       Y44.637    
G17 G3   X43.7660      Y44.4228      R0.9000    
G1   X43.537       Y44.820    
G17 G3   X43.6775      Y44.6366      R0.9000    
G1   X43.353       Y44.961    
G17 G3   X43.5367      Y44.8201      R0.9000    
G1   X43.139       Y45.049    
G17 G3   X43.3531      Y44.9609      R0.9000    
G1   X42.910       Y45.080    
G17 G3   X43.1394      Y45.0495      R0.9000    
G1   X42.681    
G17 G3   X42.9100      Y45.0796      R0.9000    
G1   X42.467       Y44.961    
G17 G3   X42.6807      Y45.0495      R0.9000    
G1   X42.283       Y44.820    
G17 G3   X42.4669      Y44.9609      R0.9000    
G1   X42.143       Y44.637    
G17 G3   X42.2834      Y44.8201      R0.9000    
G1   X42.054       Y44.423    
G17 G3   X42.1426      Y44.6366      R0.9000    
(Pass: 3)
G1   X42.024       Y44.193    
   Z3.300      F100 
G17 G3   X42.0540      Y44.4228      R0.9000     F400 
G1   Y43.964    
G17 G3   X42.0238      Y44.1935      R0.9000    
G1   X42.143       Y43.750    
G17 G3   X42.0540      Y43.9641      R0.9000    
G1   X42.283       Y43.567    
G17 G3   X42.1426      Y43.7504      R0.9000    
G1   X42.467       Y43.426    
G17 G3   X42.2834      Y43.5668      R0.9000    
G1   X42.681       Y43.337    
G17 G3   X42.4669      Y43.4260      R0.9000    
G1   X42.910       Y43.307    
G17 G3   X42.6807      Y43.3375      R0.9000    
G1   X43.139    
G17 G3   X42.9100      Y43.3073      R0.9000    
G1   X43.353       Y43.426    
G17 G3   X43.1394      Y43.3375      R0.9000    
G1   X43.537       Y43.567    
G17 G3   X43.3531      Y43.4260      R0.9000    
G1   X43.678       Y43.750    
G17 G3   X43.5367      Y43.5668      R0.9000    
G1   X43.766       Y43.964    
G17 G3   X43.6775      Y43.7504      R0.9000    
G1   X43.796       Y44.193    
G17 G3   X43.7660      Y43.9641      R0.9000    
G1   Y44.423    
G17 G3   X43.7962      Y44.1935      R0.9000    
G1   X43.678       Y44.637    
G17 G3   X43.7660      Y44.4228      R0.9000    
G1   X43.537       Y44.820    
G17 G3   X43.6775      Y44.6366      R0.9000    
G1   X43.353       Y44.961    
G17 G3   X43.5367      Y44.8201      R0.9000    
G1   X43.139       Y45.049    
G17 G3   X43.3531      Y44.9609      R0.9000    
G1   X42.910       Y45.080    
G17 G3   X43.1394      Y45.0495      R0.9000    
G1   X42.681    
G17 G3   X42.9100      Y45.0796      R0.9000    
G1   X42.467       Y44.961    
G17 G3   X42.6807      Y45.0495      R0.9000    
G1   X42.283       Y44.820    
G17 G3   X42.4669      Y44.9609      R0.9000    
G1   X42.143       Y44.637    
G17 G3   X42.2834      Y44.8201      R0.9000    
G1   X42.054       Y44.423    
G17 G3   X42.1426      Y44.6366      R0.9000    
(Pass: 4)
G1   X42.024       Y44.193    
   Z2.300      F100 
G17 G3   X42.0540      Y44.4228      R0.9000     F400 
G1   Y43.964    
G17 G3   X42.0238      Y44.1935      R0.9000    
G1   X42.143       Y43.750    
G17 G3   X42.0540      Y43.9641      R0.9000    
G1   X42.283       Y43.567    
G17 G3   X42.1426      Y43.7504      R0.9000    
G1   X42.467       Y43.426    
G17 G3   X42.2834      Y43.5668      R0.9000    
G1   X42.681       Y43.337    
G17 G3   X42.4669      Y43.4260      R0.9000    
G1   X42.910       Y43.307    
G17 G3   X42.6807      Y43.3375      R0.9000    
G1   X43.139    
G17 G3   X42.9100      Y43.3073      R0.9000    
G1   X43.353       Y43.426    
G17 G3   X43.1394      Y43.3375      R0.9000    
G1   X43.537       Y43.567    
G17 G3   X43.3531      Y43.4260      R0.9000    
G1   X43.678       Y43.750    
G17 G3   X43.5367      Y43.5668      R0.9000    
G1   X43.766       Y43.964    
G17 G3   X43.6775      Y43.7504      R0.9000    
G1   X43.796       Y44.193    
G17 G3   X43.7660      Y43.9641      R0.9000    
G1   Y44.423    
G17 G3   X43.7962      Y44.1935      R0.9000    
G1   X43.678       Y44.637    
G17 G3   X43.7660      Y44.4228      R0.9000    
G1   X43.537       Y44.820    
G17 G3   X43.6775      Y44.6366      R0.9000    
G1   X43.353       Y44.961    
G17 G3   X43.5367      Y44.8201      R0.9000    
G1   X43.139       Y45.049    
G17 G3   X43.3531      Y44.9609      R0.9000    
G1   X42.910       Y45.080    
G17 G3   X43.1394      Y45.0495      R0.9000    
G1   X42.681    
G17 G3   X42.9100      Y45.0796      R0.9000    
G1   X42.467       Y44.961    
G17 G3   X42.6807      Y45.0495      R0.9000    
G1   X42.283       Y44.820    
G17 G3   X42.4669      Y44.9609      R0.9000    
G1   X42.143       Y44.637    
G17 G3   X42.2834      Y44.8201      R0.9000    
G1   X42.054       Y44.423    
G17 G3   X42.1426      Y44.6366      R0.9000    
(Pass: 5)
G1   X42.024       Y44.193    
   Z1.300      F100 
G17 G3   X42.0540      Y44.4228      R0.9000     F400 
G1   Y43.964    
G17 G3   X42.0238      Y44.1935      R0.9000    
G1   X42.143       Y43.750    
G17 G3   X42.0540      Y43.9641      R0.9000    
G1   X42.283       Y43.567    
G17 G3   X42.1426      Y43.7504      R0.9000    
G1   X42.467       Y43.426    
G17 G3   X42.2834      Y43.5668      R0.9000    
G1   X42.681       Y43.337    
G17 G3   X42.4669      Y43.4260      R0.9000    
G1   X42.910       Y43.307    
G17 G3   X42.6807      Y43.3375      R0.9000    
G1   X43.139    
G17 G3   X42.9100      Y43.3073      R0.9000    
G1   X43.353       Y43.426    
G17 G3   X43.1394      Y43.3375      R0.9000    
G1   X43.537       Y43.567    
G17 G3   X43.3531      Y43.4260      R0.9000    
G1   X43.678       Y43.750    
G17 G3   X43.5367      Y43.5668      R0.9000    
G1   X43.766       Y43.964    
G17 G3   X43.6775      Y43.7504      R0.9000    
G1   X43.796       Y44.193    
G17 G3   X43.7660      Y43.9641      R0.9000    
G1   Y44.423    
G17 G3   X43.7962      Y44.1935      R0.9000    
G1   X43.678       Y44.637    
G17 G3   X43.7660      Y44.4228      R0.9000    
G1   X43.537       Y44.820    
G17 G3   X43.6775      Y44.6366      R0.9000    
G1   X43.353       Y44.961    
G17 G3   X43.5367      Y44.8201      R0.9000    
G1   X43.139       Y45.049    
G17 G3   X43.3531      Y44.9609      R0.9000    
G1   X42.910       Y45.080    
G17 G3   X43.1394      Y45.0495      R0.9000    
G1   X42.681    
G17 G3   X42.9100      Y45.0796      R0.9000    
G1   X42.467       Y44.961    
G17 G3   X42.6807      Y45.0495      R0.9000    
G1   X42.283       Y44.820    
G17 G3   X42.4669      Y44.9609      R0.9000    
G1   X42.143       Y44.637    
G17 G3   X42.2834      Y44.8201      R0.9000    
G1   X42.054       Y44.423    
G17 G3   X42.1426      Y44.6366      R0.9000    
(Pass: 6)
G1   X42.024       Y44.193    
   Z0.300      F100 
G17 G3   X42.0540      Y44.4228      R0.9000     F400 
G1   Y43.964    
G17 G3   X42.0238      Y44.1935      R0.9000    
G1   X42.143       Y43.750    
G17 G3   X42.0540      Y43.9641      R0.9000    
G1   X42.283       Y43.567    
G17 G3   X42.1426      Y43.7504      R0.9000    
G1   X42.467       Y43.426    
G17 G3   X42.2834      Y43.5668      R0.9000    
G1   X42.681       Y43.337    
G17 G3   X42.4669      Y43.4260      R0.9000    
G1   X42.910       Y43.307    
G17 G3   X42.6807      Y43.3375      R0.9000    
G1   X43.139    
G17 G3   X42.9100      Y43.3073      R0.9000    
G1   X43.353       Y43.426    
G17 G3   X43.1394      Y43.3375      R0.9000    
G1   X43.537       Y43.567    
G17 G3   X43.3531      Y43.4260      R0.9000    
G1   X43.678       Y43.750    
G17 G3   X43.5367      Y43.5668      R0.9000    
G1   X43.766       Y43.964    
G17 G3   X43.6775      Y43.7504      R0.9000    
G1   X43.796       Y44.193    
G17 G3   X43.7660      Y43.9641      R0.9000    
G1   Y44.423    
G17 G3   X43.7962      Y44.1935      R0.9000    
G1   X43.678       Y44.637    
G17 G3   X43.7660      Y44.4228      R0.9000    
G1   X43.537       Y44.820    
G17 G3   X43.6775      Y44.6366      R0.9000    
G1   X43.353       Y44.961    
G17 G3   X43.5367      Y44.8201      R0.9000    
G1   X43.139       Y45.049    
G17 G3   X43.3531      Y44.9609      R0.9000    
G1   X42.910       Y45.080    
G17 G3   X43.1394      Y45.0495      R0.9000    
G1   X42.681    
G17 G3   X42.9100      Y45.0796      R0.9000    
G1   X42.467       Y44.961    
G17 G3   X42.6807      Y45.0495      R0.9000    
G1   X42.283       Y44.820    
G17 G3   X42.4669      Y44.9609      R0.9000    
G1   X42.143       Y44.637    
G17 G3   X42.2834      Y44.8201      R0.9000    
G1   X42.054       Y44.423    
G17 G3   X42.1426      Y44.6366      R0.9000    
(Pass: 7)
G1   X42.024       Y44.193    
   Z0.000      F100 
G17 G3   X42.0540      Y44.4228      R0.9000     F400 
G1   Y43.964    
G17 G3   X42.0238      Y44.1935      R0.9000    
G1   X42.143       Y43.750    
G17 G3   X42.0540      Y43.9641      R0.9000    
G1   X42.283       Y43.567    
G17 G3   X42.1426      Y43.7504      R0.9000    
G1   X42.467       Y43.426    
G17 G3   X42.2834      Y43.5668      R0.9000    
G1   X42.681       Y43.337    
G17 G3   X42.4669      Y43.4260      R0.9000    
G1   X42.910       Y43.307    
G17 G3   X42.6807      Y43.3375      R0.9000    
G1   X43.139    
G17 G3   X42.9100      Y43.3073      R0.9000    
G1   X43.353       Y43.426    
G17 G3   X43.1394      Y43.3375      R0.9000    
G1   X43.537       Y43.567    
G17 G3   X43.3531      Y43.4260      R0.9000    
G1   X43.678       Y43.750    
G17 G3   X43.5367      Y43.5668      R0.9000    
G1   X43.766       Y43.964    
G17 G3   X43.6775      Y43.7504      R0.9000    
G1   X43.796       Y44.193    
G17 G3   X43.7660      Y43.9641      R0.9000    
G1   Y44.423    
G17 G3   X43.7962      Y44.1935      R0.9000    
G1   X43.678       Y44.637    
G17 G3   X43.7660      Y44.4228      R0.9000    
G1   X43.537       Y44.820    
G17 G3   X43.6775      Y44.6366      R0.9000    
G1   X43.353       Y44.961    
G17 G3   X43.5367      Y44.8201      R0.9000    
G1   X43.139       Y45.049    
G17 G3   X43.3531      Y44.9609      R0.9000    
G1   X42.910       Y45.080    
G17 G3   X43.1394      Y45.0495      R0.9000    
G1   X42.681    
G17 G3   X42.9100      Y45.0796      R0.9000    
G1   X42.467       Y44.961    
G17 G3   X42.6807      Y45.0495      R0.9000    
G1   X42.283       Y44.820    
G17 G3   X42.4669      Y44.9609      R0.9000    
G1   X42.143       Y44.637    
G17 G3   X42.2834      Y44.8201      R0.9000    
G1   X42.054       Y44.423    
G17 G3   X42.1426      Y44.6366      R0.9000    
G0   Z21.300    
(Pass: 1)
   X97.537       Y24.834    
G1   Z5.300      F100 
G17 G3   X97.8479      Y25.2386      R1.9685     F400 
G1   X97.342       Y24.362    
G17 G3   X97.5372      Y24.8338      R1.9685    
G1   X97.275       Y23.856    
G17 G3   X97.3419      Y24.3623      R1.9685    
G1   Y23.350    
G17 G3   X97.2753      Y23.8564      R1.9685    
G1   X97.537       Y22.879    
G17 G3   X97.3419      Y23.3505      R1.9685    
G1   X97.848       Y22.474    
G17 G3   X97.5372      Y22.8791      R1.9685    
G1   X98.253       Y22.164    
G17 G3   X97.8479      Y22.4742      R1.9685    
G1   X98.724       Y21.968    
G17 G3   X98.2527      Y22.1636      R1.9685    
G1   X99.230       Y21.902    
G17 G3   X98.7241      Y21.9683      R1.9685    
G1   X99.736    
G17 G3   X99.2300      Y21.9017      R1.9685    
G1   X100.207      Y22.164    
G17 G3   X99.7359      Y21.9683      R1.9685    
G1   X100.612      Y22.474    
G17 G3   X100.2074     Y22.1636      R1.9685    
G1   X100.923      Y22.879    
G17 G3   X100.6122     Y22.4742      R1.9685    
G1   X101.118      Y23.350    
G17 G3   X100.9228     Y22.8791      R1.9685    
G1   X101.185      Y23.856    
G17 G3   X101.1181     Y23.3505      R1.9685    
G1   Y24.362    
G17 G3   X101.1847     Y23.8564      R1.9685    
G1   X100.923      Y24.834    
G17 G3   X101.1181     Y24.3623      R1.9685    
G1   X100.612      Y25.239    
G17 G3   X100.9228     Y24.8338      R1.9685    
G1   X100.207      Y25.549    
G17 G3   X100.6122     Y25.2386      R1.9685    
G1   X99.736       Y25.744    
G17 G3   X100.2074     Y25.5492      R1.9685    
G1   X99.230       Y25.811    
G17 G3   X99.7359      Y25.7445      R1.9685    
G1   X98.724    
G17 G3   X99.2300      Y25.8111      R1.9685    
G1   X98.253       Y25.549    
G17 G3   X98.7241      Y25.7445      R1.9685    
G1   X97.848       Y25.239    
G17 G3   X98.2527      Y25.5492      R1.9685    
(Pass: 2)
G1   X97.537       Y24.834    
   Z4.300      F100 
G17 G3   X97.8479      Y25.2386      R1.9685     F400 
G1   X97.342       Y24.362    
G17 G3   X97.5372      Y24.8338      R1.9685    
G1   X97.275       Y23.856    
G17 G3   X97.3419      Y24.3623      R1.9685    
G1   Y23.350    
G17 G3   X97.2753      Y23.8564      R1.9685    
G1   X97.537       Y22.879    
G17 G3   X97.3419      Y23.3505      R1.9685    
G1   X97.848       Y22.474    
G17 G3   X97.5372      Y22.8791      R1.9685    
G1   X98.253       Y22.164    
G17 G3   X97.8479      Y22.4742      R1.9685    
G1   X98.724       Y21.968    
G17 G3   X98.2527      Y22.1636      R1.9685    
G1   X99.230       Y21.902    
G17 G3   X98.7241      Y21.9683      R1.9685    
G1   X99.736    
G17 G3   X99.2300      Y21.9017      R1.9685    
G1   X100.207      Y22.164    
G17 G3   X99.7359      Y21.9683      R1.9685    
G1   X100.612      Y22.474    
G17 G3   X100.2074     Y22.1636      R1.9685    
G1   X100.923      Y22.879    
G17 G3   X100.6122     Y22.4742      R1.9685    
G1   X101.118      Y23.350    
G17 G3   X100.9228     Y22.8791      R1.9685    
G1   X101.185      Y23.856    
G17 G3   X101.1181     Y23.3505      R1.9685    
G1   Y24.362    
G17 G3   X101.1847     Y23.8564      R1.9685    
G1   X100.923      Y24.834    
G17 G3   X101.1181     Y24.3623      R1.9685    
G1   X100.612      Y25.239    
G17 G3   X100.9228     Y24.8338      R1.9685    
G1   X100.207      Y25.549    
G17 G3   X100.6122     Y25.2386      R1.9685    
G1   X99.736       Y25.744    
G17 G3   X100.2074     Y25.5492      R1.9685    
G1   X99.230       Y25.811    
G17 G3   X99.7359      Y25.7445      R1.9685    
G1   X98.724    
G17 G3   X99.2300      Y25.8111      R1.9685    
G1   X98.253       Y25.549    
G17 G3   X98.7241      Y25.7445      R1.9685    
G1   X97.848       Y25.239    
G17 G3   X98.2527      Y25.5492      R1.9685    
(Pass: 3)
G1   X97.537       Y24.834    
   Z3.300      F100 
G17 G3   X97.8479      Y25.2386      R1.9685     F400 
G1   X97.342       Y24.362    
G17 G3   X97.5372      Y24.8338      R1.9685    
G1   X97.275       Y23.856    
G17 G3   X97.3419      Y24.3623      R1.9685    
G1   Y23.350    
G17 G3   X97.2753      Y23.8564      R1.9685    
G1   X97.537       Y22.879    
G17 G3   X97.3419      Y23.3505      R1.9685    
G1   X97.848       Y22.474    
G17 G3   X97.5372      Y22.8791      R1.9685    
G1   X98.253       Y22.164    
G17 G3   X97.8479      Y22.4742      R1.9685    
G1   X98.724       Y21.968    
G17 G3   X98.2527      Y22.1636      R1.9685    
G1   X99.230       Y21.902    
G17 G3   X98.7241      Y21.9683      R1.9685    
G1   X99.736    
G17 G3   X99.2300      Y21.9017      R1.9685    
G1   X100.207      Y22.164    
G17 G3   X99.7359      Y21.9683      R1.9685    
G1   X100.612      Y22.474    
G17 G3   X100.2074     Y22.1636      R1.9685    
G1   X100.923      Y22.879    
G17 G3   X100.6122     Y22.4742      R1.9685    
G1   X101.118      Y23.350    
G17 G3   X100.9228     Y22.8791      R1.9685    
G1   X101.185      Y23.856    
G17 G3   X101.1181     Y23.3505      R1.9685    
G1   Y24.362    
G17 G3   X101.1847     Y23.8564      R1.9685    
G1   X100.923      Y24.834    
G17 G3   X101.1181     Y24.3623      R1.9685    
G1   X100.612      Y25.239    
G17 G3   X100.9228     Y24.8338      R1.9685    
G1   X100.207      Y25.549    
G17 G3   X100.6122     Y25.2386      R1.9685    
G1   X99.736       Y25.744    
G17 G3   X100.2074     Y25.5492      R1.9685    
G1   X99.230       Y25.811    
G17 G3   X99.7359      Y25.7445      R1.9685    
G1   X98.724    
G17 G3   X99.2300      Y25.8111      R1.9685    
G1   X98.253       Y25.549    
G17 G3   X98.7241      Y25.7445      R1.9685    
G1   X97.848       Y25.239    
G17 G3   X98.2527      Y25.5492      R1.9685    
(Pass: 4)
G1   X97.537       Y24.834    
   Z2.300      F100 
G17 G3   X97.8479      Y25.2386      R1.9685     F400 
G1   X97.342       Y24.362    
G17 G3   X97.5372      Y24.8338      R1.9685    
G1   X97.275       Y23.856    
G17 G3   X97.3419      Y24.3623      R1.9685    
G1   Y23.350    
G17 G3   X97.2753      Y23.8564      R1.9685    
G1   X97.537       Y22.879    
G17 G3   X97.3419      Y23.3505      R1.9685    
G1   X97.848       Y22.474    
G17 G3   X97.5372      Y22.8791      R1.9685    
G1   X98.253       Y22.164    
G17 G3   X97.8479      Y22.4742      R1.9685    
G1   X98.724       Y21.968    
G17 G3   X98.2527      Y22.1636      R1.9685    
G1   X99.230       Y21.902    
G17 G3   X98.7241      Y21.9683      R1.9685    
G1   X99.736    
G17 G3   X99.2300      Y21.9017      R1.9685    
G1   X100.207      Y22.164    
G17 G3   X99.7359      Y21.9683      R1.9685    
G1   X100.612      Y22.474    
G17 G3   X100.2074     Y22.1636      R1.9685    
G1   X100.923      Y22.879    
G17 G3   X100.6122     Y22.4742      R1.9685    
G1   X101.118      Y23.350    
G17 G3   X100.9228     Y22.8791      R1.9685    
G1   X101.185      Y23.856    
G17 G3   X101.1181     Y23.3505      R1.9685    
G1   Y24.362    
G17 G3   X101.1847     Y23.8564      R1.9685    
G1   X100.923      Y24.834    
G17 G3   X101.1181     Y24.3623      R1.9685    
G1   X100.612      Y25.239    
G17 G3   X100.9228     Y24.8338      R1.9685    
G1   X100.207      Y25.549    
G17 G3   X100.6122     Y25.2386      R1.9685    
G1   X99.736       Y25.744    
G17 G3   X100.2074     Y25.5492      R1.9685    
G1   X99.230       Y25.811    
G17 G3   X99.7359      Y25.7445      R1.9685    
G1   X98.724    
G17 G3   X99.2300      Y25.8111      R1.9685    
G1   X98.253       Y25.549    
G17 G3   X98.7241      Y25.7445      R1.9685    
G1   X97.848       Y25.239    
G17 G3   X98.2527      Y25.5492      R1.9685    
(Pass: 5)
G1   X97.537       Y24.834    
   Z1.300      F100 
G17 G3   X97.8479      Y25.2386      R1.9685     F400 
G1   X97.342       Y24.362    
G17 G3   X97.5372      Y24.8338      R1.9685    
G1   X97.275       Y23.856    
G17 G3   X97.3419      Y24.3623      R1.9685    
G1   Y23.350    
G17 G3   X97.2753      Y23.8564      R1.9685    
G1   X97.537       Y22.879    
G17 G3   X97.3419      Y23.3505      R1.9685    
G1   X97.848       Y22.474    
G17 G3   X97.5372      Y22.8791      R1.9685    
G1   X98.253       Y22.164    
G17 G3   X97.8479      Y22.4742      R1.9685    
G1   X98.724       Y21.968    
G17 G3   X98.2527      Y22.1636      R1.9685    
G1   X99.230       Y21.902    
G17 G3   X98.7241      Y21.9683      R1.9685    
G1   X99.736    
G17 G3   X99.2300      Y21.9017      R1.9685    
G1   X100.207      Y22.164    
G17 G3   X99.7359      Y21.9683      R1.9685    
G1   X100.612      Y22.474    
G17 G3   X100.2074     Y22.1636      R1.9685    
G1   X100.923      Y22.879    
G17 G3   X100.6122     Y22.4742      R1.9685    
G1   X101.118      Y23.350    
G17 G3   X100.9228     Y22.8791      R1.9685    
G1   X101.185      Y23.856    
G17 G3   X101.1181     Y23.3505      R1.9685    
G1   Y24.362    
G17 G3   X101.1847     Y23.8564      R1.9685    
G1   X100.923      Y24.834    
G17 G3   X101.1181     Y24.3623      R1.9685    
G1   X100.612      Y25.239    
G17 G3   X100.9228     Y24.8338      R1.9685    
G1   X100.207      Y25.549    
G17 G3   X100.6122     Y25.2386      R1.9685    
G1   X99.736       Y25.744    
G17 G3   X100.2074     Y25.5492      R1.9685    
G1   X99.230       Y25.811    
G17 G3   X99.7359      Y25.7445      R1.9685    
G1   X98.724    
G17 G3   X99.2300      Y25.8111      R1.9685    
G1   X98.253       Y25.549    
G17 G3   X98.7241      Y25.7445      R1.9685    
G1   X97.848       Y25.239    
G17 G3   X98.2527      Y25.5492      R1.9685    
(Pass: 6)
G1   X97.537       Y24.834    
   Z0.300      F100 
G17 G3   X97.8479      Y25.2386      R1.9685     F400 
G1   X97.342       Y24.362    
G17 G3   X97.5372      Y24.8338      R1.9685    
G1   X97.275       Y23.856    
G17 G3   X97.3419      Y24.3623      R1.9685    
G1   Y23.350    
G17 G3   X97.2753      Y23.8564      R1.9685    
G1   X97.537       Y22.879    
G17 G3   X97.3419      Y23.3505      R1.9685    
G1   X97.848       Y22.474    
G17 G3   X97.5372      Y22.8791      R1.9685    
G1   X98.253       Y22.164    
G17 G3   X97.8479      Y22.4742      R1.9685    
G1   X98.724       Y21.968    
G17 G3   X98.2527      Y22.1636      R1.9685    
G1   X99.230       Y21.902    
G17 G3   X98.7241      Y21.9683      R1.9685    
G1   X99.736    
G17 G3   X99.2300      Y21.9017      R1.9685    
G1   X100.207      Y22.164    
G17 G3   X99.7359      Y21.9683      R1.9685    
G1   X100.612      Y22.474    
G17 G3   X100.2074     Y22.1636      R1.9685    
G1   X100.923      Y22.879    
G17 G3   X100.6122     Y22.4742      R1.9685    
G1   X101.118      Y23.350    
G17 G3   X100.9228     Y22.8791      R1.9685    
G1   X101.185      Y23.856    
G17 G3   X101.1181     Y23.3505      R1.9685    
G1   Y24.362    
G17 G3   X101.1847     Y23.8564      R1.9685    
G1   X100.923      Y24.834    
G17 G3   X101.1181     Y24.3623      R1.9685    
G1   X100.612      Y25.239    
G17 G3   X100.9228     Y24.8338      R1.9685    
G1   X100.207      Y25.549    
G17 G3   X100.6122     Y25.2386      R1.9685    
G1   X99.736       Y25.744    
G17 G3   X100.2074     Y25.5492      R1.9685    
G1   X99.230       Y25.811    
G17 G3   X99.7359      Y25.7445      R1.9685    
G1   X98.724    
G17 G3   X99.2300      Y25.8111      R1.9685    
G1   X98.253       Y25.549    
G17 G3   X98.7241      Y25.7445      R1.9685    
G1   X97.848       Y25.239    
G17 G3   X98.2527      Y25.5492      R1.9685    
(Pass: 7)
G1   X97.537       Y24.834    
   Z0.000      F100 
G17 G3   X97.8479      Y25.2386      R1.9685     F400 
G1   X97.342       Y24.362    
G17 G3   X97.5372      Y24.8338      R1.9685    
G1   X97.275       Y23.856    
G17 G3   X97.3419      Y24.3623      R1.9685    
G1   Y23.350    
G17 G3   X97.2753      Y23.8564      R1.9685    
G1   X97.537       Y22.879    
G17 G3   X97.3419      Y23.3505      R1.9685    
G1   X97.848       Y22.474    
G17 G3   X97.5372      Y22.8791      R1.9685    
G1   X98.253       Y22.164    
G17 G3   X97.8479      Y22.4742      R1.9685    
G1   X98.724       Y21.968    
G17 G3   X98.2527      Y22.1636      R1.9685    
G1   X99.230       Y21.902    
G17 G3   X98.7241      Y21.9683      R1.9685    
G1   X99.736    
G17 G3   X99.2300      Y21.9017      R1.9685    
G1   X100.207      Y22.164    
G17 G3   X99.7359      Y21.9683      R1.9685    
G1   X100.612      Y22.474    
G17 G3   X100.2074     Y22.1636      R1.9685    
G1   X100.923      Y22.879    
G17 G3   X100.6122     Y22.4742      R1.9685    
G1   X101.118      Y23.350    
G17 G3   X100.9228     Y22.8791      R1.9685    
G1   X101.185      Y23.856    
G17 G3   X101.1181     Y23.3505      R1.9685    
G1   Y24.362    
G17 G3   X101.1847     Y23.8564      R1.9685    
G1   X100.923      Y24.834    
G17 G3   X101.1181     Y24.3623      R1.9685    
G1   X100.612      Y25.239    
G17 G3   X100.9228     Y24.8338      R1.9685    
G1   X100.207      Y25.549    
G17 G3   X100.6122     Y25.2386      R1.9685    
G1   X99.736       Y25.744    
G17 G3   X100.2074     Y25.5492      R1.9685    
G1   X99.230       Y25.811    
G17 G3   X99.7359      Y25.7445      R1.9685    
G1   X98.724    
G17 G3   X99.2300      Y25.8111      R1.9685    
G1   X98.253       Y25.549    
G17 G3   X98.7241      Y25.7445      R1.9685    
G1   X97.848       Y25.239    
G17 G3   X98.2527      Y25.5492      R1.9685    
G0   Z21.300    
(Pass: 1)
   X172.595      Y23.856    
G1   Z5.300      F100 
G17 G3   X172.6619     Y24.3623      R1.9685     F400 
G1   Y23.350    
G17 G3   X172.5953     Y23.8564      R1.9685    
G1   X172.857      Y22.879    
G17 G3   X172.6619     Y23.3505      R1.9685    
G1   X173.168      Y22.474    
G17 G3   X172.8572     Y22.8791      R1.9685    
G1   X173.573      Y22.164    
G17 G3   X173.1679     Y22.4742      R1.9685    
G1   X174.044      Y21.968    
G17 G3   X173.5727     Y22.1636      R1.9685    
G1   X174.550      Y21.902    
G17 G3   X174.0441     Y21.9683      R1.9685    
G1   X175.056   
G17 G3   X174.5500     Y21.9017      R1.9685    
G1   X175.527      Y22.164    
G17 G3   X175.0559     Y21.9683      R1.9685    
G1   X175.932      Y22.474    
G17 G3   X175.5274     Y22.1636      R1.9685    
G1   X176.243      Y22.879    
G17 G3   X175.9322     Y22.4742      R1.9685    
G1   X176.438      Y23.350    
G17 G3   X176.2428     Y22.8791      R1.9685    
G1   X176.505      Y23.856    
G17 G3   X176.4381     Y23.3505      R1.9685    
G1   Y24.362    
G17 G3   X176.5047     Y23.8564      R1.9685    
G1   X176.243      Y24.834    
G17 G3   X176.4381     Y24.3623      R1.9685    
G1   X175.932      Y25.239    
G17 G3   X176.2428     Y24.8338      R1.9685    
G1   X175.527      Y25.549    
G17 G3   X175.9322     Y25.2386      R1.9685    
G1   X175.056      Y25.744    
G17 G3   X175.5274     Y25.5492      R1.9685    
G1   X174.550      Y25.811    
G17 G3   X175.0559     Y25.7445      R1.9685    
G1   X174.044   
G17 G3   X174.5500     Y25.8111      R1.9685    
G1   X173.573      Y25.549    
G17 G3   X174.0441     Y25.7445      R1.9685    
G1   X173.168      Y25.239    
G17 G3   X173.5727     Y25.5492      R1.9685    
G1   X172.857      Y24.834    
G17 G3   X173.1679     Y25.2386      R1.9685    
G1   X172.662      Y24.362    
G17 G3   X172.8572     Y24.8338      R1.9685    
(Pass: 2)
G1   X172.595      Y23.856    
   Z4.300      F100 
G17 G3   X172.6619     Y24.3623      R1.9685     F400 
G1   Y23.350    
G17 G3   X172.5953     Y23.8564      R1.9685    
G1   X172.857      Y22.879    
G17 G3   X172.6619     Y23.3505      R1.9685    
G1   X173.168      Y22.474    
G17 G3   X172.8572     Y22.8791      R1.9685    
G1   X173.573      Y22.164    
G17 G3   X173.1679     Y22.4742      R1.9685    
G1   X174.044      Y21.968    
G17 G3   X173.5727     Y22.1636      R1.9685    
G1   X174.550      Y21.902    
G17 G3   X174.0441     Y21.9683      R1.9685    
G1   X175.056   
G17 G3   X174.5500     Y21.9017      R1.9685    
G1   X175.527      Y22.164    
G17 G3   X175.0559     Y21.9683      R1.9685    
G1   X175.932      Y22.474    
G17 G3   X175.5274     Y22.1636      R1.9685    
G1   X176.243      Y22.879    
G17 G3   X175.9322     Y22.4742      R1.9685    
G1   X176.438      Y23.350    
G17 G3   X176.2428     Y22.8791      R1.9685    
G1   X176.505      Y23.856    
G17 G3   X176.4381     Y23.3505      R1.9685    
G1   Y24.362    
G17 G3   X176.5047     Y23.8564      R1.9685    
G1   X176.243      Y24.834    
G17 G3   X176.4381     Y24.3623      R1.9685    
G1   X175.932      Y25.239    
G17 G3   X176.2428     Y24.8338      R1.9685    
G1   X175.527      Y25.549    
G17 G3   X175.9322     Y25.2386      R1.9685    
G1   X175.056      Y25.744    
G17 G3   X175.5274     Y25.5492      R1.9685    
G1   X174.550      Y25.811    
G17 G3   X175.0559     Y25.7445      R1.9685    
G1   X174.044   
G17 G3   X174.5500     Y25.8111      R1.9685    
G1   X173.573      Y25.549    
G17 G3   X174.0441     Y25.7445      R1.9685    
G1   X173.168      Y25.239    
G17 G3   X173.5727     Y25.5492      R1.9685    
G1   X172.857      Y24.834    
G17 G3   X173.1679     Y25.2386      R1.9685    
G1   X172.662      Y24.362    
G17 G3   X172.8572     Y24.8338      R1.9685    
(Pass: 3)
G1   X172.595      Y23.856    
   Z3.300      F100 
G17 G3   X172.6619     Y24.3623      R1.9685     F400 
G1   Y23.350    
G17 G3   X172.5953     Y23.8564      R1.9685    
G1   X172.857      Y22.879    
G17 G3   X172.6619     Y23.3505      R1.9685    
G1   X173.168      Y22.474    
G17 G3   X172.8572     Y22.8791      R1.9685    
G1   X173.573      Y22.164    
G17 G3   X173.1679     Y22.4742      R1.9685    
G1   X174.044      Y21.968    
G17 G3   X173.5727     Y22.1636      R1.9685    
G1   X174.550      Y21.902    
G17 G3   X174.0441     Y21.9683      R1.9685    
G1   X175.056   
G17 G3   X174.5500     Y21.9017      R1.9685    
G1   X175.527      Y22.164    
G17 G3   X175.0559     Y21.9683      R1.9685    
G1   X175.932      Y22.474    
G17 G3   X175.5274     Y22.1636      R1.9685    
G1   X176.243      Y22.879    
G17 G3   X175.9322     Y22.4742      R1.9685    
G1   X176.438      Y23.350    
G17 G3   X176.2428     Y22.8791      R1.9685    
G1   X176.505      Y23.856    
G17 G3   X176.4381     Y23.3505      R1.9685    
G1   Y24.362    
G17 G3   X176.5047     Y23.8564      R1.9685    
G1   X176.243      Y24.834    
G17 G3   X176.4381     Y24.3623      R1.9685    
G1   X175.932      Y25.239    
G17 G3   X176.2428     Y24.8338      R1.9685    
G1   X175.527      Y25.549    
G17 G3   X175.9322     Y25.2386      R1.9685    
G1   X175.056      Y25.744    
G17 G3   X175.5274     Y25.5492      R1.9685    
G1   X174.550      Y25.811    
G17 G3   X175.0559     Y25.7445      R1.9685    
G1   X174.044   
G17 G3   X174.5500     Y25.8111      R1.9685    
G1   X173.573      Y25.549    
G17 G3   X174.0441     Y25.7445      R1.9685    
G1   X173.168      Y25.239    
G17 G3   X173.5727     Y25.5492      R1.9685    
G1   X172.857      Y24.834    
G17 G3   X173.1679     Y25.2386      R1.9685    
G1   X172.662      Y24.362    
G17 G3   X172.8572     Y24.8338      R1.9685    
(Pass: 4)
G1   X172.595      Y23.856    
   Z2.300      F100 
G17 G3   X172.6619     Y24.3623      R1.9685     F400 
G1   Y23.350    
G17 G3   X172.5953     Y23.8564      R1.9685    
G1   X172.857      Y22.879    
G17 G3   X172.6619     Y23.3505      R1.9685    
G1   X173.168      Y22.474    
G17 G3   X172.8572     Y22.8791      R1.9685    
G1   X173.573      Y22.164    
G17 G3   X173.1679     Y22.4742      R1.9685    
G1   X174.044      Y21.968    
G17 G3   X173.5727     Y22.1636      R1.9685    
G1   X174.550      Y21.902    
G17 G3   X174.0441     Y21.9683      R1.9685    
G1   X175.056   
G17 G3   X174.5500     Y21.9017      R1.9685    
G1   X175.527      Y22.164    
G17 G3   X175.0559     Y21.9683      R1.9685    
G1   X175.932      Y22.474    
G17 G3   X175.5274     Y22.1636      R1.9685    
G1   X176.243      Y22.879    
G17 G3   X175.9322     Y22.4742      R1.9685    
G1   X176.438      Y23.350    
G17 G3   X176.2428     Y22.8791      R1.9685    
G1   X176.505      Y23.856    
G17 G3   X176.4381     Y23.3505      R1.9685    
G1   Y24.362    
G17 G3   X176.5047     Y23.8564      R1.9685    
G1   X176.243      Y24.834    
G17 G3   X176.4381     Y24.3623      R1.9685    
G1   X175.932      Y25.239    
G17 G3   X176.2428     Y24.8338      R1.9685    
G1   X175.527      Y25.549    
G17 G3   X175.9322     Y25.2386      R1.9685    
G1   X175.056      Y25.744    
G17 G3   X175.5274     Y25.5492      R1.9685    
G1   X174.550      Y25.811    
G17 G3   X175.0559     Y25.7445      R1.9685    
G1   X174.044   
G17 G3   X174.5500     Y25.8111      R1.9685    
G1   X173.573      Y25.549    
G17 G3   X174.0441     Y25.7445      R1.9685    
G1   X173.168      Y25.239    
G17 G3   X173.5727     Y25.5492      R1.9685    
G1   X172.857      Y24.834    
G17 G3   X173.1679     Y25.2386      R1.9685    
G1   X172.662      Y24.362    
G17 G3   X172.8572     Y24.8338      R1.9685    
(Pass: 5)
G1   X172.595      Y23.856    
   Z1.300      F100 
G17 G3   X172.6619     Y24.3623      R1.9685     F400 
G1   Y23.350    
G17 G3   X172.5953     Y23.8564      R1.9685    
G1   X172.857      Y22.879    
G17 G3   X172.6619     Y23.3505      R1.9685    
G1   X173.168      Y22.474    
G17 G3   X172.8572     Y22.8791      R1.9685    
G1   X173.573      Y22.164    
G17 G3   X173.1679     Y22.4742      R1.9685    
G1   X174.044      Y21.968    
G17 G3   X173.5727     Y22.1636      R1.9685    
G1   X174.550      Y21.902    
G17 G3   X174.0441     Y21.9683      R1.9685    
G1   X175.056   
G17 G3   X174.5500     Y21.9017      R1.9685    
G1   X175.527      Y22.164    
G17 G3   X175.0559     Y21.9683      R1.9685    
G1   X175.932      Y22.474    
G17 G3   X175.5274     Y22.1636      R1.9685    
G1   X176.243      Y22.879    
G17 G3   X175.9322     Y22.4742      R1.9685    
G1   X176.438      Y23.350    
G17 G3   X176.2428     Y22.8791      R1.9685    
G1   X176.505      Y23.856    
G17 G3   X176.4381     Y23.3505      R1.9685    
G1   Y24.362    
G17 G3   X176.5047     Y23.8564      R1.9685    
G1   X176.243      Y24.834    
G17 G3   X176.4381     Y24.3623      R1.9685    
G1   X175.932      Y25.239    
G17 G3   X176.2428     Y24.8338      R1.9685    
G1   X175.527      Y25.549    
G17 G3   X175.9322     Y25.2386      R1.9685    
G1   X175.056      Y25.744    
G17 G3   X175.5274     Y25.5492      R1.9685    
G1   X174.550      Y25.811    
G17 G3   X175.0559     Y25.7445      R1.9685    
G1   X174.044   
G17 G3   X174.5500     Y25.8111      R1.9685    
G1   X173.573      Y25.549    
G17 G3   X174.0441     Y25.7445      R1.9685    
G1   X173.168      Y25.239    
G17 G3   X173.5727     Y25.5492      R1.9685    
G1   X172.857      Y24.834    
G17 G3   X173.1679     Y25.2386      R1.9685    
G1   X172.662      Y24.362    
G17 G3   X172.8572     Y24.8338      R1.9685    
(Pass: 6)
G1   X172.595      Y23.856    
   Z0.300      F100 
G17 G3   X172.6619     Y24.3623      R1.9685     F400 
G1   Y23.350    
G17 G3   X172.5953     Y23.8564      R1.9685    
G1   X172.857      Y22.879    
G17 G3   X172.6619     Y23.3505      R1.9685    
G1   X173.168      Y22.474    
G17 G3   X172.8572     Y22.8791      R1.9685    
G1   X173.573      Y22.164    
G17 G3   X173.1679     Y22.4742      R1.9685    
G1   X174.044      Y21.968    
G17 G3   X173.5727     Y22.1636      R1.9685    
G1   X174.550      Y21.902    
G17 G3   X174.0441     Y21.9683      R1.9685    
G1   X175.056   
G17 G3   X174.5500     Y21.9017      R1.9685    
G1   X175.527      Y22.164    
G17 G3   X175.0559     Y21.9683      R1.9685    
G1   X175.932      Y22.474    
G17 G3   X175.5274     Y22.1636      R1.9685    
G1   X176.243      Y22.879    
G17 G3   X175.9322     Y22.4742      R1.9685    
G1   X176.438      Y23.350    
G17 G3   X176.2428     Y22.8791      R1.9685    
G1   X176.505      Y23.856    
G17 G3   X176.4381     Y23.3505      R1.9685    
G1   Y24.362    
G17 G3   X176.5047     Y23.8564      R1.9685    
G1   X176.243      Y24.834    
G17 G3   X176.4381     Y24.3623      R1.9685    
G1   X175.932      Y25.239    
G17 G3   X176.2428     Y24.8338      R1.9685    
G1   X175.527      Y25.549    
G17 G3   X175.9322     Y25.2386      R1.9685    
G1   X175.056      Y25.744    
G17 G3   X175.5274     Y25.5492      R1.9685    
G1   X174.550      Y25.811    
G17 G3   X175.0559     Y25.7445      R1.9685    
G1   X174.044   
G17 G3   X174.5500     Y25.8111      R1.9685    
G1   X173.573      Y25.549    
G17 G3   X174.0441     Y25.7445      R1.9685    
G1   X173.168      Y25.239    
G17 G3   X173.5727     Y25.5492      R1.9685    
G1   X172.857      Y24.834    
G17 G3   X173.1679     Y25.2386      R1.9685    
G1   X172.662      Y24.362    
G17 G3   X172.8572     Y24.8338      R1.9685    
(Pass: 7)
G1   X172.595      Y23.856    
   Z0.000      F100 
G17 G3   X172.6619     Y24.3623      R1.9685     F400 
G1   Y23.350    
G17 G3   X172.5953     Y23.8564      R1.9685    
G1   X172.857      Y22.879    
G17 G3   X172.6619     Y23.3505      R1.9685    
G1   X173.168      Y22.474    
G17 G3   X172.8572     Y22.8791      R1.9685    
G1   X173.573      Y22.164    
G17 G3   X173.1679     Y22.4742      R1.9685    
G1   X174.044      Y21.968    
G17 G3   X173.5727     Y22.1636      R1.9685    
G1   X174.550      Y21.902    
G17 G3   X174.0441     Y21.9683      R1.9685    
G1   X175.056   
G17 G3   X174.5500     Y21.9017      R1.9685    
G1   X175.527      Y22.164    
G17 G3   X175.0559     Y21.9683      R1.9685    
G1   X175.932      Y22.474    
G17 G3   X175.5274     Y22.1636      R1.9685    
G1   X176.243      Y22.879    
G17 G3   X175.9322     Y22.4742      R1.9685    
G1   X176.438      Y23.350    
G17 G3   X176.2428     Y22.8791      R1.9685    
G1   X176.505      Y23.856    
G17 G3   X176.4381     Y23.3505      R1.9685    
G1   Y24.362    
G17 G3   X176.5047     Y23.8564      R1.9685    
G1   X176.243      Y24.834    
G17 G3   X176.4381     Y24.3623      R1.9685    
G1   X175.932      Y25.239    
G17 G3   X176.2428     Y24.8338      R1.9685    
G1   X175.527      Y25.549    
G17 G3   X175.9322     Y25.2386      R1.9685    
G1   X175.056      Y25.744    
G17 G3   X175.5274     Y25.5492      R1.9685    
G1   X174.550      Y25.811    
G17 G3   X175.0559     Y25.7445      R1.9685    
G1   X174.044   
G17 G3   X174.5500     Y25.8111      R1.9685    
G1   X173.573      Y25.549    
G17 G3   X174.0441     Y25.7445      R1.9685    
G1   X173.168      Y25.239    
G17 G3   X173.5727     Y25.5492      R1.9685    
G1   X172.857      Y24.834    
G17 G3   X173.1679     Y25.2386      R1.9685    
G1   X172.662      Y24.362    
G17 G3   X172.8572     Y24.8338      R1.9685    
G0   Z21.300    
(Pass: 1)
   X183.460      Y33.761    
G1   Z5.300      F100 
G17 G3   X183.3828     Y33.9788      R0.9000     F400 
G1   X183.590      Y33.570    
G17 G3   X183.4595     Y33.7605      R0.9000    
G1   X183.766      Y33.419    
G17 G3   X183.5902     Y33.5696      R0.9000    
G1   X183.974      Y33.319    
G17 G3   X183.7657     Y33.4189      R0.9000    
G1   X184.202      Y33.276    
G17 G3   X183.9743     Y33.3189      R0.9000    
G1   X184.432   
G17 G3   X184.2017     Y33.2762      R0.9000    
G1   X184.651      Y33.371    
G17 G3   X184.4324     Y33.2939      R0.9000    
G1   X184.842      Y33.501    
G17 G3   X184.6506     Y33.3706      R0.9000    
G1   X184.992      Y33.677    
G17 G3   X184.8416     Y33.5012      R0.9000    
G1   X185.092      Y33.885    
G17 G3   X184.9922     Y33.6768      R0.9000    
G1   X185.135      Y34.113    
G17 G3   X185.0922     Y33.8854      R0.9000    
G1   Y34.343    
G17 G3   X185.1349     Y34.1128      R0.9000    
G1   X185.041      Y34.562    
G17 G3   X185.1173     Y34.3434      R0.9000    
G1   X184.910      Y34.753    
G17 G3   X185.0405     Y34.5617      R0.9000    
G1   X184.734      Y34.903    
G17 G3   X184.9099     Y34.7526      R0.9000    
G1   X184.526      Y35.003    
G17 G3   X184.7343     Y34.9033      R0.9000    
G1   X184.298      Y35.046    
G17 G3   X184.5257     Y35.0033      R0.9000    
G1   X184.236      Y35.041    
G17 G3   X184.2984     Y35.0460      R0.9000    
G1   X184.068   
G17 G3   X184.2357     Y35.0412      R0.9000    
G1   X183.849      Y34.952    
G17 G3   X184.0677     Y35.0283      R0.9000    
G1   X183.659      Y34.821    
G17 G3   X183.8495     Y34.9516      R0.9000    
G1   X183.508      Y34.645    
G17 G3   X183.6585     Y34.8210      R0.9000    
G1   X183.408      Y34.437    
G17 G3   X183.5079     Y34.6454      R0.9000    
G1   X183.365      Y34.209    
G17 G3   X183.4078     Y34.4368      R0.9000    
G1   Y33.979    
G17 G3   X183.3652     Y34.2094      R0.9000    
(Pass: 2)
G1   X183.460      Y33.761    
   Z4.300      F100 
G17 G3   X183.3828     Y33.9788      R0.9000     F400 
G1   X183.590      Y33.570    
G17 G3   X183.4595     Y33.7605      R0.9000    
G1   X183.766      Y33.419    
G17 G3   X183.5902     Y33.5696      R0.9000    
G1   X183.974      Y33.319    
G17 G3   X183.7657     Y33.4189      R0.9000    
G1   X184.202      Y33.276    
G17 G3   X183.9743     Y33.3189      R0.9000    
G1   X184.432   
G17 G3   X184.2017     Y33.2762      R0.9000    
G1   X184.651      Y33.371    
G17 G3   X184.4324     Y33.2939      R0.9000    
G1   X184.842      Y33.501    
G17 G3   X184.6506     Y33.3706      R0.9000    
G1   X184.992      Y33.677    
G17 G3   X184.8416     Y33.5012      R0.9000    
G1   X185.092      Y33.885    
G17 G3   X184.9922     Y33.6768      R0.9000    
G1   X185.135      Y34.113    
G17 G3   X185.0922     Y33.8854      R0.9000    
G1   Y34.343    
G17 G3   X185.1349     Y34.1128      R0.9000    
G1   X185.041      Y34.562    
G17 G3   X185.1173     Y34.3434      R0.9000    
G1   X184.910      Y34.753    
G17 G3   X185.0405     Y34.5617      R0.9000    
G1   X184.734      Y34.903    
G17 G3   X184.9099     Y34.7526      R0.9000    
G1   X184.526      Y35.003    
G17 G3   X184.7343     Y34.9033      R0.9000    
G1   X184.298      Y35.046    
G17 G3   X184.5257     Y35.0033      R0.9000    
G1   X184.236      Y35.041    
G17 G3   X184.2984     Y35.0460      R0.9000    
G1   X184.068   
G17 G3   X184.2357     Y35.0412      R0.9000    
G1   X183.849      Y34.952    
G17 G3   X184.0677     Y35.0283      R0.9000    
G1   X183.659      Y34.821    
G17 G3   X183.8495     Y34.9516      R0.9000    
G1   X183.508      Y34.645    
G17 G3   X183.6585     Y34.8210      R0.9000    
G1   X183.408      Y34.437    
G17 G3   X183.5079     Y34.6454      R0.9000    
G1   X183.365      Y34.209    
G17 G3   X183.4078     Y34.4368      R0.9000    
G1   Y33.979    
G17 G3   X183.3652     Y34.2094      R0.9000    
(Pass: 3)
G1   X183.460      Y33.761    
   Z3.300      F100 
G17 G3   X183.3828     Y33.9788      R0.9000     F400 
G1   X183.590      Y33.570    
G17 G3   X183.4595     Y33.7605      R0.9000    
G1   X183.766      Y33.419    
G17 G3   X183.5902     Y33.5696      R0.9000    
G1   X183.974      Y33.319    
G17 G3   X183.7657     Y33.4189      R0.9000    
G1   X184.202      Y33.276    
G17 G3   X183.9743     Y33.3189      R0.9000    
G1   X184.432   
G17 G3   X184.2017     Y33.2762      R0.9000    
G1   X184.651      Y33.371    
G17 G3   X184.4324     Y33.2939      R0.9000    
G1   X184.842      Y33.501    
G17 G3   X184.6506     Y33.3706      R0.9000    
G1   X184.992      Y33.677    
G17 G3   X184.8416     Y33.5012      R0.9000    
G1   X185.092      Y33.885    
G17 G3   X184.9922     Y33.6768      R0.9000    
G1   X185.135      Y34.113    
G17 G3   X185.0922     Y33.8854      R0.9000    
G1   Y34.343    
G17 G3   X185.1349     Y34.1128      R0.9000    
G1   X185.041      Y34.562    
G17 G3   X185.1173     Y34.3434      R0.9000    
G1   X184.910      Y34.753    
G17 G3   X185.0405     Y34.5617      R0.9000    
G1   X184.734      Y34.903    
G17 G3   X184.9099     Y34.7526      R0.9000    
G1   X184.526      Y35.003    
G17 G3   X184.7343     Y34.9033      R0.9000    
G1   X184.298      Y35.046    
G17 G3   X184.5257     Y35.0033      R0.9000    
G1   X184.236      Y35.041    
G17 G3   X184.2984     Y35.0460      R0.9000    
G1   X184.068   
G17 G3   X184.2357     Y35.0412      R0.9000    
G1   X183.849      Y34.952    
G17 G3   X184.0677     Y35.0283      R0.9000    
G1   X183.659      Y34.821    
G17 G3   X183.8495     Y34.9516      R0.9000    
G1   X183.508      Y34.645    
G17 G3   X183.6585     Y34.8210      R0.9000    
G1   X183.408      Y34.437    
G17 G3   X183.5079     Y34.6454      R0.9000    
G1   X183.365      Y34.209    
G17 G3   X183.4078     Y34.4368      R0.9000    
G1   Y33.979    
G17 G3   X183.3652     Y34.2094      R0.9000    
(Pass: 4)
G1   X183.460      Y33.761    
   Z2.300      F100 
G17 G3   X183.3828     Y33.9788      R0.9000     F400 
G1   X183.590      Y33.570    
G17 G3   X183.4595     Y33.7605      R0.9000    
G1   X183.766      Y33.419    
G17 G3   X183.5902     Y33.5696      R0.9000    
G1   X183.974      Y33.319    
G17 G3   X183.7657     Y33.4189      R0.9000    
G1   X184.202      Y33.276    
G17 G3   X183.9743     Y33.3189      R0.9000    
G1   X184.432   
G17 G3   X184.2017     Y33.2762      R0.9000    
G1   X184.651      Y33.371    
G17 G3   X184.4324     Y33.2939      R0.9000    
G1   X184.842      Y33.501    
G17 G3   X184.6506     Y33.3706      R0.9000    
G1   X184.992      Y33.677    
G17 G3   X184.8416     Y33.5012      R0.9000    
G1   X185.092      Y33.885    
G17 G3   X184.9922     Y33.6768      R0.9000    
G1   X185.135      Y34.113    
G17 G3   X185.0922     Y33.8854      R0.9000    
G1   Y34.343    
G17 G3   X185.1349     Y34.1128      R0.9000    
G1   X185.041      Y34.562    
G17 G3   X185.1173     Y34.3434      R0.9000    
G1   X184.910      Y34.753    
G17 G3   X185.0405     Y34.5617      R0.9000    
G1   X184.734      Y34.903    
G17 G3   X184.9099     Y34.7526      R0.9000    
G1   X184.526      Y35.003    
G17 G3   X184.7343     Y34.9033      R0.9000    
G1   X184.298      Y35.046    
G17 G3   X184.5257     Y35.0033      R0.9000    
G1   X184.236      Y35.041    
G17 G3   X184.2984     Y35.0460      R0.9000    
G1   X184.068   
G17 G3   X184.2357     Y35.0412      R0.9000    
G1   X183.849      Y34.952    
G17 G3   X184.0677     Y35.0283      R0.9000    
G1   X183.659      Y34.821    
G17 G3   X183.8495     Y34.9516      R0.9000    
G1   X183.508      Y34.645    
G17 G3   X183.6585     Y34.8210      R0.9000    
G1   X183.408      Y34.437    
G17 G3   X183.5079     Y34.6454      R0.9000    
G1   X183.365      Y34.209    
G17 G3   X183.4078     Y34.4368      R0.9000    
G1   Y33.979    
G17 G3   X183.3652     Y34.2094      R0.9000    
(Pass: 5)
G1   X183.460      Y33.761    
   Z1.300      F100 
G17 G3   X183.3828     Y33.9788      R0.9000     F400 
G1   X183.590      Y33.570    
G17 G3   X183.4595     Y33.7605      R0.9000    
G1   X183.766      Y33.419    
G17 G3   X183.5902     Y33.5696      R0.9000    
G1   X183.974      Y33.319    
G17 G3   X183.7657     Y33.4189      R0.9000    
G1   X184.202      Y33.276    
G17 G3   X183.9743     Y33.3189      R0.9000    
G1   X184.432   
G17 G3   X184.2017     Y33.2762      R0.9000    
G1   X184.651      Y33.371    
G17 G3   X184.4324     Y33.2939      R0.9000    
G1   X184.842      Y33.501    
G17 G3   X184.6506     Y33.3706      R0.9000    
G1   X184.992      Y33.677    
G17 G3   X184.8416     Y33.5012      R0.9000    
G1   X185.092      Y33.885    
G17 G3   X184.9922     Y33.6768      R0.9000    
G1   X185.135      Y34.113    
G17 G3   X185.0922     Y33.8854      R0.9000    
G1   Y34.343    
G17 G3   X185.1349     Y34.1128      R0.9000    
G1   X185.041      Y34.562    
G17 G3   X185.1173     Y34.3434      R0.9000    
G1   X184.910      Y34.753    
G17 G3   X185.0405     Y34.5617      R0.9000    
G1   X184.734      Y34.903    
G17 G3   X184.9099     Y34.7526      R0.9000    
G1   X184.526      Y35.003    
G17 G3   X184.7343     Y34.9033      R0.9000    
G1   X184.298      Y35.046    
G17 G3   X184.5257     Y35.0033      R0.9000    
G1   X184.236      Y35.041    
G17 G3   X184.2984     Y35.0460      R0.9000    
G1   X184.068   
G17 G3   X184.2357     Y35.0412      R0.9000    
G1   X183.849      Y34.952    
G17 G3   X184.0677     Y35.0283      R0.9000    
G1   X183.659      Y34.821    
G17 G3   X183.8495     Y34.9516      R0.9000    
G1   X183.508      Y34.645    
G17 G3   X183.6585     Y34.8210      R0.9000    
G1   X183.408      Y34.437    
G17 G3   X183.5079     Y34.6454      R0.9000    
G1   X183.365      Y34.209    
G17 G3   X183.4078     Y34.4368      R0.9000    
G1   Y33.979    
G17 G3   X183.3652     Y34.2094      R0.9000    
(Pass: 6)
G1   X183.460      Y33.761    
   Z0.300      F100 
G17 G3   X183.3828     Y33.9788      R0.9000     F400 
G1   X183.590      Y33.570    
G17 G3   X183.4595     Y33.7605      R0.9000    
G1   X183.766      Y33.419    
G17 G3   X183.5902     Y33.5696      R0.9000    
G1   X183.974      Y33.319    
G17 G3   X183.7657     Y33.4189      R0.9000    
G1   X184.202      Y33.276    
G17 G3   X183.9743     Y33.3189      R0.9000    
G1   X184.432   
G17 G3   X184.2017     Y33.2762      R0.9000    
G1   X184.651      Y33.371    
G17 G3   X184.4324     Y33.2939      R0.9000    
G1   X184.842      Y33.501    
G17 G3   X184.6506     Y33.3706      R0.9000    
G1   X184.992      Y33.677    
G17 G3   X184.8416     Y33.5012      R0.9000    
G1   X185.092      Y33.885    
G17 G3   X184.9922     Y33.6768      R0.9000    
G1   X185.135      Y34.113    
G17 G3   X185.0922     Y33.8854      R0.9000    
G1   Y34.343    
G17 G3   X185.1349     Y34.1128      R0.9000    
G1   X185.041      Y34.562    
G17 G3   X185.1173     Y34.3434      R0.9000    
G1   X184.910      Y34.753    
G17 G3   X185.0405     Y34.5617      R0.9000    
G1   X184.734      Y34.903    
G17 G3   X184.9099     Y34.7526      R0.9000    
G1   X184.526      Y35.003    
G17 G3   X184.7343     Y34.9033      R0.9000    
G1   X184.298      Y35.046    
G17 G3   X184.5257     Y35.0033      R0.9000    
G1   X184.236      Y35.041    
G17 G3   X184.2984     Y35.0460      R0.9000    
G1   X184.068   
G17 G3   X184.2357     Y35.0412      R0.9000    
G1   X183.849      Y34.952    
G17 G3   X184.0677     Y35.0283      R0.9000    
G1   X183.659      Y34.821    
G17 G3   X183.8495     Y34.9516      R0.9000    
G1   X183.508      Y34.645    
G17 G3   X183.6585     Y34.8210      R0.9000    
G1   X183.408      Y34.437    
G17 G3   X183.5079     Y34.6454      R0.9000    
G1   X183.365      Y34.209    
G17 G3   X183.4078     Y34.4368      R0.9000    
G1   Y33.979    
G17 G3   X183.3652     Y34.2094      R0.9000    
(Pass: 7)
G1   X183.460      Y33.761    
   Z0.000      F100 
G17 G3   X183.3828     Y33.9788      R0.9000     F400 
G1   X183.590      Y33.570    
G17 G3   X183.4595     Y33.7605      R0.9000    
G1   X183.766      Y33.419    
G17 G3   X183.5902     Y33.5696      R0.9000    
G1   X183.974      Y33.319    
G17 G3   X183.7657     Y33.4189      R0.9000    
G1   X184.202      Y33.276    
G17 G3   X183.9743     Y33.3189      R0.9000    
G1   X184.432   
G17 G3   X184.2017     Y33.2762      R0.9000    
G1   X184.651      Y33.371    
G17 G3   X184.4324     Y33.2939      R0.9000    
G1   X184.842      Y33.501    
G17 G3   X184.6506     Y33.3706      R0.9000    
G1   X184.992      Y33.677    
G17 G3   X184.8416     Y33.5012      R0.9000    
G1   X185.092      Y33.885    
G17 G3   X184.9922     Y33.6768      R0.9000    
G1   X185.135      Y34.113    
G17 G3   X185.0922     Y33.8854      R0.9000    
G1   Y34.343    
G17 G3   X185.1349     Y34.1128      R0.9000    
G1   X185.041      Y34.562    
G17 G3   X185.1173     Y34.3434      R0.9000    
G1   X184.910      Y34.753    
G17 G3   X185.0405     Y34.5617      R0.9000    
G1   X184.734      Y34.903    
G17 G3   X184.9099     Y34.7526      R0.9000    
G1   X184.526      Y35.003    
G17 G3   X184.7343     Y34.9033      R0.9000    
G1   X184.298      Y35.046    
G17 G3   X184.5257     Y35.0033      R0.9000    
G1   X184.236      Y35.041    
G17 G3   X184.2984     Y35.0460      R0.9000    
G1   X184.068   
G17 G3   X184.2357     Y35.0412      R0.9000    
G1   X183.849      Y34.952    
G17 G3   X184.0677     Y35.0283      R0.9000    
G1   X183.659      Y34.821    
G17 G3   X183.8495     Y34.9516      R0.9000    
G1   X183.508      Y34.645    
G17 G3   X183.6585     Y34.8210      R0.9000    
G1   X183.408      Y34.437    
G17 G3   X183.5079     Y34.6454      R0.9000    
G1   X183.365      Y34.209    
G17 G3   X183.4078     Y34.4368      R0.9000    
G1   Y33.979    
G17 G3   X183.3652     Y34.2094      R0.9000    
G0   Z21.300    
(Pass: 1)
   X184.174      Y43.310    
G1   Z5.300      F100 
G17 G3   X183.9484     Y43.3602      R0.9000     F400 
G1   X184.405      Y43.321    
G17 G3   X184.1744     Y43.3105      R0.9000    
G1   X184.626      Y43.391    
G17 G3   X184.4055     Y43.3210      R0.9000    
G1   X184.821      Y43.516    
G17 G3   X184.6260     Y43.3910      R0.9000    
G1   X184.977      Y43.686    
G17 G3   X184.8209     Y43.5156      R0.9000    
G1   X185.083      Y43.892    
G17 G3   X184.9769     Y43.6864      R0.9000    
G1   X185.133      Y44.118    
G17 G3   X185.0833     Y43.8918      R0.9000    
G1   X185.122      Y44.349    
G17 G3   X185.1330     Y44.1178      R0.9000    
G1   X185.053      Y44.569    
G17 G3   X185.1225     Y44.3489      R0.9000    
G1   X184.928      Y44.764    
G17 G3   X185.0525     Y44.5694      R0.9000    
G1   X184.757      Y44.920    
G17 G3   X184.9279     Y44.7643      R0.9000    
G1   X184.552      Y45.027    
G17 G3   X184.7570     Y44.9203      R0.9000    
G1   X184.290      Y45.084    
G17 G3   X184.5517     Y45.0267      R0.9000    
G1   X184.192      Y45.084    
G17 G3   X184.2897     Y45.0843      R0.9000    
G1   X184.135   
G17 G3   X184.1919     Y45.0843      R0.9000    
G1   X183.874      Y44.996    
G17 G3   X184.1351     Y45.0787      R0.9000    
G1   X183.679      Y44.871    
G17 G3   X183.8741     Y44.9960      R0.9000    
G1   X183.523      Y44.700    
G17 G3   X183.6792     Y44.8713      R0.9000    
G1   X183.417      Y44.495    
G17 G3   X183.5232     Y44.7005      R0.9000    
G1   X183.367      Y44.269    
G17 G3   X183.4167     Y44.4951      R0.9000    
G1   X183.378      Y44.038    
G17 G3   X183.3671     Y44.2691      R0.9000    
G1   X183.448      Y43.818    
G17 G3   X183.3776     Y44.0380      R0.9000    
G1   X183.572      Y43.623    
G17 G3   X183.4475     Y43.8175      R0.9000    
G1   X183.743      Y43.467    
G17 G3   X183.5722     Y43.6226      R0.9000    
G1   X183.948      Y43.360    
G17 G3   X183.7430     Y43.4666      R0.9000    
(Pass: 2)
G1   X184.174      Y43.310    
   Z4.300      F100 
G17 G3   X183.9484     Y43.3602      R0.9000     F400 
G1   X184.405      Y43.321    
G17 G3   X184.1744     Y43.3105      R0.9000    
G1   X184.626      Y43.391    
G17 G3   X184.4055     Y43.3210      R0.9000    
G1   X184.821      Y43.516    
G17 G3   X184.6260     Y43.3910      R0.9000    
G1   X184.977      Y43.686    
G17 G3   X184.8209     Y43.5156      R0.9000    
G1   X185.083      Y43.892    
G17 G3   X184.9769     Y43.6864      R0.9000    
G1   X185.133      Y44.118    
G17 G3   X185.0833     Y43.8918      R0.9000    
G1   X185.122      Y44.349    
G17 G3   X185.1330     Y44.1178      R0.9000    
G1   X185.053      Y44.569    
G17 G3   X185.1225     Y44.3489      R0.9000    
G1   X184.928      Y44.764    
G17 G3   X185.0525     Y44.5694      R0.9000    
G1   X184.757      Y44.920    
G17 G3   X184.9279     Y44.7643      R0.9000    
G1   X184.552      Y45.027    
G17 G3   X184.7570     Y44.9203      R0.9000    
G1   X184.290      Y45.084    
G17 G3   X184.5517     Y45.0267      R0.9000    
G1   X184.192      Y45.084    
G17 G3   X184.2897     Y45.0843      R0.9000    
G1   X184.135   
G17 G3   X184.1919     Y45.0843      R0.9000    
G1   X183.874      Y44.996    
G17 G3   X184.1351     Y45.0787      R0.9000    
G1   X183.679      Y44.871    
G17 G3   X183.8741     Y44.9960      R0.9000    
G1   X183.523      Y44.700    
G17 G3   X183.6792     Y44.8713      R0.9000    
G1   X183.417      Y44.495    
G17 G3   X183.5232     Y44.7005      R0.9000    
G1   X183.367      Y44.269    
G17 G3   X183.4167     Y44.4951      R0.9000    
G1   X183.378      Y44.038    
G17 G3   X183.3671     Y44.2691      R0.9000    
G1   X183.448      Y43.818    
G17 G3   X183.3776     Y44.0380      R0.9000    
G1   X183.572      Y43.623    
G17 G3   X183.4475     Y43.8175      R0.9000    
G1   X183.743      Y43.467    
G17 G3   X183.5722     Y43.6226      R0.9000    
G1   X183.948      Y43.360    
G17 G3   X183.7430     Y43.4666      R0.9000    
(Pass: 3)
G1   X184.174      Y43.310    
   Z3.300      F100 
G17 G3   X183.9484     Y43.3602      R0.9000     F400 
G1   X184.405      Y43.321    
G17 G3   X184.1744     Y43.3105      R0.9000    
G1   X184.626      Y43.391    
G17 G3   X184.4055     Y43.3210      R0.9000    
G1   X184.821      Y43.516    
G17 G3   X184.6260     Y43.3910      R0.9000    
G1   X184.977      Y43.686    
G17 G3   X184.8209     Y43.5156      R0.9000    
G1   X185.083      Y43.892    
G17 G3   X184.9769     Y43.6864      R0.9000    
G1   X185.133      Y44.118    
G17 G3   X185.0833     Y43.8918      R0.9000    
G1   X185.122      Y44.349    
G17 G3   X185.1330     Y44.1178      R0.9000    
G1   X185.053      Y44.569    
G17 G3   X185.1225     Y44.3489      R0.9000    
G1   X184.928      Y44.764    
G17 G3   X185.0525     Y44.5694      R0.9000    
G1   X184.757      Y44.920    
G17 G3   X184.9279     Y44.7643      R0.9000    
G1   X184.552      Y45.027    
G17 G3   X184.7570     Y44.9203      R0.9000    
G1   X184.290      Y45.084    
G17 G3   X184.5517     Y45.0267      R0.9000    
G1   X184.192      Y45.084    
G17 G3   X184.2897     Y45.0843      R0.9000    
G1   X184.135   
G17 G3   X184.1919     Y45.0843      R0.9000    
G1   X183.874      Y44.996    
G17 G3   X184.1351     Y45.0787      R0.9000    
G1   X183.679      Y44.871    
G17 G3   X183.8741     Y44.9960      R0.9000    
G1   X183.523      Y44.700    
G17 G3   X183.6792     Y44.8713      R0.9000    
G1   X183.417      Y44.495    
G17 G3   X183.5232     Y44.7005      R0.9000    
G1   X183.367      Y44.269    
G17 G3   X183.4167     Y44.4951      R0.9000    
G1   X183.378      Y44.038    
G17 G3   X183.3671     Y44.2691      R0.9000    
