%
(Generated by SketchUcam {1.2})
(File: CableGate.skp)
(Bit diameter: 2.0mm)
(Feed rate: 400.0mm/min)
(Material Thickness: 3.5mm)
(Material length: 360.0mm X width: 720.0mm)
(Overhead Gantry: true)
(Retract feed rate NOT limited to plunge feed rate)
(Multipass enabled, Depth = 0.5mm)
(Optimization is ON)
(www.PhlatBoyz.com)
G90 G21 G49 
M3 S11000
G0   Z5.000     
(Pass: 1)
   X15.785       Y11.603    
G1   Z-0.500     F400 
G17 G2   X15.5052      Y11.9440      R1.7000    
   X15.3231      Y12.3462      R1.7000    
   X15.2512      Y12.7819      R1.7000    
   X15.2946      Y13.2213      R1.7000    
   X15.4502      Y13.6345      R1.7000    
   X15.7075      Y13.9933      R1.7000    
   X16.0488      Y14.2734      R1.7000    
   X16.4511      Y14.4555      R1.7000    
   X16.8867      Y14.5274      R1.7000    
   X17.3261      Y14.4840      R1.7000    
   X17.7393      Y14.3284      R1.7000    
   X18.0982      Y14.0711      R1.7000    
   X18.3782      Y13.7298      R1.7000    
   X18.5603      Y13.3275      R1.7000    
   X18.6322      Y12.8919      R1.7000    
   X18.5888      Y12.4525      R1.7000    
   X18.4332      Y12.0393      R1.7000    
   X18.1760      Y11.6804      R1.7000    
   X17.8346      Y11.4004      R1.7000    
   X17.4324      Y11.2182      R1.7000    
   X16.9967      Y11.1464      R1.7000    
   X16.5573      Y11.1898      R1.7000    
   X16.1441      Y11.3454      R1.7000    
   X15.7853      Y11.6026      R1.7000    
(Pass: 2)
G1   Z-1.000    
G17 G2   X15.5052      Y11.9440      R1.7000    
   X15.3231      Y12.3462      R1.7000    
   X15.2512      Y12.7819      R1.7000    
   X15.2946      Y13.2213      R1.7000    
   X15.4502      Y13.6345      R1.7000    
   X15.7075      Y13.9933      R1.7000    
   X16.0488      Y14.2734      R1.7000    
   X16.4511      Y14.4555      R1.7000    
   X16.8867      Y14.5274      R1.7000    
   X17.3261      Y14.4840      R1.7000    
   X17.7393      Y14.3284      R1.7000    
   X18.0982      Y14.0711      R1.7000    
   X18.3782      Y13.7298      R1.7000    
   X18.5603      Y13.3275      R1.7000    
   X18.6322      Y12.8919      R1.7000    
   X18.5888      Y12.4525      R1.7000    
   X18.4332      Y12.0393      R1.7000    
   X18.1760      Y11.6804      R1.7000    
   X17.8346      Y11.4004      R1.7000    
   X17.4324      Y11.2182      R1.7000    
   X16.9967      Y11.1464      R1.7000    
   X16.5573      Y11.1898      R1.7000    
   X16.1441      Y11.3454      R1.7000    
   X15.7853      Y11.6026      R1.7000    
(Pass: 3)
G1   Z-1.500    
G17 G2   X15.5052      Y11.9440      R1.7000    
   X15.3231      Y12.3462      R1.7000    
   X15.2512      Y12.7819      R1.7000    
   X15.2946      Y13.2213      R1.7000    
   X15.4502      Y13.6345      R1.7000    
   X15.7075      Y13.9933      R1.7000    
   X16.0488      Y14.2734      R1.7000    
   X16.4511      Y14.4555      R1.7000    
   X16.8867      Y14.5274      R1.7000    
   X17.3261      Y14.4840      R1.7000    
   X17.7393      Y14.3284      R1.7000    
   X18.0982      Y14.0711      R1.7000    
   X18.3782      Y13.7298      R1.7000    
   X18.5603      Y13.3275      R1.7000    
   X18.6322      Y12.8919      R1.7000    
   X18.5888      Y12.4525      R1.7000    
   X18.4332      Y12.0393      R1.7000    
   X18.1760      Y11.6804      R1.7000    
   X17.8346      Y11.4004      R1.7000    
   X17.4324      Y11.2182      R1.7000    
   X16.9967      Y11.1464      R1.7000    
   X16.5573      Y11.1898      R1.7000    
   X16.1441      Y11.3454      R1.7000    
   X15.7853      Y11.6026      R1.7000    
(Pass: 4)
G1   Z-2.000    
G17 G2   X15.5052      Y11.9440      R1.7000    
   X15.3231      Y12.3462      R1.7000    
   X15.2512      Y12.7819      R1.7000    
   X15.2946      Y13.2213      R1.7000    
   X15.4502      Y13.6345      R1.7000    
   X15.7075      Y13.9933      R1.7000    
   X16.0488      Y14.2734      R1.7000    
   X16.4511      Y14.4555      R1.7000    
   X16.8867      Y14.5274      R1.7000    
   X17.3261      Y14.4840      R1.7000    
   X17.7393      Y14.3284      R1.7000    
   X18.0982      Y14.0711      R1.7000    
   X18.3782      Y13.7298      R1.7000    
   X18.5603      Y13.3275      R1.7000    
   X18.6322      Y12.8919      R1.7000    
   X18.5888      Y12.4525      R1.7000    
   X18.4332      Y12.0393      R1.7000    
   X18.1760      Y11.6804      R1.7000    
   X17.8346      Y11.4004      R1.7000    
   X17.4324      Y11.2182      R1.7000    
   X16.9967      Y11.1464      R1.7000    
   X16.5573      Y11.1898      R1.7000    
   X16.1441      Y11.3454      R1.7000    
   X15.7853      Y11.6026      R1.7000    
(Pass: 5)
G1   Z-2.500    
G17 G2   X15.5052      Y11.9440      R1.7000    
   X15.3231      Y12.3462      R1.7000    
   X15.2512      Y12.7819      R1.7000    
   X15.2946      Y13.2213      R1.7000    
   X15.4502      Y13.6345      R1.7000    
   X15.7075      Y13.9933      R1.7000    
   X16.0488      Y14.2734      R1.7000    
   X16.4511      Y14.4555      R1.7000    
   X16.8867      Y14.5274      R1.7000    
   X17.3261      Y14.4840      R1.7000    
   X17.7393      Y14.3284      R1.7000    
   X18.0982      Y14.0711      R1.7000    
   X18.3782      Y13.7298      R1.7000    
   X18.5603      Y13.3275      R1.7000    
   X18.6322      Y12.8919      R1.7000    
   X18.5888      Y12.4525      R1.7000    
   X18.4332      Y12.0393      R1.7000    
   X18.1760      Y11.6804      R1.7000    
   X17.8346      Y11.4004      R1.7000    
   X17.4324      Y11.2182      R1.7000    
   X16.9967      Y11.1464      R1.7000    
   X16.5573      Y11.1898      R1.7000    
   X16.1441      Y11.3454      R1.7000    
   X15.7853      Y11.6026      R1.7000    
(Pass: 6)
G1   Z-3.000    
G17 G2   X15.5052      Y11.9440      R1.7000    
   X15.3231      Y12.3462      R1.7000    
   X15.2512      Y12.7819      R1.7000    
   X15.2946      Y13.2213      R1.7000    
   X15.4502      Y13.6345      R1.7000    
   X15.7075      Y13.9933      R1.7000    
   X16.0488      Y14.2734      R1.7000    
   X16.4511      Y14.4555      R1.7000    
   X16.8867      Y14.5274      R1.7000    
   X17.3261      Y14.4840      R1.7000    
   X17.7393      Y14.3284      R1.7000    
   X18.0982      Y14.0711      R1.7000    
   X18.3782      Y13.7298      R1.7000    
   X18.5603      Y13.3275      R1.7000    
   X18.6322      Y12.8919      R1.7000    
   X18.5888      Y12.4525      R1.7000    
   X18.4332      Y12.0393      R1.7000    
   X18.1760      Y11.6804      R1.7000    
   X17.8346      Y11.4004      R1.7000    
   X17.4324      Y11.2182      R1.7000    
   X16.9967      Y11.1464      R1.7000    
   X16.5573      Y11.1898      R1.7000    
   X16.1441      Y11.3454      R1.7000    
   X15.7853      Y11.6026      R1.7000    
(Pass: 7)
G1   Z-3.500    
G17 G2   X15.5052      Y11.9440      R1.7000    
   X15.3231      Y12.3462      R1.7000    
   X15.2512      Y12.7819      R1.7000    
   X15.2946      Y13.2213      R1.7000    
   X15.4502      Y13.6345      R1.7000    
   X15.7075      Y13.9933      R1.7000    
   X16.0488      Y14.2734      R1.7000    
   X16.4511      Y14.4555      R1.7000    
   X16.8867      Y14.5274      R1.7000    
   X17.3261      Y14.4840      R1.7000    
   X17.7393      Y14.3284      R1.7000    
   X18.0982      Y14.0711      R1.7000    
   X18.3782      Y13.7298      R1.7000    
   X18.5603      Y13.3275      R1.7000    
   X18.6322      Y12.8919      R1.7000    
   X18.5888      Y12.4525      R1.7000    
   X18.4332      Y12.0393      R1.7000    
   X18.1760      Y11.6804      R1.7000    
   X17.8346      Y11.4004      R1.7000    
   X17.4324      Y11.2182      R1.7000    
   X16.9967      Y11.1464      R1.7000    
   X16.5573      Y11.1898      R1.7000    
   X16.1441      Y11.3454      R1.7000    
   X15.7853      Y11.6026      R1.7000    
G0   Z5.000     
(Pass: 1)
   X10.669       Y26.937    
G1   Z-0.500     F400 
   X9.015     
   X8.311        Y27.854    
   X7.316        Y30.258    
   X6.976        Y32.837    
   X7.316        Y35.416    
   X8.311        Y37.820    
   X9.895        Y39.884    
   X11.959       Y41.467    
   X14.362       Y42.463    
   X16.942       Y42.802    
   X19.521       Y42.463    
   X21.924       Y41.467    
   X23.988       Y39.884    
   X25.572       Y37.820    
   X26.568       Y35.416    
   X26.907       Y32.837    
   X26.568       Y30.258    
   X25.572       Y27.854    
   X24.869       Y26.937    
   X22.353    
   X10.669    
(Pass: 2)
   Z-1.000    
   X9.015     
   X8.311        Y27.854    
   X7.316        Y30.258    
   X6.976        Y32.837    
   X7.316        Y35.416    
   X8.311        Y37.820    
   X9.895        Y39.884    
   X11.959       Y41.467    
   X14.362       Y42.463    
   X16.942       Y42.802    
   X19.521       Y42.463    
   X21.924       Y41.467    
   X23.988       Y39.884    
   X25.572       Y37.820    
   X26.568       Y35.416    
   X26.907       Y32.837    
   X26.568       Y30.258    
   X25.572       Y27.854    
   X24.869       Y26.937    
   X22.353    
   X10.669    
(Pass: 3)
   Z-1.500    
   X9.015     
   X8.311        Y27.854    
   X7.316        Y30.258    
   X6.976        Y32.837    
   X7.316        Y35.416    
   X8.311        Y37.820    
   X9.895        Y39.884    
   X11.959       Y41.467    
   X14.362       Y42.463    
   X16.942       Y42.802    
   X19.521       Y42.463    
   X21.924       Y41.467    
   X23.988       Y39.884    
   X25.572       Y37.820    
   X26.568       Y35.416    
   X26.907       Y32.837    
   X26.568       Y30.258    
   X25.572       Y27.854    
   X24.869       Y26.937    
   X22.353    
   X10.669    
(Pass: 4)
   Z-2.000    
   X9.015     
   X8.311        Y27.854    
   X7.316        Y30.258    
   X6.976        Y32.837    
   X7.316        Y35.416    
   X8.311        Y37.820    
   X9.895        Y39.884    
   X11.959       Y41.467    
   X14.362       Y42.463    
   X16.942       Y42.802    
   X19.521       Y42.463    
   X21.924       Y41.467    
   X23.988       Y39.884    
   X25.572       Y37.820    
   X26.568       Y35.416    
   X26.907       Y32.837    
   X26.568       Y30.258    
   X25.572       Y27.854    
   X24.869       Y26.937    
   X22.353    
   X10.669    
(Pass: 5)
   Z-2.500    
   X9.015     
   X8.311        Y27.854    
   X7.316        Y30.258    
   X6.976        Y32.837    
   X7.316        Y35.416    
   X8.311        Y37.820    
   X9.895        Y39.884    
   X11.959       Y41.467    
   X14.362       Y42.463    
   X16.942       Y42.802    
   X19.521       Y42.463    
   X21.924       Y41.467    
   X23.988       Y39.884    
   X25.572       Y37.820    
   X26.568       Y35.416    
   X26.907       Y32.837    
   X26.568       Y30.258    
   X25.572       Y27.854    
   X24.869       Y26.937    
   X22.353    
   X10.669    
(Pass: 6)
   Z-3.000    
   X9.015     
   X8.311        Y27.854    
   X7.316        Y30.258    
   X6.976        Y32.837    
   X7.316        Y35.416    
   X8.311        Y37.820    
   X9.895        Y39.884    
   X11.959       Y41.467    
   X14.362       Y42.463    
   X16.942       Y42.802    
   X19.521       Y42.463    
   X21.924       Y41.467    
   X23.988       Y39.884    
   X25.572       Y37.820    
   X26.568       Y35.416    
   X26.907       Y32.837    
   X26.568       Y30.258    
   X25.572       Y27.854    
   X24.869       Y26.937    
   X22.353    
   X10.669    
(Pass: 7)
   Z-3.500    
   X9.015     
   X8.311        Y27.854    
   X7.316        Y30.258    
   X6.976        Y32.837    
   X7.316        Y35.416    
   X8.311        Y37.820    
   X9.895        Y39.884    
   X11.959       Y41.467    
   X14.362       Y42.463    
   X16.942       Y42.802    
   X19.521       Y42.463    
   X21.924       Y41.467    
   X23.988       Y39.884    
   X25.572       Y37.820    
   X26.568       Y35.416    
   X26.907       Y32.837    
   X26.568       Y30.258    
   X25.572       Y27.854    
   X24.869       Y26.937    
   X22.353    
   X10.669    
G0   Z5.000     
(Pass: 1)
   X5.942        Y22.729    
G1   Z-0.500     F400 
   Y1.837     
   X27.942    
   Y22.729    
G17 G3   X29.9396      Y25.3326      R15.0000   
   X31.4389      Y28.9524      R15.0000   
   X31.9503      Y32.8369      R15.0000   
   X31.4389      Y36.7214      R15.0000   
   X29.9396      Y40.3412      R15.0000   
   X27.7351      Y43.2142      R15.0000   
   X27.5544      Y43.4496      R15.0000   
   X27.3190      Y43.6302      R15.0000   
   X24.4460      Y45.8347      R15.0000   
   X20.8262      Y47.3341      R15.0000   
   X16.9417      Y47.8455      R15.0000   
   X13.0572      Y47.3341      R15.0000   
   X9.4374       Y45.8347      R15.0000   
   X6.5644       Y43.6302      R15.0000   
   X6.3290       Y43.4496      R15.0000   
   X6.1484       Y43.2142      R15.0000   
   X3.9439       Y40.3412      R15.0000   
   X2.4445       Y36.7214      R15.0000   
   X1.9331       Y32.8369      R15.0000   
   X2.4445       Y28.9524      R15.0000   
   X3.9439       Y25.3326      R15.0000   
   X5.9417       Y22.7289      R15.0000   
(Pass: 2)
G1   Z-1.000    
   Y1.837     
   X27.942    
   Y22.729    
G17 G3   X29.9396      Y25.3326      R15.0000   
   X31.4389      Y28.9524      R15.0000   
   X31.9503      Y32.8369      R15.0000   
   X31.4389      Y36.7214      R15.0000   
   X29.9396      Y40.3412      R15.0000   
   X27.7351      Y43.2142      R15.0000   
   X27.5544      Y43.4496      R15.0000   
   X27.3190      Y43.6302      R15.0000   
   X24.4460      Y45.8347      R15.0000   
   X20.8262      Y47.3341      R15.0000   
   X16.9417      Y47.8455      R15.0000   
   X13.0572      Y47.3341      R15.0000   
   X9.4374       Y45.8347      R15.0000   
   X6.5644       Y43.6302      R15.0000   
   X6.3290       Y43.4496      R15.0000   
   X6.1484       Y43.2142      R15.0000   
   X3.9439       Y40.3412      R15.0000   
   X2.4445       Y36.7214      R15.0000   
   X1.9331       Y32.8369      R15.0000   
   X2.4445       Y28.9524      R15.0000   
   X3.9439       Y25.3326      R15.0000   
   X5.9417       Y22.7289      R15.0000   
(Pass: 3)
G1   Z-1.500    
   Y1.837     
   X27.942    
   Y22.729    
G17 G3   X29.9396      Y25.3326      R15.0000   
   X31.4389      Y28.9524      R15.0000   
   X31.9503      Y32.8369      R15.0000   
   X31.4389      Y36.7214      R15.0000   
   X29.9396      Y40.3412      R15.0000   
   X27.7351      Y43.2142      R15.0000   
   X27.5544      Y43.4496      R15.0000   
   X27.3190      Y43.6302      R15.0000   
   X24.4460      Y45.8347      R15.0000   
   X20.8262      Y47.3341      R15.0000   
   X16.9417      Y47.8455      R15.0000   
   X13.0572      Y47.3341      R15.0000   
   X9.4374       Y45.8347      R15.0000   
   X6.5644       Y43.6302      R15.0000   
   X6.3290       Y43.4496      R15.0000   
   X6.1484       Y43.2142      R15.0000   
   X3.9439       Y40.3412      R15.0000   
   X2.4445       Y36.7214      R15.0000   
   X1.9331       Y32.8369      R15.0000   
   X2.4445       Y28.9524      R15.0000   
   X3.9439       Y25.3326      R15.0000   
   X5.9417       Y22.7289      R15.0000   
(Pass: 4)
G1   Z-2.000    
   Y1.837     
   X27.942    
   Y22.729    
G17 G3   X29.9396      Y25.3326      R15.0000   
   X31.4389      Y28.9524      R15.0000   
   X31.9503      Y32.8369      R15.0000   
   X31.4389      Y36.7214      R15.0000   
   X29.9396      Y40.3412      R15.0000   
   X27.7351      Y43.2142      R15.0000   
   X27.5544      Y43.4496      R15.0000   
   X27.3190      Y43.6302      R15.0000   
   X24.4460      Y45.8347      R15.0000   
   X20.8262      Y47.3341      R15.0000   
   X16.9417      Y47.8455      R15.0000   
   X13.0572      Y47.3341      R15.0000   
   X9.4374       Y45.8347      R15.0000   
   X6.5644       Y43.6302      R15.0000   
   X6.3290       Y43.4496      R15.0000   
   X6.1484       Y43.2142      R15.0000   
   X3.9439       Y40.3412      R15.0000   
   X2.4445       Y36.7214      R15.0000   
   X1.9331       Y32.8369      R15.0000   
   X2.4445       Y28.9524      R15.0000   
   X3.9439       Y25.3326      R15.0000   
   X5.9417       Y22.7289      R15.0000   
(Pass: 5)
G1   Z-2.500    
   Y1.837     
   X27.942    
   Y22.729    
G17 G3   X29.9396      Y25.3326      R15.0000   
   X31.4389      Y28.9524      R15.0000   
   X31.9503      Y32.8369      R15.0000   
   X31.4389      Y36.7214      R15.0000   
   X29.9396      Y40.3412      R15.0000   
   X27.7351      Y43.2142      R15.0000   
   X27.5544      Y43.4496      R15.0000   
   X27.3190      Y43.6302      R15.0000   
   X24.4460      Y45.8347      R15.0000   
   X20.8262      Y47.3341      R15.0000   
   X16.9417      Y47.8455      R15.0000   
   X13.0572      Y47.3341      R15.0000   
   X9.4374       Y45.8347      R15.0000   
   X6.5644       Y43.6302      R15.0000   
   X6.3290       Y43.4496      R15.0000   
   X6.1484       Y43.2142      R15.0000   
   X3.9439       Y40.3412      R15.0000   
   X2.4445       Y36.7214      R15.0000   
   X1.9331       Y32.8369      R15.0000   
   X2.4445       Y28.9524      R15.0000   
   X3.9439       Y25.3326      R15.0000   
   X5.9417       Y22.7289      R15.0000   
(Pass: 6)
G1   Z-3.000    
   Y1.837     
   X27.942    
   Y22.729    
G17 G3   X29.9396      Y25.3326      R15.0000   
   X31.4389      Y28.9524      R15.0000   
   X31.9503      Y32.8369      R15.0000   
   X31.4389      Y36.7214      R15.0000   
   X29.9396      Y40.3412      R15.0000   
   X27.7351      Y43.2142      R15.0000   
   X27.5544      Y43.4496      R15.0000   
   X27.3190      Y43.6302      R15.0000   
   X24.4460      Y45.8347      R15.0000   
   X20.8262      Y47.3341      R15.0000   
   X16.9417      Y47.8455      R15.0000   
   X13.0572      Y47.3341      R15.0000   
   X9.4374       Y45.8347      R15.0000   
   X6.5644       Y43.6302      R15.0000   
   X6.3290       Y43.4496      R15.0000   
   X6.1484       Y43.2142      R15.0000   
   X3.9439       Y40.3412      R15.0000   
   X2.4445       Y36.7214      R15.0000   
   X1.9331       Y32.8369      R15.0000   
   X2.4445       Y28.9524      R15.0000   
   X3.9439       Y25.3326      R15.0000   
   X5.9417       Y22.7289      R15.0000   
(Pass: 7)
G1   Z-3.500    
   Y1.837     
   X27.942    
   Y22.729    
G17 G3   X29.9396      Y25.3326      R15.0000   
   X31.4389      Y28.9524      R15.0000   
   X31.9503      Y32.8369      R15.0000   
   X31.4389      Y36.7214      R15.0000   
   X29.9396      Y40.3412      R15.0000   
   X27.7351      Y43.2142      R15.0000   
   X27.5544      Y43.4496      R15.0000   
   X27.3190      Y43.6302      R15.0000   
   X24.4460      Y45.8347      R15.0000   
   X20.8262      Y47.3341      R15.0000   
   X16.9417      Y47.8455      R15.0000   
   X13.0572      Y47.3341      R15.0000   
   X9.4374       Y45.8347      R15.0000   
   X6.5644       Y43.6302      R15.0000   
   X6.3290       Y43.4496      R15.0000   
   X6.1484       Y43.2142      R15.0000   
   X3.9439       Y40.3412      R15.0000   
   X2.4445       Y36.7214      R15.0000   
   X1.9331       Y32.8369      R15.0000   
   X2.4445       Y28.9524      R15.0000   
   X3.9439       Y25.3326      R15.0000   
   X5.9417       Y22.7289      R15.0000   
G0   Z5.000     
G0 X0 Y0 (home)
M05
M30
%
