%
(Generated by SketchUcam {1.2})
(File: Router Plates.skp)
(Bit diameter: 3.2mm)
(Feed rate: 1000.0mm/min)
(Plunge Feed rate: 300.0mm/min)
(Material Thickness: 3.2mm)
(Material length: 304.0mm X width: 608.0mm)
(Overhead Gantry: true)
(Retract feed rate NOT limited to plunge feed rate)
(Multipass enabled, Depth = 1.0mm)
(Optimization is ON)
(Z ZERO IS TABLETOP)
(www.PhlatBoyz.com)
G90 G21 G49 
M3 S15000
G0   Z18.200    
(Pass: 1)
   X472.672      Y132.617   
G1   Z2.200      F300 
G17 G2   X472.8677     Y132.1459     R1.9685     F1000
   X473.1784     Y131.7411     R1.9685    
   X473.5832     Y131.4304     R1.9685    
   X474.0546     Y131.2352     R1.9685    
   X474.5605     Y131.1686     R1.9685    
   X475.0665     Y131.2352     R1.9685    
   X475.5379     Y131.4304     R1.9685    
   X475.9427     Y131.7411     R1.9685    
   X476.2534     Y132.1459     R1.9685    
   X476.4486     Y132.6173     R1.9685    
   X476.5152     Y133.1232     R1.9685    
   X476.4486     Y133.6292     R1.9685    
   X476.2534     Y134.1006     R1.9685    
   X475.9427     Y134.5054     R1.9685    
   X475.5379     Y134.8161     R1.9685    
   X475.0665     Y135.0113     R1.9685    
   X474.5605     Y135.0779     R1.9685    
   X474.0546     Y135.0113     R1.9685    
   X473.5832     Y134.8161     R1.9685    
   X473.1784     Y134.5054     R1.9685    
   X472.8677     Y134.1006     R1.9685    
   X472.6725     Y133.6292     R1.9685    
   X472.6059     Y133.1232     R1.9685    
   X472.6725     Y132.6173     R1.9685    
(Pass: 2)
G1   Z1.200      F300 
G17 G2   X472.8677     Y132.1459     R1.9685     F1000
   X473.1784     Y131.7411     R1.9685    
   X473.5832     Y131.4304     R1.9685    
   X474.0546     Y131.2352     R1.9685    
   X474.5605     Y131.1686     R1.9685    
   X475.0665     Y131.2352     R1.9685    
   X475.5379     Y131.4304     R1.9685    
   X475.9427     Y131.7411     R1.9685    
   X476.2534     Y132.1459     R1.9685    
   X476.4486     Y132.6173     R1.9685    
   X476.5152     Y133.1232     R1.9685    
   X476.4486     Y133.6292     R1.9685    
   X476.2534     Y134.1006     R1.9685    
   X475.9427     Y134.5054     R1.9685    
   X475.5379     Y134.8161     R1.9685    
   X475.0665     Y135.0113     R1.9685    
   X474.5605     Y135.0779     R1.9685    
   X474.0546     Y135.0113     R1.9685    
   X473.5832     Y134.8161     R1.9685    
   X473.1784     Y134.5054     R1.9685    
   X472.8677     Y134.1006     R1.9685    
   X472.6725     Y133.6292     R1.9685    
   X472.6059     Y133.1232     R1.9685    
   X472.6725     Y132.6173     R1.9685    
(Pass: 3)
G1   Z0.200      F300 
G17 G2   X472.8677     Y132.1459     R1.9685     F1000
   X473.1784     Y131.7411     R1.9685    
   X473.5832     Y131.4304     R1.9685    
   X474.0546     Y131.2352     R1.9685    
   X474.5605     Y131.1686     R1.9685    
   X475.0665     Y131.2352     R1.9685    
   X475.5379     Y131.4304     R1.9685    
   X475.9427     Y131.7411     R1.9685    
   X476.2534     Y132.1459     R1.9685    
   X476.4486     Y132.6173     R1.9685    
   X476.5152     Y133.1232     R1.9685    
   X476.4486     Y133.6292     R1.9685    
   X476.2534     Y134.1006     R1.9685    
   X475.9427     Y134.5054     R1.9685    
   X475.5379     Y134.8161     R1.9685    
   X475.0665     Y135.0113     R1.9685    
   X474.5605     Y135.0779     R1.9685    
   X474.0546     Y135.0113     R1.9685    
   X473.5832     Y134.8161     R1.9685    
   X473.1784     Y134.5054     R1.9685    
   X472.8677     Y134.1006     R1.9685    
   X472.6725     Y133.6292     R1.9685    
   X472.6059     Y133.1232     R1.9685    
   X472.6725     Y132.6173     R1.9685    
(Pass: 4)
G1   Z0.000      F300 
G17 G2   X472.8677     Y132.1459     R1.9685     F1000
   X473.1784     Y131.7411     R1.9685    
   X473.5832     Y131.4304     R1.9685    
   X474.0546     Y131.2352     R1.9685    
   X474.5605     Y131.1686     R1.9685    
   X475.0665     Y131.2352     R1.9685    
   X475.5379     Y131.4304     R1.9685    
   X475.9427     Y131.7411     R1.9685    
   X476.2534     Y132.1459     R1.9685    
   X476.4486     Y132.6173     R1.9685    
   X476.5152     Y133.1232     R1.9685    
   X476.4486     Y133.6292     R1.9685    
   X476.2534     Y134.1006     R1.9685    
   X475.9427     Y134.5054     R1.9685    
   X475.5379     Y134.8161     R1.9685    
   X475.0665     Y135.0113     R1.9685    
   X474.5605     Y135.0779     R1.9685    
   X474.0546     Y135.0113     R1.9685    
   X473.5832     Y134.8161     R1.9685    
   X473.1784     Y134.5054     R1.9685    
   X472.8677     Y134.1006     R1.9685    
   X472.6725     Y133.6292     R1.9685    
   X472.6059     Y133.1232     R1.9685    
   X472.6725     Y132.6173     R1.9685    
G0   Z18.200    
(Pass: 1)
   X466.857      Y166.940   
G1   Z2.200      F300 
G17 G2   X467.0859     Y166.9699     R0.9000     F1000
   X467.2996     Y167.0585     R0.9000    
   X467.4832     Y167.1993     R0.9000    
   X467.6240     Y167.3828     R0.9000    
   X467.7125     Y167.5966     R0.9000    
   X467.7427     Y167.8259     R0.9000    
   X467.7125     Y168.0553     R0.9000    
   X467.6240     Y168.2690     R0.9000    
   X467.4832     Y168.4526     R0.9000    
   X467.2996     Y168.5934     R0.9000    
   X467.0859     Y168.6819     R0.9000    
   X466.8566     Y168.7121     R0.9000    
   X466.6272     Y168.6819     R0.9000    
   X466.5655     Y168.6564     R0.9000    
   X466.4135     Y168.5934     R0.9000    
   X466.2299     Y168.4526     R0.9000    
   X466.0891     Y168.2690     R0.9000    
   X466.0006     Y168.0553     R0.9000    
   X465.9704     Y167.8259     R0.9000    
   X466.0006     Y167.5966     R0.9000    
   X466.0891     Y167.3828     R0.9000    
   X466.2299     Y167.1993     R0.9000    
   X466.4135     Y167.0585     R0.9000    
   X466.5655     Y166.9955     R0.9000    
   X466.6272     Y166.9699     R0.9000    
   X466.8566     Y166.9397     R0.9000    
(Pass: 2)
G1   Z1.200      F300 
G17 G2   X467.0859     Y166.9699     R0.9000     F1000
   X467.2996     Y167.0585     R0.9000    
   X467.4832     Y167.1993     R0.9000    
   X467.6240     Y167.3828     R0.9000    
   X467.7125     Y167.5966     R0.9000    
   X467.7427     Y167.8259     R0.9000    
   X467.7125     Y168.0553     R0.9000    
   X467.6240     Y168.2690     R0.9000    
   X467.4832     Y168.4526     R0.9000    
   X467.2996     Y168.5934     R0.9000    
   X467.0859     Y168.6819     R0.9000    
   X466.8566     Y168.7121     R0.9000    
   X466.6272     Y168.6819     R0.9000    
   X466.5655     Y168.6564     R0.9000    
   X466.4135     Y168.5934     R0.9000    
   X466.2299     Y168.4526     R0.9000    
   X466.0891     Y168.2690     R0.9000    
   X466.0006     Y168.0553     R0.9000    
   X465.9704     Y167.8259     R0.9000    
   X466.0006     Y167.5966     R0.9000    
   X466.0891     Y167.3828     R0.9000    
   X466.2299     Y167.1993     R0.9000    
   X466.4135     Y167.0585     R0.9000    
   X466.5655     Y166.9955     R0.9000    
   X466.6272     Y166.9699     R0.9000    
   X466.8566     Y166.9397     R0.9000    
(Pass: 3)
G1   Z0.200      F300 
G17 G2   X467.0859     Y166.9699     R0.9000     F1000
   X467.2996     Y167.0585     R0.9000    
   X467.4832     Y167.1993     R0.9000    
   X467.6240     Y167.3828     R0.9000    
   X467.7125     Y167.5966     R0.9000    
   X467.7427     Y167.8259     R0.9000    
   X467.7125     Y168.0553     R0.9000    
   X467.6240     Y168.2690     R0.9000    
   X467.4832     Y168.4526     R0.9000    
   X467.2996     Y168.5934     R0.9000    
   X467.0859     Y168.6819     R0.9000    
   X466.8566     Y168.7121     R0.9000    
   X466.6272     Y168.6819     R0.9000    
   X466.5655     Y168.6564     R0.9000    
   X466.4135     Y168.5934     R0.9000    
   X466.2299     Y168.4526     R0.9000    
   X466.0891     Y168.2690     R0.9000    
   X466.0006     Y168.0553     R0.9000    
   X465.9704     Y167.8259     R0.9000    
   X466.0006     Y167.5966     R0.9000    
   X466.0891     Y167.3828     R0.9000    
   X466.2299     Y167.1993     R0.9000    
   X466.4135     Y167.0585     R0.9000    
   X466.5655     Y166.9955     R0.9000    
   X466.6272     Y166.9699     R0.9000    
   X466.8566     Y166.9397     R0.9000    
(Pass: 4)
G1   Z0.000      F300 
G17 G2   X467.0859     Y166.9699     R0.9000     F1000
   X467.2996     Y167.0585     R0.9000    
   X467.4832     Y167.1993     R0.9000    
   X467.6240     Y167.3828     R0.9000    
   X467.7125     Y167.5966     R0.9000    
   X467.7427     Y167.8259     R0.9000    
   X467.7125     Y168.0553     R0.9000    
   X467.6240     Y168.2690     R0.9000    
   X467.4832     Y168.4526     R0.9000    
   X467.2996     Y168.5934     R0.9000    
   X467.0859     Y168.6819     R0.9000    
   X466.8566     Y168.7121     R0.9000    
   X466.6272     Y168.6819     R0.9000    
   X466.5655     Y168.6564     R0.9000    
   X466.4135     Y168.5934     R0.9000    
   X466.2299     Y168.4526     R0.9000    
   X466.0891     Y168.2690     R0.9000    
   X466.0006     Y168.0553     R0.9000    
   X465.9704     Y167.8259     R0.9000    
   X466.0006     Y167.5966     R0.9000    
   X466.0891     Y167.3828     R0.9000    
   X466.2299     Y167.1993     R0.9000    
   X466.4135     Y167.0585     R0.9000    
   X466.5655     Y166.9955     R0.9000    
   X466.6272     Y166.9699     R0.9000    
   X466.8566     Y166.9397     R0.9000    
G0   Z18.200    
(Pass: 1)
   X466.716      Y176.950   
G1   Z2.200      F300 
G17 G2   X466.9475     Y176.9448     R0.9000     F1000
   X467.1724     Y176.9992     R0.9000    
   X467.3755     Y177.1099     R0.9000    
   X467.5430     Y177.2695     R0.9000    
   X467.6635     Y177.4669     R0.9000    
   X467.7288     Y177.6889     R0.9000    
   X467.7345     Y177.9201     R0.9000    
   X467.6801     Y178.1450     R0.9000    
   X467.5693     Y178.3481     R0.9000    
   X467.4098     Y178.5156     R0.9000    
   X467.2123     Y178.6362     R0.9000    
   X466.9904     Y178.7015     R0.9000    
   X466.7591     Y178.7071     R0.9000    
   X466.5342     Y178.6527     R0.9000    
   X466.3311     Y178.5420     R0.9000    
   X466.1636     Y178.3824     R0.9000    
   X466.0431     Y178.1849     R0.9000    
   X465.9778     Y177.9630     R0.9000    
   X465.9721     Y177.7317     R0.9000    
   X466.0265     Y177.5069     R0.9000    
   X466.1373     Y177.3038     R0.9000    
   X466.2968     Y177.1362     R0.9000    
   X466.4943     Y177.0157     R0.9000    
   X466.7162     Y176.9504     R0.9000    
(Pass: 2)
G1   Z1.200      F300 
G17 G2   X466.9475     Y176.9448     R0.9000     F1000
   X467.1724     Y176.9992     R0.9000    
   X467.3755     Y177.1099     R0.9000    
   X467.5430     Y177.2695     R0.9000    
   X467.6635     Y177.4669     R0.9000    
   X467.7288     Y177.6889     R0.9000    
   X467.7345     Y177.9201     R0.9000    
   X467.6801     Y178.1450     R0.9000    
   X467.5693     Y178.3481     R0.9000    
   X467.4098     Y178.5156     R0.9000    
   X467.2123     Y178.6362     R0.9000    
   X466.9904     Y178.7015     R0.9000    
   X466.7591     Y178.7071     R0.9000    
   X466.5342     Y178.6527     R0.9000    
   X466.3311     Y178.5420     R0.9000    
   X466.1636     Y178.3824     R0.9000    
   X466.0431     Y178.1849     R0.9000    
   X465.9778     Y177.9630     R0.9000    
   X465.9721     Y177.7317     R0.9000    
   X466.0265     Y177.5069     R0.9000    
   X466.1373     Y177.3038     R0.9000    
   X466.2968     Y177.1362     R0.9000    
   X466.4943     Y177.0157     R0.9000    
   X466.7162     Y176.9504     R0.9000    
(Pass: 3)
G1   Z0.200      F300 
G17 G2   X466.9475     Y176.9448     R0.9000     F1000
   X467.1724     Y176.9992     R0.9000    
   X467.3755     Y177.1099     R0.9000    
   X467.5430     Y177.2695     R0.9000    
   X467.6635     Y177.4669     R0.9000    
   X467.7288     Y177.6889     R0.9000    
   X467.7345     Y177.9201     R0.9000    
   X467.6801     Y178.1450     R0.9000    
   X467.5693     Y178.3481     R0.9000    
   X467.4098     Y178.5156     R0.9000    
   X467.2123     Y178.6362     R0.9000    
   X466.9904     Y178.7015     R0.9000    
   X466.7591     Y178.7071     R0.9000    
   X466.5342     Y178.6527     R0.9000    
   X466.3311     Y178.5420     R0.9000    
   X466.1636     Y178.3824     R0.9000    
   X466.0431     Y178.1849     R0.9000    
   X465.9778     Y177.9630     R0.9000    
   X465.9721     Y177.7317     R0.9000    
   X466.0265     Y177.5069     R0.9000    
   X466.1373     Y177.3038     R0.9000    
   X466.2968     Y177.1362     R0.9000    
   X466.4943     Y177.0157     R0.9000    
   X466.7162     Y176.9504     R0.9000    
(Pass: 4)
G1   Z0.000      F300 
G17 G2   X466.9475     Y176.9448     R0.9000     F1000
   X467.1724     Y176.9992     R0.9000    
   X467.3755     Y177.1099     R0.9000    
   X467.5430     Y177.2695     R0.9000    
   X467.6635     Y177.4669     R0.9000    
   X467.7288     Y177.6889     R0.9000    
   X467.7345     Y177.9201     R0.9000    
   X467.6801     Y178.1450     R0.9000    
   X467.5693     Y178.3481     R0.9000    
   X467.4098     Y178.5156     R0.9000    
   X467.2123     Y178.6362     R0.9000    
   X466.9904     Y178.7015     R0.9000    
   X466.7591     Y178.7071     R0.9000    
   X466.5342     Y178.6527     R0.9000    
   X466.3311     Y178.5420     R0.9000    
   X466.1636     Y178.3824     R0.9000    
   X466.0431     Y178.1849     R0.9000    
   X465.9778     Y177.9630     R0.9000    
   X465.9721     Y177.7317     R0.9000    
   X466.0265     Y177.5069     R0.9000    
   X466.1373     Y177.3038     R0.9000    
   X466.2968     Y177.1362     R0.9000    
   X466.4943     Y177.0157     R0.9000    
   X466.7162     Y176.9504     R0.9000    
G0   Z18.200    
(Pass: 1)
   X474.331      Y212.407   
G1   Z2.200      F300 
G17 G2   X474.5605     Y212.3771     R0.9000     F1000
   X474.7899     Y212.4072     R0.9000    
   X475.0036     Y212.4958     R0.9000    
   X475.1872     Y212.6366     R0.9000    
   X475.3280     Y212.8201     R0.9000    
   X475.4165     Y213.0339     R0.9000    
   X475.4467     Y213.2632     R0.9000    
   X475.4165     Y213.4926     R0.9000    
   X475.3280     Y213.7063     R0.9000    
   X475.1872     Y213.8899     R0.9000    
   X475.0036     Y214.0307     R0.9000    
   X474.7899     Y214.1192     R0.9000    
   X474.5605     Y214.1494     R0.9000    
   X474.3312     Y214.1192     R0.9000    
   X474.1175     Y214.0307     R0.9000    
   X473.9339     Y213.8899     R0.9000    
   X473.7931     Y213.7063     R0.9000    
   X473.7046     Y213.4926     R0.9000    
   X473.6744     Y213.2632     R0.9000    
   X473.7046     Y213.0339     R0.9000    
   X473.7931     Y212.8201     R0.9000    
   X473.9339     Y212.6366     R0.9000    
   X474.1175     Y212.4958     R0.9000    
   X474.3312     Y212.4072     R0.9000    
(Pass: 2)
G1   Z1.200      F300 
G17 G2   X474.5605     Y212.3771     R0.9000     F1000
   X474.7899     Y212.4072     R0.9000    
   X475.0036     Y212.4958     R0.9000    
   X475.1872     Y212.6366     R0.9000    
   X475.3280     Y212.8201     R0.9000    
   X475.4165     Y213.0339     R0.9000    
   X475.4467     Y213.2632     R0.9000    
   X475.4165     Y213.4926     R0.9000    
   X475.3280     Y213.7063     R0.9000    
   X475.1872     Y213.8899     R0.9000    
   X475.0036     Y214.0307     R0.9000    
   X474.7899     Y214.1192     R0.9000    
   X474.5605     Y214.1494     R0.9000    
   X474.3312     Y214.1192     R0.9000    
   X474.1175     Y214.0307     R0.9000    
   X473.9339     Y213.8899     R0.9000    
   X473.7931     Y213.7063     R0.9000    
   X473.7046     Y213.4926     R0.9000    
   X473.6744     Y213.2632     R0.9000    
   X473.7046     Y213.0339     R0.9000    
   X473.7931     Y212.8201     R0.9000    
   X473.9339     Y212.6366     R0.9000    
   X474.1175     Y212.4958     R0.9000    
   X474.3312     Y212.4072     R0.9000    
(Pass: 3)
G1   Z0.200      F300 
G17 G2   X474.5605     Y212.3771     R0.9000     F1000
   X474.7899     Y212.4072     R0.9000    
   X475.0036     Y212.4958     R0.9000    
   X475.1872     Y212.6366     R0.9000    
   X475.3280     Y212.8201     R0.9000    
   X475.4165     Y213.0339     R0.9000    
   X475.4467     Y213.2632     R0.9000    
   X475.4165     Y213.4926     R0.9000    
   X475.3280     Y213.7063     R0.9000    
   X475.1872     Y213.8899     R0.9000    
   X475.0036     Y214.0307     R0.9000    
   X474.7899     Y214.1192     R0.9000    
   X474.5605     Y214.1494     R0.9000    
   X474.3312     Y214.1192     R0.9000    
   X474.1175     Y214.0307     R0.9000    
   X473.9339     Y213.8899     R0.9000    
   X473.7931     Y213.7063     R0.9000    
   X473.7046     Y213.4926     R0.9000    
   X473.6744     Y213.2632     R0.9000    
   X473.7046     Y213.0339     R0.9000    
   X473.7931     Y212.8201     R0.9000    
   X473.9339     Y212.6366     R0.9000    
   X474.1175     Y212.4958     R0.9000    
   X474.3312     Y212.4072     R0.9000    
(Pass: 4)
G1   Z0.000      F300 
G17 G2   X474.5605     Y212.3771     R0.9000     F1000
   X474.7899     Y212.4072     R0.9000    
   X475.0036     Y212.4958     R0.9000    
   X475.1872     Y212.6366     R0.9000    
   X475.3280     Y212.8201     R0.9000    
   X475.4165     Y213.0339     R0.9000    
   X475.4467     Y213.2632     R0.9000    
   X475.4165     Y213.4926     R0.9000    
   X475.3280     Y213.7063     R0.9000    
   X475.1872     Y213.8899     R0.9000    
   X475.0036     Y214.0307     R0.9000    
   X474.7899     Y214.1192     R0.9000    
   X474.5605     Y214.1494     R0.9000    
   X474.3312     Y214.1192     R0.9000    
   X474.1175     Y214.0307     R0.9000    
   X473.9339     Y213.8899     R0.9000    
   X473.7931     Y213.7063     R0.9000    
   X473.7046     Y213.4926     R0.9000    
   X473.6744     Y213.2632     R0.9000    
   X473.7046     Y213.0339     R0.9000    
   X473.7931     Y212.8201     R0.9000    
   X473.9339     Y212.6366     R0.9000    
   X474.1175     Y212.4958     R0.9000    
   X474.3312     Y212.4072     R0.9000    
G0   Z18.200    
(Pass: 1)
   X507.374      Y220.894   
G1   Z2.200      F300 
   X507.467      Y220.671    F1000
   X507.614      Y220.479   
   X507.806      Y220.332   
   X508.029      Y220.239   
   X508.269      Y220.208   
   X508.508      Y220.239   
   X508.732      Y220.332   
   X508.924      Y220.479   
   X509.071      Y220.671   
   X509.163      Y220.894   
   X509.209      Y221.239   
   Y230.029   
   X509.163      Y230.374   
   X509.071      Y230.597   
   X508.924      Y230.789   
   X508.732      Y230.936   
   X508.508      Y231.029   
   X508.269      Y231.060   
   X508.029      Y231.029   
   X507.806      Y230.936   
   X507.614      Y230.789   
   X507.467      Y230.597   
   X507.374      Y230.374   
   X507.329      Y230.029   
   Y221.239   
   X507.374      Y220.894   
(Pass: 2)
   Z1.200      F300 
   X507.467      Y220.671    F1000
   X507.614      Y220.479   
   X507.806      Y220.332   
   X508.029      Y220.239   
   X508.269      Y220.208   
   X508.508      Y220.239   
   X508.732      Y220.332   
   X508.924      Y220.479   
   X509.071      Y220.671   
   X509.163      Y220.894   
   X509.209      Y221.239   
   Y230.029   
   X509.163      Y230.374   
   X509.071      Y230.597   
   X508.924      Y230.789   
   X508.732      Y230.936   
   X508.508      Y231.029   
   X508.269      Y231.060   
   X508.029      Y231.029   
   X507.806      Y230.936   
   X507.614      Y230.789   
   X507.467      Y230.597   
   X507.374      Y230.374   
   X507.329      Y230.029   
   Y221.239   
   X507.374      Y220.894   
(Pass: 3)
   Z0.200      F300 
   X507.467      Y220.671    F1000
   X507.614      Y220.479   
   X507.806      Y220.332   
   X508.029      Y220.239   
   X508.269      Y220.208   
   X508.508      Y220.239   
   X508.732      Y220.332   
   X508.924      Y220.479   
   X509.071      Y220.671   
   X509.163      Y220.894   
   X509.209      Y221.239   
   Y230.029   
   X509.163      Y230.374   
   X509.071      Y230.597   
   X508.924      Y230.789   
   X508.732      Y230.936   
   X508.508      Y231.029   
   X508.269      Y231.060   
   X508.029      Y231.029   
   X507.806      Y230.936   
   X507.614      Y230.789   
   X507.467      Y230.597   
   X507.374      Y230.374   
   X507.329      Y230.029   
   Y221.239   
   X507.374      Y220.894   
(Pass: 4)
   Z0.000      F300 
   X507.467      Y220.671    F1000
   X507.614      Y220.479   
   X507.806      Y220.332   
   X508.029      Y220.239   
   X508.269      Y220.208   
   X508.508      Y220.239   
   X508.732      Y220.332   
   X508.924      Y220.479   
   X509.071      Y220.671   
   X509.163      Y220.894   
   X509.209      Y221.239   
   Y230.029   
   X509.163      Y230.374   
   X509.071      Y230.597   
   X508.924      Y230.789   
   X508.732      Y230.936   
   X508.508      Y231.029   
   X508.269      Y231.060   
   X508.029      Y231.029   
   X507.806      Y230.936   
   X507.614      Y230.789   
   X507.467      Y230.597   
   X507.374      Y230.374   
   X507.329      Y230.029   
   Y221.239   
   X507.374      Y220.894   
G0   Z18.200    
(Pass: 1)
   X524.203      Y236.550   
G1   Z2.200      F300 
G17 G2   X526.4575     Y234.8204     R10.9000    F1000
   X529.0830     Y233.7328     R10.9000   
   X531.9006     Y233.3619     R10.9000   
   X534.7181     Y233.7328     R10.9000   
   X537.3436     Y234.8204     R10.9000   
   X539.5983     Y236.5504     R10.9000   
   X541.3283     Y238.8050     R10.9000   
   X542.4158     Y241.4305     R10.9000   
   X542.8006     Y244.3530     R10.9000   
G1   Y254.143   
G17 G2   X542.4158     Y257.0657     R10.9000   
   X541.3283     Y259.6912     R10.9000   
   X539.5983     Y261.9458     R10.9000   
   X537.3436     Y263.6758     R10.9000   
   X534.7181     Y264.7634     R10.9000   
   X531.9006     Y265.1343     R10.9000   
   X529.0830     Y264.7634     R10.9000   
   X526.4575     Y263.6758     R10.9000   
   X524.2028     Y261.9458     R10.9000   
   X522.4728     Y259.6912     R10.9000   
   X521.3853     Y257.0657     R10.9000   
   X521.0006     Y254.1432     R10.9000   
G1   Y244.353   
G17 G2   X521.3853     Y241.4305     R10.9000   
   X522.4728     Y238.8050     R10.9000   
   X524.2028     Y236.5504     R10.9000   
(Pass: 2)
G1   Z1.200      F300 
G17 G2   X526.4575     Y234.8204     R10.9000    F1000
   X529.0830     Y233.7328     R10.9000   
   X531.9006     Y233.3619     R10.9000   
   X534.7181     Y233.7328     R10.9000   
   X537.3436     Y234.8204     R10.9000   
   X539.5983     Y236.5504     R10.9000   
   X541.3283     Y238.8050     R10.9000   
   X542.4158     Y241.4305     R10.9000   
   X542.8006     Y244.3530     R10.9000   
G1   Y254.143   
G17 G2   X542.4158     Y257.0657     R10.9000   
   X541.3283     Y259.6912     R10.9000   
   X539.5983     Y261.9458     R10.9000   
   X537.3436     Y263.6758     R10.9000   
   X534.7181     Y264.7634     R10.9000   
   X531.9006     Y265.1343     R10.9000   
   X529.0830     Y264.7634     R10.9000   
   X526.4575     Y263.6758     R10.9000   
   X524.2028     Y261.9458     R10.9000   
   X522.4728     Y259.6912     R10.9000   
   X521.3853     Y257.0657     R10.9000   
   X521.0006     Y254.1432     R10.9000   
G1   Y244.353   
G17 G2   X521.3853     Y241.4305     R10.9000   
   X522.4728     Y238.8050     R10.9000   
   X524.2028     Y236.5504     R10.9000   
(Pass: 3)
G1   Z0.200      F300 
G17 G2   X526.4575     Y234.8204     R10.9000    F1000
   X529.0830     Y233.7328     R10.9000   
   X531.9006     Y233.3619     R10.9000   
   X534.7181     Y233.7328     R10.9000   
   X537.3436     Y234.8204     R10.9000   
   X539.5983     Y236.5504     R10.9000   
   X541.3283     Y238.8050     R10.9000   
   X542.4158     Y241.4305     R10.9000   
   X542.8006     Y244.3530     R10.9000   
G1   Y254.143   
G17 G2   X542.4158     Y257.0657     R10.9000   
   X541.3283     Y259.6912     R10.9000   
   X539.5983     Y261.9458     R10.9000   
   X537.3436     Y263.6758     R10.9000   
   X534.7181     Y264.7634     R10.9000   
   X531.9006     Y265.1343     R10.9000   
   X529.0830     Y264.7634     R10.9000   
   X526.4575     Y263.6758     R10.9000   
   X524.2028     Y261.9458     R10.9000   
   X522.4728     Y259.6912     R10.9000   
   X521.3853     Y257.0657     R10.9000   
   X521.0006     Y254.1432     R10.9000   
G1   Y244.353   
G17 G2   X521.3853     Y241.4305     R10.9000   
   X522.4728     Y238.8050     R10.9000   
   X524.2028     Y236.5504     R10.9000   
(Pass: 4)
G1   Z0.000      F300 
G17 G2   X526.4575     Y234.8204     R10.9000    F1000
   X529.0830     Y233.7328     R10.9000   
   X531.9006     Y233.3619     R10.9000   
   X534.7181     Y233.7328     R10.9000   
   X537.3436     Y234.8204     R10.9000   
   X539.5983     Y236.5504     R10.9000   
   X541.3283     Y238.8050     R10.9000   
   X542.4158     Y241.4305     R10.9000   
   X542.8006     Y244.3530     R10.9000   
G1   Y254.143   
G17 G2   X542.4158     Y257.0657     R10.9000   
   X541.3283     Y259.6912     R10.9000   
   X539.5983     Y261.9458     R10.9000   
   X537.3436     Y263.6758     R10.9000   
   X534.7181     Y264.7634     R10.9000   
   X531.9006     Y265.1343     R10.9000   
   X529.0830     Y264.7634     R10.9000   
   X526.4575     Y263.6758     R10.9000   
   X524.2028     Y261.9458     R10.9000   
   X522.4728     Y259.6912     R10.9000   
   X521.3853     Y257.0657     R10.9000   
   X521.0006     Y254.1432     R10.9000   
G1   Y244.353   
G17 G2   X521.3853     Y241.4305     R10.9000   
   X522.4728     Y238.8050     R10.9000   
   X524.2028     Y236.5504     R10.9000   
G0   Z18.200    
(Pass: 1)
   X498.872      Y256.788   
G1   Z2.200      F300 
G17 G2   X499.0474     Y257.0165     R1.1154     F1000
   X499.1574     Y257.2822     R1.1154    
   X499.1950     Y257.5673     R1.1154    
   X499.1574     Y257.8524     R1.1154    
   X499.0474     Y258.1181     R1.1154    
   X498.8723     Y258.3463     R1.1154    
   X498.6442     Y258.5213     R1.1154    
   X498.3785     Y258.6314     R1.1154    
   X498.0933     Y258.6689     R1.1154    
   X497.8082     Y258.6314     R1.1154    
   X497.5425     Y258.5213     R1.1154    
   X497.3144     Y258.3463     R1.1154    
   X497.1393     Y258.1181     R1.1154    
   X497.0292     Y257.8524     R1.1154    
   X496.9917     Y257.5673     R1.1154    
   X497.0292     Y257.2822     R1.1154    
   X497.1393     Y257.0165     R1.1154    
   X497.3144     Y256.7883     R1.1154    
   X497.5425     Y256.6132     R1.1154    
   X497.8082     Y256.5032     R1.1154    
   X498.0933     Y256.4657     R1.1154    
   X498.3785     Y256.5032     R1.1154    
   X498.6442     Y256.6132     R1.1154    
   X498.8723     Y256.7883     R1.1154    
(Pass: 2)
G1   Z1.200      F300 
G17 G2   X499.0474     Y257.0165     R1.1154     F1000
   X499.1574     Y257.2822     R1.1154    
   X499.1950     Y257.5673     R1.1154    
   X499.1574     Y257.8524     R1.1154    
   X499.0474     Y258.1181     R1.1154    
   X498.8723     Y258.3463     R1.1154    
   X498.6442     Y258.5213     R1.1154    
   X498.3785     Y258.6314     R1.1154    
   X498.0933     Y258.6689     R1.1154    
   X497.8082     Y258.6314     R1.1154    
   X497.5425     Y258.5213     R1.1154    
   X497.3144     Y258.3463     R1.1154    
   X497.1393     Y258.1181     R1.1154    
   X497.0292     Y257.8524     R1.1154    
   X496.9917     Y257.5673     R1.1154    
   X497.0292     Y257.2822     R1.1154    
   X497.1393     Y257.0165     R1.1154    
   X497.3144     Y256.7883     R1.1154    
   X497.5425     Y256.6132     R1.1154    
   X497.8082     Y256.5032     R1.1154    
   X498.0933     Y256.4657     R1.1154    
   X498.3785     Y256.5032     R1.1154    
   X498.6442     Y256.6132     R1.1154    
   X498.8723     Y256.7883     R1.1154    
(Pass: 3)
G1   Z0.200      F300 
G17 G2   X499.0474     Y257.0165     R1.1154     F1000
   X499.1574     Y257.2822     R1.1154    
   X499.1950     Y257.5673     R1.1154    
   X499.1574     Y257.8524     R1.1154    
   X499.0474     Y258.1181     R1.1154    
   X498.8723     Y258.3463     R1.1154    
   X498.6442     Y258.5213     R1.1154    
   X498.3785     Y258.6314     R1.1154    
   X498.0933     Y258.6689     R1.1154    
   X497.8082     Y258.6314     R1.1154    
   X497.5425     Y258.5213     R1.1154    
   X497.3144     Y258.3463     R1.1154    
   X497.1393     Y258.1181     R1.1154    
   X497.0292     Y257.8524     R1.1154    
   X496.9917     Y257.5673     R1.1154    
   X497.0292     Y257.2822     R1.1154    
   X497.1393     Y257.0165     R1.1154    
   X497.3144     Y256.7883     R1.1154    
   X497.5425     Y256.6132     R1.1154    
   X497.8082     Y256.5032     R1.1154    
   X498.0933     Y256.4657     R1.1154    
   X498.3785     Y256.5032     R1.1154    
   X498.6442     Y256.6132     R1.1154    
   X498.8723     Y256.7883     R1.1154    
(Pass: 4)
G1   Z0.000      F300 
G17 G2   X499.0474     Y257.0165     R1.1154     F1000
   X499.1574     Y257.2822     R1.1154    
   X499.1950     Y257.5673     R1.1154    
   X499.1574     Y257.8524     R1.1154    
   X499.0474     Y258.1181     R1.1154    
   X498.8723     Y258.3463     R1.1154    
   X498.6442     Y258.5213     R1.1154    
   X498.3785     Y258.6314     R1.1154    
   X498.0933     Y258.6689     R1.1154    
   X497.8082     Y258.6314     R1.1154    
   X497.5425     Y258.5213     R1.1154    
   X497.3144     Y258.3463     R1.1154    
   X497.1393     Y258.1181     R1.1154    
   X497.0292     Y257.8524     R1.1154    
   X496.9917     Y257.5673     R1.1154    
   X497.0292     Y257.2822     R1.1154    
   X497.1393     Y257.0165     R1.1154    
   X497.3144     Y256.7883     R1.1154    
   X497.5425     Y256.6132     R1.1154    
   X497.8082     Y256.5032     R1.1154    
   X498.0933     Y256.4657     R1.1154    
   X498.3785     Y256.5032     R1.1154    
   X498.6442     Y256.6132     R1.1154    
   X498.8723     Y256.7883     R1.1154    
G0   Z18.200    
(Pass: 1)
   X507.614      Y267.723   
G1   Z2.200      F300 
   X507.806      Y267.576    F1000
   X508.029      Y267.483   
   X508.269      Y267.452   
   X508.508      Y267.483   
   X508.732      Y267.576   
   X508.924      Y267.723   
   X509.071      Y267.915   
   X509.163      Y268.138   
   X509.209      Y268.483   
   Y277.273   
   X509.163      Y277.618   
   X509.071      Y277.841   
   X508.924      Y278.033   
   X508.732      Y278.180   
   X508.508      Y278.272   
   X508.269      Y278.304   
   X508.029      Y278.272   
   X507.806      Y278.180   
   X507.614      Y278.033   
   X507.467      Y277.841   
   X507.374      Y277.618   
   X507.329      Y277.273   
   Y268.483   
   X507.374      Y268.138   
   X507.467      Y267.915   
   X507.614      Y267.723   
(Pass: 2)
   Z1.200      F300 
   X507.806      Y267.576    F1000
   X508.029      Y267.483   
   X508.269      Y267.452   
   X508.508      Y267.483   
   X508.732      Y267.576   
   X508.924      Y267.723   
   X509.071      Y267.915   
   X509.163      Y268.138   
   X509.209      Y268.483   
   Y277.273   
   X509.163      Y277.618   
   X509.071      Y277.841   
   X508.924      Y278.033   
   X508.732      Y278.180   
   X508.508      Y278.272   
   X508.269      Y278.304   
   X508.029      Y278.272   
   X507.806      Y278.180   
   X507.614      Y278.033   
   X507.467      Y277.841   
   X507.374      Y277.618   
   X507.329      Y277.273   
   Y268.483   
   X507.374      Y268.138   
   X507.467      Y267.915   
   X507.614      Y267.723   
(Pass: 3)
   Z0.200      F300 
   X507.806      Y267.576    F1000
   X508.029      Y267.483   
   X508.269      Y267.452   
   X508.508      Y267.483   
   X508.732      Y267.576   
   X508.924      Y267.723   
   X509.071      Y267.915   
   X509.163      Y268.138   
   X509.209      Y268.483   
   Y277.273   
   X509.163      Y277.618   
   X509.071      Y277.841   
   X508.924      Y278.033   
   X508.732      Y278.180   
   X508.508      Y278.272   
   X508.269      Y278.304   
   X508.029      Y278.272   
   X507.806      Y278.180   
   X507.614      Y278.033   
   X507.467      Y277.841   
   X507.374      Y277.618   
   X507.329      Y277.273   
   Y268.483   
   X507.374      Y268.138   
   X507.467      Y267.915   
   X507.614      Y267.723   
(Pass: 4)
   Z0.000      F300 
   X507.806      Y267.576    F1000
   X508.029      Y267.483   
   X508.269      Y267.452   
   X508.508      Y267.483   
   X508.732      Y267.576   
   X508.924      Y267.723   
   X509.071      Y267.915   
   X509.163      Y268.138   
   X509.209      Y268.483   
   Y277.273   
   X509.163      Y277.618   
   X509.071      Y277.841   
   X508.924      Y278.033   
   X508.732      Y278.180   
   X508.508      Y278.272   
   X508.269      Y278.304   
   X508.029      Y278.272   
   X507.806      Y278.180   
   X507.614      Y278.033   
   X507.467      Y277.841   
   X507.374      Y277.618   
   X507.329      Y277.273   
   Y268.483   
   X507.374      Y268.138   
   X507.467      Y267.915   
   X507.614      Y267.723   
G0   Z18.200    
(Pass: 1)
   X513.736      Y287.051   
G1   Z2.200      F300 
G17 G2   X514.0209     Y287.0136     R1.1154     F1000
   X514.3061     Y287.0511     R1.1154    
   X514.5717     Y287.1612     R1.1154    
   X514.7999     Y287.3362     R1.1154    
   X514.9750     Y287.5644     R1.1154    
   X515.0850     Y287.8301     R1.1154    
   X515.1226     Y288.1152     R1.1154    
   X515.0850     Y288.4003     R1.1154    
   X514.9750     Y288.6660     R1.1154    
   X514.7999     Y288.8942     R1.1154    
   X514.5717     Y289.0692     R1.1154    
   X514.3061     Y289.1793     R1.1154    
   X514.0209     Y289.2168     R1.1154    
   X513.7358     Y289.1793     R1.1154    
   X513.4701     Y289.0692     R1.1154    
   X513.2420     Y288.8942     R1.1154    
   X513.0669     Y288.6660     R1.1154    
   X512.9568     Y288.4003     R1.1154    
   X512.9193     Y288.1152     R1.1154    
   X512.9544     Y287.8489     R1.1154    
   X513.0669     Y287.5644     R1.1154    
   X513.2420     Y287.3362     R1.1154    
   X513.4701     Y287.1612     R1.1154    
   X513.7358     Y287.0511     R1.1154    
(Pass: 2)
G1   Z1.200      F300 
G17 G2   X514.0209     Y287.0136     R1.1154     F1000
   X514.3061     Y287.0511     R1.1154    
   X514.5717     Y287.1612     R1.1154    
   X514.7999     Y287.3362     R1.1154    
   X514.9750     Y287.5644     R1.1154    
   X515.0850     Y287.8301     R1.1154    
   X515.1226     Y288.1152     R1.1154    
   X515.0850     Y288.4003     R1.1154    
   X514.9750     Y288.6660     R1.1154    
   X514.7999     Y288.8942     R1.1154    
   X514.5717     Y289.0692     R1.1154    
   X514.3061     Y289.1793     R1.1154    
   X514.0209     Y289.2168     R1.1154    
   X513.7358     Y289.1793     R1.1154    
   X513.4701     Y289.0692     R1.1154    
   X513.2420     Y288.8942     R1.1154    
   X513.0669     Y288.6660     R1.1154    
   X512.9568     Y288.4003     R1.1154    
   X512.9193     Y288.1152     R1.1154    
   X512.9544     Y287.8489     R1.1154    
   X513.0669     Y287.5644     R1.1154    
   X513.2420     Y287.3362     R1.1154    
   X513.4701     Y287.1612     R1.1154    
   X513.7358     Y287.0511     R1.1154    
(Pass: 3)
G1   Z0.200      F300 
G17 G2   X514.0209     Y287.0136     R1.1154     F1000
   X514.3061     Y287.0511     R1.1154    
   X514.5717     Y287.1612     R1.1154    
   X514.7999     Y287.3362     R1.1154    
   X514.9750     Y287.5644     R1.1154    
   X515.0850     Y287.8301     R1.1154    
   X515.1226     Y288.1152     R1.1154    
   X515.0850     Y288.4003     R1.1154    
   X514.9750     Y288.6660     R1.1154    
   X514.7999     Y288.8942     R1.1154    
   X514.5717     Y289.0692     R1.1154    
   X514.3061     Y289.1793     R1.1154    
   X514.0209     Y289.2168     R1.1154    
   X513.7358     Y289.1793     R1.1154    
   X513.4701     Y289.0692     R1.1154    
   X513.2420     Y288.8942     R1.1154    
   X513.0669     Y288.6660     R1.1154    
   X512.9568     Y288.4003     R1.1154    
   X512.9193     Y288.1152     R1.1154    
   X512.9544     Y287.8489     R1.1154    
   X513.0669     Y287.5644     R1.1154    
   X513.2420     Y287.3362     R1.1154    
   X513.4701     Y287.1612     R1.1154    
   X513.7358     Y287.0511     R1.1154    
(Pass: 4)
G1   Z0.000      F300 
G17 G2   X514.0209     Y287.0136     R1.1154     F1000
   X514.3061     Y287.0511     R1.1154    
   X514.5717     Y287.1612     R1.1154    
   X514.7999     Y287.3362     R1.1154    
   X514.9750     Y287.5644     R1.1154    
   X515.0850     Y287.8301     R1.1154    
   X515.1226     Y288.1152     R1.1154    
   X515.0850     Y288.4003     R1.1154    
   X514.9750     Y288.6660     R1.1154    
   X514.7999     Y288.8942     R1.1154    
   X514.5717     Y289.0692     R1.1154    
   X514.3061     Y289.1793     R1.1154    
   X514.0209     Y289.2168     R1.1154    
   X513.7358     Y289.1793     R1.1154    
   X513.4701     Y289.0692     R1.1154    
   X513.2420     Y288.8942     R1.1154    
   X513.0669     Y288.6660     R1.1154    
   X512.9568     Y288.4003     R1.1154    
   X512.9193     Y288.1152     R1.1154    
   X512.9544     Y287.8489     R1.1154    
   X513.0669     Y287.5644     R1.1154    
   X513.2420     Y287.3362     R1.1154    
   X513.4701     Y287.1612     R1.1154    
   X513.7358     Y287.0511     R1.1154    
G0   Z18.200    
(Pass: 1)
   X548.639      Y288.115   
G1   Z2.200      F300 
G17 G2   X548.6761     Y287.8301     R1.1154     F1000
   X548.7861     Y287.5644     R1.1154    
   X548.9612     Y287.3362     R1.1154    
   X549.1893     Y287.1612     R1.1154    
   X549.4550     Y287.0511     R1.1154    
   X549.7402     Y287.0136     R1.1154    
   X550.0253     Y287.0511     R1.1154    
   X550.2910     Y287.1612     R1.1154    
   X550.5191     Y287.3362     R1.1154    
   X550.6942     Y287.5644     R1.1154    
   X550.8043     Y287.8301     R1.1154    
   X550.8418     Y288.1152     R1.1154    
   X550.8043     Y288.4003     R1.1154    
   X550.6942     Y288.6660     R1.1154    
   X550.5191     Y288.8942     R1.1154    
   X550.2910     Y289.0692     R1.1154    
   X550.0253     Y289.1793     R1.1154    
   X549.7402     Y289.2168     R1.1154    
   X549.4550     Y289.1793     R1.1154    
   X549.1893     Y289.0692     R1.1154    
   X548.9612     Y288.8942     R1.1154    
   X548.7861     Y288.6660     R1.1154    
   X548.6761     Y288.4003     R1.1154    
   X548.6385     Y288.1152     R1.1154    
(Pass: 2)
G1   Z1.200      F300 
G17 G2   X548.6761     Y287.8301     R1.1154     F1000
   X548.7861     Y287.5644     R1.1154    
   X548.9612     Y287.3362     R1.1154    
   X549.1893     Y287.1612     R1.1154    
   X549.4550     Y287.0511     R1.1154    
   X549.7402     Y287.0136     R1.1154    
   X550.0253     Y287.0511     R1.1154    
   X550.2910     Y287.1612     R1.1154    
   X550.5191     Y287.3362     R1.1154    
   X550.6942     Y287.5644     R1.1154    
   X550.8043     Y287.8301     R1.1154    
   X550.8418     Y288.1152     R1.1154    
   X550.8043     Y288.4003     R1.1154    
   X550.6942     Y288.6660     R1.1154    
   X550.5191     Y288.8942     R1.1154    
   X550.2910     Y289.0692     R1.1154    
   X550.0253     Y289.1793     R1.1154    
   X549.7402     Y289.2168     R1.1154    
   X549.4550     Y289.1793     R1.1154    
   X549.1893     Y289.0692     R1.1154    
   X548.9612     Y288.8942     R1.1154    
   X548.7861     Y288.6660     R1.1154    
   X548.6761     Y288.4003     R1.1154    
   X548.6385     Y288.1152     R1.1154    
(Pass: 3)
G1   Z0.200      F300 
G17 G2   X548.6761     Y287.8301     R1.1154     F1000
   X548.7861     Y287.5644     R1.1154    
   X548.9612     Y287.3362     R1.1154    
   X549.1893     Y287.1612     R1.1154    
   X549.4550     Y287.0511     R1.1154    
   X549.7402     Y287.0136     R1.1154    
   X550.0253     Y287.0511     R1.1154    
   X550.2910     Y287.1612     R1.1154    
   X550.5191     Y287.3362     R1.1154    
   X550.6942     Y287.5644     R1.1154    
   X550.8043     Y287.8301     R1.1154    
   X550.8418     Y288.1152     R1.1154    
   X550.8043     Y288.4003     R1.1154    
   X550.6942     Y288.6660     R1.1154    
   X550.5191     Y288.8942     R1.1154    
   X550.2910     Y289.0692     R1.1154    
   X550.0253     Y289.1793     R1.1154    
   X549.7402     Y289.2168     R1.1154    
   X549.4550     Y289.1793     R1.1154    
   X549.1893     Y289.0692     R1.1154    
   X548.9612     Y288.8942     R1.1154    
   X548.7861     Y288.6660     R1.1154    
   X548.6761     Y288.4003     R1.1154    
   X548.6385     Y288.1152     R1.1154    
(Pass: 4)
G1   Z0.000      F300 
G17 G2   X548.6761     Y287.8301     R1.1154     F1000
   X548.7861     Y287.5644     R1.1154    
   X548.9612     Y287.3362     R1.1154    
   X549.1893     Y287.1612     R1.1154    
   X549.4550     Y287.0511     R1.1154    
   X549.7402     Y287.0136     R1.1154    
   X550.0253     Y287.0511     R1.1154    
   X550.2910     Y287.1612     R1.1154    
   X550.5191     Y287.3362     R1.1154    
   X550.6942     Y287.5644     R1.1154    
   X550.8043     Y287.8301     R1.1154    
   X550.8418     Y288.1152     R1.1154    
   X550.8043     Y288.4003     R1.1154    
   X550.6942     Y288.6660     R1.1154    
   X550.5191     Y288.8942     R1.1154    
   X550.2910     Y289.0692     R1.1154    
   X550.0253     Y289.1793     R1.1154    
   X549.7402     Y289.2168     R1.1154    
   X549.4550     Y289.1793     R1.1154    
   X549.1893     Y289.0692     R1.1154    
   X548.9612     Y288.8942     R1.1154    
   X548.7861     Y288.6660     R1.1154    
   X548.6761     Y288.4003     R1.1154    
   X548.6385     Y288.1152     R1.1154    
G0   Z18.200    
(Pass: 1)
   X555.049      Y278.180   
G1   Z2.200      F300 
   X554.858      Y278.033    F1000
   X554.710      Y277.841   
   X554.618      Y277.618   
   X554.572      Y277.273   
   Y268.483   
   X554.618      Y268.138   
   X554.710      Y267.915   
   X554.858      Y267.723   
   X555.049      Y267.576   
   X555.273      Y267.483   
   X555.512      Y267.452   
   X555.752      Y267.483   
   X555.976      Y267.576   
   X556.167      Y267.723   
   X556.315      Y267.915   
   X556.407      Y268.138   
   X556.452      Y268.483   
   Y277.273   
   X556.407      Y277.618   
   X556.315      Y277.841   
   X556.167      Y278.033   
   X555.976      Y278.180   
   X555.752      Y278.272   
   X555.512      Y278.304   
   X555.273      Y278.272   
   X555.049      Y278.180   
(Pass: 2)
   Z1.200      F300 
   X554.858      Y278.033    F1000
   X554.710      Y277.841   
   X554.618      Y277.618   
   X554.572      Y277.273   
   Y268.483   
   X554.618      Y268.138   
   X554.710      Y267.915   
   X554.858      Y267.723   
   X555.049      Y267.576   
   X555.273      Y267.483   
   X555.512      Y267.452   
   X555.752      Y267.483   
   X555.976      Y267.576   
   X556.167      Y267.723   
   X556.315      Y267.915   
   X556.407      Y268.138   
   X556.452      Y268.483   
   Y277.273   
   X556.407      Y277.618   
   X556.315      Y277.841   
   X556.167      Y278.033   
   X555.976      Y278.180   
   X555.752      Y278.272   
   X555.512      Y278.304   
   X555.273      Y278.272   
   X555.049      Y278.180   
(Pass: 3)
   Z0.200      F300 
   X554.858      Y278.033    F1000
   X554.710      Y277.841   
   X554.618      Y277.618   
   X554.572      Y277.273   
   Y268.483   
   X554.618      Y268.138   
   X554.710      Y267.915   
   X554.858      Y267.723   
   X555.049      Y267.576   
   X555.273      Y267.483   
   X555.512      Y267.452   
   X555.752      Y267.483   
   X555.976      Y267.576   
   X556.167      Y267.723   
   X556.315      Y267.915   
   X556.407      Y268.138   
   X556.452      Y268.483   
   Y277.273   
   X556.407      Y277.618   
   X556.315      Y277.841   
   X556.167      Y278.033   
   X555.976      Y278.180   
   X555.752      Y278.272   
   X555.512      Y278.304   
   X555.273      Y278.272   
   X555.049      Y278.180   
(Pass: 4)
   Z0.000      F300 
   X554.858      Y278.033    F1000
   X554.710      Y277.841   
   X554.618      Y277.618   
   X554.572      Y277.273   
   Y268.483   
   X554.618      Y268.138   
   X554.710      Y267.915   
   X554.858      Y267.723   
   X555.049      Y267.576   
   X555.273      Y267.483   
   X555.512      Y267.452   
   X555.752      Y267.483   
   X555.976      Y267.576   
   X556.167      Y267.723   
   X556.315      Y267.915   
   X556.407      Y268.138   
   X556.452      Y268.483   
   Y277.273   
   X556.407      Y277.618   
   X556.315      Y277.841   
   X556.167      Y278.033   
   X555.976      Y278.180   
   X555.752      Y278.272   
   X555.512      Y278.304   
   X555.273      Y278.272   
   X555.049      Y278.180   
G0   Z18.200    
(Pass: 1)
   X565.157      Y258.521   
G1   Z2.200      F300 
G17 G2   X564.9288     Y258.3463     R1.1154     F1000
   X564.7537     Y258.1181     R1.1154    
   X564.6437     Y257.8524     R1.1154    
   X564.6061     Y257.5673     R1.1154    
   X564.6437     Y257.2822     R1.1154    
   X564.7537     Y257.0165     R1.1154    
   X564.9288     Y256.7883     R1.1154    
   X565.1569     Y256.6132     R1.1154    
   X565.4226     Y256.5032     R1.1154    
   X565.7078     Y256.4657     R1.1154    
   X565.9929     Y256.5032     R1.1154    
   X566.2586     Y256.6132     R1.1154    
   X566.4867     Y256.7883     R1.1154    
   X566.6618     Y257.0165     R1.1154    
   X566.7719     Y257.2822     R1.1154    
   X566.8094     Y257.5673     R1.1154    
   X566.7719     Y257.8524     R1.1154    
   X566.6618     Y258.1181     R1.1154    
   X566.4867     Y258.3463     R1.1154    
   X566.2586     Y258.5213     R1.1154    
   X565.9929     Y258.6314     R1.1154    
   X565.7078     Y258.6689     R1.1154    
   X565.4226     Y258.6314     R1.1154    
   X565.1569     Y258.5213     R1.1154    
(Pass: 2)
G1   Z1.200      F300 
G17 G2   X564.9288     Y258.3463     R1.1154     F1000
   X564.7537     Y258.1181     R1.1154    
   X564.6437     Y257.8524     R1.1154    
   X564.6061     Y257.5673     R1.1154    
   X564.6437     Y257.2822     R1.1154    
   X564.7537     Y257.0165     R1.1154    
   X564.9288     Y256.7883     R1.1154    
   X565.1569     Y256.6132     R1.1154    
   X565.4226     Y256.5032     R1.1154    
   X565.7078     Y256.4657     R1.1154    
   X565.9929     Y256.5032     R1.1154    
   X566.2586     Y256.6132     R1.1154    
   X566.4867     Y256.7883     R1.1154    
   X566.6618     Y257.0165     R1.1154    
   X566.7719     Y257.2822     R1.1154    
   X566.8094     Y257.5673     R1.1154    
   X566.7719     Y257.8524     R1.1154    
   X566.6618     Y258.1181     R1.1154    
   X566.4867     Y258.3463     R1.1154    
   X566.2586     Y258.5213     R1.1154    
   X565.9929     Y258.6314     R1.1154    
   X565.7078     Y258.6689     R1.1154    
   X565.4226     Y258.6314     R1.1154    
   X565.1569     Y258.5213     R1.1154    
(Pass: 3)
G1   Z0.200      F300 
G17 G2   X564.9288     Y258.3463     R1.1154     F1000
   X564.7537     Y258.1181     R1.1154    
   X564.6437     Y257.8524     R1.1154    
   X564.6061     Y257.5673     R1.1154    
   X564.6437     Y257.2822     R1.1154    
   X564.7537     Y257.0165     R1.1154    
   X564.9288     Y256.7883     R1.1154    
   X565.1569     Y256.6132     R1.1154    
   X565.4226     Y256.5032     R1.1154    
   X565.7078     Y256.4657     R1.1154    
   X565.9929     Y256.5032     R1.1154    
   X566.2586     Y256.6132     R1.1154    
   X566.4867     Y256.7883     R1.1154    
   X566.6618     Y257.0165     R1.1154    
   X566.7719     Y257.2822     R1.1154    
   X566.8094     Y257.5673     R1.1154    
   X566.7719     Y257.8524     R1.1154    
   X566.6618     Y258.1181     R1.1154    
   X566.4867     Y258.3463     R1.1154    
   X566.2586     Y258.5213     R1.1154    
   X565.9929     Y258.6314     R1.1154    
   X565.7078     Y258.6689     R1.1154    
   X565.4226     Y258.6314     R1.1154    
   X565.1569     Y258.5213     R1.1154    
(Pass: 4)
G1   Z0.000      F300 
G17 G2   X564.9288     Y258.3463     R1.1154     F1000
   X564.7537     Y258.1181     R1.1154    
   X564.6437     Y257.8524     R1.1154    
   X564.6061     Y257.5673     R1.1154    
   X564.6437     Y257.2822     R1.1154    
   X564.7537     Y257.0165     R1.1154    
   X564.9288     Y256.7883     R1.1154    
   X565.1569     Y256.6132     R1.1154    
   X565.4226     Y256.5032     R1.1154    
   X565.7078     Y256.4657     R1.1154    
   X565.9929     Y256.5032     R1.1154    
   X566.2586     Y256.6132     R1.1154    
   X566.4867     Y256.7883     R1.1154    
   X566.6618     Y257.0165     R1.1154    
   X566.7719     Y257.2822     R1.1154    
   X566.8094     Y257.5673     R1.1154    
   X566.7719     Y257.8524     R1.1154    
   X566.6618     Y258.1181     R1.1154    
   X566.4867     Y258.3463     R1.1154    
   X566.2586     Y258.5213     R1.1154    
   X565.9929     Y258.6314     R1.1154    
   X565.7078     Y258.6689     R1.1154    
   X565.4226     Y258.6314     R1.1154    
   X565.1569     Y258.5213     R1.1154    
G0   Z18.200    
(Pass: 1)
   X555.976      Y230.936   
G1   Z2.200      F300 
   X555.752      Y231.029    F1000
   X555.512      Y231.060   
   X555.273      Y231.029   
   X555.049      Y230.936   
   X554.858      Y230.789   
   X554.710      Y230.597   
   X554.618      Y230.374   
   X554.572      Y230.029   
   Y221.239   
   X554.618      Y220.894   
   X554.710      Y220.671   
   X554.858      Y220.479   
   X555.049      Y220.332   
   X555.273      Y220.239   
   X555.512      Y220.208   
   X555.752      Y220.239   
   X555.976      Y220.332   
   X556.167      Y220.479   
   X556.315      Y220.671   
   X556.407      Y220.894   
   X556.452      Y221.239   
   Y230.029   
   X556.407      Y230.374   
   X556.315      Y230.597   
   X556.167      Y230.789   
   X555.976      Y230.936   
(Pass: 2)
   Z1.200      F300 
   X555.752      Y231.029    F1000
   X555.512      Y231.060   
   X555.273      Y231.029   
   X555.049      Y230.936   
   X554.858      Y230.789   
   X554.710      Y230.597   
   X554.618      Y230.374   
   X554.572      Y230.029   
   Y221.239   
   X554.618      Y220.894   
   X554.710      Y220.671   
   X554.858      Y220.479   
   X555.049      Y220.332   
   X555.273      Y220.239   
   X555.512      Y220.208   
   X555.752      Y220.239   
   X555.976      Y220.332   
   X556.167      Y220.479   
   X556.315      Y220.671   
   X556.407      Y220.894   
   X556.452      Y221.239   
   Y230.029   
   X556.407      Y230.374   
   X556.315      Y230.597   
   X556.167      Y230.789   
   X555.976      Y230.936   
(Pass: 3)
   Z0.200      F300 
   X555.752      Y231.029    F1000
   X555.512      Y231.060   
   X555.273      Y231.029   
   X555.049      Y230.936   
   X554.858      Y230.789   
   X554.710      Y230.597   
   X554.618      Y230.374   
   X554.572      Y230.029   
   Y221.239   
   X554.618      Y220.894   
   X554.710      Y220.671   
   X554.858      Y220.479   
   X555.049      Y220.332   
   X555.273      Y220.239   
   X555.512      Y220.208   
   X555.752      Y220.239   
   X555.976      Y220.332   
   X556.167      Y220.479   
   X556.315      Y220.671   
   X556.407      Y220.894   
   X556.452      Y221.239   
   Y230.029   
   X556.407      Y230.374   
   X556.315      Y230.597   
   X556.167      Y230.789   
   X555.976      Y230.936   
(Pass: 4)
   Z0.000      F300 
   X555.752      Y231.029    F1000
   X555.512      Y231.060   
   X555.273      Y231.029   
   X555.049      Y230.936   
   X554.858      Y230.789   
   X554.710      Y230.597   
   X554.618      Y230.374   
   X554.572      Y230.029   
   Y221.239   
   X554.618      Y220.894   
   X554.710      Y220.671   
   X554.858      Y220.479   
   X555.049      Y220.332   
   X555.273      Y220.239   
   X555.512      Y220.208   
   X555.752      Y220.239   
   X555.976      Y220.332   
   X556.167      Y220.479   
   X556.315      Y220.671   
   X556.407      Y220.894   
   X556.452      Y221.239   
   Y230.029   
   X556.407      Y230.374   
   X556.315      Y230.597   
   X556.167      Y230.789   
   X555.976      Y230.936   
G0   Z18.200    
(Pass: 1)
   X588.433      Y213.706   
G1   Z2.200      F300 
G17 G2   X588.3446     Y213.4926     R0.9000     F1000
   X588.3144     Y213.2632     R0.9000    
   X588.3446     Y213.0339     R0.9000    
   X588.4331     Y212.8201     R0.9000    
   X588.5739     Y212.6366     R0.9000    
   X588.7575     Y212.4958     R0.9000    
   X588.9712     Y212.4072     R0.9000    
   X589.2005     Y212.3771     R0.9000    
   X589.4299     Y212.4072     R0.9000    
   X589.6436     Y212.4958     R0.9000    
   X589.8272     Y212.6366     R0.9000    
   X589.9680     Y212.8201     R0.9000    
   X590.0565     Y213.0339     R0.9000    
   X590.0867     Y213.2632     R0.9000    
   X590.0565     Y213.4926     R0.9000    
   X589.9680     Y213.7063     R0.9000    
   X589.8272     Y213.8899     R0.9000    
   X589.6436     Y214.0307     R0.9000    
   X589.4299     Y214.1192     R0.9000    
   X589.2005     Y214.1494     R0.9000    
   X588.9712     Y214.1192     R0.9000    
   X588.7575     Y214.0307     R0.9000    
   X588.5739     Y213.8899     R0.9000    
   X588.4331     Y213.7063     R0.9000    
(Pass: 2)
G1   Z1.200      F300 
G17 G2   X588.3446     Y213.4926     R0.9000     F1000
   X588.3144     Y213.2632     R0.9000    
   X588.3446     Y213.0339     R0.9000    
   X588.4331     Y212.8201     R0.9000    
   X588.5739     Y212.6366     R0.9000    
   X588.7575     Y212.4958     R0.9000    
   X588.9712     Y212.4072     R0.9000    
   X589.2005     Y212.3771     R0.9000    
   X589.4299     Y212.4072     R0.9000    
   X589.6436     Y212.4958     R0.9000    
   X589.8272     Y212.6366     R0.9000    
   X589.9680     Y212.8201     R0.9000    
   X590.0565     Y213.0339     R0.9000    
   X590.0867     Y213.2632     R0.9000    
   X590.0565     Y213.4926     R0.9000    
   X589.9680     Y213.7063     R0.9000    
   X589.8272     Y213.8899     R0.9000    
   X589.6436     Y214.0307     R0.9000    
   X589.4299     Y214.1192     R0.9000    
   X589.2005     Y214.1494     R0.9000    
   X588.9712     Y214.1192     R0.9000    
   X588.7575     Y214.0307     R0.9000    
   X588.5739     Y213.8899     R0.9000    
   X588.4331     Y213.7063     R0.9000    
(Pass: 3)
G1   Z0.200      F300 
G17 G2   X588.3446     Y213.4926     R0.9000     F1000
   X588.3144     Y213.2632     R0.9000    
   X588.3446     Y213.0339     R0.9000    
   X588.4331     Y212.8201     R0.9000    
   X588.5739     Y212.6366     R0.9000    
   X588.7575     Y212.4958     R0.9000    
   X588.9712     Y212.4072     R0.9000    
   X589.2005     Y212.3771     R0.9000    
   X589.4299     Y212.4072     R0.9000    
   X589.6436     Y212.4958     R0.9000    
   X589.8272     Y212.6366     R0.9000    
   X589.9680     Y212.8201     R0.9000    
   X590.0565     Y213.0339     R0.9000    
   X590.0867     Y213.2632     R0.9000    
   X590.0565     Y213.4926     R0.9000    
   X589.9680     Y213.7063     R0.9000    
   X589.8272     Y213.8899     R0.9000    
   X589.6436     Y214.0307     R0.9000    
   X589.4299     Y214.1192     R0.9000    
   X589.2005     Y214.1494     R0.9000    
   X588.9712     Y214.1192     R0.9000    
   X588.7575     Y214.0307     R0.9000    
   X588.5739     Y213.8899     R0.9000    
   X588.4331     Y213.7063     R0.9000    
(Pass: 4)
G1   Z0.000      F300 
G17 G2   X588.3446     Y213.4926     R0.9000     F1000
   X588.3144     Y213.2632     R0.9000    
   X588.3446     Y213.0339     R0.9000    
   X588.4331     Y212.8201     R0.9000    
   X588.5739     Y212.6366     R0.9000    
   X588.7575     Y212.4958     R0.9000    
   X588.9712     Y212.4072     R0.9000    
   X589.2005     Y212.3771     R0.9000    
   X589.4299     Y212.4072     R0.9000    
   X589.6436     Y212.4958     R0.9000    
   X589.8272     Y212.6366     R0.9000    
   X589.9680     Y212.8201     R0.9000    
   X590.0565     Y213.0339     R0.9000    
   X590.0867     Y213.2632     R0.9000    
   X590.0565     Y213.4926     R0.9000    
   X589.9680     Y213.7063     R0.9000    
   X589.8272     Y213.8899     R0.9000    
   X589.6436     Y214.0307     R0.9000    
   X589.4299     Y214.1192     R0.9000    
   X589.2005     Y214.1494     R0.9000    
   X588.9712     Y214.1192     R0.9000    
   X588.7575     Y214.0307     R0.9000    
   X588.5739     Y213.8899     R0.9000    
   X588.4331     Y213.7063     R0.9000    
G0   Z18.200    
(Pass: 1)
   X596.912      Y178.712   
G1   Z2.200      F300 
G17 G2   X596.6828     Y178.6819     R0.9000     F1000
   X596.4691     Y178.5934     R0.9000    
   X596.2855     Y178.4526     R0.9000    
   X596.1447     Y178.2690     R0.9000    
   X596.0562     Y178.0553     R0.9000    
   X596.0260     Y177.8259     R0.9000    
   X596.0562     Y177.5966     R0.9000    
   X596.1447     Y177.3828     R0.9000    
   X596.2855     Y177.1993     R0.9000    
   X596.4691     Y177.0585     R0.9000    
   X596.6828     Y176.9699     R0.9000    
   X596.9122     Y176.9397     R0.9000    
   X597.1415     Y176.9699     R0.9000    
   X597.3553     Y177.0585     R0.9000    
   X597.5388     Y177.1993     R0.9000    
   X597.6796     Y177.3828     R0.9000    
   X597.7682     Y177.5966     R0.9000    
   X597.7984     Y177.8259     R0.9000    
   X597.7682     Y178.0553     R0.9000    
   X597.6796     Y178.2690     R0.9000    
   X597.5388     Y178.4526     R0.9000    
   X597.3553     Y178.5934     R0.9000    
   X597.1415     Y178.6819     R0.9000    
   X596.9122     Y178.7121     R0.9000    
(Pass: 2)
G1   Z1.200      F300 
G17 G2   X596.6828     Y178.6819     R0.9000     F1000
   X596.4691     Y178.5934     R0.9000    
   X596.2855     Y178.4526     R0.9000    
   X596.1447     Y178.2690     R0.9000    
   X596.0562     Y178.0553     R0.9000    
   X596.0260     Y177.8259     R0.9000    
   X596.0562     Y177.5966     R0.9000    
   X596.1447     Y177.3828     R0.9000    
   X596.2855     Y177.1993     R0.9000    
   X596.4691     Y177.0585     R0.9000    
   X596.6828     Y176.9699     R0.9000    
   X596.9122     Y176.9397     R0.9000    
   X597.1415     Y176.9699     R0.9000    
   X597.3553     Y177.0585     R0.9000    
   X597.5388     Y177.1993     R0.9000    
   X597.6796     Y177.3828     R0.9000    
   X597.7682     Y177.5966     R0.9000    
   X597.7984     Y177.8259     R0.9000    
   X597.7682     Y178.0553     R0.9000    
   X597.6796     Y178.2690     R0.9000    
   X597.5388     Y178.4526     R0.9000    
   X597.3553     Y178.5934     R0.9000    
   X597.1415     Y178.6819     R0.9000    
   X596.9122     Y178.7121     R0.9000    
(Pass: 3)
G1   Z0.200      F300 
G17 G2   X596.6828     Y178.6819     R0.9000     F1000
   X596.4691     Y178.5934     R0.9000    
   X596.2855     Y178.4526     R0.9000    
   X596.1447     Y178.2690     R0.9000    
   X596.0562     Y178.0553     R0.9000    
   X596.0260     Y177.8259     R0.9000    
   X596.0562     Y177.5966     R0.9000    
   X596.1447     Y177.3828     R0.9000    
   X596.2855     Y177.1993     R0.9000    
   X596.4691     Y177.0585     R0.9000    
   X596.6828     Y176.9699     R0.9000    
   X596.9122     Y176.9397     R0.9000    
   X597.1415     Y176.9699     R0.9000    
   X597.3553     Y177.0585     R0.9000    
   X597.5388     Y177.1993     R0.9000    
   X597.6796     Y177.3828     R0.9000    
   X597.7682     Y177.5966     R0.9000    
   X597.7984     Y177.8259     R0.9000    
   X597.7682     Y178.0553     R0.9000    
   X597.6796     Y178.2690     R0.9000    
   X597.5388     Y178.4526     R0.9000    
   X597.3553     Y178.5934     R0.9000    
   X597.1415     Y178.6819     R0.9000    
   X596.9122     Y178.7121     R0.9000    
(Pass: 4)
G1   Z0.000      F300 
G17 G2   X596.6828     Y178.6819     R0.9000     F1000
   X596.4691     Y178.5934     R0.9000    
   X596.2855     Y178.4526     R0.9000    
   X596.1447     Y178.2690     R0.9000    
   X596.0562     Y178.0553     R0.9000    
   X596.0260     Y177.8259     R0.9000    
   X596.0562     Y177.5966     R0.9000    
   X596.1447     Y177.3828     R0.9000    
   X596.2855     Y177.1993     R0.9000    
   X596.4691     Y177.0585     R0.9000    
   X596.6828     Y176.9699     R0.9000    
   X596.9122     Y176.9397     R0.9000    
   X597.1415     Y176.9699     R0.9000    
   X597.3553     Y177.0585     R0.9000    
   X597.5388     Y177.1993     R0.9000    
   X597.6796     Y177.3828     R0.9000    
   X597.7682     Y177.5966     R0.9000    
   X597.7984     Y177.8259     R0.9000    
   X597.7682     Y178.0553     R0.9000    
   X597.6796     Y178.2690     R0.9000    
   X597.5388     Y178.4526     R0.9000    
   X597.3553     Y178.5934     R0.9000    
   X597.1415     Y178.6819     R0.9000    
   X596.9122     Y178.7121     R0.9000    
G0   Z18.200    
(Pass: 1)
   Y168.712   
G1   Z2.200      F300 
G17 G2   X596.6869     Y168.6823     R0.9000     F1000
   X596.4731     Y168.5940     R0.9000    
   X596.2893     Y168.4534     R0.9000    
   X596.1482     Y168.2701     R0.9000    
   X596.0594     Y168.0565     R0.9000    
   X596.0289     Y167.8272     R0.9000    
   X596.0588     Y167.5978     R0.9000    
   X596.1470     Y167.3839     R0.9000    
   X596.2876     Y167.2002     R0.9000    
   X596.4709     Y167.0591     R0.9000    
   X596.6846     Y166.9703     R0.9000    
   X596.9139     Y166.9397     R0.9000    
   X597.1433     Y166.9696     R0.9000    
   X597.3571     Y167.0579     R0.9000    
   X597.5409     Y167.1984     R0.9000    
   X597.6820     Y167.3818     R0.9000    
   X597.7708     Y167.5954     R0.9000    
   X597.8013     Y167.8247     R0.9000    
   X597.7714     Y168.0541     R0.9000    
   X597.6832     Y168.2680     R0.9000    
   X597.5426     Y168.4517     R0.9000    
   X597.3593     Y168.5928     R0.9000    
   X597.1456     Y168.6816     R0.9000    
   X596.9163     Y168.7121     R0.9000    
(Pass: 2)
G1   Z1.200      F300 
G17 G2   X596.6869     Y168.6823     R0.9000     F1000
   X596.4731     Y168.5940     R0.9000    
   X596.2893     Y168.4534     R0.9000    
   X596.1482     Y168.2701     R0.9000    
   X596.0594     Y168.0565     R0.9000    
   X596.0289     Y167.8272     R0.9000    
   X596.0588     Y167.5978     R0.9000    
   X596.1470     Y167.3839     R0.9000    
   X596.2876     Y167.2002     R0.9000    
   X596.4709     Y167.0591     R0.9000    
   X596.6846     Y166.9703     R0.9000    
   X596.9139     Y166.9397     R0.9000    
   X597.1433     Y166.9696     R0.9000    
   X597.3571     Y167.0579     R0.9000    
   X597.5409     Y167.1984     R0.9000    
   X597.6820     Y167.3818     R0.9000    
   X597.7708     Y167.5954     R0.9000    
   X597.8013     Y167.8247     R0.9000    
   X597.7714     Y168.0541     R0.9000    
   X597.6832     Y168.2680     R0.9000    
   X597.5426     Y168.4517     R0.9000    
   X597.3593     Y168.5928     R0.9000    
   X597.1456     Y168.6816     R0.9000    
   X596.9163     Y168.7121     R0.9000    
(Pass: 3)
G1   Z0.200      F300 
G17 G2   X596.6869     Y168.6823     R0.9000     F1000
   X596.4731     Y168.5940     R0.9000    
   X596.2893     Y168.4534     R0.9000    
   X596.1482     Y168.2701     R0.9000    
   X596.0594     Y168.0565     R0.9000    
   X596.0289     Y167.8272     R0.9000    
   X596.0588     Y167.5978     R0.9000    
   X596.1470     Y167.3839     R0.9000    
   X596.2876     Y167.2002     R0.9000    
   X596.4709     Y167.0591     R0.9000    
   X596.6846     Y166.9703     R0.9000    
   X596.9139     Y166.9397     R0.9000    
   X597.1433     Y166.9696     R0.9000    
   X597.3571     Y167.0579     R0.9000    
   X597.5409     Y167.1984     R0.9000    
   X597.6820     Y167.3818     R0.9000    
   X597.7708     Y167.5954     R0.9000    
   X597.8013     Y167.8247     R0.9000    
   X597.7714     Y168.0541     R0.9000    
   X597.6832     Y168.2680     R0.9000    
   X597.5426     Y168.4517     R0.9000    
   X597.3593     Y168.5928     R0.9000    
   X597.1456     Y168.6816     R0.9000    
   X596.9163     Y168.7121     R0.9000    
(Pass: 4)
G1   Z0.000      F300 
G17 G2   X596.6869     Y168.6823     R0.9000     F1000
   X596.4731     Y168.5940     R0.9000    
   X596.2893     Y168.4534     R0.9000    
   X596.1482     Y168.2701     R0.9000    
   X596.0594     Y168.0565     R0.9000    
   X596.0289     Y167.8272     R0.9000    
   X596.0588     Y167.5978     R0.9000    
   X596.1470     Y167.3839     R0.9000    
   X596.2876     Y167.2002     R0.9000    
   X596.4709     Y167.0591     R0.9000    
   X596.6846     Y166.9703     R0.9000    
   X596.9139     Y166.9397     R0.9000    
   X597.1433     Y166.9696     R0.9000    
   X597.3571     Y167.0579     R0.9000    
   X597.5409     Y167.1984     R0.9000    
   X597.6820     Y167.3818     R0.9000    
   X597.7708     Y167.5954     R0.9000    
   X597.8013     Y167.8247     R0.9000    
   X597.7714     Y168.0541     R0.9000    
   X597.6832     Y168.2680     R0.9000    
   X597.5426     Y168.4517     R0.9000    
   X597.3593     Y168.5928     R0.9000    
   X597.1456     Y168.6816     R0.9000    
   X596.9163     Y168.7121     R0.9000    
G0   Z18.200    
(Pass: 1)
   X589.706      Y135.011   
G1   Z2.200      F300 
G17 G2   X589.2005     Y135.0779     R1.9685     F1000
   X588.6946     Y135.0113     R1.9685    
   X588.2232     Y134.8161     R1.9685    
   X587.8184     Y134.5054     R1.9685    
   X587.5077     Y134.1006     R1.9685    
   X587.3125     Y133.6292     R1.9685    
   X587.2459     Y133.1232     R1.9685    
   X587.3125     Y132.6173     R1.9685    
   X587.5077     Y132.1459     R1.9685    
   X587.8184     Y131.7411     R1.9685    
   X588.2232     Y131.4304     R1.9685    
   X588.6946     Y131.2352     R1.9685    
   X589.2005     Y131.1686     R1.9685    
   X589.7065     Y131.2352     R1.9685    
   X590.1779     Y131.4304     R1.9685    
   X590.5827     Y131.7411     R1.9685    
   X590.8934     Y132.1459     R1.9685    
   X591.0886     Y132.6173     R1.9685    
   X591.1552     Y133.1232     R1.9685    
   X591.0886     Y133.6292     R1.9685    
   X590.8934     Y134.1006     R1.9685    
   X590.5827     Y134.5054     R1.9685    
   X590.1779     Y134.8161     R1.9685    
   X589.7065     Y135.0113     R1.9685    
(Pass: 2)
G1   Z1.200      F300 
G17 G2   X589.2005     Y135.0779     R1.9685     F1000
   X588.6946     Y135.0113     R1.9685    
   X588.2232     Y134.8161     R1.9685    
   X587.8184     Y134.5054     R1.9685    
   X587.5077     Y134.1006     R1.9685    
   X587.3125     Y133.6292     R1.9685    
   X587.2459     Y133.1232     R1.9685    
   X587.3125     Y132.6173     R1.9685    
   X587.5077     Y132.1459     R1.9685    
   X587.8184     Y131.7411     R1.9685    
   X588.2232     Y131.4304     R1.9685    
   X588.6946     Y131.2352     R1.9685    
   X589.2005     Y131.1686     R1.9685    
   X589.7065     Y131.2352     R1.9685    
   X590.1779     Y131.4304     R1.9685    
   X590.5827     Y131.7411     R1.9685    
   X590.8934     Y132.1459     R1.9685    
   X591.0886     Y132.6173     R1.9685    
   X591.1552     Y133.1232     R1.9685    
   X591.0886     Y133.6292     R1.9685    
   X590.8934     Y134.1006     R1.9685    
   X590.5827     Y134.5054     R1.9685    
   X590.1779     Y134.8161     R1.9685    
   X589.7065     Y135.0113     R1.9685    
(Pass: 3)
G1   Z0.200      F300 
G17 G2   X589.2005     Y135.0779     R1.9685     F1000
   X588.6946     Y135.0113     R1.9685    
   X588.2232     Y134.8161     R1.9685    
   X587.8184     Y134.5054     R1.9685    
   X587.5077     Y134.1006     R1.9685    
   X587.3125     Y133.6292     R1.9685    
   X587.2459     Y133.1232     R1.9685    
   X587.3125     Y132.6173     R1.9685    
   X587.5077     Y132.1459     R1.9685    
   X587.8184     Y131.7411     R1.9685    
   X588.2232     Y131.4304     R1.9685    
   X588.6946     Y131.2352     R1.9685    
   X589.2005     Y131.1686     R1.9685    
   X589.7065     Y131.2352     R1.9685    
   X590.1779     Y131.4304     R1.9685    
   X590.5827     Y131.7411     R1.9685    
   X590.8934     Y132.1459     R1.9685    
   X591.0886     Y132.6173     R1.9685    
   X591.1552     Y133.1232     R1.9685    
   X591.0886     Y133.6292     R1.9685    
   X590.8934     Y134.1006     R1.9685    
   X590.5827     Y134.5054     R1.9685    
   X590.1779     Y134.8161     R1.9685    
   X589.7065     Y135.0113     R1.9685    
(Pass: 4)
G1   Z0.000      F300 
G17 G2   X589.2005     Y135.0779     R1.9685     F1000
   X588.6946     Y135.0113     R1.9685    
   X588.2232     Y134.8161     R1.9685    
   X587.8184     Y134.5054     R1.9685    
   X587.5077     Y134.1006     R1.9685    
   X587.3125     Y133.6292     R1.9685    
   X587.2459     Y133.1232     R1.9685    
   X587.3125     Y132.6173     R1.9685    
   X587.5077     Y132.1459     R1.9685    
   X587.8184     Y131.7411     R1.9685    
   X588.2232     Y131.4304     R1.9685    
   X588.6946     Y131.2352     R1.9685    
   X589.2005     Y131.1686     R1.9685    
   X589.7065     Y131.2352     R1.9685    
   X590.1779     Y131.4304     R1.9685    
   X590.5827     Y131.7411     R1.9685    
   X590.8934     Y132.1459     R1.9685    
   X591.0886     Y132.6173     R1.9685    
   X591.1552     Y133.1232     R1.9685    
   X591.0886     Y133.6292     R1.9685    
   X590.8934     Y134.1006     R1.9685    
   X590.5827     Y134.5054     R1.9685    
   X590.1779     Y134.8161     R1.9685    
   X589.7065     Y135.0113     R1.9685    
G0   Z18.200    
(Pass: 1)
   X603.502      Y122.256   
G1   Z2.200      F300 
   X601.345      Y221.681    F1000
   X603.461      Y121.643   
   X603.502      Y122.256   
   X603.335      Y121.005   
   X603.461      Y121.643   
   X603.126      Y120.390   
   X603.335      Y121.005   
   X602.839      Y119.808   
   X603.126      Y120.390   
   X602.478      Y119.267   
   X602.839      Y119.808   
   X602.049      Y118.779   
   X602.478      Y119.267   
   X601.561      Y118.351   
   X602.049      Y118.779   
   X601.021      Y117.990   
   X601.561      Y118.351   
   X600.438      Y117.703   
   X601.021      Y117.990   
   X599.823      Y117.494   
   X600.438      Y117.703   
   X599.186      Y117.367   
   X599.823      Y117.494   
   X598.590      Y117.328   
   X599.186      Y117.367   
   X465.171      Y117.328   
   X598.590   
   X464.575      Y117.367   
   X465.171      Y117.328   
   X463.938      Y117.494   
   X464.575      Y117.367   
   X463.323      Y117.703   
   X463.938      Y117.494   
   X462.740      Y117.990   
   X463.323      Y117.703   
   X462.200      Y118.351   
   X462.740      Y117.990   
   X461.712      Y118.779   
   X462.200      Y118.351   
   X461.283      Y119.267   
   X461.712      Y118.779   
   X460.922      Y119.808   
   X461.283      Y119.267   
   X460.635      Y120.390   
   X460.922      Y119.808   
   X460.426      Y121.005   
   X460.635      Y120.390   
   X460.300      Y121.643   
   X460.426      Y121.005   
   X460.259      Y122.256   
   X460.300      Y121.643   
   X462.394      Y221.681   
   X460.259      Y122.256   
   X462.637      Y222.774   
   X462.394      Y221.681   
   X462.836      Y223.356   
   X462.637      Y222.774   
   X463.298      Y224.333   
   X462.836      Y223.356   
   X463.916      Y225.256   
   X463.298      Y224.333   
   X464.664      Y226.077   
   X463.916      Y225.256   
   X465.524      Y226.779   
   X464.664      Y226.077   
   X484.521      Y238.067   
   X465.524      Y226.779   
   X490.478      Y277.092   
   X484.521      Y238.067   
   X491.133      Y278.633   
G17 G3   X490.4783     Y277.0915     R15.2989   
G1   X491.884      Y279.994   
G17 G3   X491.1334     Y278.6326     R15.2989   
G1   X492.768      Y281.272   
G17 G3   X491.8836     Y279.9940     R15.2989   
G1   X493.778      Y282.454   
G17 G3   X492.7680     Y281.2724     R15.2989   
G1   X494.902      Y283.528   
G17 G3   X493.7776     Y282.4543     R15.2989   
G1   X496.129      Y284.482   
G17 G3   X494.9019     Y283.5278     R15.2989   
G1   X497.447      Y285.306   
G17 G3   X496.1293     Y284.4816     R15.2989   
G1   X498.842      Y285.992   
G17 G3   X497.4472     Y285.3060     R15.2989   
G1   X500.299      Y286.534   
G17 G3   X498.8419     Y285.9924     R15.2989   
G1   X501.804      Y286.925   
G17 G3   X500.2990     Y286.5338     R15.2989   
G1   X503.340      Y287.161   
G17 G3   X501.8036     Y286.9246     R15.2989   
G1   X504.672      Y287.228   
G17 G3   X503.3400     Y287.1606     R15.2989   
G1   X505.961      Y291.725   
   X504.672      Y287.228   
   X506.351      Y293.085   
   X505.961      Y291.725   
   X506.817      Y294.030   
G17 G3   X506.3509     Y293.0846     R7.7592    
G1   X507.381      Y294.874   
G17 G3   X506.8171     Y294.0300     R7.7592    
G1   X508.051      Y295.638   
G17 G3   X507.3812     Y294.8743     R7.7592    
G1   X508.814      Y296.307   
G17 G3   X508.0507     Y295.6377     R7.7592    
G1   X509.658      Y296.871   
G17 G3   X508.8142     Y296.3072     R7.7592    
G1   X510.569      Y297.320   
G17 G3   X509.6584     Y296.8713     R7.7592    
G1   X511.531      Y297.647   
G17 G3   X510.5691     Y297.3204     R7.7592    
G1   X512.527      Y297.845   
G17 G3   X511.5306     Y297.6468     R7.7592    
G1   X513.487      Y297.908   
G17 G3   X512.5265     Y297.8449     R7.7592    
G1   X529.981      Y297.908   
   X513.487   
   X529.981      Y290.515   
   Y297.908   
   X524.485      Y290.515   
   X529.981   
   X523.763      Y290.420   
G17 G3   X524.4854     Y290.5152     R5.6000    
G1   X523.187      Y290.182   
G17 G3   X523.7630     Y290.4201     R5.6000    
G1   X522.693      Y289.802   
G17 G3   X523.1875     Y290.1817     R5.6000    
G1   X522.314      Y289.308   
G17 G3   X522.6933     Y289.8025     R5.6000    
G1   X522.076      Y288.733   
G17 G3   X522.3140     Y289.3083     R5.6000    
G1   X521.994      Y288.115   
G17 G3   X522.0757     Y288.7328     R5.6000    
G1   Y287.498   
G17 G3   X521.9944     Y288.1152     R5.6000    
G1   X522.314      Y286.922   
G17 G3   X522.0757     Y287.4976     R5.6000    
G1   X522.693      Y286.428   
G17 G3   X522.3140     Y286.9221     R5.6000    
G1   X523.187      Y286.049   
G17 G3   X522.6933     Y286.4279     R5.6000    
G1   X523.763      Y285.810   
G17 G3   X523.1875     Y286.0487     R5.6000    
G1   X524.485      Y285.715   
G17 G3   X523.7630     Y285.8103     R5.6000    
G1   X539.276      Y285.715   
   X524.485   
   X539.998      Y285.810   
G17 G3   X539.2757     Y285.7152     R5.6000    
G1   X540.574      Y286.049   
G17 G3   X539.9981     Y285.8103     R5.6000    
G1   X541.068      Y286.428   
G17 G3   X540.5736     Y286.0487     R5.6000    
G1   X541.447      Y286.922   
G17 G3   X541.0678     Y286.4279     R5.6000    
G1   X541.685      Y287.498   
G17 G3   X541.4471     Y286.9221     R5.6000    
G1   X541.767      Y288.115   
G17 G3   X541.6854     Y287.4976     R5.6000    
G1   Y288.733   
G17 G3   X541.7667     Y288.1152     R5.6000    
G1   X541.447      Y289.308   
G17 G3   X541.6854     Y288.7328     R5.6000    
G1   X541.068      Y289.802   
G17 G3   X541.4471     Y289.3083     R5.6000    
G1   X540.574      Y290.182   
G17 G3   X541.0678     Y289.8025     R5.6000    
G1   X539.998      Y290.420   
G17 G3   X540.5736     Y290.1817     R5.6000    
G1   X539.276      Y290.515   
G17 G3   X539.9981     Y290.4201     R5.6000    
G1   X533.781      Y290.515   
   X539.276   
   X533.781      Y297.908   
   Y290.515   
   X550.274      Y297.908   
   X533.781   
   X551.235      Y297.845   
G17 G3   X550.2737     Y297.9079     R7.7592    
G1   X552.230      Y297.647   
G17 G3   X551.2346     Y297.8449     R7.7592    
G1   X553.192      Y297.320   
G17 G3   X552.2305     Y297.6468     R7.7592    
G1   X554.103      Y296.871   
G17 G3   X553.1920     Y297.3204     R7.7592    
G1   X554.947      Y296.307   
G17 G3   X554.1027     Y296.8713     R7.7592    
G1   X555.710      Y295.638   
G17 G3   X554.9469     Y296.3072     R7.7592    
G1   X556.380      Y294.874   
G17 G3   X555.7104     Y295.6377     R7.7592    
G1   X556.944      Y294.030   
G17 G3   X556.3799     Y294.8743     R7.7592    
G1   X557.410      Y293.085   
G17 G3   X556.9440     Y294.0300     R7.7592    
G1   X557.800      Y291.725   
   X557.410      Y293.085   
   X559.089      Y287.228   
   X557.800      Y291.725   
   X560.421      Y287.161   
G17 G3   X559.0890     Y287.2284     R15.2989   
G1   X561.958      Y286.925   
G17 G3   X560.4211     Y287.1606     R15.2989   
G1   X563.462      Y286.534   
G17 G3   X561.9575     Y286.9246     R15.2989   
G1   X564.919      Y285.992   
G17 G3   X563.4621     Y286.5338     R15.2989   
G1   X566.314      Y285.306   
G17 G3   X564.9192     Y285.9924     R15.2989   
G1   X567.632      Y284.482   
G17 G3   X566.3139     Y285.3060     R15.2989   
G1   X568.859      Y283.528   
G17 G3   X567.6318     Y284.4816     R15.2989   
G1   X569.983      Y282.454   
G17 G3   X568.8592     Y283.5278     R15.2989   
G1   X570.993      Y281.272   
G17 G3   X569.9835     Y282.4543     R15.2989   
G1   X571.878      Y279.994   
G17 G3   X570.9931     Y281.2724     R15.2989   
G1   X572.628      Y278.633   
G17 G3   X571.8775     Y279.9940     R15.2989   
G1   X573.283      Y277.091   
G17 G3   X572.6277     Y278.6326     R15.2989   
G1   X579.219      Y238.067   
   X573.283      Y277.091   
   X598.190      Y226.794   
   X579.219      Y238.067   
   X598.680      Y226.424   
   X598.190      Y226.794   
   X599.465      Y225.681   
   X598.680      Y226.424   
   X600.149      Y224.806   
   X599.465      Y225.681   
   X600.697      Y223.840   
   X600.149      Y224.806   
   X601.096      Y222.804   
   X600.697      Y223.840   
   X601.345      Y221.681   
   X601.096      Y222.804   
(Pass: 2)
   X603.502      Y122.256   
   Z1.200      F300 
   X601.345      Y221.681    F1000
   X603.461      Y121.643   
   X603.502      Y122.256   
   X603.335      Y121.005   
   X603.461      Y121.643   
   X603.126      Y120.390   
   X603.335      Y121.005   
   X602.839      Y119.808   
   X603.126      Y120.390   
   X602.478      Y119.267   
   X602.839      Y119.808   
   X602.049      Y118.779   
   X602.478      Y119.267   
   X601.561      Y118.351   
   X602.049      Y118.779   
   X601.021      Y117.990   
   X601.561      Y118.351   
   X600.438      Y117.703   
   X601.021      Y117.990   
   X599.823      Y117.494   
   X600.438      Y117.703   
   X599.186      Y117.367   
   X599.823      Y117.494   
   X598.590      Y117.328   
   X599.186      Y117.367   
   X465.171      Y117.328   
   X598.590   
   X464.575      Y117.367   
   X465.171      Y117.328   
   X463.938      Y117.494   
   X464.575      Y117.367   
   X463.323      Y117.703   
   X463.938      Y117.494   
   X462.740      Y117.990   
   X463.323      Y117.703   
   X462.200      Y118.351   
   X462.740      Y117.990   
   X461.712      Y118.779   
   X462.200      Y118.351   
   X461.283      Y119.267   
   X461.712      Y118.779   
   X460.922      Y119.808   
   X461.283      Y119.267   
   X460.635      Y120.390   
   X460.922      Y119.808   
   X460.426      Y121.005   
   X460.635      Y120.390   
   X460.300      Y121.643   
   X460.426      Y121.005   
   X460.259      Y122.256   
   X460.300      Y121.643   
   X462.394      Y221.681   
   X460.259      Y122.256   
   X462.637      Y222.774   
   X462.394      Y221.681   
   X462.836      Y223.356   
   X462.637      Y222.774   
   X463.298      Y224.333   
   X462.836      Y223.356   
   X463.916      Y225.256   
   X463.298      Y224.333   
   X464.664      Y226.077   
   X463.916      Y225.256   
   X465.524      Y226.779   
   X464.664      Y226.077   
   X484.521      Y238.067   
   X465.524      Y226.779   
   X490.478      Y277.092   
   X484.521      Y238.067   
   X491.133      Y278.633   
G17 G3   X490.4783     Y277.0915     R15.2989   
G1   X491.884      Y279.994   
G17 G3   X491.1334     Y278.6326     R15.2989   
G1   X492.768      Y281.272   
G17 G3   X491.8836     Y279.9940     R15.2989   
G1   X493.778      Y282.454   
G17 G3   X492.7680     Y281.2724     R15.2989   
G1   X494.902      Y283.528   
G17 G3   X493.7776     Y282.4543     R15.2989   
G1   X496.129      Y284.482   
G17 G3   X494.9019     Y283.5278     R15.2989   
G1   X497.447      Y285.306   
G17 G3   X496.1293     Y284.4816     R15.2989   
G1   X498.842      Y285.992   
G17 G3   X497.4472     Y285.3060     R15.2989   
G1   X500.299      Y286.534   
G17 G3   X498.8419     Y285.9924     R15.2989   
G1   X501.804      Y286.925   
G17 G3   X500.2990     Y286.5338     R15.2989   
G1   X503.340      Y287.161   
G17 G3   X501.8036     Y286.9246     R15.2989   
G1   X504.672      Y287.228   
G17 G3   X503.3400     Y287.1606     R15.2989   
G1   X505.961      Y291.725   
   X504.672      Y287.228   
   X506.351      Y293.085   
   X505.961      Y291.725   
   X506.817      Y294.030   
G17 G3   X506.3509     Y293.0846     R7.7592    
G1   X507.381      Y294.874   
G17 G3   X506.8171     Y294.0300     R7.7592    
G1   X508.051      Y295.638   
G17 G3   X507.3812     Y294.8743     R7.7592    
G1   X508.814      Y296.307   
G17 G3   X508.0507     Y295.6377     R7.7592    
G1   X509.658      Y296.871   
G17 G3   X508.8142     Y296.3072     R7.7592    
G1   X510.569      Y297.320   
G17 G3   X509.6584     Y296.8713     R7.7592    
G1   X511.531      Y297.647   
G17 G3   X510.5691     Y297.3204     R7.7592    
G1   X512.527      Y297.845   
G17 G3   X511.5306     Y297.6468     R7.7592    
G1   X513.487      Y297.908   
G17 G3   X512.5265     Y297.8449     R7.7592    
G1   X529.981      Y297.908   
   X513.487   
   X529.981      Y290.515   
   Y297.908   
   X524.485      Y290.515   
   X529.981   
   X523.763      Y290.420   
G17 G3   X524.4854     Y290.5152     R5.6000    
G1   X523.187      Y290.182   
G17 G3   X523.7630     Y290.4201     R5.6000    
G1   X522.693      Y289.802   
G17 G3   X523.1875     Y290.1817     R5.6000    
G1   X522.314      Y289.308   
G17 G3   X522.6933     Y289.8025     R5.6000    
G1   X522.076      Y288.733   
G17 G3   X522.3140     Y289.3083     R5.6000    
G1   X521.994      Y288.115   
G17 G3   X522.0757     Y288.7328     R5.6000    
G1   Y287.498   
G17 G3   X521.9944     Y288.1152     R5.6000    
G1   X522.314      Y286.922   
G17 G3   X522.0757     Y287.4976     R5.6000    
G1   X522.693      Y286.428   
G17 G3   X522.3140     Y286.9221     R5.6000    
G1   X523.187      Y286.049   
G17 G3   X522.6933     Y286.4279     R5.6000    
G1   X523.763      Y285.810   
G17 G3   X523.1875     Y286.0487     R5.6000    
G1   X524.485      Y285.715   
G17 G3   X523.7630     Y285.8103     R5.6000    
G1   X539.276      Y285.715   
   X524.485   
   X539.998      Y285.810   
G17 G3   X539.2757     Y285.7152     R5.6000    
G1   X540.574      Y286.049   
G17 G3   X539.9981     Y285.8103     R5.6000    
G1   X541.068      Y286.428   
G17 G3   X540.5736     Y286.0487     R5.6000    
G1   X541.447      Y286.922   
G17 G3   X541.0678     Y286.4279     R5.6000    
G1   X541.685      Y287.498   
G17 G3   X541.4471     Y286.9221     R5.6000    
G1   X541.767      Y288.115   
G17 G3   X541.6854     Y287.4976     R5.6000    
G1   Y288.733   
G17 G3   X541.7667     Y288.1152     R5.6000    
G1   X541.447      Y289.308   
G17 G3   X541.6854     Y288.7328     R5.6000    
G1   X541.068      Y289.802   
G17 G3   X541.4471     Y289.3083     R5.6000    
G1   X540.574      Y290.182   
G17 G3   X541.0678     Y289.8025     R5.6000    
G1   X539.998      Y290.420   
G17 G3   X540.5736     Y290.1817     R5.6000    
G1   X539.276      Y290.515   
G17 G3   X539.9981     Y290.4201     R5.6000    
G1   X533.781      Y290.515   
   X539.276   
   X533.781      Y297.908   
   Y290.515   
   X550.274      Y297.908   
   X533.781   
   X551.235      Y297.845   
G17 G3   X550.2737     Y297.9079     R7.7592    
G1   X552.230      Y297.647   
G17 G3   X551.2346     Y297.8449     R7.7592    
G1   X553.192      Y297.320   
G17 G3   X552.2305     Y297.6468     R7.7592    
G1   X554.103      Y296.871   
G17 G3   X553.1920     Y297.3204     R7.7592    
G1   X554.947      Y296.307   
G17 G3   X554.1027     Y296.8713     R7.7592    
G1   X555.710      Y295.638   
G17 G3   X554.9469     Y296.3072     R7.7592    
G1   X556.380      Y294.874   
G17 G3   X555.7104     Y295.6377     R7.7592    
G1   X556.944      Y294.030   
G17 G3   X556.3799     Y294.8743     R7.7592    
G1   X557.410      Y293.085   
G17 G3   X556.9440     Y294.0300     R7.7592    
G1   X557.800      Y291.725   
   X557.410      Y293.085   
   X559.089      Y287.228   
   X557.800      Y291.725   
   X560.421      Y287.161   
G17 G3   X559.0890     Y287.2284     R15.2989   
G1   X561.958      Y286.925   
G17 G3   X560.4211     Y287.1606     R15.2989   
G1   X563.462      Y286.534   
G17 G3   X561.9575     Y286.9246     R15.2989   
G1   X564.919      Y285.992   
G17 G3   X563.4621     Y286.5338     R15.2989   
G1   X566.314      Y285.306   
G17 G3   X564.9192     Y285.9924     R15.2989   
G1   X567.632      Y284.482   
G17 G3   X566.3139     Y285.3060     R15.2989   
G1   X568.859      Y283.528   
G17 G3   X567.6318     Y284.4816     R15.2989   
G1   X569.983      Y282.454   
G17 G3   X568.8592     Y283.5278     R15.2989   
G1   X570.993      Y281.272   
G17 G3   X569.9835     Y282.4543     R15.2989   
G1   X571.878      Y279.994   
G17 G3   X570.9931     Y281.2724     R15.2989   
G1   X572.628      Y278.633   
G17 G3   X571.8775     Y279.9940     R15.2989   
G1   X573.283      Y277.091   
G17 G3   X572.6277     Y278.6326     R15.2989   
G1   X579.219      Y238.067   
   X573.283      Y277.091   
   X598.190      Y226.794   
   X579.219      Y238.067   
   X598.680      Y226.424   
   X598.190      Y226.794   
   X599.465      Y225.681   
   X598.680      Y226.424   
   X600.149      Y224.806   
   X599.465      Y225.681   
   X600.697      Y223.840   
   X600.149      Y224.806   
   X601.096      Y222.804   
   X600.697      Y223.840   
   X601.345      Y221.681   
   X601.096      Y222.804   
(Pass: 3)
   X603.502      Y122.256   
   Z0.200      F300 
   X601.345      Y221.681    F1000
   X603.461      Y121.643   
   X603.502      Y122.256   
   X603.335      Y121.005   
   X603.461      Y121.643   
   X603.126      Y120.390   
   X603.335      Y121.005   
   X602.839      Y119.808   
   X603.126      Y120.390   
   X602.478      Y119.267   
   X602.839      Y119.808   
   X602.049      Y118.779   
   X602.478      Y119.267   
   X601.561      Y118.351   
   X602.049      Y118.779   
   X601.021      Y117.990   
   X601.561      Y118.351   
   X600.438      Y117.703   
   X601.021      Y117.990   
   X599.823      Y117.494   
   X600.438      Y117.703   
   X599.186      Y117.367   
   X599.823      Y117.494   
   X598.590      Y117.328   
   X599.186      Y117.367   
   X465.171      Y117.328   
   X598.590   
   X464.575      Y117.367   
   X465.171      Y117.328   
   X463.938      Y117.494   
   X464.575      Y117.367   
   X463.323      Y117.703   
   X463.938      Y117.494   
   X462.740      Y117.990   
   X463.323      Y117.703   
   X462.200      Y118.351   
   X462.740      Y117.990   
   X461.712      Y118.779   
   X462.200      Y118.351   
   X461.283      Y119.267   
   X461.712      Y118.779   
   X460.922      Y119.808   
   X461.283      Y119.267   
   X460.635      Y120.390   
   X460.922      Y119.808   
   X460.426      Y121.005   
   X460.635      Y120.390   
   X460.300      Y121.643   
   X460.426      Y121.005   
   X460.259      Y122.256   
   X460.300      Y121.643   
   X462.394      Y221.681   
   X460.259      Y122.256   
   X462.637      Y222.774   
   X462.394      Y221.681   
   X462.836      Y223.356   
   X462.637      Y222.774   
   X463.298      Y224.333   
   X462.836      Y223.356   
   X463.916      Y225.256   
   X463.298      Y224.333   
   X464.664      Y226.077   
   X463.916      Y225.256   
   X465.524      Y226.779   
   X464.664      Y226.077   
   X484.521      Y238.067   
   X465.524      Y226.779   
   X490.478      Y277.092   
   X484.521      Y238.067   
   X491.133      Y278.633   
G17 G3   X490.4783     Y277.0915     R15.2989   
G1   X491.884      Y279.994   
G17 G3   X491.1334     Y278.6326     R15.2989   
G1   X492.768      Y281.272   
G17 G3   X491.8836     Y279.9940     R15.2989   
G1   X493.778      Y282.454   
G17 G3   X492.7680     Y281.2724     R15.2989   
G1   X494.902      Y283.528   
G17 G3   X493.7776     Y282.4543     R15.2989   
G1   X496.129      Y284.482   
G17 G3   X494.9019     Y283.5278     R15.2989   
G1   X497.447      Y285.306   
G17 G3   X496.1293     Y284.4816     R15.2989   
G1   X498.842      Y285.992   
G17 G3   X497.4472     Y285.3060     R15.2989   
G1   X500.299      Y286.534   
G17 G3   X498.8419     Y285.9924     R15.2989   
G1   X501.804      Y286.925   
G17 G3   X500.2990     Y286.5338     R15.2989   
G1   X503.340      Y287.161   
G17 G3   X501.8036     Y286.9246     R15.2989   
G1   X504.672      Y287.228   
G17 G3   X503.3400     Y287.1606     R15.2989   
G1   X505.961      Y291.725   
   X504.672      Y287.228   
   X506.351      Y293.085   
   X505.961      Y291.725   
   X506.817      Y294.030   
G17 G3   X506.3509     Y293.0846     R7.7592    
G1   X507.381      Y294.874   
G17 G3   X506.8171     Y294.0300     R7.7592    
G1   X508.051      Y295.638   
G17 G3   X507.3812     Y294.8743     R7.7592    
G1   X508.814      Y296.307   
G17 G3   X508.0507     Y295.6377     R7.7592    
G1   X509.658      Y296.871   
G17 G3   X508.8142     Y296.3072     R7.7592    
G1   X510.569      Y297.320   
G17 G3   X509.6584     Y296.8713     R7.7592    
G1   X511.531      Y297.647   
G17 G3   X510.5691     Y297.3204     R7.7592    
G1   X512.527      Y297.845   
G17 G3   X511.5306     Y297.6468     R7.7592    
G1   X513.487      Y297.908   
G17 G3   X512.5265     Y297.8449     R7.7592    
G1   X529.981      Y297.908   
   X513.487   
   X529.981      Y290.515   
   Y297.908   
   X524.485      Y290.515   
   X529.981   
   X523.763      Y290.420   
G17 G3   X524.4854     Y290.5152     R5.6000    
G1   X523.187      Y290.182   
G17 G3   X523.7630     Y290.4201     R5.6000    
G1   X522.693      Y289.802   
G17 G3   X523.1875     Y290.1817     R5.6000    
G1   X522.314      Y289.308   
G17 G3   X522.6933     Y289.8025     R5.6000    
G1   X522.076      Y288.733   
G17 G3   X522.3140     Y289.3083     R5.6000    
G1   X521.994      Y288.115   
G17 G3   X522.0757     Y288.7328     R5.6000    
G1   Y287.498   
G17 G3   X521.9944     Y288.1152     R5.6000    
G1   X522.314      Y286.922   
G17 G3   X522.0757     Y287.4976     R5.6000    
G1   X522.693      Y286.428   
G17 G3   X522.3140     Y286.9221     R5.6000    
G1   X523.187      Y286.049   
G17 G3   X522.6933     Y286.4279     R5.6000    
G1   X523.763      Y285.810   
G17 G3   X523.1875     Y286.0487     R5.6000    
G1   X524.485      Y285.715   
G17 G3   X523.7630     Y285.8103     R5.6000    
G1   X539.276      Y285.715   
   X524.485   
   X539.998      Y285.810   
G17 G3   X539.2757     Y285.7152     R5.6000    
G1   X540.574      Y286.049   
G17 G3   X539.9981     Y285.8103     R5.6000    
G1   X541.068      Y286.428   
G17 G3   X540.5736     Y286.0487     R5.6000    
G1   X541.447      Y286.922   
G17 G3   X541.0678     Y286.4279     R5.6000    
G1   X541.685      Y287.498   
G17 G3   X541.4471     Y286.9221     R5.6000    
G1   X541.767      Y288.115   
G17 G3   X541.6854     Y287.4976     R5.6000    
G1   Y288.733   
G17 G3   X541.7667     Y288.1152     R5.6000    
G1   X541.447      Y289.308   
G17 G3   X541.6854     Y288.7328     R5.6000    
G1   X541.068      Y289.802   
G17 G3   X541.4471     Y289.3083     R5.6000    
G1   X540.574      Y290.182   
G17 G3   X541.0678     Y289.8025     R5.6000    
G1   X539.998      Y290.420   
G17 G3   X540.5736     Y290.1817     R5.6000    
G1   X539.276      Y290.515   
G17 G3   X539.9981     Y290.4201     R5.6000    
G1   X533.781      Y290.515   
   X539.276   
   X533.781      Y297.908   
   Y290.515   
   X550.274      Y297.908   
   X533.781   
   X551.235      Y297.845   
G17 G3   X550.2737     Y297.9079     R7.7592    
G1   X552.230      Y297.647   
G17 G3   X551.2346     Y297.8449     R7.7592    
G1   X553.192      Y297.320   
G17 G3   X552.2305     Y297.6468     R7.7592    
G1   X554.103      Y296.871   
G17 G3   X553.1920     Y297.3204     R7.7592    
G1   X554.947      Y296.307   
G17 G3   X554.1027     Y296.8713     R7.7592    
G1   X555.710      Y295.638   
G17 G3   X554.9469     Y296.3072     R7.7592    
G1   X556.380      Y294.874   
G17 G3   X555.7104     Y295.6377     R7.7592    
G1   X556.944      Y294.030   
G17 G3   X556.3799     Y294.8743     R7.7592    
G1   X557.410      Y293.085   
G17 G3   X556.9440     Y294.0300     R7.7592    
G1   X557.800      Y291.725   
   X557.410      Y293.085   
   X559.089      Y287.228   
   X557.800      Y291.725   
   X560.421      Y287.161   
G17 G3   X559.0890     Y287.2284     R15.2989   
G1   X561.958      Y286.925   
G17 G3   X560.4211     Y287.1606     R15.2989   
G1   X563.462      Y286.534   
G17 G3   X561.9575     Y286.9246     R15.2989   
G1   X564.919      Y285.992   
G17 G3   X563.4621     Y286.5338     R15.2989   
G1   X566.314      Y285.306   
G17 G3   X564.9192     Y285.9924     R15.2989   
G1   X567.632      Y284.482   
G17 G3   X566.3139     Y285.3060     R15.2989   
G1   X568.859      Y283.528   
G17 G3   X567.6318     Y284.4816     R15.2989   
G1   X569.983      Y282.454   
G17 G3   X568.8592     Y283.5278     R15.2989   
G1   X570.993      Y281.272   
G17 G3   X569.9835     Y282.4543     R15.2989   
G1   X571.878      Y279.994   
G17 G3   X570.9931     Y281.2724     R15.2989   
G1   X572.628      Y278.633   
G17 G3   X571.8775     Y279.9940     R15.2989   
G1   X573.283      Y277.091   
G17 G3   X572.6277     Y278.6326     R15.2989   
G1   X579.219      Y238.067   
   X573.283      Y277.091   
   X598.190      Y226.794   
   X579.219      Y238.067   
   X598.680      Y226.424   
   X598.190      Y226.794   
   X599.465      Y225.681   
   X598.680      Y226.424   
   X600.149      Y224.806   
   X599.465      Y225.681   
   X600.697      Y223.840   
   X600.149      Y224.806   
   X601.096      Y222.804   
   X600.697      Y223.840   
   X601.345      Y221.681   
   X601.096      Y222.804   
(Pass: 4)
   X603.502      Y122.256   
   Z0.000      F300 
   X601.345      Y221.681    F1000
   X603.461      Y121.643   
   X603.502      Y122.256   
   X603.335      Y121.005   
   X603.461      Y121.643   
   X603.126      Y120.390   
   X603.335      Y121.005   
   X602.839      Y119.808   
   X603.126      Y120.390   
   X602.478      Y119.267   
   X602.839      Y119.808   
   X602.049      Y118.779   
   X602.478      Y119.267   
   X601.561      Y118.351   
   X602.049      Y118.779   
   X601.021      Y117.990   
   X601.561      Y118.351   
   X600.438      Y117.703   
   X601.021      Y117.990   
   X599.823      Y117.494   
   X600.438      Y117.703   
   X599.186      Y117.367   
   X599.823      Y117.494   
   X598.590      Y117.328   
   X599.186      Y117.367   
   X465.171      Y117.328   
   X598.590   
   X464.575      Y117.367   
   X465.171      Y117.328   
   X463.938      Y117.494   
   X464.575      Y117.367   
   X463.323      Y117.703   
   X463.938      Y117.494   
   X462.740      Y117.990   
   X463.323      Y117.703   
   X462.200      Y118.351   
   X462.740      Y117.990   
   X461.712      Y118.779   
   X462.200      Y118.351   
   X461.283      Y119.267   
   X461.712      Y118.779   
   X460.922      Y119.808   
   X461.283      Y119.267   
   X460.635      Y120.390   
   X460.922      Y119.808   
   X460.426      Y121.005   
   X460.635      Y120.390   
   X460.300      Y121.643   
   X460.426      Y121.005   
   X460.259      Y122.256   
   X460.300      Y121.643   
   X462.394      Y221.681   
   X460.259      Y122.256   
   X462.637      Y222.774   
   X462.394      Y221.681   
   X462.836      Y223.356   
   X462.637      Y222.774   
   X463.298      Y224.333   
   X462.836      Y223.356   
   X463.916      Y225.256   
   X463.298      Y224.333   
   X464.664      Y226.077   
   X463.916      Y225.256   
   X465.524      Y226.779   
   X464.664      Y226.077   
   X484.521      Y238.067   
   X465.524      Y226.779   
   X490.478      Y277.092   
   X484.521      Y238.067   
   X491.133      Y278.633   
G17 G3   X490.4783     Y277.0915     R15.2989   
G1   X491.884      Y279.994   
G17 G3   X491.1334     Y278.6326     R15.2989   
G1   X492.768      Y281.272   
G17 G3   X491.8836     Y279.9940     R15.2989   
G1   X493.778      Y282.454   
G17 G3   X492.7680     Y281.2724     R15.2989   
G1   X494.902      Y283.528   
G17 G3   X493.7776     Y282.4543     R15.2989   
G1   X496.129      Y284.482   
G17 G3   X494.9019     Y283.5278     R15.2989   
G1   X497.447      Y285.306   
G17 G3   X496.1293     Y284.4816     R15.2989   
G1   X498.842      Y285.992   
G17 G3   X497.4472     Y285.3060     R15.2989   
G1   X500.299      Y286.534   
G17 G3   X498.8419     Y285.9924     R15.2989   
G1   X501.804      Y286.925   
G17 G3   X500.2990     Y286.5338     R15.2989   
G1   X503.340      Y287.161   
G17 G3   X501.8036     Y286.9246     R15.2989   
G1   X504.672      Y287.228   
G17 G3   X503.3400     Y287.1606     R15.2989   
G1   X505.961      Y291.725   
   X504.672      Y287.228   
   X506.351      Y293.085   
   X505.961      Y291.725   
   X506.817      Y294.030   
G17 G3   X506.3509     Y293.0846     R7.7592    
G1   X507.381      Y294.874   
G17 G3   X506.8171     Y294.0300     R7.7592    
G1   X508.051      Y295.638   
G17 G3   X507.3812     Y294.8743     R7.7592    
G1   X508.814      Y296.307   
G17 G3   X508.0507     Y295.6377     R7.7592    
G1   X509.658      Y296.871   
G17 G3   X508.8142     Y296.3072     R7.7592    
G1   X510.569      Y297.320   
G17 G3   X509.6584     Y296.8713     R7.7592    
G1   X511.531      Y297.647   
G17 G3   X510.5691     Y297.3204     R7.7592    
G1   X512.527      Y297.845   
G17 G3   X511.5306     Y297.6468     R7.7592    
G1   X513.487      Y297.908   
G17 G3   X512.5265     Y297.8449     R7.7592    
G1   X529.981      Y297.908   
   X513.487   
   X529.981      Y290.515   
   Y297.908   
   X524.485      Y290.515   
   X529.981   
   X523.763      Y290.420   
G17 G3   X524.4854     Y290.5152     R5.6000    
G1   X523.187      Y290.182   
G17 G3   X523.7630     Y290.4201     R5.6000    
G1   X522.693      Y289.802   
G17 G3   X523.1875     Y290.1817     R5.6000    
G1   X522.314      Y289.308   
G17 G3   X522.6933     Y289.8025     R5.6000    
G1   X522.076      Y288.733   
G17 G3   X522.3140     Y289.3083     R5.6000    
G1   X521.994      Y288.115   
G17 G3   X522.0757     Y288.7328     R5.6000    
G1   Y287.498   
G17 G3   X521.9944     Y288.1152     R5.6000    
G1   X522.314      Y286.922   
G17 G3   X522.0757     Y287.4976     R5.6000    
G1   X522.693      Y286.428   
G17 G3   X522.3140     Y286.9221     R5.6000    
G1   X523.187      Y286.049   
G17 G3   X522.6933     Y286.4279     R5.6000    
G1   X523.763      Y285.810   
G17 G3   X523.1875     Y286.0487     R5.6000    
G1   X524.485      Y285.715   
G17 G3   X523.7630     Y285.8103     R5.6000    
G1   X539.276      Y285.715   
   X524.485   
   X539.998      Y285.810   
G17 G3   X539.2757     Y285.7152     R5.6000    
G1   X540.574      Y286.049   
G17 G3   X539.9981     Y285.8103     R5.6000    
