%
(Generated by SketchUcam {1.2})
(File: Router Plates.skp)
(Bit diameter: 3.1mm)
(Feed rate: 200.0mm/min)
(Material Thickness: 3.2mm)
(Material length: 304.0mm X width: 608.0mm)
(Overhead Gantry: true)
(Retract feed rate NOT limited to plunge feed rate)
(Multipass enabled, Depth = 0.7mm)
(Optimization is ON)
(Z ZERO IS TABLETOP)
(www.PhlatBoyz.com)
G90 G21 G49
M3 S15000
G0   Z18.200
(Pass: 1)
   X179.304      Y252.416
G1   Z2.500      F200
G17 G2   X178.3956     Y253.1129     R4.4000
   X177.6986     Y254.0213     R4.4000
   X177.2604     Y255.0791     R4.4000
   X177.1109     Y256.2144     R4.4000
   X177.2604     Y257.3496     R4.4000
   X177.6986     Y258.4075     R4.4000
   X178.3956     Y259.3159     R4.4000
   X179.3040     Y260.0129     R4.4000
   X180.3619     Y260.4511     R4.4000
   X181.4971     Y260.6006     R4.4000
   X182.6324     Y260.4511     R4.4000
   X183.6902     Y260.0129     R4.4000
   X184.5986     Y259.3159     R4.4000
   X185.2957     Y258.4075     R4.4000
   X185.7339     Y257.3496     R4.4000
   X185.8833     Y256.2144     R4.4000
   X185.7339     Y255.0791     R4.4000
   X185.2957     Y254.0213     R4.4000
   X184.5986     Y253.1129     R4.4000
   X183.6902     Y252.4158     R4.4000
   X182.6324     Y251.9776     R4.4000
   X181.4971     Y251.8282     R4.4000
   X180.3619     Y251.9776     R4.4000
   X179.3040     Y252.4158     R4.4000
G0   Z18.200
(Pass: 1)
   X177.851      Y250.971
G1   Z2.500      F200
G17 G2   X176.6186     Y252.0933     R6.4000
   X175.7182     Y253.4964     R6.4000
   X175.2116     Y255.0847     R6.4000
   X175.1334     Y256.7500     R6.4000
   X175.4889     Y258.3788     R6.4000
   X176.2539     Y259.8601     R6.4000
   X177.3761     Y261.0929     R6.4000
   X178.7792     Y261.9933     R6.4000
   X180.3675     Y262.4999     R6.4000
   X182.0328     Y262.5780     R6.4000
   X183.6616     Y262.2226     R6.4000
   X185.1429     Y261.4576     R6.4000
   X186.3757     Y260.3354     R6.4000
   X187.2761     Y258.9323     R6.4000
   X187.7826     Y257.3440     R6.4000
   X187.8608     Y255.6787     R6.4000
   X187.5053     Y254.0499     R6.4000
   X186.7404     Y252.5686     R6.4000
   X185.6182     Y251.3358     R6.4000
   X184.2151     Y250.4354     R6.4000
   X182.6268     Y249.9289     R6.4000
   X180.9615     Y249.8507     R6.4000
   X179.3327     Y250.2061     R6.4000
   X177.8514     Y250.9711     R6.4000
G0   Z18.200
(Pass: 1)
   X402.690      Y256.214
G1   Z2.500      F200
G17 G2   X402.8394     Y257.3496     R4.4000
   X403.2776     Y258.4075     R4.4000
   X403.9746     Y259.3159     R4.4000
   X404.8830     Y260.0129     R4.4000
   X405.9409     Y260.4511     R4.4000
   X407.0761     Y260.6006     R4.4000
   X408.2114     Y260.4511     R4.4000
   X409.2692     Y260.0129     R4.4000
   X410.1776     Y259.3159     R4.4000
   X410.8747     Y258.4075     R4.4000
   X411.3129     Y257.3496     R4.4000
   X411.4623     Y256.2144     R4.4000
   X411.3129     Y255.0791     R4.4000
   X410.8747     Y254.0213     R4.4000
   X410.1776     Y253.1129     R4.4000
   X409.2692     Y252.4158     R4.4000
   X408.2114     Y251.9776     R4.4000
   X407.0761     Y251.8282     R4.4000
   X405.9409     Y251.9776     R4.4000
   X404.8830     Y252.4158     R4.4000
   X403.9746     Y253.1129     R4.4000
   X403.2776     Y254.0213     R4.4000
   X402.8394     Y255.0791     R4.4000
   X402.6899     Y256.2144     R4.4000
G0   Z18.200
(Pass: 1)
   X400.728      Y256.907
G1   Z2.500      F200
G17 G2   X401.1232     Y258.5266     R6.4000
   X401.9245     Y259.9885     R6.4000
   X403.0769     Y261.1933     R6.4000
   X404.5018     Y262.0587     R6.4000
   X406.1021     Y262.5258     R6.4000
   X407.7689     Y262.5629     R6.4000
   X409.3884     Y262.1673     R6.4000
   X410.8503     Y261.3660     R6.4000
   X412.0550     Y260.2136     R6.4000
   X412.9205     Y258.7887     R6.4000
   X413.3876     Y257.1883     R6.4000
   X413.4246     Y255.5216     R6.4000
   X413.0290     Y253.9021     R6.4000
   X412.2277     Y252.4402     R6.4000
   X411.0754     Y251.2354     R6.4000
   X409.6505     Y250.3700     R6.4000
   X408.0501     Y249.9029     R6.4000
   X406.3834     Y249.8659     R6.4000
   X404.7639     Y250.2615     R6.4000
   X403.3019     Y251.0628     R6.4000
   X402.0972     Y252.2151     R6.4000
   X401.2318     Y253.6400     R6.4000
   X400.7646     Y255.2404     R6.4000
   X400.7276     Y256.9071     R6.4000
G0   Z18.200
G0 X0 Y0 (home)
M05
M30
%
