%
(Generated by SketchUcam {1.2})
(File: Router Plates.skp)
(Bit diameter: 3.2mm)
(Feed rate: 400.0mm/min)
(Plunge Feed rate: 100.0mm/min)
(Material Thickness: 3.2mm)
(Material length: 304.0mm X width: 608.0mm)
(Overhead Gantry: true)
(Retract feed rate NOT limited to plunge feed rate)
(Multipass enabled, Depth = 1.0mm)
(Optimization is ON)
(Z ZERO IS TABLETOP)
(www.PhlatBoyz.com)
G90 G21 G49
M3 S15000
G0   Z18.200
(Pass: 1)
   X179.690      Y253.085
G1   Z2.200      F100
G17 G3   X180.5618     Y252.7237     R3.6000     F400
   X181.4971     Y252.6006     R3.6000
   X182.4325     Y252.7237     R3.6000
   X183.3040     Y253.0847     R3.6000
   X184.0525     Y253.6590     R3.6000
   X184.6268     Y254.4075     R3.6000
   X184.9878     Y255.2790     R3.6000
   X185.1109     Y256.2144     R3.6000
   X184.9878     Y257.1497     R3.6000
   X184.6268     Y258.0213     R3.6000
   X184.0525     Y258.7697     R3.6000
   X183.3040     Y259.3440     R3.6000
   X182.4325     Y259.7050     R3.6000
   X181.4971     Y259.8282     R3.6000
   X180.5618     Y259.7050     R3.6000
   X179.6902     Y259.3440     R3.6000
   X178.9418     Y258.7697     R3.6000
   X178.3675     Y258.0213     R3.6000
   X178.0065     Y257.1497     R3.6000
   X177.8833     Y256.2144     R3.6000
   X178.0065     Y255.2790     R3.6000
   X178.3675     Y254.4075     R3.6000
   X178.9418     Y253.6590     R3.6000
   X179.6902     Y253.0847     R3.6000
G0   Z18.200
(Pass: 1)
   X178.240      Y250.573
G1   Z2.200      F100
G17 G3   X179.8112     Y249.9225     R6.5000     F400
   X181.4971     Y249.7006     R6.5000
   X183.1830     Y249.9225     R6.5000
   X184.7540     Y250.5732     R6.5000
   X186.1031     Y251.6084     R6.5000
   X187.1383     Y252.9575     R6.5000
   X187.7890     Y254.5285     R6.5000
   X188.0109     Y256.2144     R6.5000
   X187.7890     Y257.9003     R6.5000
   X187.1383     Y259.4713     R6.5000
   X186.1031     Y260.8203     R6.5000
   X184.7540     Y261.8555     R6.5000
   X183.1830     Y262.5062     R6.5000
   X181.4971     Y262.7282     R6.5000
   X179.8112     Y262.5062     R6.5000
   X178.2402     Y261.8555     R6.5000
   X176.8912     Y260.8203     R6.5000
   X175.8560     Y259.4713     R6.5000
   X175.2053     Y257.9003     R6.5000
   X174.9833     Y256.2144     R6.5000
   X175.2053     Y254.5285     R6.5000
   X175.8560     Y252.9575     R6.5000
   X176.8912     Y251.6084     R6.5000
   X178.2402     Y250.5732     R6.5000
G0   Z18.200
(Pass: 1)
   X403.462      Y256.214
G1   Z2.200      F100
G17 G3   X403.5855     Y255.2790     R3.6000     F400
   X403.9465     Y254.4075     R3.6000
   X404.5208     Y253.6590     R3.6000
   X405.2692     Y253.0847     R3.6000
   X406.1408     Y252.7237     R3.6000
   X407.0761     Y252.6006     R3.6000
   X408.0114     Y252.7237     R3.6000
   X408.8830     Y253.0847     R3.6000
   X409.6315     Y253.6590     R3.6000
   X410.2058     Y254.4075     R3.6000
   X410.5668     Y255.2790     R3.6000
   X410.6899     Y256.2144     R3.6000
   X410.5668     Y257.1497     R3.6000
   X410.2058     Y258.0213     R3.6000
   X409.6315     Y258.7697     R3.6000
   X408.8830     Y259.3440     R3.6000
   X408.0114     Y259.7050     R3.6000
   X407.0761     Y259.8282     R3.6000
   X406.1408     Y259.7050     R3.6000
   X405.2692     Y259.3440     R3.6000
   X404.5208     Y258.7697     R3.6000
   X403.9465     Y258.0213     R3.6000
   X403.5855     Y257.1497     R3.6000
   X403.4623     Y256.2144     R3.6000
G0   Z18.200
(Pass: 1)
   X400.562
G1   Z2.200      F100
G17 G3   X400.7843     Y254.5285     R6.5000     F400
   X401.4350     Y252.9575     R6.5000
   X402.4702     Y251.6084     R6.5000
   X403.8192     Y250.5732     R6.5000
   X405.3902     Y249.9225     R6.5000
   X407.0761     Y249.7006     R6.5000
   X408.7620     Y249.9225     R6.5000
   X410.3330     Y250.5732     R6.5000
   X411.6821     Y251.6084     R6.5000
   X412.7172     Y252.9575     R6.5000
   X413.3680     Y254.5285     R6.5000
   X413.5899     Y256.2144     R6.5000
   X413.3680     Y257.9003     R6.5000
   X412.7172     Y259.4713     R6.5000
   X411.6821     Y260.8203     R6.5000
   X410.3330     Y261.8555     R6.5000
   X408.7620     Y262.5062     R6.5000
   X407.0761     Y262.7282     R6.5000
   X405.3902     Y262.5062     R6.5000
   X403.8192     Y261.8555     R6.5000
   X402.4702     Y260.8203     R6.5000
   X401.4350     Y259.4713     R6.5000
   X400.7843     Y257.9003     R6.5000
   X400.5623     Y256.2144     R6.5000
G0   Z18.200
G0 X0 Y0 (home)
M05
M30
%
