%
(Generated by SketchUcam {1.2})
(File: Router Plates.skp)
(Bit diameter: 3.1mm)
(Feed rate: 300.0mm/min)
(Plunge Feed rate: 200.0mm/min)
(Material Thickness: 3.2mm)
(Material length: 304.0mm X width: 608.0mm)
(Overhead Gantry: true)
(Retract feed rate NOT limited to plunge feed rate)
(Multipass enabled, Depth = 1.0mm)
(Optimization is ON)
(Z ZERO IS TABLETOP)
(www.PhlatBoyz.com)
G90 G21 G49
M3 S15000
G0   Z18.200
(Pass: 1)
   X179.715      Y253.128
G1   Z2.200      F200
G17 G3   X180.5749     Y252.7724     R3.5500     F300
   X181.4971     Y252.6510     R3.5500
   X182.4194     Y252.7724     R3.5500
   X183.2788     Y253.1284     R3.5500
   X184.0168     Y253.6947     R3.5500
   X184.5831     Y254.4327     R3.5500
   X184.9391     Y255.2921     R3.5500
   X185.0605     Y256.2144     R3.5500
   X184.9391     Y257.1366     R3.5500
   X184.5831     Y257.9960     R3.5500
   X184.0168     Y258.7340     R3.5500
   X183.2788     Y259.3003     R3.5500
   X182.4194     Y259.6563     R3.5500
   X181.4971     Y259.7777     R3.5500
   X180.5749     Y259.6563     R3.5500
   X179.7154     Y259.3003     R3.5500
   X178.9774     Y258.7340     R3.5500
   X178.4112     Y257.9960     R3.5500
   X178.0552     Y257.1366     R3.5500
   X177.9338     Y256.2144     R3.5500
   X178.0552     Y255.2921     R3.5500
   X178.4112     Y254.4327     R3.5500
   X178.9774     Y253.6947     R3.5500
   X179.7154     Y253.1284     R3.5500
G0   Z18.200
(Pass: 1)
   X178.290      Y250.660
G1   Z2.200      F200
G17 G3   X179.8371     Y250.0191     R6.4000     F300
   X181.4971     Y249.8006     R6.4000
   X183.1572     Y250.0191     R6.4000
   X184.7040     Y250.6598     R6.4000
   X186.0324     Y251.6791     R6.4000
   X187.0517     Y253.0075     R6.4000
   X187.6924     Y254.5543     R6.4000
   X187.9109     Y256.2144     R6.4000
   X187.6924     Y257.8744     R6.4000
   X187.0517     Y259.4213     R6.4000
   X186.0324     Y260.7496     R6.4000
   X184.7040     Y261.7689     R6.4000
   X183.1572     Y262.4096     R6.4000
   X181.4971     Y262.6282     R6.4000
   X179.8371     Y262.4096     R6.4000
   X178.2902     Y261.7689     R6.4000
   X176.9619     Y260.7496     R6.4000
   X175.9426     Y259.4213     R6.4000
   X175.3019     Y257.8744     R6.4000
   X175.0833     Y256.2144     R6.4000
   X175.3019     Y254.5543     R6.4000
   X175.9426     Y253.0075     R6.4000
   X176.9619     Y251.6791     R6.4000
   X178.2902     Y250.6598     R6.4000
G0   Z18.200
(Pass: 1)
   X403.513      Y256.214
G1   Z2.200      F200
G17 G3   X403.6342     Y255.2921     R3.5500     F300
   X403.9902     Y254.4327     R3.5500
   X404.5564     Y253.6947     R3.5500
   X405.2944     Y253.1284     R3.5500
   X406.1539     Y252.7724     R3.5500
   X407.0761     Y252.6510     R3.5500
   X407.9984     Y252.7724     R3.5500
   X408.8578     Y253.1284     R3.5500
   X409.5958     Y253.6947     R3.5500
   X410.1621     Y254.4327     R3.5500
   X410.5181     Y255.2921     R3.5500
   X410.6395     Y256.2144     R3.5500
   X410.5181     Y257.1366     R3.5500
   X410.1621     Y257.9960     R3.5500
   X409.5958     Y258.7340     R3.5500
   X408.8578     Y259.3003     R3.5500
   X407.9984     Y259.6563     R3.5500
   X407.0761     Y259.7777     R3.5500
   X406.1539     Y259.6563     R3.5500
   X405.2944     Y259.3003     R3.5500
   X404.5564     Y258.7340     R3.5500
   X403.9902     Y257.9960     R3.5500
   X403.6342     Y257.1366     R3.5500
   X403.5127     Y256.2144     R3.5500
G0   Z18.200
(Pass: 1)
   X400.662
G1   Z2.200      F200
G17 G3   X400.8809     Y254.5543     R6.4000     F300
   X401.5216     Y253.0075     R6.4000
   X402.5409     Y251.6791     R6.4000
   X403.8692     Y250.6598     R6.4000
   X405.4161     Y250.0191     R6.4000
   X407.0761     Y249.8006     R6.4000
   X408.7361     Y250.0191     R6.4000
   X410.2830     Y250.6598     R6.4000
   X411.6114     Y251.6791     R6.4000
   X412.6306     Y253.0075     R6.4000
   X413.2714     Y254.5543     R6.4000
   X413.4899     Y256.2144     R6.4000
   X413.2714     Y257.8744     R6.4000
   X412.6306     Y259.4213     R6.4000
   X411.6114     Y260.7496     R6.4000
   X410.2830     Y261.7689     R6.4000
   X408.7361     Y262.4096     R6.4000
   X407.0761     Y262.6282     R6.4000
   X405.4161     Y262.4096     R6.4000
   X403.8692     Y261.7689     R6.4000
   X402.5409     Y260.7496     R6.4000
   X401.5216     Y259.4213     R6.4000
   X400.8809     Y257.8744     R6.4000
   X400.6623     Y256.2144     R6.4000
G0   Z18.200
G0 X0 Y0 (home)
M05
M30
%
