%
(Generated by SketchUcam {1.2})
(File: Router Plates.skp)
(Bit diameter: 3.1mm)
(Feed rate: 200.0mm/min)
(Material Thickness: 2.7mm)
(Material length: 608.0mm X width: 304.0mm)
(Overhead Gantry: true)
(Retract feed rate NOT limited to plunge feed rate)
(Multipass enabled, Depth = 0.5mm)
(Optimization is ON)
(www.PhlatBoyz.com)
G90 G21 G49 
M3 S15000
G0   Z15.000    
(Pass: 1)
   X46.975       Y37.803    
G1   Z-0.500     F200 
G17 G2   X46.4794      Y38.7035      R3.9500    
   X46.2340      Y39.7014      R3.9500    
   X46.2553      Y40.7289      R3.9500    
   X46.5418      Y41.7158      R3.9500    
   X47.0739      Y42.5949      R3.9500    
   X47.8155      Y43.3064      R3.9500    
   X48.7159      Y43.8017      R3.9500    
   X49.7139      Y44.0470      R3.9500    
   X50.7413      Y44.0258      R3.9500    
   X51.7283      Y43.7393      R3.9500    
   X52.6074      Y43.2071      R3.9500    
   X53.3189      Y42.4656      R3.9500    
   X53.8142      Y41.5651      R3.9500    
   X54.0595      Y40.5672      R3.9500    
   X54.0382      Y39.5397      R3.9500    
   X53.7517      Y38.5528      R3.9500    
   X53.2196      Y37.6736      R3.9500    
   X52.4780      Y36.9622      R3.9500    
   X51.5776      Y36.4669      R3.9500    
   X50.5796      Y36.2215      R3.9500    
   X49.5522      Y36.2428      R3.9500    
   X48.5653      Y36.5293      R3.9500    
   X47.6861      Y37.0615      R3.9500    
   X46.9747      Y37.8030      R3.9500    
(Pass: 2)
G1   Z-1.000    
G17 G2   X46.4794      Y38.7035      R3.9500    
   X46.2340      Y39.7014      R3.9500    
   X46.2553      Y40.7289      R3.9500    
   X46.5418      Y41.7158      R3.9500    
   X47.0739      Y42.5949      R3.9500    
   X47.8155      Y43.3064      R3.9500    
   X48.7159      Y43.8017      R3.9500    
   X49.7139      Y44.0470      R3.9500    
   X50.7413      Y44.0258      R3.9500    
   X51.7283      Y43.7393      R3.9500    
   X52.6074      Y43.2071      R3.9500    
   X53.3189      Y42.4656      R3.9500    
   X53.8142      Y41.5651      R3.9500    
   X54.0595      Y40.5672      R3.9500    
   X54.0382      Y39.5397      R3.9500    
   X53.7517      Y38.5528      R3.9500    
   X53.2196      Y37.6736      R3.9500    
   X52.4780      Y36.9622      R3.9500    
   X51.5776      Y36.4669      R3.9500    
   X50.5796      Y36.2215      R3.9500    
   X49.5522      Y36.2428      R3.9500    
   X48.5653      Y36.5293      R3.9500    
   X47.6861      Y37.0615      R3.9500    
   X46.9747      Y37.8030      R3.9500    
(Pass: 3)
G1   Z-1.500    
G17 G2   X46.4794      Y38.7035      R3.9500    
   X46.2340      Y39.7014      R3.9500    
   X46.2553      Y40.7289      R3.9500    
   X46.5418      Y41.7158      R3.9500    
   X47.0739      Y42.5949      R3.9500    
   X47.8155      Y43.3064      R3.9500    
   X48.7159      Y43.8017      R3.9500    
   X49.7139      Y44.0470      R3.9500    
   X50.7413      Y44.0258      R3.9500    
   X51.7283      Y43.7393      R3.9500    
   X52.6074      Y43.2071      R3.9500    
   X53.3189      Y42.4656      R3.9500    
   X53.8142      Y41.5651      R3.9500    
   X54.0595      Y40.5672      R3.9500    
   X54.0382      Y39.5397      R3.9500    
   X53.7517      Y38.5528      R3.9500    
   X53.2196      Y37.6736      R3.9500    
   X52.4780      Y36.9622      R3.9500    
   X51.5776      Y36.4669      R3.9500    
   X50.5796      Y36.2215      R3.9500    
   X49.5522      Y36.2428      R3.9500    
   X48.5653      Y36.5293      R3.9500    
   X47.6861      Y37.0615      R3.9500    
   X46.9747      Y37.8030      R3.9500    
(Pass: 4)
G1   Z-2.000    
G17 G2   X46.4794      Y38.7035      R3.9500    
   X46.2340      Y39.7014      R3.9500    
   X46.2553      Y40.7289      R3.9500    
   X46.5418      Y41.7158      R3.9500    
   X47.0739      Y42.5949      R3.9500    
   X47.8155      Y43.3064      R3.9500    
   X48.7159      Y43.8017      R3.9500    
   X49.7139      Y44.0470      R3.9500    
   X50.7413      Y44.0258      R3.9500    
   X51.7283      Y43.7393      R3.9500    
   X52.6074      Y43.2071      R3.9500    
   X53.3189      Y42.4656      R3.9500    
   X53.8142      Y41.5651      R3.9500    
   X54.0595      Y40.5672      R3.9500    
   X54.0382      Y39.5397      R3.9500    
   X53.7517      Y38.5528      R3.9500    
   X53.2196      Y37.6736      R3.9500    
   X52.4780      Y36.9622      R3.9500    
   X51.5776      Y36.4669      R3.9500    
   X50.5796      Y36.2215      R3.9500    
   X49.5522      Y36.2428      R3.9500    
   X48.5653      Y36.5293      R3.9500    
   X47.6861      Y37.0615      R3.9500    
   X46.9747      Y37.8030      R3.9500    
(Pass: 5)
G1   Z-2.500    
G17 G2   X46.4794      Y38.7035      R3.9500    
   X46.2340      Y39.7014      R3.9500    
   X46.2553      Y40.7289      R3.9500    
   X46.5418      Y41.7158      R3.9500    
   X47.0739      Y42.5949      R3.9500    
   X47.8155      Y43.3064      R3.9500    
   X48.7159      Y43.8017      R3.9500    
   X49.7139      Y44.0470      R3.9500    
   X50.7413      Y44.0258      R3.9500    
   X51.7283      Y43.7393      R3.9500    
   X52.6074      Y43.2071      R3.9500    
   X53.3189      Y42.4656      R3.9500    
   X53.8142      Y41.5651      R3.9500    
   X54.0595      Y40.5672      R3.9500    
   X54.0382      Y39.5397      R3.9500    
   X53.7517      Y38.5528      R3.9500    
   X53.2196      Y37.6736      R3.9500    
   X52.4780      Y36.9622      R3.9500    
   X51.5776      Y36.4669      R3.9500    
   X50.5796      Y36.2215      R3.9500    
   X49.5522      Y36.2428      R3.9500    
   X48.5653      Y36.5293      R3.9500    
   X47.6861      Y37.0615      R3.9500    
   X46.9747      Y37.8030      R3.9500    
(Pass: 6)
G1   Z-2.700    
G17 G2   X46.4794      Y38.7035      R3.9500    
   X46.2340      Y39.7014      R3.9500    
   X46.2553      Y40.7289      R3.9500    
   X46.5418      Y41.7158      R3.9500    
   X47.0739      Y42.5949      R3.9500    
   X47.8155      Y43.3064      R3.9500    
   X48.7159      Y43.8017      R3.9500    
   X49.7139      Y44.0470      R3.9500    
   X50.7413      Y44.0258      R3.9500    
   X51.7283      Y43.7393      R3.9500    
   X52.6074      Y43.2071      R3.9500    
   X53.3189      Y42.4656      R3.9500    
   X53.8142      Y41.5651      R3.9500    
   X54.0595      Y40.5672      R3.9500    
   X54.0382      Y39.5397      R3.9500    
   X53.7517      Y38.5528      R3.9500    
   X53.2196      Y37.6736      R3.9500    
   X52.4780      Y36.9622      R3.9500    
   X51.5776      Y36.4669      R3.9500    
   X50.5796      Y36.2215      R3.9500    
   X49.5522      Y36.2428      R3.9500    
   X48.5653      Y36.5293      R3.9500    
   X47.6861      Y37.0615      R3.9500    
   X46.9747      Y37.8030      R3.9500    
G0   Z15.000    
(Pass: 1)
   X44.953       Y36.332    
G1   Z-0.500     F200 
G17 G2   X44.1462      Y37.8055      R6.4500    
   X43.7479      Y39.4379      R6.4500    
   X43.7857      Y41.1178      R6.4500    
   X44.2570      Y42.7307      R6.4500    
   X45.1297      Y44.1666      R6.4500    
   X46.3443      Y45.3277      R6.4500    
   X47.8180      Y46.1349      R6.4500    
   X49.4504      Y46.5331      R6.4500    
   X51.1303      Y46.4953      R6.4500    
   X52.7431      Y46.0240      R6.4500    
   X54.1790      Y45.1513      R6.4500    
   X55.3402      Y43.9368      R6.4500    
   X56.1474      Y42.4630      R6.4500    
   X56.5456      Y40.8306      R6.4500    
   X56.5078      Y39.1508      R6.4500    
   X56.0365      Y37.5379      R6.4500    
   X55.1638      Y36.1020      R6.4500    
   X53.9492      Y34.9409      R6.4500    
   X52.4755      Y34.1337      R6.4500    
   X50.8431      Y33.7354      R6.4500    
   X49.1632      Y33.7733      R6.4500    
   X47.5504      Y34.2446      R6.4500    
   X46.1145      Y35.1172      R6.4500    
   X44.9534      Y36.3318      R6.4500    
(Pass: 2)
G1   Z-1.000    
G17 G2   X44.1462      Y37.8055      R6.4500    
   X43.7479      Y39.4379      R6.4500    
   X43.7857      Y41.1178      R6.4500    
   X44.2570      Y42.7307      R6.4500    
   X45.1297      Y44.1666      R6.4500    
   X46.3443      Y45.3277      R6.4500    
   X47.8180      Y46.1349      R6.4500    
   X49.4504      Y46.5331      R6.4500    
   X51.1303      Y46.4953      R6.4500    
   X52.7431      Y46.0240      R6.4500    
   X54.1790      Y45.1513      R6.4500    
   X55.3402      Y43.9368      R6.4500    
   X56.1474      Y42.4630      R6.4500    
   X56.5456      Y40.8306      R6.4500    
   X56.5078      Y39.1508      R6.4500    
   X56.0365      Y37.5379      R6.4500    
   X55.1638      Y36.1020      R6.4500    
   X53.9492      Y34.9409      R6.4500    
   X52.4755      Y34.1337      R6.4500    
   X50.8431      Y33.7354      R6.4500    
   X49.1632      Y33.7733      R6.4500    
   X47.5504      Y34.2446      R6.4500    
   X46.1145      Y35.1172      R6.4500    
   X44.9534      Y36.3318      R6.4500    
(Pass: 3)
G1   Z-1.500    
G17 G2   X44.1462      Y37.8055      R6.4500    
   X43.7479      Y39.4379      R6.4500    
   X43.7857      Y41.1178      R6.4500    
   X44.2570      Y42.7307      R6.4500    
   X45.1297      Y44.1666      R6.4500    
   X46.3443      Y45.3277      R6.4500    
   X47.8180      Y46.1349      R6.4500    
   X49.4504      Y46.5331      R6.4500    
   X51.1303      Y46.4953      R6.4500    
   X52.7431      Y46.0240      R6.4500    
   X54.1790      Y45.1513      R6.4500    
   X55.3402      Y43.9368      R6.4500    
   X56.1474      Y42.4630      R6.4500    
   X56.5456      Y40.8306      R6.4500    
   X56.5078      Y39.1508      R6.4500    
   X56.0365      Y37.5379      R6.4500    
   X55.1638      Y36.1020      R6.4500    
   X53.9492      Y34.9409      R6.4500    
   X52.4755      Y34.1337      R6.4500    
   X50.8431      Y33.7354      R6.4500    
   X49.1632      Y33.7733      R6.4500    
   X47.5504      Y34.2446      R6.4500    
   X46.1145      Y35.1172      R6.4500    
   X44.9534      Y36.3318      R6.4500    
(Pass: 4)
G1   Z-2.000    
G17 G2   X44.1462      Y37.8055      R6.4500    
   X43.7479      Y39.4379      R6.4500    
   X43.7857      Y41.1178      R6.4500    
   X44.2570      Y42.7307      R6.4500    
   X45.1297      Y44.1666      R6.4500    
   X46.3443      Y45.3277      R6.4500    
   X47.8180      Y46.1349      R6.4500    
   X49.4504      Y46.5331      R6.4500    
   X51.1303      Y46.4953      R6.4500    
   X52.7431      Y46.0240      R6.4500    
   X54.1790      Y45.1513      R6.4500    
   X55.3402      Y43.9368      R6.4500    
   X56.1474      Y42.4630      R6.4500    
   X56.5456      Y40.8306      R6.4500    
   X56.5078      Y39.1508      R6.4500    
   X56.0365      Y37.5379      R6.4500    
   X55.1638      Y36.1020      R6.4500    
   X53.9492      Y34.9409      R6.4500    
   X52.4755      Y34.1337      R6.4500    
   X50.8431      Y33.7354      R6.4500    
   X49.1632      Y33.7733      R6.4500    
   X47.5504      Y34.2446      R6.4500    
   X46.1145      Y35.1172      R6.4500    
   X44.9534      Y36.3318      R6.4500    
(Pass: 5)
G1   Z-2.500    
G17 G2   X44.1462      Y37.8055      R6.4500    
   X43.7479      Y39.4379      R6.4500    
   X43.7857      Y41.1178      R6.4500    
   X44.2570      Y42.7307      R6.4500    
   X45.1297      Y44.1666      R6.4500    
   X46.3443      Y45.3277      R6.4500    
   X47.8180      Y46.1349      R6.4500    
   X49.4504      Y46.5331      R6.4500    
   X51.1303      Y46.4953      R6.4500    
   X52.7431      Y46.0240      R6.4500    
   X54.1790      Y45.1513      R6.4500    
   X55.3402      Y43.9368      R6.4500    
   X56.1474      Y42.4630      R6.4500    
   X56.5456      Y40.8306      R6.4500    
   X56.5078      Y39.1508      R6.4500    
   X56.0365      Y37.5379      R6.4500    
   X55.1638      Y36.1020      R6.4500    
   X53.9492      Y34.9409      R6.4500    
   X52.4755      Y34.1337      R6.4500    
   X50.8431      Y33.7354      R6.4500    
   X49.1632      Y33.7733      R6.4500    
   X47.5504      Y34.2446      R6.4500    
   X46.1145      Y35.1172      R6.4500    
   X44.9534      Y36.3318      R6.4500    
(Pass: 6)
G1   Z-2.700    
G17 G2   X44.1462      Y37.8055      R6.4500    
   X43.7479      Y39.4379      R6.4500    
   X43.7857      Y41.1178      R6.4500    
   X44.2570      Y42.7307      R6.4500    
   X45.1297      Y44.1666      R6.4500    
   X46.3443      Y45.3277      R6.4500    
   X47.8180      Y46.1349      R6.4500    
   X49.4504      Y46.5331      R6.4500    
   X51.1303      Y46.4953      R6.4500    
   X52.7431      Y46.0240      R6.4500    
   X54.1790      Y45.1513      R6.4500    
   X55.3402      Y43.9368      R6.4500    
   X56.1474      Y42.4630      R6.4500    
   X56.5456      Y40.8306      R6.4500    
   X56.5078      Y39.1508      R6.4500    
   X56.0365      Y37.5379      R6.4500    
   X55.1638      Y36.1020      R6.4500    
   X53.9492      Y34.9409      R6.4500    
   X52.4755      Y34.1337      R6.4500    
   X50.8431      Y33.7354      R6.4500    
   X49.1632      Y33.7733      R6.4500    
   X47.5504      Y34.2446      R6.4500    
   X46.1145      Y35.1172      R6.4500    
   X44.9534      Y36.3318      R6.4500    
G0   Z15.000    
(Pass: 1)
   X49.405       Y116.109   
G1   Z-0.500     F200 
G17 G2   X48.4185      Y116.3950     R3.9500    
   X47.5394      Y116.9272     R3.9500    
   X46.8279      Y117.6687     R3.9500    
   X46.3326      Y118.5692     R3.9500    
   X46.0872      Y119.5671     R3.9500    
   X46.1085      Y120.5946     R3.9500    
   X46.3950      Y121.5815     R3.9500    
   X46.9272      Y122.4606     R3.9500    
   X47.6687      Y123.1721     R3.9500    
   X48.5692      Y123.6674     R3.9500    
   X49.5671      Y123.9128     R3.9500    
   X50.5946      Y123.8915     R3.9500    
   X51.5815      Y123.6050     R3.9500    
   X52.4606      Y123.0728     R3.9500    
   X53.1721      Y122.3313     R3.9500    
   X53.6674      Y121.4308     R3.9500    
   X53.9128      Y120.4329     R3.9500    
   X53.8915      Y119.4054     R3.9500    
   X53.6050      Y118.4185     R3.9500    
   X53.0728      Y117.5394     R3.9500    
   X52.3313      Y116.8279     R3.9500    
   X51.4308      Y116.3326     R3.9500    
   X50.4329      Y116.0872     R3.9500    
   X49.4054      Y116.1085     R3.9500    
(Pass: 2)
G1   Z-1.000    
G17 G2   X48.4185      Y116.3950     R3.9500    
   X47.5394      Y116.9272     R3.9500    
   X46.8279      Y117.6687     R3.9500    
   X46.3326      Y118.5692     R3.9500    
   X46.0872      Y119.5671     R3.9500    
   X46.1085      Y120.5946     R3.9500    
   X46.3950      Y121.5815     R3.9500    
   X46.9272      Y122.4606     R3.9500    
   X47.6687      Y123.1721     R3.9500    
   X48.5692      Y123.6674     R3.9500    
   X49.5671      Y123.9128     R3.9500    
   X50.5946      Y123.8915     R3.9500    
   X51.5815      Y123.6050     R3.9500    
   X52.4606      Y123.0728     R3.9500    
   X53.1721      Y122.3313     R3.9500    
   X53.6674      Y121.4308     R3.9500    
   X53.9128      Y120.4329     R3.9500    
   X53.8915      Y119.4054     R3.9500    
   X53.6050      Y118.4185     R3.9500    
   X53.0728      Y117.5394     R3.9500    
   X52.3313      Y116.8279     R3.9500    
   X51.4308      Y116.3326     R3.9500    
   X50.4329      Y116.0872     R3.9500    
   X49.4054      Y116.1085     R3.9500    
(Pass: 3)
G1   Z-1.500    
G17 G2   X48.4185      Y116.3950     R3.9500    
   X47.5394      Y116.9272     R3.9500    
   X46.8279      Y117.6687     R3.9500    
   X46.3326      Y118.5692     R3.9500    
   X46.0872      Y119.5671     R3.9500    
   X46.1085      Y120.5946     R3.9500    
   X46.3950      Y121.5815     R3.9500    
   X46.9272      Y122.4606     R3.9500    
   X47.6687      Y123.1721     R3.9500    
   X48.5692      Y123.6674     R3.9500    
   X49.5671      Y123.9128     R3.9500    
   X50.5946      Y123.8915     R3.9500    
   X51.5815      Y123.6050     R3.9500    
   X52.4606      Y123.0728     R3.9500    
   X53.1721      Y122.3313     R3.9500    
   X53.6674      Y121.4308     R3.9500    
   X53.9128      Y120.4329     R3.9500    
   X53.8915      Y119.4054     R3.9500    
   X53.6050      Y118.4185     R3.9500    
   X53.0728      Y117.5394     R3.9500    
   X52.3313      Y116.8279     R3.9500    
   X51.4308      Y116.3326     R3.9500    
   X50.4329      Y116.0872     R3.9500    
   X49.4054      Y116.1085     R3.9500    
(Pass: 4)
G1   Z-2.000    
G17 G2   X48.4185      Y116.3950     R3.9500    
   X47.5394      Y116.9272     R3.9500    
   X46.8279      Y117.6687     R3.9500    
   X46.3326      Y118.5692     R3.9500    
   X46.0872      Y119.5671     R3.9500    
   X46.1085      Y120.5946     R3.9500    
   X46.3950      Y121.5815     R3.9500    
   X46.9272      Y122.4606     R3.9500    
   X47.6687      Y123.1721     R3.9500    
   X48.5692      Y123.6674     R3.9500    
   X49.5671      Y123.9128     R3.9500    
   X50.5946      Y123.8915     R3.9500    
   X51.5815      Y123.6050     R3.9500    
   X52.4606      Y123.0728     R3.9500    
   X53.1721      Y122.3313     R3.9500    
   X53.6674      Y121.4308     R3.9500    
   X53.9128      Y120.4329     R3.9500    
   X53.8915      Y119.4054     R3.9500    
   X53.6050      Y118.4185     R3.9500    
   X53.0728      Y117.5394     R3.9500    
   X52.3313      Y116.8279     R3.9500    
   X51.4308      Y116.3326     R3.9500    
   X50.4329      Y116.0872     R3.9500    
   X49.4054      Y116.1085     R3.9500    
(Pass: 5)
G1   Z-2.500    
G17 G2   X48.4185      Y116.3950     R3.9500    
   X47.5394      Y116.9272     R3.9500    
   X46.8279      Y117.6687     R3.9500    
   X46.3326      Y118.5692     R3.9500    
   X46.0872      Y119.5671     R3.9500    
   X46.1085      Y120.5946     R3.9500    
   X46.3950      Y121.5815     R3.9500    
   X46.9272      Y122.4606     R3.9500    
   X47.6687      Y123.1721     R3.9500    
   X48.5692      Y123.6674     R3.9500    
   X49.5671      Y123.9128     R3.9500    
   X50.5946      Y123.8915     R3.9500    
   X51.5815      Y123.6050     R3.9500    
   X52.4606      Y123.0728     R3.9500    
   X53.1721      Y122.3313     R3.9500    
   X53.6674      Y121.4308     R3.9500    
   X53.9128      Y120.4329     R3.9500    
   X53.8915      Y119.4054     R3.9500    
   X53.6050      Y118.4185     R3.9500    
   X53.0728      Y117.5394     R3.9500    
   X52.3313      Y116.8279     R3.9500    
   X51.4308      Y116.3326     R3.9500    
   X50.4329      Y116.0872     R3.9500    
   X49.4054      Y116.1085     R3.9500    
(Pass: 6)
G1   Z-2.700    
G17 G2   X48.4185      Y116.3950     R3.9500    
   X47.5394      Y116.9272     R3.9500    
   X46.8279      Y117.6687     R3.9500    
   X46.3326      Y118.5692     R3.9500    
   X46.0872      Y119.5671     R3.9500    
   X46.1085      Y120.5946     R3.9500    
   X46.3950      Y121.5815     R3.9500    
   X46.9272      Y122.4606     R3.9500    
   X47.6687      Y123.1721     R3.9500    
   X48.5692      Y123.6674     R3.9500    
   X49.5671      Y123.9128     R3.9500    
   X50.5946      Y123.8915     R3.9500    
   X51.5815      Y123.6050     R3.9500    
   X52.4606      Y123.0728     R3.9500    
   X53.1721      Y122.3313     R3.9500    
   X53.6674      Y121.4308     R3.9500    
   X53.9128      Y120.4329     R3.9500    
   X53.8915      Y119.4054     R3.9500    
   X53.6050      Y118.4185     R3.9500    
   X53.0728      Y117.5394     R3.9500    
   X52.3313      Y116.8279     R3.9500    
   X51.4308      Y116.3326     R3.9500    
   X50.4329      Y116.0872     R3.9500    
   X49.4054      Y116.1085     R3.9500    
G0   Z15.000    
(Pass: 1)
   X49.016       Y113.639   
G1   Z-0.500     F200 
G17 G2   X47.4036      Y114.1103     R6.4500    
   X45.9677      Y114.9829     R6.4500    
   X44.8066      Y116.1975     R6.4500    
   X43.9994      Y117.6712     R6.4500    
   X43.6012      Y119.3037     R6.4500    
   X43.6390      Y120.9835     R6.4500    
   X44.1103      Y122.5964     R6.4500    
   X44.9829      Y124.0323     R6.4500    
   X46.1975      Y125.1934     R6.4500    
   X47.6712      Y126.0006     R6.4500    
   X49.3037      Y126.3988     R6.4500    
   X50.9835      Y126.3610     R6.4500    
   X52.5964      Y125.8897     R6.4500    
   X54.0323      Y125.0171     R6.4500    
   X55.1934      Y123.8025     R6.4500    
   X56.0006      Y122.3288     R6.4500    
   X56.3988      Y120.6963     R6.4500    
   X56.3610      Y119.0165     R6.4500    
   X55.8897      Y117.4036     R6.4500    
   X55.0171      Y115.9677     R6.4500    
   X53.8025      Y114.8066     R6.4500    
   X52.3288      Y113.9994     R6.4500    
   X50.6963      Y113.6012     R6.4500    
   X49.0165      Y113.6390     R6.4500    
(Pass: 2)
G1   Z-1.000    
G17 G2   X47.4036      Y114.1103     R6.4500    
   X45.9677      Y114.9829     R6.4500    
   X44.8066      Y116.1975     R6.4500    
   X43.9994      Y117.6712     R6.4500    
   X43.6012      Y119.3037     R6.4500    
   X43.6390      Y120.9835     R6.4500    
   X44.1103      Y122.5964     R6.4500    
   X44.9829      Y124.0323     R6.4500    
   X46.1975      Y125.1934     R6.4500    
   X47.6712      Y126.0006     R6.4500    
   X49.3037      Y126.3988     R6.4500    
   X50.9835      Y126.3610     R6.4500    
   X52.5964      Y125.8897     R6.4500    
   X54.0323      Y125.0171     R6.4500    
   X55.1934      Y123.8025     R6.4500    
   X56.0006      Y122.3288     R6.4500    
   X56.3988      Y120.6963     R6.4500    
   X56.3610      Y119.0165     R6.4500    
   X55.8897      Y117.4036     R6.4500    
   X55.0171      Y115.9677     R6.4500    
   X53.8025      Y114.8066     R6.4500    
   X52.3288      Y113.9994     R6.4500    
   X50.6963      Y113.6012     R6.4500    
   X49.0165      Y113.6390     R6.4500    
(Pass: 3)
G1   Z-1.500    
G17 G2   X47.4036      Y114.1103     R6.4500    
   X45.9677      Y114.9829     R6.4500    
   X44.8066      Y116.1975     R6.4500    
   X43.9994      Y117.6712     R6.4500    
   X43.6012      Y119.3037     R6.4500    
   X43.6390      Y120.9835     R6.4500    
   X44.1103      Y122.5964     R6.4500    
   X44.9829      Y124.0323     R6.4500    
   X46.1975      Y125.1934     R6.4500    
   X47.6712      Y126.0006     R6.4500    
   X49.3037      Y126.3988     R6.4500    
   X50.9835      Y126.3610     R6.4500    
   X52.5964      Y125.8897     R6.4500    
   X54.0323      Y125.0171     R6.4500    
   X55.1934      Y123.8025     R6.4500    
   X56.0006      Y122.3288     R6.4500    
   X56.3988      Y120.6963     R6.4500    
   X56.3610      Y119.0165     R6.4500    
   X55.8897      Y117.4036     R6.4500    
   X55.0171      Y115.9677     R6.4500    
   X53.8025      Y114.8066     R6.4500    
   X52.3288      Y113.9994     R6.4500    
   X50.6963      Y113.6012     R6.4500    
   X49.0165      Y113.6390     R6.4500    
(Pass: 4)
G1   Z-2.000    
G17 G2   X47.4036      Y114.1103     R6.4500    
   X45.9677      Y114.9829     R6.4500    
   X44.8066      Y116.1975     R6.4500    
   X43.9994      Y117.6712     R6.4500    
   X43.6012      Y119.3037     R6.4500    
   X43.6390      Y120.9835     R6.4500    
   X44.1103      Y122.5964     R6.4500    
   X44.9829      Y124.0323     R6.4500    
   X46.1975      Y125.1934     R6.4500    
   X47.6712      Y126.0006     R6.4500    
   X49.3037      Y126.3988     R6.4500    
   X50.9835      Y126.3610     R6.4500    
   X52.5964      Y125.8897     R6.4500    
   X54.0323      Y125.0171     R6.4500    
   X55.1934      Y123.8025     R6.4500    
   X56.0006      Y122.3288     R6.4500    
   X56.3988      Y120.6963     R6.4500    
   X56.3610      Y119.0165     R6.4500    
   X55.8897      Y117.4036     R6.4500    
   X55.0171      Y115.9677     R6.4500    
   X53.8025      Y114.8066     R6.4500    
   X52.3288      Y113.9994     R6.4500    
   X50.6963      Y113.6012     R6.4500    
   X49.0165      Y113.6390     R6.4500    
(Pass: 5)
G1   Z-2.500    
G17 G2   X47.4036      Y114.1103     R6.4500    
   X45.9677      Y114.9829     R6.4500    
   X44.8066      Y116.1975     R6.4500    
   X43.9994      Y117.6712     R6.4500    
   X43.6012      Y119.3037     R6.4500    
   X43.6390      Y120.9835     R6.4500    
   X44.1103      Y122.5964     R6.4500    
   X44.9829      Y124.0323     R6.4500    
   X46.1975      Y125.1934     R6.4500    
   X47.6712      Y126.0006     R6.4500    
   X49.3037      Y126.3988     R6.4500    
   X50.9835      Y126.3610     R6.4500    
   X52.5964      Y125.8897     R6.4500    
   X54.0323      Y125.0171     R6.4500    
   X55.1934      Y123.8025     R6.4500    
   X56.0006      Y122.3288     R6.4500    
   X56.3988      Y120.6963     R6.4500    
   X56.3610      Y119.0165     R6.4500    
   X55.8897      Y117.4036     R6.4500    
   X55.0171      Y115.9677     R6.4500    
   X53.8025      Y114.8066     R6.4500    
   X52.3288      Y113.9994     R6.4500    
   X50.6963      Y113.6012     R6.4500    
   X49.0165      Y113.6390     R6.4500    
(Pass: 6)
G1   Z-2.700    
G17 G2   X47.4036      Y114.1103     R6.4500    
   X45.9677      Y114.9829     R6.4500    
   X44.8066      Y116.1975     R6.4500    
   X43.9994      Y117.6712     R6.4500    
   X43.6012      Y119.3037     R6.4500    
   X43.6390      Y120.9835     R6.4500    
   X44.1103      Y122.5964     R6.4500    
   X44.9829      Y124.0323     R6.4500    
   X46.1975      Y125.1934     R6.4500    
   X47.6712      Y126.0006     R6.4500    
   X49.3037      Y126.3988     R6.4500    
   X50.9835      Y126.3610     R6.4500    
   X52.5964      Y125.8897     R6.4500    
   X54.0323      Y125.0171     R6.4500    
   X55.1934      Y123.8025     R6.4500    
   X56.0006      Y122.3288     R6.4500    
   X56.3988      Y120.6963     R6.4500    
   X56.3610      Y119.0165     R6.4500    
   X55.8897      Y117.4036     R6.4500    
   X55.0171      Y115.9677     R6.4500    
   X53.8025      Y114.8066     R6.4500    
   X52.3288      Y113.9994     R6.4500    
   X50.6963      Y113.6012     R6.4500    
   X49.0165      Y113.6390     R6.4500    
G0   Z15.000    
G0 X0 Y0 (home)
M05
M30
%
