%
(Generated by SketchUcam {1.2})
(File: Router Plates.skp)
(Bit diameter: 3.2mm)
(Feed rate: 400.0mm/min)
(Plunge Feed rate: 100.0mm/min)
(Material Thickness: 3.2mm)
(Material length: 304.0mm X width: 608.0mm)
(Overhead Gantry: true)
(Retract feed rate NOT limited to plunge feed rate)
(Multipass enabled, Depth = 1.0mm)
(Optimization is ON)
(Z ZERO IS TABLETOP)
(www.PhlatBoyz.com)
G90 G21 G49
M3 S15000
G0   Z18.200
(Pass: 1)
   X179.238      Y253.394
G1   Z2.200      F100
G17 G3   X180.0453     Y252.9050     R3.6000     F400
   X180.9513     Y252.6420     R3.6000
   X181.8945     Y252.6225     R3.6000
   X182.8106     Y252.8477     R3.6000
   X183.6372     Y253.3024     R3.6000
   X184.3180     Y253.9555     R3.6000
   X184.8065     Y254.7626     R3.6000
   X185.0695     Y255.6686     R3.6000
   X185.0890     Y256.6117     R3.6000
   X184.8638     Y257.5279     R3.6000
   X184.4091     Y258.3544     R3.6000
   X183.7560     Y259.0352     R3.6000
   X182.9489     Y259.5237     R3.6000
   X182.0429     Y259.7867     R3.6000
   X181.0998     Y259.8063     R3.6000
   X180.1836     Y259.5810     R3.6000
   X179.3570     Y259.1263     R3.6000
   X178.6763     Y258.4732     R3.6000
   X178.1878     Y257.6662     R3.6000
   X177.9248     Y256.7602     R3.6000
   X177.9052     Y255.8170     R3.6000
   X178.1305     Y254.9009     R3.6000
   X178.5852     Y254.0743     R3.6000
   X179.2383     Y253.3935     R3.6000
G0   Z18.200
(Pass: 1)
   X176.962      Y251.679
G1   Z2.200      F100
G17 G3   X178.2902     Y250.6598     R6.4000     F400
   X179.8371     Y250.0191     R6.4000
   X181.4971     Y249.8006     R6.4000
   X183.1572     Y250.0191     R6.4000
   X184.7040     Y250.6598     R6.4000
   X186.0324     Y251.6791     R6.4000
   X187.0517     Y253.0075     R6.4000
   X187.6924     Y254.5543     R6.4000
   X187.9109     Y256.2144     R6.4000
   X187.6924     Y257.8744     R6.4000
   X187.0517     Y259.4213     R6.4000
   X186.0324     Y260.7496     R6.4000
   X184.7040     Y261.7689     R6.4000
   X183.1572     Y262.4096     R6.4000
   X181.4971     Y262.6282     R6.4000
   X179.8371     Y262.4096     R6.4000
   X178.2902     Y261.7689     R6.4000
   X176.9619     Y260.7496     R6.4000
   X175.9426     Y259.4213     R6.4000
   X175.3019     Y257.8744     R6.4000
   X175.0833     Y256.2144     R6.4000
   X175.3019     Y254.5543     R6.4000
   X175.9426     Y253.0075     R6.4000
   X176.9619     Y251.6791     R6.4000
G0   Z18.200
(Pass: 1)
   X403.462      Y256.214
G1   Z2.200      F100
G17 G3   X403.5855     Y255.2790     R3.6000     F400
   X403.9465     Y254.4075     R3.6000
   X404.5208     Y253.6590     R3.6000
   X405.2692     Y253.0847     R3.6000
   X406.1408     Y252.7237     R3.6000
   X407.0761     Y252.6006     R3.6000
   X408.0114     Y252.7237     R3.6000
   X408.8830     Y253.0847     R3.6000
   X409.6315     Y253.6590     R3.6000
   X410.2058     Y254.4075     R3.6000
   X410.5668     Y255.2790     R3.6000
   X410.6899     Y256.2144     R3.6000
   X410.5668     Y257.1497     R3.6000
   X410.2058     Y258.0213     R3.6000
   X409.6315     Y258.7697     R3.6000
   X408.8830     Y259.3440     R3.6000
   X408.0114     Y259.7050     R3.6000
   X407.0761     Y259.8282     R3.6000
   X406.1408     Y259.7050     R3.6000
   X405.2692     Y259.3440     R3.6000
   X404.5208     Y258.7697     R3.6000
   X403.9465     Y258.0213     R3.6000
   X403.5855     Y257.1497     R3.6000
   X403.4623     Y256.2144     R3.6000
G0   Z18.200
(Pass: 1)
   X400.662
G1   Z2.200      F100
G17 G3   X400.8809     Y254.5543     R6.4000     F400
   X401.5216     Y253.0075     R6.4000
   X402.5409     Y251.6791     R6.4000
   X403.8692     Y250.6598     R6.4000
   X405.4161     Y250.0191     R6.4000
   X407.0761     Y249.8006     R6.4000
   X408.7361     Y250.0191     R6.4000
   X410.2830     Y250.6598     R6.4000
   X411.6114     Y251.6791     R6.4000
   X412.6306     Y253.0075     R6.4000
   X413.2714     Y254.5543     R6.4000
   X413.4899     Y256.2144     R6.4000
   X413.2714     Y257.8744     R6.4000
   X412.6306     Y259.4213     R6.4000
   X411.6114     Y260.7496     R6.4000
   X410.2830     Y261.7689     R6.4000
   X408.7361     Y262.4096     R6.4000
   X407.0761     Y262.6282     R6.4000
   X405.4161     Y262.4096     R6.4000
   X403.8692     Y261.7689     R6.4000
   X402.5409     Y260.7496     R6.4000
   X401.5216     Y259.4213     R6.4000
   X400.8809     Y257.8744     R6.4000
   X400.6623     Y256.2144     R6.4000
G0   Z18.200    
G0 X0 Y0 (home)
M05
M30
%
