%
(Generated by SketchUcam {1.2})
(File: Router Plates.skp)
(Bit diameter: 3.1mm)
(Feed rate: 200.0mm/min)
(Material Thickness: 3.2mm)
(Material length: 304.0mm X width: 608.0mm)
(Overhead Gantry: true)
(Retract feed rate NOT limited to plunge feed rate)
(Multipass enabled, Depth = 0.7mm)
(Optimization is ON)
(Z ZERO IS TABLETOP)
(www.PhlatBoyz.com)
G90 G21 G49 
M3 S15000
G0   Z18.200    
(Pass: 1)
   X150.835      Y230.804   
G1   Z2.500      F200 
   X151.019      Y230.663   
   X151.233      Y230.575   
   X151.462      Y230.545   
   X151.691      Y230.575   
   X151.905      Y230.663   
   X152.089      Y230.804   
   X152.229      Y230.988   
   X152.318      Y231.201   
   X152.362      Y231.535   
   Y240.137   
   X152.312      Y240.472   
   X152.223      Y240.686   
   X152.083      Y240.869   
   X151.899      Y241.010   
   X151.685      Y241.099   
   X151.456      Y241.129   
   X151.227      Y241.099   
   X151.013      Y241.010   
   X150.829      Y240.869   
   X150.688      Y240.686   
   X150.600      Y240.472   
   X150.556      Y240.138   
   Y231.536   
   X150.606      Y231.201   
   X150.694      Y230.988   
   X150.835      Y230.804   
(Pass: 2)
   Z1.800     
   X151.019      Y230.663   
   X151.233      Y230.575   
   X151.462      Y230.545   
   X151.691      Y230.575   
   X151.905      Y230.663   
   X152.089      Y230.804   
   X152.229      Y230.988   
   X152.318      Y231.201   
   X152.362      Y231.535   
   Y240.137   
   X152.312      Y240.472   
   X152.223      Y240.686   
   X152.083      Y240.869   
   X151.899      Y241.010   
   X151.685      Y241.099   
   X151.456      Y241.129   
   X151.227      Y241.099   
   X151.013      Y241.010   
   X150.829      Y240.869   
   X150.688      Y240.686   
   X150.600      Y240.472   
   X150.556      Y240.138   
   Y231.536   
   X150.606      Y231.201   
   X150.694      Y230.988   
   X150.835      Y230.804   
(Pass: 3)
   Z1.100     
   X151.019      Y230.663   
   X151.233      Y230.575   
   X151.462      Y230.545   
   X151.691      Y230.575   
   X151.905      Y230.663   
   X152.089      Y230.804   
   X152.229      Y230.988   
   X152.318      Y231.201   
   X152.362      Y231.535   
   Y240.137   
   X152.312      Y240.472   
   X152.223      Y240.686   
   X152.083      Y240.869   
   X151.899      Y241.010   
   X151.685      Y241.099   
   X151.456      Y241.129   
   X151.227      Y241.099   
   X151.013      Y241.010   
   X150.829      Y240.869   
   X150.688      Y240.686   
   X150.600      Y240.472   
   X150.556      Y240.138   
   Y231.536   
   X150.606      Y231.201   
   X150.694      Y230.988   
   X150.835      Y230.804   
(Pass: 4)
   Z0.400     
   X151.019      Y230.663   
   X151.233      Y230.575   
   X151.462      Y230.545   
   X151.691      Y230.575   
   X151.905      Y230.663   
   X152.089      Y230.804   
   X152.229      Y230.988   
   X152.318      Y231.201   
   X152.362      Y231.535   
   Y240.137   
   X152.312      Y240.472   
   X152.223      Y240.686   
   X152.083      Y240.869   
   X151.899      Y241.010   
   X151.685      Y241.099   
   X151.456      Y241.129   
   X151.227      Y241.099   
   X151.013      Y241.010   
   X150.829      Y240.869   
   X150.688      Y240.686   
   X150.600      Y240.472   
   X150.556      Y240.138   
   Y231.536   
   X150.606      Y231.201   
   X150.694      Y230.988   
   X150.835      Y230.804   
(Pass: 5)
   Z-0.300    
   X151.019      Y230.663   
   X151.233      Y230.575   
   X151.462      Y230.545   
   X151.691      Y230.575   
   X151.905      Y230.663   
   X152.089      Y230.804   
   X152.229      Y230.988   
   X152.318      Y231.201   
   X152.362      Y231.535   
   Y240.137   
   X152.312      Y240.472   
   X152.223      Y240.686   
   X152.083      Y240.869   
   X151.899      Y241.010   
   X151.685      Y241.099   
   X151.456      Y241.129   
   X151.227      Y241.099   
   X151.013      Y241.010   
   X150.829      Y240.869   
   X150.688      Y240.686   
   X150.600      Y240.472   
   X150.556      Y240.138   
   Y231.536   
   X150.606      Y231.201   
   X150.694      Y230.988   
   X150.835      Y230.804   
(Pass: 6)
   Z-0.800    
   X151.019      Y230.663   
   X151.233      Y230.575   
   X151.462      Y230.545   
   X151.691      Y230.575   
   X151.905      Y230.663   
   X152.089      Y230.804   
   X152.229      Y230.988   
   X152.318      Y231.201   
   X152.362      Y231.535   
   Y240.137   
   X152.312      Y240.472   
   X152.223      Y240.686   
   X152.083      Y240.869   
   X151.899      Y241.010   
   X151.685      Y241.099   
   X151.456      Y241.129   
   X151.227      Y241.099   
   X151.013      Y241.010   
   X150.829      Y240.869   
   X150.688      Y240.686   
   X150.600      Y240.472   
   X150.556      Y240.138   
   Y231.536   
   X150.606      Y231.201   
   X150.694      Y230.988   
   X150.835      Y230.804   
(BREAK pass 6)
G0   Z18.200    
(Pass: 1)
   X160.562      Y231.536   
G1   Z2.500      F200 
   X160.606      Y231.201   
   X160.694      Y230.988   
   X160.835      Y230.804   
   X161.019      Y230.663   
   X161.233      Y230.575   
   X161.462      Y230.545   
   X161.691      Y230.575   
   X161.905      Y230.663   
   X162.089      Y230.804   
   X162.229      Y230.988   
   X162.318      Y231.201   
   X162.362      Y231.535   
   Y240.137   
   X162.312      Y240.472   
   X162.223      Y240.686   
   X162.083      Y240.869   
   X161.899      Y241.010   
   X161.685      Y241.099   
   X161.456      Y241.129   
   X161.227      Y241.099   
   X161.013      Y241.010   
   X160.829      Y240.869   
   X160.688      Y240.686   
   X160.600      Y240.472   
   X160.556      Y240.138   
   Y231.536   
(Pass: 2)
   Z1.800     
   X160.606      Y231.201   
   X160.694      Y230.988   
   X160.835      Y230.804   
   X161.019      Y230.663   
   X161.233      Y230.575   
   X161.462      Y230.545   
   X161.691      Y230.575   
   X161.905      Y230.663   
   X162.089      Y230.804   
   X162.229      Y230.988   
   X162.318      Y231.201   
   X162.362      Y231.535   
   Y240.137   
   X162.312      Y240.472   
   X162.223      Y240.686   
   X162.083      Y240.869   
   X161.899      Y241.010   
   X161.685      Y241.099   
   X161.456      Y241.129   
   X161.227      Y241.099   
   X161.013      Y241.010   
   X160.829      Y240.869   
   X160.688      Y240.686   
   X160.600      Y240.472   
   X160.556      Y240.138   
   Y231.536   
(Pass: 3)
   Z1.100     
   X160.606      Y231.201   
   X160.694      Y230.988   
   X160.835      Y230.804   
   X161.019      Y230.663   
   X161.233      Y230.575   
   X161.462      Y230.545   
   X161.691      Y230.575   
   X161.905      Y230.663   
   X162.089      Y230.804   
   X162.229      Y230.988   
   X162.318      Y231.201   
   X162.362      Y231.535   
   Y240.137   
   X162.312      Y240.472   
   X162.223      Y240.686   
   X162.083      Y240.869   
   X161.899      Y241.010   
   X161.685      Y241.099   
   X161.456      Y241.129   
   X161.227      Y241.099   
   X161.013      Y241.010   
   X160.829      Y240.869   
   X160.688      Y240.686   
   X160.600      Y240.472   
   X160.556      Y240.138   
   Y231.536   
(Pass: 4)
   Z0.400     
   X160.606      Y231.201   
   X160.694      Y230.988   
   X160.835      Y230.804   
   X161.019      Y230.663   
   X161.233      Y230.575   
   X161.462      Y230.545   
   X161.691      Y230.575   
   X161.905      Y230.663   
   X162.089      Y230.804   
   X162.229      Y230.988   
   X162.318      Y231.201   
   X162.362      Y231.535   
   Y240.137   
   X162.312      Y240.472   
   X162.223      Y240.686   
   X162.083      Y240.869   
   X161.899      Y241.010   
   X161.685      Y241.099   
   X161.456      Y241.129   
   X161.227      Y241.099   
   X161.013      Y241.010   
   X160.829      Y240.869   
   X160.688      Y240.686   
   X160.600      Y240.472   
   X160.556      Y240.138   
   Y231.536   
(Pass: 5)
   Z-0.300    
   X160.606      Y231.201   
   X160.694      Y230.988   
   X160.835      Y230.804   
   X161.019      Y230.663   
   X161.233      Y230.575   
   X161.462      Y230.545   
   X161.691      Y230.575   
   X161.905      Y230.663   
   X162.089      Y230.804   
   X162.229      Y230.988   
   X162.318      Y231.201   
   X162.362      Y231.535   
   Y240.137   
   X162.312      Y240.472   
   X162.223      Y240.686   
   X162.083      Y240.869   
   X161.899      Y241.010   
   X161.685      Y241.099   
   X161.456      Y241.129   
   X161.227      Y241.099   
   X161.013      Y241.010   
   X160.829      Y240.869   
   X160.688      Y240.686   
   X160.600      Y240.472   
   X160.556      Y240.138   
   Y231.536   
(Pass: 6)
   Z-0.800    
   X160.606      Y231.201   
   X160.694      Y230.988   
   X160.835      Y230.804   
   X161.019      Y230.663   
   X161.233      Y230.575   
   X161.462      Y230.545   
   X161.691      Y230.575   
   X161.905      Y230.663   
   X162.089      Y230.804   
   X162.229      Y230.988   
   X162.318      Y231.201   
   X162.362      Y231.535   
   Y240.137   
   X162.312      Y240.472   
   X162.223      Y240.686   
   X162.083      Y240.869   
   X161.899      Y241.010   
   X161.685      Y241.099   
   X161.456      Y241.129   
   X161.227      Y241.099   
   X161.013      Y241.010   
   X160.829      Y240.869   
   X160.688      Y240.686   
   X160.600      Y240.472   
   X160.556      Y240.138   
   Y231.536   
(BREAK pass 6)
G0   Z18.200    
(Pass: 1)
   X170.562   
G1   Z2.500      F200 
   X170.606      Y231.201   
   X170.694      Y230.988   
   X170.835      Y230.804   
   X171.019      Y230.663   
   X171.233      Y230.575   
   X171.462      Y230.545   
   X171.691      Y230.575   
   X171.905      Y230.663   
   X172.089      Y230.804   
   X172.229      Y230.988   
   X172.318      Y231.201   
   X172.362      Y231.535   
   Y240.137   
   X172.312      Y240.472   
   X172.223      Y240.686   
   X172.083      Y240.869   
   X171.899      Y241.010   
   X171.685      Y241.099   
   X171.456      Y241.129   
   X171.227      Y241.099   
   X171.013      Y241.010   
   X170.829      Y240.869   
   X170.688      Y240.686   
   X170.600      Y240.472   
   X170.556      Y240.138   
   Y231.536   
(Pass: 2)
   Z1.800     
   X170.606      Y231.201   
   X170.694      Y230.988   
   X170.835      Y230.804   
   X171.019      Y230.663   
   X171.233      Y230.575   
   X171.462      Y230.545   
   X171.691      Y230.575   
   X171.905      Y230.663   
   X172.089      Y230.804   
   X172.229      Y230.988   
   X172.318      Y231.201   
   X172.362      Y231.535   
   Y240.137   
   X172.312      Y240.472   
   X172.223      Y240.686   
   X172.083      Y240.869   
   X171.899      Y241.010   
   X171.685      Y241.099   
   X171.456      Y241.129   
   X171.227      Y241.099   
   X171.013      Y241.010   
   X170.829      Y240.869   
   X170.688      Y240.686   
   X170.600      Y240.472   
   X170.556      Y240.138   
   Y231.536   
(Pass: 3)
   Z1.100     
   X170.606      Y231.201   
   X170.694      Y230.988   
   X170.835      Y230.804   
   X171.019      Y230.663   
   X171.233      Y230.575   
   X171.462      Y230.545   
   X171.691      Y230.575   
   X171.905      Y230.663   
   X172.089      Y230.804   
   X172.229      Y230.988   
   X172.318      Y231.201   
   X172.362      Y231.535   
   Y240.137   
   X172.312      Y240.472   
   X172.223      Y240.686   
   X172.083      Y240.869   
   X171.899      Y241.010   
   X171.685      Y241.099   
   X171.456      Y241.129   
   X171.227      Y241.099   
   X171.013      Y241.010   
   X170.829      Y240.869   
   X170.688      Y240.686   
   X170.600      Y240.472   
   X170.556      Y240.138   
   Y231.536   
(Pass: 4)
   Z0.400     
   X170.606      Y231.201   
   X170.694      Y230.988   
   X170.835      Y230.804   
   X171.019      Y230.663   
   X171.233      Y230.575   
   X171.462      Y230.545   
   X171.691      Y230.575   
   X171.905      Y230.663   
   X172.089      Y230.804   
   X172.229      Y230.988   
   X172.318      Y231.201   
   X172.362      Y231.535   
   Y240.137   
   X172.312      Y240.472   
   X172.223      Y240.686   
   X172.083      Y240.869   
   X171.899      Y241.010   
   X171.685      Y241.099   
   X171.456      Y241.129   
   X171.227      Y241.099   
   X171.013      Y241.010   
   X170.829      Y240.869   
   X170.688      Y240.686   
   X170.600      Y240.472   
   X170.556      Y240.138   
   Y231.536   
(Pass: 5)
   Z-0.300    
   X170.606      Y231.201   
   X170.694      Y230.988   
   X170.835      Y230.804   
   X171.019      Y230.663   
   X171.233      Y230.575   
   X171.462      Y230.545   
   X171.691      Y230.575   
   X171.905      Y230.663   
   X172.089      Y230.804   
   X172.229      Y230.988   
   X172.318      Y231.201   
   X172.362      Y231.535   
   Y240.137   
   X172.312      Y240.472   
   X172.223      Y240.686   
   X172.083      Y240.869   
   X171.899      Y241.010   
   X171.685      Y241.099   
   X171.456      Y241.129   
   X171.227      Y241.099   
   X171.013      Y241.010   
   X170.829      Y240.869   
   X170.688      Y240.686   
   X170.600      Y240.472   
   X170.556      Y240.138   
   Y231.536   
(Pass: 6)
   Z-0.800    
   X170.606      Y231.201   
   X170.694      Y230.988   
   X170.835      Y230.804   
   X171.019      Y230.663   
   X171.233      Y230.575   
   X171.462      Y230.545   
   X171.691      Y230.575   
   X171.905      Y230.663   
   X172.089      Y230.804   
   X172.229      Y230.988   
   X172.318      Y231.201   
   X172.362      Y231.535   
   Y240.137   
   X172.312      Y240.472   
   X172.223      Y240.686   
   X172.083      Y240.869   
   X171.899      Y241.010   
   X171.685      Y241.099   
   X171.456      Y241.129   
   X171.227      Y241.099   
   X171.013      Y241.010   
   X170.829      Y240.869   
   X170.688      Y240.686   
   X170.600      Y240.472   
   X170.556      Y240.138   
   Y231.536   
(BREAK pass 6)
G0   Z18.200    
(Pass: 1)
   X180.571   
G1   Z2.500      F200 
   X180.616      Y231.201   
   X180.704      Y230.988   
   X180.845      Y230.804   
   X181.028      Y230.663   
   X181.242      Y230.575   
   X181.472      Y230.545   
   X181.701      Y230.575   
   X181.915      Y230.663   
   X182.098      Y230.804   
   X182.239      Y230.988   
   X182.328      Y231.201   
   X182.371      Y231.535   
   Y240.137   
   X182.322      Y240.472   
   X182.233      Y240.686   
   X182.092      Y240.869   
   X181.909      Y241.010   
   X181.695      Y241.099   
   X181.466      Y241.129   
   X181.236      Y241.099   
   X181.022      Y241.010   
   X180.839      Y240.869   
   X180.698      Y240.686   
   X180.610      Y240.472   
   X180.566      Y240.138   
   Y231.536   
(Pass: 2)
   Z1.800     
   X180.616      Y231.201   
   X180.704      Y230.988   
   X180.845      Y230.804   
   X181.028      Y230.663   
   X181.242      Y230.575   
   X181.472      Y230.545   
   X181.701      Y230.575   
   X181.915      Y230.663   
   X182.098      Y230.804   
   X182.239      Y230.988   
   X182.328      Y231.201   
   X182.371      Y231.535   
   Y240.137   
   X182.322      Y240.472   
   X182.233      Y240.686   
   X182.092      Y240.869   
   X181.909      Y241.010   
   X181.695      Y241.099   
   X181.466      Y241.129   
   X181.236      Y241.099   
   X181.022      Y241.010   
   X180.839      Y240.869   
   X180.698      Y240.686   
   X180.610      Y240.472   
   X180.566      Y240.138   
   Y231.536   
(Pass: 3)
   Z1.100     
   X180.616      Y231.201   
   X180.704      Y230.988   
   X180.845      Y230.804   
   X181.028      Y230.663   
   X181.242      Y230.575   
   X181.472      Y230.545   
   X181.701      Y230.575   
   X181.915      Y230.663   
   X182.098      Y230.804   
   X182.239      Y230.988   
   X182.328      Y231.201   
   X182.371      Y231.535   
   Y240.137   
   X182.322      Y240.472   
   X182.233      Y240.686   
   X182.092      Y240.869   
   X181.909      Y241.010   
   X181.695      Y241.099   
   X181.466      Y241.129   
   X181.236      Y241.099   
   X181.022      Y241.010   
   X180.839      Y240.869   
   X180.698      Y240.686   
   X180.610      Y240.472   
   X180.566      Y240.138   
   Y231.536   
(Pass: 4)
   Z0.400     
   X180.616      Y231.201   
   X180.704      Y230.988   
   X180.845      Y230.804   
   X181.028      Y230.663   
   X181.242      Y230.575   
   X181.472      Y230.545   
   X181.701      Y230.575   
   X181.915      Y230.663   
   X182.098      Y230.804   
   X182.239      Y230.988   
   X182.328      Y231.201   
   X182.371      Y231.535   
   Y240.137   
   X182.322      Y240.472   
   X182.233      Y240.686   
   X182.092      Y240.869   
   X181.909      Y241.010   
   X181.695      Y241.099   
   X181.466      Y241.129   
   X181.236      Y241.099   
   X181.022      Y241.010   
   X180.839      Y240.869   
   X180.698      Y240.686   
   X180.610      Y240.472   
   X180.566      Y240.138   
   Y231.536   
(Pass: 5)
   Z-0.300    
   X180.616      Y231.201   
   X180.704      Y230.988   
   X180.845      Y230.804   
   X181.028      Y230.663   
   X181.242      Y230.575   
   X181.472      Y230.545   
   X181.701      Y230.575   
   X181.915      Y230.663   
   X182.098      Y230.804   
   X182.239      Y230.988   
   X182.328      Y231.201   
   X182.371      Y231.535   
   Y240.137   
   X182.322      Y240.472   
   X182.233      Y240.686   
   X182.092      Y240.869   
   X181.909      Y241.010   
   X181.695      Y241.099   
   X181.466      Y241.129   
   X181.236      Y241.099   
   X181.022      Y241.010   
   X180.839      Y240.869   
   X180.698      Y240.686   
   X180.610      Y240.472   
   X180.566      Y240.138   
   Y231.536   
(Pass: 6)
   Z-0.800    
   X180.616      Y231.201   
   X180.704      Y230.988   
   X180.845      Y230.804   
   X181.028      Y230.663   
   X181.242      Y230.575   
   X181.472      Y230.545   
   X181.701      Y230.575   
   X181.915      Y230.663   
   X182.098      Y230.804   
   X182.239      Y230.988   
   X182.328      Y231.201   
   X182.371      Y231.535   
   Y240.137   
   X182.322      Y240.472   
   X182.233      Y240.686   
   X182.092      Y240.869   
   X181.909      Y241.010   
   X181.695      Y241.099   
   X181.466      Y241.129   
   X181.236      Y241.099   
   X181.022      Y241.010   
   X180.839      Y240.869   
   X180.698      Y240.686   
   X180.610      Y240.472   
   X180.566      Y240.138   
   Y231.536   
(BREAK pass 6)
G0   Z18.200    
(Pass: 1)
   X190.562   
G1   Z2.500      F200 
   X190.606      Y231.201   
   X190.694      Y230.988   
   X190.835      Y230.804   
   X191.019      Y230.663   
   X191.233      Y230.575   
   X191.462      Y230.545   
   X191.691      Y230.575   
   X191.905      Y230.663   
   X192.089      Y230.804   
   X192.229      Y230.988   
   X192.318      Y231.201   
   X192.362      Y231.535   
   Y240.137   
   X192.312      Y240.472   
   X192.223      Y240.686   
   X192.083      Y240.869   
   X191.899      Y241.010   
   X191.685      Y241.099   
   X191.456      Y241.129   
   X191.227      Y241.099   
   X191.013      Y241.010   
   X190.829      Y240.869   
   X190.688      Y240.686   
   X190.600      Y240.472   
   X190.556      Y240.138   
   Y231.536   
(Pass: 2)
   Z1.800     
   X190.606      Y231.201   
   X190.694      Y230.988   
   X190.835      Y230.804   
   X191.019      Y230.663   
   X191.233      Y230.575   
   X191.462      Y230.545   
   X191.691      Y230.575   
   X191.905      Y230.663   
   X192.089      Y230.804   
   X192.229      Y230.988   
   X192.318      Y231.201   
   X192.362      Y231.535   
   Y240.137   
   X192.312      Y240.472   
   X192.223      Y240.686   
   X192.083      Y240.869   
   X191.899      Y241.010   
   X191.685      Y241.099   
   X191.456      Y241.129   
   X191.227      Y241.099   
   X191.013      Y241.010   
   X190.829      Y240.869   
   X190.688      Y240.686   
   X190.600      Y240.472   
   X190.556      Y240.138   
   Y231.536   
(Pass: 3)
   Z1.100     
   X190.606      Y231.201   
   X190.694      Y230.988   
   X190.835      Y230.804   
   X191.019      Y230.663   
   X191.233      Y230.575   
   X191.462      Y230.545   
   X191.691      Y230.575   
   X191.905      Y230.663   
   X192.089      Y230.804   
   X192.229      Y230.988   
   X192.318      Y231.201   
   X192.362      Y231.535   
   Y240.137   
   X192.312      Y240.472   
   X192.223      Y240.686   
   X192.083      Y240.869   
   X191.899      Y241.010   
   X191.685      Y241.099   
   X191.456      Y241.129   
   X191.227      Y241.099   
   X191.013      Y241.010   
   X190.829      Y240.869   
   X190.688      Y240.686   
   X190.600      Y240.472   
   X190.556      Y240.138   
   Y231.536   
(Pass: 4)
   Z0.400     
   X190.606      Y231.201   
   X190.694      Y230.988   
   X190.835      Y230.804   
   X191.019      Y230.663   
   X191.233      Y230.575   
   X191.462      Y230.545   
   X191.691      Y230.575   
   X191.905      Y230.663   
   X192.089      Y230.804   
   X192.229      Y230.988   
   X192.318      Y231.201   
   X192.362      Y231.535   
   Y240.137   
   X192.312      Y240.472   
   X192.223      Y240.686   
   X192.083      Y240.869   
   X191.899      Y241.010   
   X191.685      Y241.099   
   X191.456      Y241.129   
   X191.227      Y241.099   
   X191.013      Y241.010   
   X190.829      Y240.869   
   X190.688      Y240.686   
   X190.600      Y240.472   
   X190.556      Y240.138   
   Y231.536   
(Pass: 5)
   Z-0.300    
   X190.606      Y231.201   
   X190.694      Y230.988   
   X190.835      Y230.804   
   X191.019      Y230.663   
   X191.233      Y230.575   
   X191.462      Y230.545   
   X191.691      Y230.575   
   X191.905      Y230.663   
   X192.089      Y230.804   
   X192.229      Y230.988   
   X192.318      Y231.201   
   X192.362      Y231.535   
   Y240.137   
   X192.312      Y240.472   
   X192.223      Y240.686   
   X192.083      Y240.869   
   X191.899      Y241.010   
   X191.685      Y241.099   
   X191.456      Y241.129   
   X191.227      Y241.099   
   X191.013      Y241.010   
   X190.829      Y240.869   
   X190.688      Y240.686   
   X190.600      Y240.472   
   X190.556      Y240.138   
   Y231.536   
(Pass: 6)
   Z-0.800    
   X190.606      Y231.201   
   X190.694      Y230.988   
   X190.835      Y230.804   
   X191.019      Y230.663   
   X191.233      Y230.575   
   X191.462      Y230.545   
   X191.691      Y230.575   
   X191.905      Y230.663   
   X192.089      Y230.804   
   X192.229      Y230.988   
   X192.318      Y231.201   
   X192.362      Y231.535   
   Y240.137   
   X192.312      Y240.472   
   X192.223      Y240.686   
   X192.083      Y240.869   
   X191.899      Y241.010   
   X191.685      Y241.099   
   X191.456      Y241.129   
   X191.227      Y241.099   
   X191.013      Y241.010   
   X190.829      Y240.869   
   X190.688      Y240.686   
   X190.600      Y240.472   
   X190.556      Y240.138   
   Y231.536   
(BREAK pass 6)
G0   Z18.200    
(Pass: 1)
   X200.562   
G1   Z2.500      F200 
   X200.606      Y231.201   
   X200.694      Y230.988   
   X200.835      Y230.804   
   X201.019      Y230.663   
   X201.233      Y230.575   
   X201.462      Y230.545   
   X201.691      Y230.575   
   X201.905      Y230.663   
   X202.089      Y230.804   
   X202.229      Y230.988   
   X202.318      Y231.201   
   X202.362      Y231.535   
   Y240.137   
   X202.312      Y240.472   
   X202.223      Y240.686   
   X202.083      Y240.869   
   X201.899      Y241.010   
   X201.685      Y241.099   
   X201.456      Y241.129   
   X201.227      Y241.099   
   X201.013      Y241.010   
   X200.829      Y240.869   
   X200.688      Y240.686   
   X200.600      Y240.472   
   X200.556      Y240.138   
   Y231.536   
(Pass: 2)
   Z1.800     
   X200.606      Y231.201   
   X200.694      Y230.988   
   X200.835      Y230.804   
   X201.019      Y230.663   
   X201.233      Y230.575   
   X201.462      Y230.545   
   X201.691      Y230.575   
   X201.905      Y230.663   
   X202.089      Y230.804   
   X202.229      Y230.988   
   X202.318      Y231.201   
   X202.362      Y231.535   
   Y240.137   
   X202.312      Y240.472   
   X202.223      Y240.686   
   X202.083      Y240.869   
   X201.899      Y241.010   
   X201.685      Y241.099   
   X201.456      Y241.129   
   X201.227      Y241.099   
   X201.013      Y241.010   
   X200.829      Y240.869   
   X200.688      Y240.686   
   X200.600      Y240.472   
   X200.556      Y240.138   
   Y231.536   
(Pass: 3)
   Z1.100     
   X200.606      Y231.201   
   X200.694      Y230.988   
   X200.835      Y230.804   
   X201.019      Y230.663   
   X201.233      Y230.575   
   X201.462      Y230.545   
   X201.691      Y230.575   
   X201.905      Y230.663   
   X202.089      Y230.804   
   X202.229      Y230.988   
   X202.318      Y231.201   
   X202.362      Y231.535   
   Y240.137   
   X202.312      Y240.472   
   X202.223      Y240.686   
   X202.083      Y240.869   
   X201.899      Y241.010   
   X201.685      Y241.099   
   X201.456      Y241.129   
   X201.227      Y241.099   
   X201.013      Y241.010   
   X200.829      Y240.869   
   X200.688      Y240.686   
   X200.600      Y240.472   
   X200.556      Y240.138   
   Y231.536   
(Pass: 4)
   Z0.400     
   X200.606      Y231.201   
   X200.694      Y230.988   
   X200.835      Y230.804   
   X201.019      Y230.663   
   X201.233      Y230.575   
   X201.462      Y230.545   
   X201.691      Y230.575   
   X201.905      Y230.663   
   X202.089      Y230.804   
   X202.229      Y230.988   
   X202.318      Y231.201   
   X202.362      Y231.535   
   Y240.137   
   X202.312      Y240.472   
   X202.223      Y240.686   
   X202.083      Y240.869   
   X201.899      Y241.010   
   X201.685      Y241.099   
   X201.456      Y241.129   
   X201.227      Y241.099   
   X201.013      Y241.010   
   X200.829      Y240.869   
   X200.688      Y240.686   
   X200.600      Y240.472   
   X200.556      Y240.138   
   Y231.536   
(Pass: 5)
   Z-0.300    
   X200.606      Y231.201   
   X200.694      Y230.988   
   X200.835      Y230.804   
   X201.019      Y230.663   
   X201.233      Y230.575   
   X201.462      Y230.545   
   X201.691      Y230.575   
   X201.905      Y230.663   
   X202.089      Y230.804   
   X202.229      Y230.988   
   X202.318      Y231.201   
   X202.362      Y231.535   
   Y240.137   
   X202.312      Y240.472   
   X202.223      Y240.686   
   X202.083      Y240.869   
   X201.899      Y241.010   
   X201.685      Y241.099   
   X201.456      Y241.129   
   X201.227      Y241.099   
   X201.013      Y241.010   
   X200.829      Y240.869   
   X200.688      Y240.686   
   X200.600      Y240.472   
   X200.556      Y240.138   
   Y231.536   
(Pass: 6)
   Z-0.800    
   X200.606      Y231.201   
   X200.694      Y230.988   
   X200.835      Y230.804   
   X201.019      Y230.663   
   X201.233      Y230.575   
   X201.462      Y230.545   
   X201.691      Y230.575   
   X201.905      Y230.663   
   X202.089      Y230.804   
   X202.229      Y230.988   
   X202.318      Y231.201   
   X202.362      Y231.535   
   Y240.137   
   X202.312      Y240.472   
   X202.223      Y240.686   
   X202.083      Y240.869   
   X201.899      Y241.010   
   X201.685      Y241.099   
   X201.456      Y241.129   
   X201.227      Y241.099   
   X201.013      Y241.010   
   X200.829      Y240.869   
   X200.688      Y240.686   
   X200.600      Y240.472   
   X200.556      Y240.138   
   Y231.536   
(BREAK pass 6)
G0   Z18.200    
(Pass: 1)
   X210.562   
G1   Z2.500      F200 
   X210.606      Y231.201   
   X210.694      Y230.988   
   X210.835      Y230.804   
   X211.019      Y230.663   
   X211.233      Y230.575   
   X211.462      Y230.545   
   X211.691      Y230.575   
   X211.905      Y230.663   
   X212.089      Y230.804   
   X212.229      Y230.988   
   X212.318      Y231.201   
   X212.362      Y231.535   
   Y240.137   
   X212.312      Y240.472   
   X212.223      Y240.686   
   X212.083      Y240.869   
   X211.899      Y241.010   
   X211.685      Y241.099   
   X211.456      Y241.129   
   X211.227      Y241.099   
   X211.013      Y241.010   
   X210.829      Y240.869   
   X210.688      Y240.686   
   X210.600      Y240.472   
   X210.556      Y240.138   
   Y231.536   
(Pass: 2)
   Z1.800     
   X210.606      Y231.201   
   X210.694      Y230.988   
   X210.835      Y230.804   
   X211.019      Y230.663   
   X211.233      Y230.575   
   X211.462      Y230.545   
   X211.691      Y230.575   
   X211.905      Y230.663   
   X212.089      Y230.804   
   X212.229      Y230.988   
   X212.318      Y231.201   
   X212.362      Y231.535   
   Y240.137   
   X212.312      Y240.472   
   X212.223      Y240.686   
   X212.083      Y240.869   
   X211.899      Y241.010   
   X211.685      Y241.099   
   X211.456      Y241.129   
   X211.227      Y241.099   
   X211.013      Y241.010   
   X210.829      Y240.869   
   X210.688      Y240.686   
   X210.600      Y240.472   
   X210.556      Y240.138   
   Y231.536   
(Pass: 3)
   Z1.100     
   X210.606      Y231.201   
   X210.694      Y230.988   
   X210.835      Y230.804   
   X211.019      Y230.663   
   X211.233      Y230.575   
   X211.462      Y230.545   
   X211.691      Y230.575   
   X211.905      Y230.663   
   X212.089      Y230.804   
   X212.229      Y230.988   
   X212.318      Y231.201   
   X212.362      Y231.535   
   Y240.137   
   X212.312      Y240.472   
   X212.223      Y240.686   
   X212.083      Y240.869   
   X211.899      Y241.010   
   X211.685      Y241.099   
   X211.456      Y241.129   
   X211.227      Y241.099   
   X211.013      Y241.010   
   X210.829      Y240.869   
   X210.688      Y240.686   
   X210.600      Y240.472   
   X210.556      Y240.138   
   Y231.536   
(Pass: 4)
   Z0.400     
   X210.606      Y231.201   
   X210.694      Y230.988   
   X210.835      Y230.804   
   X211.019      Y230.663   
   X211.233      Y230.575   
   X211.462      Y230.545   
   X211.691      Y230.575   
   X211.905      Y230.663   
   X212.089      Y230.804   
   X212.229      Y230.988   
   X212.318      Y231.201   
   X212.362      Y231.535   
   Y240.137   
   X212.312      Y240.472   
   X212.223      Y240.686   
   X212.083      Y240.869   
   X211.899      Y241.010   
   X211.685      Y241.099   
   X211.456      Y241.129   
   X211.227      Y241.099   
   X211.013      Y241.010   
   X210.829      Y240.869   
   X210.688      Y240.686   
   X210.600      Y240.472   
   X210.556      Y240.138   
   Y231.536   
(Pass: 5)
   Z-0.300    
   X210.606      Y231.201   
   X210.694      Y230.988   
   X210.835      Y230.804   
   X211.019      Y230.663   
   X211.233      Y230.575   
   X211.462      Y230.545   
   X211.691      Y230.575   
   X211.905      Y230.663   
   X212.089      Y230.804   
   X212.229      Y230.988   
   X212.318      Y231.201   
   X212.362      Y231.535   
   Y240.137   
   X212.312      Y240.472   
   X212.223      Y240.686   
   X212.083      Y240.869   
   X211.899      Y241.010   
   X211.685      Y241.099   
   X211.456      Y241.129   
   X211.227      Y241.099   
   X211.013      Y241.010   
   X210.829      Y240.869   
   X210.688      Y240.686   
   X210.600      Y240.472   
   X210.556      Y240.138   
   Y231.536   
(Pass: 6)
   Z-0.800    
   X210.606      Y231.201   
   X210.694      Y230.988   
   X210.835      Y230.804   
   X211.019      Y230.663   
   X211.233      Y230.575   
   X211.462      Y230.545   
   X211.691      Y230.575   
   X211.905      Y230.663   
   X212.089      Y230.804   
   X212.229      Y230.988   
   X212.318      Y231.201   
   X212.362      Y231.535   
   Y240.137   
   X212.312      Y240.472   
   X212.223      Y240.686   
   X212.083      Y240.869   
   X211.899      Y241.010   
   X211.685      Y241.099   
   X211.456      Y241.129   
   X211.227      Y241.099   
   X211.013      Y241.010   
   X210.829      Y240.869   
   X210.688      Y240.686   
   X210.600      Y240.472   
   X210.556      Y240.138   
   Y231.536   
(BREAK pass 6)
G0   Z18.200    
(Pass: 1)
   X214.586      Y255.348   
G1   Z2.500      F200 
   X214.826      Y255.316   
   X215.066      Y255.348   
   X215.289      Y255.441   
   X215.481      Y255.588   
   X215.628      Y255.780   
   X215.721      Y256.003   
   X215.752      Y256.243   
   X215.721      Y256.482   
   X215.628      Y256.706   
   X215.481      Y256.898   
   X215.289      Y257.045   
   X215.066      Y257.137   
   X214.826      Y257.169   
   X214.586      Y257.137   
   X214.363      Y257.045   
   X214.171      Y256.898   
   X214.024      Y256.706   
   X213.931      Y256.482   
   X213.900      Y256.243   
   X213.931      Y256.003   
   X214.024      Y255.780   
   X214.171      Y255.588   
   X214.363      Y255.441   
   X214.586      Y255.348   
(Pass: 2)
   Z1.800     
   X214.826      Y255.316   
   X215.066      Y255.348   
   X215.289      Y255.441   
   X215.481      Y255.588   
   X215.628      Y255.780   
   X215.721      Y256.003   
   X215.752      Y256.243   
   X215.721      Y256.482   
   X215.628      Y256.706   
   X215.481      Y256.898   
   X215.289      Y257.045   
   X215.066      Y257.137   
   X214.826      Y257.169   
   X214.586      Y257.137   
   X214.363      Y257.045   
   X214.171      Y256.898   
   X214.024      Y256.706   
   X213.931      Y256.482   
   X213.900      Y256.243   
   X213.931      Y256.003   
   X214.024      Y255.780   
   X214.171      Y255.588   
   X214.363      Y255.441   
   X214.586      Y255.348   
(Pass: 3)
   Z1.100     
   X214.826      Y255.316   
   X215.066      Y255.348   
   X215.289      Y255.441   
   X215.481      Y255.588   
   X215.628      Y255.780   
   X215.721      Y256.003   
   X215.752      Y256.243   
   X215.721      Y256.482   
   X215.628      Y256.706   
   X215.481      Y256.898   
   X215.289      Y257.045   
   X215.066      Y257.137   
   X214.826      Y257.169   
   X214.586      Y257.137   
   X214.363      Y257.045   
   X214.171      Y256.898   
   X214.024      Y256.706   
   X213.931      Y256.482   
   X213.900      Y256.243   
   X213.931      Y256.003   
   X214.024      Y255.780   
   X214.171      Y255.588   
   X214.363      Y255.441   
   X214.586      Y255.348   
(Pass: 4)
   Z0.400     
   X214.826      Y255.316   
   X215.066      Y255.348   
   X215.289      Y255.441   
   X215.481      Y255.588   
   X215.628      Y255.780   
   X215.721      Y256.003   
   X215.752      Y256.243   
   X215.721      Y256.482   
   X215.628      Y256.706   
   X215.481      Y256.898   
   X215.289      Y257.045   
   X215.066      Y257.137   
   X214.826      Y257.169   
   X214.586      Y257.137   
   X214.363      Y257.045   
   X214.171      Y256.898   
   X214.024      Y256.706   
   X213.931      Y256.482   
   X213.900      Y256.243   
   X213.931      Y256.003   
   X214.024      Y255.780   
   X214.171      Y255.588   
   X214.363      Y255.441   
   X214.586      Y255.348   
(Pass: 5)
   Z-0.300    
   X214.826      Y255.316   
   X215.066      Y255.348   
   X215.289      Y255.441   
   X215.481      Y255.588   
   X215.628      Y255.780   
   X215.721      Y256.003   
   X215.752      Y256.243   
   X215.721      Y256.482   
   X215.628      Y256.706   
   X215.481      Y256.898   
   X215.289      Y257.045   
   X215.066      Y257.137   
   X214.826      Y257.169   
   X214.586      Y257.137   
   X214.363      Y257.045   
   X214.171      Y256.898   
   X214.024      Y256.706   
   X213.931      Y256.482   
   X213.900      Y256.243   
   X213.931      Y256.003   
   X214.024      Y255.780   
   X214.171      Y255.588   
   X214.363      Y255.441   
   X214.586      Y255.348   
(Pass: 6)
   Z-0.800    
   X214.826      Y255.316   
   X215.066      Y255.348   
   X215.289      Y255.441   
   X215.481      Y255.588   
   X215.628      Y255.780   
   X215.721      Y256.003   
   X215.752      Y256.243   
   X215.721      Y256.482   
   X215.628      Y256.706   
   X215.481      Y256.898   
   X215.289      Y257.045   
   X215.066      Y257.137   
   X214.826      Y257.169   
   X214.586      Y257.137   
   X214.363      Y257.045   
   X214.171      Y256.898   
   X214.024      Y256.706   
   X213.931      Y256.482   
   X213.900      Y256.243   
   X213.931      Y256.003   
   X214.024      Y255.780   
   X214.171      Y255.588   
   X214.363      Y255.441   
   X214.586      Y255.348   
(BREAK pass 6)
G0   Z18.200    
(Pass: 1)
   X183.856      Y255.854   
G1   Z2.500      F200 
G17 G2   X183.8689     Y256.4768     R2.4000    
   X183.7201     Y257.0817     R2.4000    
   X183.4199     Y257.6275     R2.4000    
   X182.9887     Y258.0770     R2.4000    
   X182.4558     Y258.3995     R2.4000    
   X181.8575     Y258.5732     R2.4000    
   X181.1741     Y258.5873     R2.4000    
   X180.6446     Y258.4455     R2.4000    
   X180.0840     Y258.1371     R2.4000    
   X179.6345     Y257.7059     R2.4000    
   X179.3120     Y257.1730     R2.4000    
   X179.1383     Y256.5748     R2.4000    
   X179.1254     Y255.9520     R2.4000    
   X179.2741     Y255.3471     R2.4000    
   X179.5744     Y254.8013     R2.4000    
   X180.0056     Y254.3518     R2.4000    
   X180.5385     Y254.0292     R2.4000    
   X181.1367     Y253.8555     R2.4000    
   X181.7595     Y253.8426     R2.4000    
   X182.3644     Y253.9914     R2.4000    
   X182.9102     Y254.2916     R2.4000    
   X183.3597     Y254.7228     R2.4000    
   X183.6823     Y255.2557     R2.4000    
   X183.8560     Y255.8540     R2.4000    
(Pass: 2)
G1   Z1.800     
G17 G2   X183.8689     Y256.4768     R2.4000    
   X183.7201     Y257.0817     R2.4000    
   X183.4199     Y257.6275     R2.4000    
   X182.9887     Y258.0770     R2.4000    
   X182.4558     Y258.3995     R2.4000    
   X181.8575     Y258.5732     R2.4000    
   X181.1741     Y258.5873     R2.4000    
   X180.6446     Y258.4455     R2.4000    
   X180.0840     Y258.1371     R2.4000    
   X179.6345     Y257.7059     R2.4000    
   X179.3120     Y257.1730     R2.4000    
   X179.1383     Y256.5748     R2.4000    
   X179.1254     Y255.9520     R2.4000    
   X179.2741     Y255.3471     R2.4000    
   X179.5744     Y254.8013     R2.4000    
   X180.0056     Y254.3518     R2.4000    
   X180.5385     Y254.0292     R2.4000    
   X181.1367     Y253.8555     R2.4000    
   X181.7595     Y253.8426     R2.4000    
   X182.3644     Y253.9914     R2.4000    
   X182.9102     Y254.2916     R2.4000    
   X183.3597     Y254.7228     R2.4000    
   X183.6823     Y255.2557     R2.4000    
   X183.8560     Y255.8540     R2.4000    
(Pass: 3)
G1   Z1.100     
G17 G2   X183.8689     Y256.4768     R2.4000    
   X183.7201     Y257.0817     R2.4000    
   X183.4199     Y257.6275     R2.4000    
   X182.9887     Y258.0770     R2.4000    
   X182.4558     Y258.3995     R2.4000    
   X181.8575     Y258.5732     R2.4000    
   X181.1741     Y258.5873     R2.4000    
   X180.6446     Y258.4455     R2.4000    
   X180.0840     Y258.1371     R2.4000    
   X179.6345     Y257.7059     R2.4000    
   X179.3120     Y257.1730     R2.4000    
   X179.1383     Y256.5748     R2.4000    
   X179.1254     Y255.9520     R2.4000    
   X179.2741     Y255.3471     R2.4000    
   X179.5744     Y254.8013     R2.4000    
   X180.0056     Y254.3518     R2.4000    
   X180.5385     Y254.0292     R2.4000    
   X181.1367     Y253.8555     R2.4000    
   X181.7595     Y253.8426     R2.4000    
   X182.3644     Y253.9914     R2.4000    
   X182.9102     Y254.2916     R2.4000    
   X183.3597     Y254.7228     R2.4000    
   X183.6823     Y255.2557     R2.4000    
   X183.8560     Y255.8540     R2.4000    
(Pass: 4)
G1   Z0.400     
G17 G2   X183.8689     Y256.4768     R2.4000    
   X183.7201     Y257.0817     R2.4000    
   X183.4199     Y257.6275     R2.4000    
   X182.9887     Y258.0770     R2.4000    
   X182.4558     Y258.3995     R2.4000    
   X181.8575     Y258.5732     R2.4000    
   X181.1741     Y258.5873     R2.4000    
   X180.6446     Y258.4455     R2.4000    
   X180.0840     Y258.1371     R2.4000    
   X179.6345     Y257.7059     R2.4000    
   X179.3120     Y257.1730     R2.4000    
   X179.1383     Y256.5748     R2.4000    
   X179.1254     Y255.9520     R2.4000    
   X179.2741     Y255.3471     R2.4000    
   X179.5744     Y254.8013     R2.4000    
   X180.0056     Y254.3518     R2.4000    
   X180.5385     Y254.0292     R2.4000    
   X181.1367     Y253.8555     R2.4000    
   X181.7595     Y253.8426     R2.4000    
   X182.3644     Y253.9914     R2.4000    
   X182.9102     Y254.2916     R2.4000    
   X183.3597     Y254.7228     R2.4000    
   X183.6823     Y255.2557     R2.4000    
   X183.8560     Y255.8540     R2.4000    
(Pass: 5)
G1   Z-0.300    
G17 G2   X183.8689     Y256.4768     R2.4000    
   X183.7201     Y257.0817     R2.4000    
   X183.4199     Y257.6275     R2.4000    
   X182.9887     Y258.0770     R2.4000    
   X182.4558     Y258.3995     R2.4000    
   X181.8575     Y258.5732     R2.4000    
   X181.1741     Y258.5873     R2.4000    
   X180.6446     Y258.4455     R2.4000    
   X180.0840     Y258.1371     R2.4000    
   X179.6345     Y257.7059     R2.4000    
   X179.3120     Y257.1730     R2.4000    
   X179.1383     Y256.5748     R2.4000    
   X179.1254     Y255.9520     R2.4000    
   X179.2741     Y255.3471     R2.4000    
   X179.5744     Y254.8013     R2.4000    
   X180.0056     Y254.3518     R2.4000    
   X180.5385     Y254.0292     R2.4000    
   X181.1367     Y253.8555     R2.4000    
   X181.7595     Y253.8426     R2.4000    
   X182.3644     Y253.9914     R2.4000    
   X182.9102     Y254.2916     R2.4000    
   X183.3597     Y254.7228     R2.4000    
   X183.6823     Y255.2557     R2.4000    
   X183.8560     Y255.8540     R2.4000    
(Pass: 6)
G1   Z-0.800    
G17 G2   X183.8689     Y256.4768     R2.4000    
   X183.7201     Y257.0817     R2.4000    
   X183.4199     Y257.6275     R2.4000    
   X182.9887     Y258.0770     R2.4000    
   X182.4558     Y258.3995     R2.4000    
   X181.8575     Y258.5732     R2.4000    
   X181.1741     Y258.5873     R2.4000    
   X180.6446     Y258.4455     R2.4000    
   X180.0840     Y258.1371     R2.4000    
   X179.6345     Y257.7059     R2.4000    
   X179.3120     Y257.1730     R2.4000    
   X179.1383     Y256.5748     R2.4000    
   X179.1254     Y255.9520     R2.4000    
   X179.2741     Y255.3471     R2.4000    
   X179.5744     Y254.8013     R2.4000    
   X180.0056     Y254.3518     R2.4000    
   X180.5385     Y254.0292     R2.4000    
   X181.1367     Y253.8555     R2.4000    
   X181.7595     Y253.8426     R2.4000    
   X182.3644     Y253.9914     R2.4000    
   X182.9102     Y254.2916     R2.4000    
   X183.3597     Y254.7228     R2.4000    
   X183.6823     Y255.2557     R2.4000    
   X183.8560     Y255.8540     R2.4000    
(BREAK pass 6)
G0   Z18.200    
(Pass: 1)
   X149.083      Y256.243   
G1   Z2.500      F200 
   X149.051      Y256.482   
   X148.959      Y256.706   
   X148.811      Y256.898   
   X148.620      Y257.045   
   X148.396      Y257.137   
   X148.156      Y257.169   
   X147.917      Y257.137   
   X147.693      Y257.045   
   X147.502      Y256.898   
   X147.354      Y256.706   
   X147.262      Y256.482   
   X147.230      Y256.243   
   X147.262      Y256.003   
   X147.354      Y255.780   
   X147.502      Y255.588   
   X147.693      Y255.441   
   X147.917      Y255.348   
   X148.156      Y255.316   
   X148.396      Y255.348   
   X148.620      Y255.441   
   X148.811      Y255.588   
   X148.959      Y255.780   
   X149.051      Y256.003   
   X149.083      Y256.243   
(Pass: 2)
   Z1.800     
   X149.051      Y256.482   
   X148.959      Y256.706   
   X148.811      Y256.898   
   X148.620      Y257.045   
   X148.396      Y257.137   
   X148.156      Y257.169   
   X147.917      Y257.137   
   X147.693      Y257.045   
   X147.502      Y256.898   
   X147.354      Y256.706   
   X147.262      Y256.482   
   X147.230      Y256.243   
   X147.262      Y256.003   
   X147.354      Y255.780   
   X147.502      Y255.588   
   X147.693      Y255.441   
   X147.917      Y255.348   
   X148.156      Y255.316   
   X148.396      Y255.348   
   X148.620      Y255.441   
   X148.811      Y255.588   
   X148.959      Y255.780   
   X149.051      Y256.003   
   X149.083      Y256.243   
(Pass: 3)
   Z1.100     
   X149.051      Y256.482   
   X148.959      Y256.706   
   X148.811      Y256.898   
   X148.620      Y257.045   
   X148.396      Y257.137   
   X148.156      Y257.169   
   X147.917      Y257.137   
   X147.693      Y257.045   
   X147.502      Y256.898   
   X147.354      Y256.706   
   X147.262      Y256.482   
   X147.230      Y256.243   
   X147.262      Y256.003   
   X147.354      Y255.780   
   X147.502      Y255.588   
   X147.693      Y255.441   
   X147.917      Y255.348   
   X148.156      Y255.316   
   X148.396      Y255.348   
   X148.620      Y255.441   
   X148.811      Y255.588   
   X148.959      Y255.780   
   X149.051      Y256.003   
   X149.083      Y256.243   
(Pass: 4)
   Z0.400     
   X149.051      Y256.482   
   X148.959      Y256.706   
   X148.811      Y256.898   
   X148.620      Y257.045   
   X148.396      Y257.137   
   X148.156      Y257.169   
   X147.917      Y257.137   
   X147.693      Y257.045   
   X147.502      Y256.898   
   X147.354      Y256.706   
   X147.262      Y256.482   
   X147.230      Y256.243   
   X147.262      Y256.003   
   X147.354      Y255.780   
   X147.502      Y255.588   
   X147.693      Y255.441   
   X147.917      Y255.348   
   X148.156      Y255.316   
   X148.396      Y255.348   
   X148.620      Y255.441   
   X148.811      Y255.588   
   X148.959      Y255.780   
   X149.051      Y256.003   
   X149.083      Y256.243   
(Pass: 5)
   Z-0.300    
   X149.051      Y256.482   
   X148.959      Y256.706   
   X148.811      Y256.898   
   X148.620      Y257.045   
   X148.396      Y257.137   
   X148.156      Y257.169   
   X147.917      Y257.137   
   X147.693      Y257.045   
   X147.502      Y256.898   
   X147.354      Y256.706   
   X147.262      Y256.482   
   X147.230      Y256.243   
   X147.262      Y256.003   
   X147.354      Y255.780   
   X147.502      Y255.588   
   X147.693      Y255.441   
   X147.917      Y255.348   
   X148.156      Y255.316   
   X148.396      Y255.348   
   X148.620      Y255.441   
   X148.811      Y255.588   
   X148.959      Y255.780   
   X149.051      Y256.003   
   X149.083      Y256.243   
(Pass: 6)
   Z-0.800    
   X149.051      Y256.482   
   X148.959      Y256.706   
   X148.811      Y256.898   
   X148.620      Y257.045   
   X148.396      Y257.137   
   X148.156      Y257.169   
   X147.917      Y257.137   
   X147.693      Y257.045   
   X147.502      Y256.898   
   X147.354      Y256.706   
   X147.262      Y256.482   
   X147.230      Y256.243   
   X147.262      Y256.003   
   X147.354      Y255.780   
   X147.502      Y255.588   
   X147.693      Y255.441   
   X147.917      Y255.348   
   X148.156      Y255.316   
   X148.396      Y255.348   
   X148.620      Y255.441   
   X148.811      Y255.588   
   X148.959      Y255.780   
   X149.051      Y256.003   
   X149.083      Y256.243   
(BREAK pass 6)
G0   Z18.200    
(Pass: 1)
   X180.836      Y288.922   
G1   Z2.500      F200 
   X181.028      Y288.775   
   X181.251      Y288.683   
   X181.491      Y288.651   
   X181.731      Y288.683   
   X181.954      Y288.775   
   X182.146      Y288.922   
   X182.293      Y289.114   
   X182.386      Y289.338   
   X182.417      Y289.577   
   X182.386      Y289.817   
   X182.293      Y290.040   
   X182.146      Y290.232   
   X181.954      Y290.379   
   X181.731      Y290.472   
   X181.491      Y290.504   
   X181.251      Y290.472   
   X181.028      Y290.379   
   X180.836      Y290.232   
   X180.689      Y290.040   
   X180.597      Y289.817   
   X180.565      Y289.577   
   X180.597      Y289.338   
   X180.689      Y289.114   
   X180.836      Y288.922   
(Pass: 2)
   Z1.800     
   X181.028      Y288.775   
   X181.251      Y288.683   
   X181.491      Y288.651   
   X181.731      Y288.683   
   X181.954      Y288.775   
   X182.146      Y288.922   
   X182.293      Y289.114   
   X182.386      Y289.338   
   X182.417      Y289.577   
   X182.386      Y289.817   
   X182.293      Y290.040   
   X182.146      Y290.232   
   X181.954      Y290.379   
   X181.731      Y290.472   
   X181.491      Y290.504   
   X181.251      Y290.472   
   X181.028      Y290.379   
   X180.836      Y290.232   
   X180.689      Y290.040   
   X180.597      Y289.817   
   X180.565      Y289.577   
   X180.597      Y289.338   
   X180.689      Y289.114   
   X180.836      Y288.922   
(Pass: 3)
   Z1.100     
   X181.028      Y288.775   
   X181.251      Y288.683   
   X181.491      Y288.651   
   X181.731      Y288.683   
   X181.954      Y288.775   
   X182.146      Y288.922   
   X182.293      Y289.114   
   X182.386      Y289.338   
   X182.417      Y289.577   
   X182.386      Y289.817   
   X182.293      Y290.040   
   X182.146      Y290.232   
   X181.954      Y290.379   
   X181.731      Y290.472   
   X181.491      Y290.504   
   X181.251      Y290.472   
   X181.028      Y290.379   
   X180.836      Y290.232   
   X180.689      Y290.040   
   X180.597      Y289.817   
   X180.565      Y289.577   
   X180.597      Y289.338   
   X180.689      Y289.114   
   X180.836      Y288.922   
(Pass: 4)
   Z0.400     
   X181.028      Y288.775   
   X181.251      Y288.683   
   X181.491      Y288.651   
   X181.731      Y288.683   
   X181.954      Y288.775   
   X182.146      Y288.922   
   X182.293      Y289.114   
   X182.386      Y289.338   
   X182.417      Y289.577   
   X182.386      Y289.817   
   X182.293      Y290.040   
   X182.146      Y290.232   
   X181.954      Y290.379   
   X181.731      Y290.472   
   X181.491      Y290.504   
   X181.251      Y290.472   
   X181.028      Y290.379   
   X180.836      Y290.232   
   X180.689      Y290.040   
   X180.597      Y289.817   
   X180.565      Y289.577   
   X180.597      Y289.338   
   X180.689      Y289.114   
   X180.836      Y288.922   
(Pass: 5)
   Z-0.300    
   X181.028      Y288.775   
   X181.251      Y288.683   
   X181.491      Y288.651   
   X181.731      Y288.683   
   X181.954      Y288.775   
   X182.146      Y288.922   
   X182.293      Y289.114   
   X182.386      Y289.338   
   X182.417      Y289.577   
   X182.386      Y289.817   
   X182.293      Y290.040   
   X182.146      Y290.232   
   X181.954      Y290.379   
   X181.731      Y290.472   
   X181.491      Y290.504   
   X181.251      Y290.472   
   X181.028      Y290.379   
   X180.836      Y290.232   
   X180.689      Y290.040   
   X180.597      Y289.817   
   X180.565      Y289.577   
   X180.597      Y289.338   
   X180.689      Y289.114   
   X180.836      Y288.922   
(Pass: 6)
   Z-0.800    
   X181.028      Y288.775   
   X181.251      Y288.683   
   X181.491      Y288.651   
   X181.731      Y288.683   
   X181.954      Y288.775   
   X182.146      Y288.922   
   X182.293      Y289.114   
   X182.386      Y289.338   
   X182.417      Y289.577   
   X182.386      Y289.817   
   X182.293      Y290.040   
   X182.146      Y290.232   
   X181.954      Y290.379   
   X181.731      Y290.472   
   X181.491      Y290.504   
   X181.251      Y290.472   
   X181.028      Y290.379   
   X180.836      Y290.232   
   X180.689      Y290.040   
   X180.597      Y289.817   
   X180.565      Y289.577   
   X180.597      Y289.338   
   X180.689      Y289.114   
   X180.836      Y288.922   
(BREAK pass 6)
G0   Z18.200    
(Pass: 1)
   X167.225      Y297.877   
G1   Z2.500      F200 
   X195.743   
   X196.595      Y297.793   
   X198.145      Y297.485   
   X199.641      Y296.977   
   X200.421      Y296.624   
   X201.790      Y295.834   
   X203.068      Y294.852   
   X220.908      Y276.771   
   X221.610      Y275.856   
   X222.189      Y274.853   
   X222.632      Y273.782   
   X222.932      Y272.663   
   X223.083      Y271.515   
   Y228.762   
   X223.030      Y227.952   
   X222.862      Y227.105   
   X222.584      Y226.287   
   X222.202      Y225.513   
   X221.722      Y224.794   
   X221.152      Y224.145   
   X220.503      Y223.576   
   X219.785      Y223.096   
   X219.010      Y222.714   
   X218.192      Y222.436   
   X217.345      Y222.267   
   X216.535      Y222.214   
   X146.445   
   X145.635      Y222.267   
   X144.788      Y222.436   
   X143.970      Y222.714   
   X143.195      Y223.096   
   X142.477      Y223.576   
   X141.828      Y224.145   
   X141.258      Y224.794   
   X140.778      Y225.513   
   X140.396      Y226.287   
   X140.119      Y227.105   
   X139.950      Y227.952   
   X139.897      Y228.762   
   Y271.515   
   X140.048      Y272.663   
   X140.348      Y273.782   
   X140.792      Y274.853   
   X141.371      Y275.856   
   X142.073      Y276.771   
   X159.926      Y294.853   
   X161.205      Y295.834   
   X162.596      Y296.637   
   X164.080      Y297.252   
   X165.632      Y297.668   
   X167.225      Y297.877   
(Pass: 2)
   Z1.800     
   X195.743   
   X196.595      Y297.793   
   X198.145      Y297.485   
   X199.641      Y296.977   
   X200.421      Y296.624   
   X201.790      Y295.834   
   X203.068      Y294.852   
   X220.908      Y276.771   
   X221.610      Y275.856   
   X222.189      Y274.853   
   X222.632      Y273.782   
   X222.932      Y272.663   
   X223.083      Y271.515   
   Y228.762   
   X223.030      Y227.952   
   X222.862      Y227.105   
   X222.584      Y226.287   
   X222.202      Y225.513   
   X221.722      Y224.794   
   X221.152      Y224.145   
   X220.503      Y223.576   
   X219.785      Y223.096   
   X219.010      Y222.714   
   X218.192      Y222.436   
   X217.345      Y222.267   
   X216.535      Y222.214   
   X146.445   
   X145.635      Y222.267   
   X144.788      Y222.436   
   X143.970      Y222.714   
   X143.195      Y223.096   
   X142.477      Y223.576   
   X141.828      Y224.145   
   X141.258      Y224.794   
   X140.778      Y225.513   
   X140.396      Y226.287   
   X140.119      Y227.105   
   X139.950      Y227.952   
   X139.897      Y228.762   
   Y271.515   
   X140.048      Y272.663   
   X140.348      Y273.782   
   X140.792      Y274.853   
   X141.371      Y275.856   
   X142.073      Y276.771   
   X159.926      Y294.853   
   X161.205      Y295.834   
   X162.596      Y296.637   
   X164.080      Y297.252   
   X165.632      Y297.668   
   X167.225      Y297.877   
(Pass: 3)
   Z1.100     
   X195.743   
   X196.595      Y297.793   
   X198.145      Y297.485   
   X199.641      Y296.977   
   X200.421      Y296.624   
   X201.790      Y295.834   
   X203.068      Y294.852   
   X220.908      Y276.771   
   X221.610      Y275.856   
   X222.189      Y274.853   
   X222.632      Y273.782   
   X222.932      Y272.663   
   X223.083      Y271.515   
   Y228.762   
   X223.030      Y227.952   
   X222.862      Y227.105   
   X222.584      Y226.287   
   X222.202      Y225.513   
   X221.722      Y224.794   
   X221.152      Y224.145   
   X220.503      Y223.576   
   X219.785      Y223.096   
   X219.010      Y222.714   
   X218.192      Y222.436   
   X217.345      Y222.267   
   X216.535      Y222.214   
   X146.445   
   X145.635      Y222.267   
   X144.788      Y222.436   
   X143.970      Y222.714   
   X143.195      Y223.096   
   X142.477      Y223.576   
   X141.828      Y224.145   
   X141.258      Y224.794   
   X140.778      Y225.513   
   X140.396      Y226.287   
   X140.119      Y227.105   
   X139.950      Y227.952   
   X139.897      Y228.762   
   Y271.515   
   X140.048      Y272.663   
   X140.348      Y273.782   
   X140.792      Y274.853   
   X141.371      Y275.856   
   X142.073      Y276.771   
   X159.926      Y294.853   
   X161.205      Y295.834   
   X162.596      Y296.637   
   X164.080      Y297.252   
   X165.632      Y297.668   
   X167.225      Y297.877   
(Pass: 4)
   Z0.400     
   X195.743   
   X196.595      Y297.793   
   X198.145      Y297.485   
   X199.641      Y296.977   
   X200.421      Y296.624   
   X201.790      Y295.834   
   X203.068      Y294.852   
   X220.908      Y276.771   
   X221.610      Y275.856   
   X222.189      Y274.853   
   X222.632      Y273.782   
   X222.932      Y272.663   
   X223.083      Y271.515   
   Y228.762   
   X223.030      Y227.952   
   X222.862      Y227.105   
   X222.584      Y226.287   
   X222.202      Y225.513   
   X221.722      Y224.794   
   X221.152      Y224.145   
   X220.503      Y223.576   
   X219.785      Y223.096   
   X219.010      Y222.714   
   X218.192      Y222.436   
   X217.345      Y222.267   
   X216.535      Y222.214   
   X146.445   
   X145.635      Y222.267   
   X144.788      Y222.436   
   X143.970      Y222.714   
   X143.195      Y223.096   
   X142.477      Y223.576   
   X141.828      Y224.145   
   X141.258      Y224.794   
   X140.778      Y225.513   
   X140.396      Y226.287   
   X140.119      Y227.105   
   X139.950      Y227.952   
   X139.897      Y228.762   
   Y271.515   
   X140.048      Y272.663   
   X140.348      Y273.782   
   X140.792      Y274.853   
   X141.371      Y275.856   
   X142.073      Y276.771   
   X159.926      Y294.853   
   X161.205      Y295.834   
   X162.596      Y296.637   
   X164.080      Y297.252   
   X165.632      Y297.668   
   X167.225      Y297.877   
(Pass: 5)
   Z-0.300    
   X195.743   
   X196.595      Y297.793   
   X198.145      Y297.485   
   X199.641      Y296.977   
   X200.421      Y296.624   
   X201.790      Y295.834   
   X203.068      Y294.852   
   X220.908      Y276.771   
   X221.610      Y275.856   
   X222.189      Y274.853   
   X222.632      Y273.782   
   X222.932      Y272.663   
   X223.083      Y271.515   
   Y228.762   
   X223.030      Y227.952   
   X222.862      Y227.105   
   X222.584      Y226.287   
   X222.202      Y225.513   
   X221.722      Y224.794   
   X221.152      Y224.145   
   X220.503      Y223.576   
   X219.785      Y223.096   
   X219.010      Y222.714   
   X218.192      Y222.436   
   X217.345      Y222.267   
   X216.535      Y222.214   
   X146.445   
   X145.635      Y222.267   
   X144.788      Y222.436   
   X143.970      Y222.714   
   X143.195      Y223.096   
   X142.477      Y223.576   
   X141.828      Y224.145   
   X141.258      Y224.794   
   X140.778      Y225.513   
   X140.396      Y226.287   
   X140.119      Y227.105   
   X139.950      Y227.952   
   X139.897      Y228.762   
   Y271.515   
   X140.048      Y272.663   
   X140.348      Y273.782   
   X140.792      Y274.853   
   X141.371      Y275.856   
   X142.073      Y276.771   
   X159.926      Y294.853   
   X161.205      Y295.834   
   X162.596      Y296.637   
   X164.080      Y297.252   
   X165.632      Y297.668   
   X167.225      Y297.877   
(Pass: 6)
   Z-0.800    
   X195.743   
   X196.595      Y297.793   
   X198.145      Y297.485   
   X199.641      Y296.977   
   X200.421      Y296.624   
   X201.790      Y295.834   
   X203.068      Y294.852   
   X220.908      Y276.771   
   X221.610      Y275.856   
   X222.189      Y274.853   
   X222.632      Y273.782   
   X222.932      Y272.663   
   X223.083      Y271.515   
   Y228.762   
   X223.030      Y227.952   
   X222.862      Y227.105   
   X222.584      Y226.287   
   X222.202      Y225.513   
   X221.722      Y224.794   
   X221.152      Y224.145   
   X220.503      Y223.576   
   X219.785      Y223.096   
   X219.010      Y222.714   
   X218.192      Y222.436   
   X217.345      Y222.267   
   X216.535      Y222.214   
   X146.445   
   X145.635      Y222.267   
   X144.788      Y222.436   
   X143.970      Y222.714   
   X143.195      Y223.096   
   X142.477      Y223.576   
   X141.828      Y224.145   
   X141.258      Y224.794   
   X140.778      Y225.513   
   X140.396      Y226.287   
   X140.119      Y227.105   
   X139.950      Y227.952   
   X139.897      Y228.762   
   Y271.515   
   X140.048      Y272.663   
   X140.348      Y273.782   
   X140.792      Y274.853   
   X141.371      Y275.856   
   X142.073      Y276.771   
   X159.926      Y294.853   
   X161.205      Y295.834   
   X162.596      Y296.637   
   X164.080      Y297.252   
   X165.632      Y297.668   
   X167.225      Y297.877   
(BREAK pass 6)
G0   Z18.200    
(Pass: 1)
   X376.179      Y240.472   
G1   Z2.500      F200 
   X376.135      Y240.138   
   Y231.536   
   X376.185      Y231.201   
   X376.273      Y230.988   
   X376.414      Y230.804   
   X376.598      Y230.663   
   X376.812      Y230.575   
   X377.041      Y230.545   
   X377.270      Y230.575   
   X377.484      Y230.663   
   X377.668      Y230.804   
   X377.808      Y230.988   
   X377.897      Y231.201   
   X377.941      Y231.535   
   Y240.137   
   X377.891      Y240.472   
   X377.802      Y240.686   
   X377.662      Y240.869   
   X377.478      Y241.010   
   X377.264      Y241.099   
   X377.035      Y241.129   
   X376.806      Y241.099   
   X376.592      Y241.010   
   X376.408      Y240.869   
   X376.267      Y240.686   
   X376.179      Y240.472   
(Pass: 2)
   Z1.800     
   X376.135      Y240.138   
   Y231.536   
   X376.185      Y231.201   
   X376.273      Y230.988   
   X376.414      Y230.804   
   X376.598      Y230.663   
   X376.812      Y230.575   
   X377.041      Y230.545   
   X377.270      Y230.575   
   X377.484      Y230.663   
   X377.668      Y230.804   
   X377.808      Y230.988   
   X377.897      Y231.201   
   X377.941      Y231.535   
   Y240.137   
   X377.891      Y240.472   
   X377.802      Y240.686   
   X377.662      Y240.869   
   X377.478      Y241.010   
   X377.264      Y241.099   
   X377.035      Y241.129   
   X376.806      Y241.099   
   X376.592      Y241.010   
   X376.408      Y240.869   
   X376.267      Y240.686   
   X376.179      Y240.472   
(Pass: 3)
   Z1.100     
   X376.135      Y240.138   
   Y231.536   
   X376.185      Y231.201   
   X376.273      Y230.988   
   X376.414      Y230.804   
   X376.598      Y230.663   
   X376.812      Y230.575   
   X377.041      Y230.545   
   X377.270      Y230.575   
   X377.484      Y230.663   
   X377.668      Y230.804   
   X377.808      Y230.988   
   X377.897      Y231.201   
   X377.941      Y231.535   
   Y240.137   
   X377.891      Y240.472   
   X377.802      Y240.686   
   X377.662      Y240.869   
   X377.478      Y241.010   
   X377.264      Y241.099   
   X377.035      Y241.129   
   X376.806      Y241.099   
   X376.592      Y241.010   
   X376.408      Y240.869   
   X376.267      Y240.686   
   X376.179      Y240.472   
(Pass: 4)
   Z0.400     
   X376.135      Y240.138   
   Y231.536   
   X376.185      Y231.201   
   X376.273      Y230.988   
   X376.414      Y230.804   
   X376.598      Y230.663   
   X376.812      Y230.575   
   X377.041      Y230.545   
   X377.270      Y230.575   
   X377.484      Y230.663   
   X377.668      Y230.804   
   X377.808      Y230.988   
   X377.897      Y231.201   
   X377.941      Y231.535   
   Y240.137   
   X377.891      Y240.472   
   X377.802      Y240.686   
   X377.662      Y240.869   
   X377.478      Y241.010   
   X377.264      Y241.099   
   X377.035      Y241.129   
   X376.806      Y241.099   
   X376.592      Y241.010   
   X376.408      Y240.869   
   X376.267      Y240.686   
   X376.179      Y240.472   
(Pass: 5)
   Z-0.300    
   X376.135      Y240.138   
   Y231.536   
   X376.185      Y231.201   
   X376.273      Y230.988   
   X376.414      Y230.804   
   X376.598      Y230.663   
   X376.812      Y230.575   
   X377.041      Y230.545   
   X377.270      Y230.575   
   X377.484      Y230.663   
   X377.668      Y230.804   
   X377.808      Y230.988   
   X377.897      Y231.201   
   X377.941      Y231.535   
   Y240.137   
   X377.891      Y240.472   
   X377.802      Y240.686   
   X377.662      Y240.869   
   X377.478      Y241.010   
   X377.264      Y241.099   
   X377.035      Y241.129   
   X376.806      Y241.099   
   X376.592      Y241.010   
   X376.408      Y240.869   
   X376.267      Y240.686   
   X376.179      Y240.472   
(Pass: 6)
   Z-0.800    
   X376.135      Y240.138   
   Y231.536   
   X376.185      Y231.201   
   X376.273      Y230.988   
   X376.414      Y230.804   
   X376.598      Y230.663   
   X376.812      Y230.575   
   X377.041      Y230.545   
   X377.270      Y230.575   
   X377.484      Y230.663   
   X377.668      Y230.804   
   X377.808      Y230.988   
   X377.897      Y231.201   
   X377.941      Y231.535   
   Y240.137   
   X377.891      Y240.472   
   X377.802      Y240.686   
   X377.662      Y240.869   
   X377.478      Y241.010   
   X377.264      Y241.099   
   X377.035      Y241.129   
   X376.806      Y241.099   
   X376.592      Y241.010   
   X376.408      Y240.869   
   X376.267      Y240.686   
   X376.179      Y240.472   
(BREAK pass 6)
G0   Z18.200    
(Pass: 1)
   X386.135      Y240.138   
G1   Z2.500      F200 
   Y231.536   
   X386.185      Y231.201   
   X386.273      Y230.988   
   X386.414      Y230.804   
   X386.598      Y230.663   
   X386.812      Y230.575   
   X387.041      Y230.545   
   X387.270      Y230.575   
   X387.484      Y230.663   
   X387.668      Y230.804   
   X387.808      Y230.988   
   X387.897      Y231.201   
   X387.941      Y231.535   
   Y240.137   
   X387.891      Y240.472   
   X387.802      Y240.686   
   X387.662      Y240.869   
   X387.478      Y241.010   
   X387.264      Y241.099   
   X387.035      Y241.129   
   X386.806      Y241.099   
   X386.592      Y241.010   
   X386.408      Y240.869   
   X386.267      Y240.686   
   X386.179      Y240.472   
   X386.135      Y240.138   
(Pass: 2)
   Z1.800     
   Y231.536   
   X386.185      Y231.201   
   X386.273      Y230.988   
   X386.414      Y230.804   
   X386.598      Y230.663   
   X386.812      Y230.575   
   X387.041      Y230.545   
   X387.270      Y230.575   
   X387.484      Y230.663   
   X387.668      Y230.804   
   X387.808      Y230.988   
   X387.897      Y231.201   
   X387.941      Y231.535   
   Y240.137   
   X387.891      Y240.472   
   X387.802      Y240.686   
   X387.662      Y240.869   
   X387.478      Y241.010   
   X387.264      Y241.099   
   X387.035      Y241.129   
   X386.806      Y241.099   
   X386.592      Y241.010   
   X386.408      Y240.869   
   X386.267      Y240.686   
   X386.179      Y240.472   
   X386.135      Y240.138   
(Pass: 3)
   Z1.100     
   Y231.536   
   X386.185      Y231.201   
   X386.273      Y230.988   
   X386.414      Y230.804   
   X386.598      Y230.663   
   X386.812      Y230.575   
   X387.041      Y230.545   
   X387.270      Y230.575   
   X387.484      Y230.663   
   X387.668      Y230.804   
   X387.808      Y230.988   
   X387.897      Y231.201   
   X387.941      Y231.535   
   Y240.137   
   X387.891      Y240.472   
   X387.802      Y240.686   
   X387.662      Y240.869   
   X387.478      Y241.010   
   X387.264      Y241.099   
   X387.035      Y241.129   
   X386.806      Y241.099   
   X386.592      Y241.010   
   X386.408      Y240.869   
   X386.267      Y240.686   
   X386.179      Y240.472   
   X386.135      Y240.138   
(Pass: 4)
   Z0.400     
   Y231.536   
   X386.185      Y231.201   
   X386.273      Y230.988   
   X386.414      Y230.804   
   X386.598      Y230.663   
   X386.812      Y230.575   
   X387.041      Y230.545   
   X387.270      Y230.575   
   X387.484      Y230.663   
   X387.668      Y230.804   
   X387.808      Y230.988   
   X387.897      Y231.201   
   X387.941      Y231.535   
   Y240.137   
   X387.891      Y240.472   
   X387.802      Y240.686   
   X387.662      Y240.869   
   X387.478      Y241.010   
   X387.264      Y241.099   
   X387.035      Y241.129   
   X386.806      Y241.099   
   X386.592      Y241.010   
   X386.408      Y240.869   
   X386.267      Y240.686   
   X386.179      Y240.472   
   X386.135      Y240.138   
(Pass: 5)
   Z-0.300    
   Y231.536   
   X386.185      Y231.201   
   X386.273      Y230.988   
   X386.414      Y230.804   
   X386.598      Y230.663   
   X386.812      Y230.575   
   X387.041      Y230.545   
   X387.270      Y230.575   
   X387.484      Y230.663   
   X387.668      Y230.804   
   X387.808      Y230.988   
   X387.897      Y231.201   
   X387.941      Y231.535   
   Y240.137   
   X387.891      Y240.472   
   X387.802      Y240.686   
   X387.662      Y240.869   
   X387.478      Y241.010   
   X387.264      Y241.099   
   X387.035      Y241.129   
   X386.806      Y241.099   
   X386.592      Y241.010   
   X386.408      Y240.869   
   X386.267      Y240.686   
   X386.179      Y240.472   
   X386.135      Y240.138   
(Pass: 6)
   Z-0.800    
   Y231.536   
   X386.185      Y231.201   
   X386.273      Y230.988   
   X386.414      Y230.804   
   X386.598      Y230.663   
   X386.812      Y230.575   
   X387.041      Y230.545   
   X387.270      Y230.575   
   X387.484      Y230.663   
   X387.668      Y230.804   
   X387.808      Y230.988   
   X387.897      Y231.201   
   X387.941      Y231.535   
   Y240.137   
   X387.891      Y240.472   
   X387.802      Y240.686   
   X387.662      Y240.869   
   X387.478      Y241.010   
   X387.264      Y241.099   
   X387.035      Y241.129   
   X386.806      Y241.099   
   X386.592      Y241.010   
   X386.408      Y240.869   
   X386.267      Y240.686   
   X386.179      Y240.472   
   X386.135      Y240.138   
(BREAK pass 6)
G0   Z18.200    
(Pass: 1)
   X396.135   
G1   Z2.500      F200 
   Y231.536   
   X396.185      Y231.201   
   X396.273      Y230.988   
   X396.414      Y230.804   
   X396.598      Y230.663   
   X396.812      Y230.575   
   X397.041      Y230.545   
   X397.270      Y230.575   
   X397.484      Y230.663   
   X397.668      Y230.804   
   X397.808      Y230.988   
   X397.897      Y231.201   
   X397.941      Y231.535   
   Y240.137   
   X397.891      Y240.472   
   X397.802      Y240.686   
   X397.662      Y240.869   
   X397.478      Y241.010   
   X397.264      Y241.099   
   X397.035      Y241.129   
   X396.806      Y241.099   
   X396.592      Y241.010   
   X396.408      Y240.869   
   X396.267      Y240.686   
   X396.179      Y240.472   
   X396.135      Y240.138   
(Pass: 2)
   Z1.800     
   Y231.536   
   X396.185      Y231.201   
   X396.273      Y230.988   
   X396.414      Y230.804   
   X396.598      Y230.663   
   X396.812      Y230.575   
   X397.041      Y230.545   
   X397.270      Y230.575   
   X397.484      Y230.663   
   X397.668      Y230.804   
   X397.808      Y230.988   
   X397.897      Y231.201   
   X397.941      Y231.535   
   Y240.137   
   X397.891      Y240.472   
   X397.802      Y240.686   
   X397.662      Y240.869   
   X397.478      Y241.010   
   X397.264      Y241.099   
   X397.035      Y241.129   
   X396.806      Y241.099   
   X396.592      Y241.010   
   X396.408      Y240.869   
   X396.267      Y240.686   
   X396.179      Y240.472   
   X396.135      Y240.138   
(Pass: 3)
   Z1.100     
   Y231.536   
   X396.185      Y231.201   
   X396.273      Y230.988   
   X396.414      Y230.804   
   X396.598      Y230.663   
   X396.812      Y230.575   
   X397.041      Y230.545   
   X397.270      Y230.575   
   X397.484      Y230.663   
   X397.668      Y230.804   
   X397.808      Y230.988   
   X397.897      Y231.201   
   X397.941      Y231.535   
   Y240.137   
   X397.891      Y240.472   
   X397.802      Y240.686   
   X397.662      Y240.869   
   X397.478      Y241.010   
   X397.264      Y241.099   
   X397.035      Y241.129   
   X396.806      Y241.099   
   X396.592      Y241.010   
   X396.408      Y240.869   
   X396.267      Y240.686   
   X396.179      Y240.472   
   X396.135      Y240.138   
(Pass: 4)
   Z0.400     
   Y231.536   
   X396.185      Y231.201   
   X396.273      Y230.988   
   X396.414      Y230.804   
   X396.598      Y230.663   
   X396.812      Y230.575   
   X397.041      Y230.545   
   X397.270      Y230.575   
   X397.484      Y230.663   
   X397.668      Y230.804   
   X397.808      Y230.988   
   X397.897      Y231.201   
   X397.941      Y231.535   
   Y240.137   
   X397.891      Y240.472   
   X397.802      Y240.686   
   X397.662      Y240.869   
   X397.478      Y241.010   
   X397.264      Y241.099   
   X397.035      Y241.129   
   X396.806      Y241.099   
   X396.592      Y241.010   
   X396.408      Y240.869   
   X396.267      Y240.686   
   X396.179      Y240.472   
   X396.135      Y240.138   
(Pass: 5)
   Z-0.300    
   Y231.536   
   X396.185      Y231.201   
   X396.273      Y230.988   
   X396.414      Y230.804   
   X396.598      Y230.663   
   X396.812      Y230.575   
   X397.041      Y230.545   
   X397.270      Y230.575   
   X397.484      Y230.663   
   X397.668      Y230.804   
   X397.808      Y230.988   
   X397.897      Y231.201   
   X397.941      Y231.535   
   Y240.137   
   X397.891      Y240.472   
   X397.802      Y240.686   
   X397.662      Y240.869   
   X397.478      Y241.010   
   X397.264      Y241.099   
   X397.035      Y241.129   
   X396.806      Y241.099   
   X396.592      Y241.010   
   X396.408      Y240.869   
   X396.267      Y240.686   
   X396.179      Y240.472   
   X396.135      Y240.138   
(Pass: 6)
   Z-0.800    
   Y231.536   
   X396.185      Y231.201   
   X396.273      Y230.988   
   X396.414      Y230.804   
   X396.598      Y230.663   
   X396.812      Y230.575   
   X397.041      Y230.545   
   X397.270      Y230.575   
   X397.484      Y230.663   
   X397.668      Y230.804   
   X397.808      Y230.988   
   X397.897      Y231.201   
   X397.941      Y231.535   
   Y240.137   
   X397.891      Y240.472   
   X397.802      Y240.686   
   X397.662      Y240.869   
   X397.478      Y241.010   
   X397.264      Y241.099   
   X397.035      Y241.129   
   X396.806      Y241.099   
   X396.592      Y241.010   
   X396.408      Y240.869   
   X396.267      Y240.686   
   X396.179      Y240.472   
   X396.135      Y240.138   
(BREAK pass 6)
G0   Z18.200    
(Pass: 1)
   X406.145   
G1   Z2.500      F200 
   Y231.536   
   X406.195      Y231.201   
   X406.283      Y230.988   
   X406.424      Y230.804   
   X406.607      Y230.663   
   X406.821      Y230.575   
   X407.051      Y230.545   
   X407.280      Y230.575   
   X407.494      Y230.663   
   X407.677      Y230.804   
   X407.818      Y230.988   
   X407.907      Y231.201   
   X407.950      Y231.535   
   Y240.137   
   X407.901      Y240.472   
   X407.812      Y240.686   
   X407.671      Y240.869   
   X407.488      Y241.010   
   X407.274      Y241.099   
   X407.045      Y241.129   
   X406.815      Y241.099   
   X406.601      Y241.010   
   X406.418      Y240.869   
   X406.277      Y240.686   
   X406.189      Y240.472   
   X406.145      Y240.138   
(Pass: 2)
   Z1.800     
   Y231.536   
   X406.195      Y231.201   
   X406.283      Y230.988   
   X406.424      Y230.804   
   X406.607      Y230.663   
   X406.821      Y230.575   
   X407.051      Y230.545   
   X407.280      Y230.575   
   X407.494      Y230.663   
   X407.677      Y230.804   
   X407.818      Y230.988   
   X407.907      Y231.201   
   X407.950      Y231.535   
   Y240.137   
   X407.901      Y240.472   
   X407.812      Y240.686   
   X407.671      Y240.869   
   X407.488      Y241.010   
   X407.274      Y241.099   
   X407.045      Y241.129   
   X406.815      Y241.099   
   X406.601      Y241.010   
   X406.418      Y240.869   
   X406.277      Y240.686   
   X406.189      Y240.472   
   X406.145      Y240.138   
(Pass: 3)
   Z1.100     
   Y231.536   
   X406.195      Y231.201   
   X406.283      Y230.988   
   X406.424      Y230.804   
   X406.607      Y230.663   
   X406.821      Y230.575   
   X407.051      Y230.545   
   X407.280      Y230.575   
   X407.494      Y230.663   
   X407.677      Y230.804   
   X407.818      Y230.988   
   X407.907      Y231.201   
   X407.950      Y231.535   
   Y240.137   
   X407.901      Y240.472   
   X407.812      Y240.686   
   X407.671      Y240.869   
   X407.488      Y241.010   
   X407.274      Y241.099   
   X407.045      Y241.129   
   X406.815      Y241.099   
   X406.601      Y241.010   
   X406.418      Y240.869   
   X406.277      Y240.686   
   X406.189      Y240.472   
   X406.145      Y240.138   
(Pass: 4)
   Z0.400     
   Y231.536   
   X406.195      Y231.201   
   X406.283      Y230.988   
   X406.424      Y230.804   
   X406.607      Y230.663   
   X406.821      Y230.575   
   X407.051      Y230.545   
   X407.280      Y230.575   
   X407.494      Y230.663   
   X407.677      Y230.804   
   X407.818      Y230.988   
   X407.907      Y231.201   
   X407.950      Y231.535   
   Y240.137   
   X407.901      Y240.472   
   X407.812      Y240.686   
   X407.671      Y240.869   
   X407.488      Y241.010   
   X407.274      Y241.099   
   X407.045      Y241.129   
   X406.815      Y241.099   
   X406.601      Y241.010   
   X406.418      Y240.869   
   X406.277      Y240.686   
   X406.189      Y240.472   
   X406.145      Y240.138   
(Pass: 5)
   Z-0.300    
   Y231.536   
   X406.195      Y231.201   
   X406.283      Y230.988   
   X406.424      Y230.804   
   X406.607      Y230.663   
   X406.821      Y230.575   
   X407.051      Y230.545   
   X407.280      Y230.575   
   X407.494      Y230.663   
   X407.677      Y230.804   
   X407.818      Y230.988   
   X407.907      Y231.201   
   X407.950      Y231.535   
   Y240.137   
   X407.901      Y240.472   
   X407.812      Y240.686   
   X407.671      Y240.869   
   X407.488      Y241.010   
   X407.274      Y241.099   
   X407.045      Y241.129   
   X406.815      Y241.099   
   X406.601      Y241.010   
   X406.418      Y240.869   
   X406.277      Y240.686   
   X406.189      Y240.472   
   X406.145      Y240.138   
(Pass: 6)
   Z-0.800    
   Y231.536   
   X406.195      Y231.201   
   X406.283      Y230.988   
   X406.424      Y230.804   
   X406.607      Y230.663   
   X406.821      Y230.575   
   X407.051      Y230.545   
   X407.280      Y230.575   
   X407.494      Y230.663   
   X407.677      Y230.804   
   X407.818      Y230.988   
   X407.907      Y231.201   
   X407.950      Y231.535   
   Y240.137   
   X407.901      Y240.472   
   X407.812      Y240.686   
   X407.671      Y240.869   
   X407.488      Y241.010   
   X407.274      Y241.099   
   X407.045      Y241.129   
   X406.815      Y241.099   
   X406.601      Y241.010   
   X406.418      Y240.869   
   X406.277      Y240.686   
   X406.189      Y240.472   
   X406.145      Y240.138   
(BREAK pass 6)
G0   Z18.200    
(Pass: 1)
   X416.135   
G1   Z2.500      F200 
   Y231.536   
   X416.185      Y231.201   
   X416.273      Y230.988   
   X416.414      Y230.804   
   X416.598      Y230.663   
   X416.812      Y230.575   
   X417.041      Y230.545   
   X417.270      Y230.575   
   X417.484      Y230.663   
   X417.668      Y230.804   
   X417.808      Y230.988   
   X417.897      Y231.201   
   X417.941      Y231.535   
   Y240.137   
   X417.891      Y240.472   
   X417.802      Y240.686   
   X417.662      Y240.869   
   X417.478      Y241.010   
   X417.264      Y241.099   
   X417.035      Y241.129   
   X416.806      Y241.099   
   X416.592      Y241.010   
   X416.408      Y240.869   
   X416.267      Y240.686   
   X416.179      Y240.472   
   X416.135      Y240.138   
(Pass: 2)
   Z1.800     
   Y231.536   
   X416.185      Y231.201   
   X416.273      Y230.988   
   X416.414      Y230.804   
   X416.598      Y230.663   
   X416.812      Y230.575   
   X417.041      Y230.545   
   X417.270      Y230.575   
   X417.484      Y230.663   
   X417.668      Y230.804   
   X417.808      Y230.988   
   X417.897      Y231.201   
   X417.941      Y231.535   
   Y240.137   
   X417.891      Y240.472   
   X417.802      Y240.686   
   X417.662      Y240.869   
   X417.478      Y241.010   
   X417.264      Y241.099   
   X417.035      Y241.129   
   X416.806      Y241.099   
   X416.592      Y241.010   
   X416.408      Y240.869   
   X416.267      Y240.686   
   X416.179      Y240.472   
   X416.135      Y240.138   
(Pass: 3)
   Z1.100     
   Y231.536   
   X416.185      Y231.201   
   X416.273      Y230.988   
   X416.414      Y230.804   
   X416.598      Y230.663   
   X416.812      Y230.575   
   X417.041      Y230.545   
   X417.270      Y230.575   
   X417.484      Y230.663   
   X417.668      Y230.804   
   X417.808      Y230.988   
   X417.897      Y231.201   
   X417.941      Y231.535   
   Y240.137   
   X417.891      Y240.472   
   X417.802      Y240.686   
   X417.662      Y240.869   
   X417.478      Y241.010   
   X417.264      Y241.099   
   X417.035      Y241.129   
   X416.806      Y241.099   
   X416.592      Y241.010   
   X416.408      Y240.869   
   X416.267      Y240.686   
   X416.179      Y240.472   
   X416.135      Y240.138   
(Pass: 4)
   Z0.400     
   Y231.536   
   X416.185      Y231.201   
   X416.273      Y230.988   
   X416.414      Y230.804   
   X416.598      Y230.663   
   X416.812      Y230.575   
   X417.041      Y230.545   
   X417.270      Y230.575   
   X417.484      Y230.663   
   X417.668      Y230.804   
   X417.808      Y230.988   
   X417.897      Y231.201   
   X417.941      Y231.535   
   Y240.137   
   X417.891      Y240.472   
   X417.802      Y240.686   
   X417.662      Y240.869   
   X417.478      Y241.010   
   X417.264      Y241.099   
   X417.035      Y241.129   
   X416.806      Y241.099   
   X416.592      Y241.010   
   X416.408      Y240.869   
   X416.267      Y240.686   
   X416.179      Y240.472   
   X416.135      Y240.138   
(Pass: 5)
   Z-0.300    
   Y231.536   
   X416.185      Y231.201   
   X416.273      Y230.988   
   X416.414      Y230.804   
   X416.598      Y230.663   
   X416.812      Y230.575   
   X417.041      Y230.545   
   X417.270      Y230.575   
   X417.484      Y230.663   
   X417.668      Y230.804   
   X417.808      Y230.988   
   X417.897      Y231.201   
   X417.941      Y231.535   
   Y240.137   
   X417.891      Y240.472   
   X417.802      Y240.686   
   X417.662      Y240.869   
   X417.478      Y241.010   
   X417.264      Y241.099   
   X417.035      Y241.129   
   X416.806      Y241.099   
   X416.592      Y241.010   
   X416.408      Y240.869   
   X416.267      Y240.686   
   X416.179      Y240.472   
   X416.135      Y240.138   
(Pass: 6)
   Z-0.800    
   Y231.536   
   X416.185      Y231.201   
   X416.273      Y230.988   
   X416.414      Y230.804   
   X416.598      Y230.663   
   X416.812      Y230.575   
   X417.041      Y230.545   
   X417.270      Y230.575   
   X417.484      Y230.663   
   X417.668      Y230.804   
   X417.808      Y230.988   
   X417.897      Y231.201   
   X417.941      Y231.535   
   Y240.137   
   X417.891      Y240.472   
   X417.802      Y240.686   
   X417.662      Y240.869   
   X417.478      Y241.010   
   X417.264      Y241.099   
   X417.035      Y241.129   
   X416.806      Y241.099   
   X416.592      Y241.010   
   X416.408      Y240.869   
   X416.267      Y240.686   
   X416.179      Y240.472   
   X416.135      Y240.138   
(BREAK pass 6)
G0   Z18.200    
(Pass: 1)
   X426.135   
G1   Z2.500      F200 
   Y231.536   
   X426.185      Y231.201   
   X426.273      Y230.988   
   X426.414      Y230.804   
   X426.598      Y230.663   
   X426.812      Y230.575   
   X427.041      Y230.545   
   X427.270      Y230.575   
   X427.484      Y230.663   
   X427.668      Y230.804   
   X427.808      Y230.988   
   X427.897      Y231.201   
   X427.941      Y231.535   
   Y240.137   
   X427.891      Y240.472   
   X427.802      Y240.686   
   X427.662      Y240.869   
   X427.478      Y241.010   
   X427.264      Y241.099   
   X427.035      Y241.129   
   X426.806      Y241.099   
   X426.592      Y241.010   
   X426.408      Y240.869   
   X426.267      Y240.686   
   X426.179      Y240.472   
   X426.135      Y240.138   
(Pass: 2)
   Z1.800     
   Y231.536   
   X426.185      Y231.201   
   X426.273      Y230.988   
   X426.414      Y230.804   
   X426.598      Y230.663   
   X426.812      Y230.575   
   X427.041      Y230.545   
   X427.270      Y230.575   
   X427.484      Y230.663   
   X427.668      Y230.804   
   X427.808      Y230.988   
   X427.897      Y231.201   
   X427.941      Y231.535   
   Y240.137   
   X427.891      Y240.472   
   X427.802      Y240.686   
   X427.662      Y240.869   
   X427.478      Y241.010   
   X427.264      Y241.099   
   X427.035      Y241.129   
   X426.806      Y241.099   
   X426.592      Y241.010   
   X426.408      Y240.869   
   X426.267      Y240.686   
   X426.179      Y240.472   
   X426.135      Y240.138   
(Pass: 3)
   Z1.100     
   Y231.536   
   X426.185      Y231.201   
   X426.273      Y230.988   
   X426.414      Y230.804   
   X426.598      Y230.663   
   X426.812      Y230.575   
   X427.041      Y230.545   
   X427.270      Y230.575   
   X427.484      Y230.663   
   X427.668      Y230.804   
   X427.808      Y230.988   
   X427.897      Y231.201   
   X427.941      Y231.535   
   Y240.137   
   X427.891      Y240.472   
   X427.802      Y240.686   
   X427.662      Y240.869   
   X427.478      Y241.010   
   X427.264      Y241.099   
   X427.035      Y241.129   
   X426.806      Y241.099   
   X426.592      Y241.010   
   X426.408      Y240.869   
   X426.267      Y240.686   
   X426.179      Y240.472   
   X426.135      Y240.138   
(Pass: 4)
   Z0.400     
   Y231.536   
   X426.185      Y231.201   
   X426.273      Y230.988   
   X426.414      Y230.804   
   X426.598      Y230.663   
   X426.812      Y230.575   
   X427.041      Y230.545   
   X427.270      Y230.575   
   X427.484      Y230.663   
   X427.668      Y230.804   
   X427.808      Y230.988   
   X427.897      Y231.201   
   X427.941      Y231.535   
   Y240.137   
   X427.891      Y240.472   
   X427.802      Y240.686   
   X427.662      Y240.869   
   X427.478      Y241.010   
   X427.264      Y241.099   
   X427.035      Y241.129   
   X426.806      Y241.099   
   X426.592      Y241.010   
   X426.408      Y240.869   
   X426.267      Y240.686   
   X426.179      Y240.472   
   X426.135      Y240.138   
(Pass: 5)
   Z-0.300    
   Y231.536   
   X426.185      Y231.201   
   X426.273      Y230.988   
   X426.414      Y230.804   
   X426.598      Y230.663   
   X426.812      Y230.575   
   X427.041      Y230.545   
   X427.270      Y230.575   
   X427.484      Y230.663   
   X427.668      Y230.804   
   X427.808      Y230.988   
   X427.897      Y231.201   
   X427.941      Y231.535   
   Y240.137   
   X427.891      Y240.472   
   X427.802      Y240.686   
   X427.662      Y240.869   
   X427.478      Y241.010   
   X427.264      Y241.099   
   X427.035      Y241.129   
   X426.806      Y241.099   
   X426.592      Y241.010   
   X426.408      Y240.869   
   X426.267      Y240.686   
   X426.179      Y240.472   
   X426.135      Y240.138   
(Pass: 6)
   Z-0.800    
   Y231.536   
   X426.185      Y231.201   
   X426.273      Y230.988   
   X426.414      Y230.804   
   X426.598      Y230.663   
   X426.812      Y230.575   
   X427.041      Y230.545   
   X427.270      Y230.575   
   X427.484      Y230.663   
   X427.668      Y230.804   
   X427.808      Y230.988   
   X427.897      Y231.201   
   X427.941      Y231.535   
   Y240.137   
   X427.891      Y240.472   
   X427.802      Y240.686   
   X427.662      Y240.869   
   X427.478      Y241.010   
   X427.264      Y241.099   
   X427.035      Y241.129   
   X426.806      Y241.099   
   X426.592      Y241.010   
   X426.408      Y240.869   
   X426.267      Y240.686   
   X426.179      Y240.472   
   X426.135      Y240.138   
(BREAK pass 6)
G0   Z18.200    
(Pass: 1)
   X436.135   
G1   Z2.500      F200 
   Y231.536   
   X436.185      Y231.201   
   X436.273      Y230.988   
   X436.414      Y230.804   
   X436.598      Y230.663   
   X436.812      Y230.575   
   X437.041      Y230.545   
   X437.270      Y230.575   
   X437.484      Y230.663   
   X437.668      Y230.804   
   X437.808      Y230.988   
   X437.897      Y231.201   
   X437.941      Y231.535   
   Y240.137   
   X437.891      Y240.472   
   X437.802      Y240.686   
   X437.662      Y240.869   
   X437.478      Y241.010   
   X437.264      Y241.099   
   X437.035      Y241.129   
   X436.806      Y241.099   
   X436.592      Y241.010   
   X436.408      Y240.869   
   X436.267      Y240.686   
   X436.179      Y240.472   
   X436.135      Y240.138   
(Pass: 2)
   Z1.800     
   Y231.536   
   X436.185      Y231.201   
   X436.273      Y230.988   
   X436.414      Y230.804   
   X436.598      Y230.663   
   X436.812      Y230.575   
   X437.041      Y230.545   
   X437.270      Y230.575   
   X437.484      Y230.663   
   X437.668      Y230.804   
   X437.808      Y230.988   
   X437.897      Y231.201   
   X437.941      Y231.535   
   Y240.137   
   X437.891      Y240.472   
   X437.802      Y240.686   
   X437.662      Y240.869   
   X437.478      Y241.010   
   X437.264      Y241.099   
   X437.035      Y241.129   
   X436.806      Y241.099   
   X436.592      Y241.010   
   X436.408      Y240.869   
   X436.267      Y240.686   
   X436.179      Y240.472   
   X436.135      Y240.138   
(Pass: 3)
   Z1.100     
   Y231.536   
   X436.185      Y231.201   
   X436.273      Y230.988   
   X436.414      Y230.804   
   X436.598      Y230.663   
   X436.812      Y230.575   
   X437.041      Y230.545   
   X437.270      Y230.575   
   X437.484      Y230.663   
   X437.668      Y230.804   
   X437.808      Y230.988   
   X437.897      Y231.201   
   X437.941      Y231.535   
   Y240.137   
   X437.891      Y240.472   
   X437.802      Y240.686   
   X437.662      Y240.869   
   X437.478      Y241.010   
   X437.264      Y241.099   
   X437.035      Y241.129   
   X436.806      Y241.099   
   X436.592      Y241.010   
   X436.408      Y240.869   
   X436.267      Y240.686   
   X436.179      Y240.472   
   X436.135      Y240.138   
(Pass: 4)
   Z0.400     
   Y231.536   
   X436.185      Y231.201   
   X436.273      Y230.988   
   X436.414      Y230.804   
   X436.598      Y230.663   
   X436.812      Y230.575   
   X437.041      Y230.545   
   X437.270      Y230.575   
   X437.484      Y230.663   
   X437.668      Y230.804   
   X437.808      Y230.988   
   X437.897      Y231.201   
   X437.941      Y231.535   
   Y240.137   
   X437.891      Y240.472   
   X437.802      Y240.686   
   X437.662      Y240.869   
   X437.478      Y241.010   
   X437.264      Y241.099   
   X437.035      Y241.129   
   X436.806      Y241.099   
   X436.592      Y241.010   
   X436.408      Y240.869   
   X436.267      Y240.686   
   X436.179      Y240.472   
   X436.135      Y240.138   
(Pass: 5)
   Z-0.300    
   Y231.536   
   X436.185      Y231.201   
   X436.273      Y230.988   
   X436.414      Y230.804   
   X436.598      Y230.663   
   X436.812      Y230.575   
   X437.041      Y230.545   
   X437.270      Y230.575   
   X437.484      Y230.663   
   X437.668      Y230.804   
   X437.808      Y230.988   
   X437.897      Y231.201   
   X437.941      Y231.535   
   Y240.137   
   X437.891      Y240.472   
   X437.802      Y240.686   
   X437.662      Y240.869   
   X437.478      Y241.010   
   X437.264      Y241.099   
   X437.035      Y241.129   
   X436.806      Y241.099   
   X436.592      Y241.010   
   X436.408      Y240.869   
   X436.267      Y240.686   
   X436.179      Y240.472   
   X436.135      Y240.138   
(Pass: 6)
   Z-0.800    
   Y231.536   
   X436.185      Y231.201   
   X436.273      Y230.988   
   X436.414      Y230.804   
   X436.598      Y230.663   
   X436.812      Y230.575   
   X437.041      Y230.545   
   X437.270      Y230.575   
   X437.484      Y230.663   
   X437.668      Y230.804   
   X437.808      Y230.988   
   X437.897      Y231.201   
   X437.941      Y231.535   
   Y240.137   
   X437.891      Y240.472   
   X437.802      Y240.686   
   X437.662      Y240.869   
   X437.478      Y241.010   
   X437.264      Y241.099   
   X437.035      Y241.129   
   X436.806      Y241.099   
   X436.592      Y241.010   
   X436.408      Y240.869   
   X436.267      Y240.686   
   X436.179      Y240.472   
   X436.135      Y240.138   
(BREAK pass 6)
G0   Z18.200    
(Pass: 1)
   X440.165      Y255.348   
G1   Z2.500      F200 
   X440.405      Y255.316   
   X440.645      Y255.348   
   X440.868      Y255.441   
   X441.060      Y255.588   
   X441.207      Y255.780   
   X441.299      Y256.003   
   X441.331      Y256.243   
   X441.299      Y256.482   
   X441.207      Y256.706   
   X441.060      Y256.898   
   X440.868      Y257.045   
   X440.645      Y257.137   
   X440.405      Y257.169   
   X440.165      Y257.137   
   X439.942      Y257.045   
   X439.750      Y256.898   
   X439.603      Y256.706   
   X439.510      Y256.482   
   X439.479      Y256.243   
   X439.510      Y256.003   
   X439.603      Y255.780   
   X439.750      Y255.588   
   X439.942      Y255.441   
   X440.165      Y255.348   
(Pass: 2)
   Z1.800     
   X440.405      Y255.316   
   X440.645      Y255.348   
   X440.868      Y255.441   
   X441.060      Y255.588   
   X441.207      Y255.780   
   X441.299      Y256.003   
   X441.331      Y256.243   
   X441.299      Y256.482   
   X441.207      Y256.706   
   X441.060      Y256.898   
   X440.868      Y257.045   
   X440.645      Y257.137   
   X440.405      Y257.169   
   X440.165      Y257.137   
   X439.942      Y257.045   
   X439.750      Y256.898   
   X439.603      Y256.706   
   X439.510      Y256.482   
   X439.479      Y256.243   
   X439.510      Y256.003   
   X439.603      Y255.780   
   X439.750      Y255.588   
   X439.942      Y255.441   
   X440.165      Y255.348   
(Pass: 3)
   Z1.100     
   X440.405      Y255.316   
   X440.645      Y255.348   
   X440.868      Y255.441   
   X441.060      Y255.588   
   X441.207      Y255.780   
   X441.299      Y256.003   
   X441.331      Y256.243   
   X441.299      Y256.482   
   X441.207      Y256.706   
   X441.060      Y256.898   
   X440.868      Y257.045   
   X440.645      Y257.137   
   X440.405      Y257.169   
   X440.165      Y257.137   
   X439.942      Y257.045   
   X439.750      Y256.898   
   X439.603      Y256.706   
   X439.510      Y256.482   
   X439.479      Y256.243   
   X439.510      Y256.003   
   X439.603      Y255.780   
   X439.750      Y255.588   
   X439.942      Y255.441   
   X440.165      Y255.348   
(Pass: 4)
   Z0.400     
   X440.405      Y255.316   
   X440.645      Y255.348   
   X440.868      Y255.441   
   X441.060      Y255.588   
   X441.207      Y255.780   
   X441.299      Y256.003   
   X441.331      Y256.243   
   X441.299      Y256.482   
   X441.207      Y256.706   
   X441.060      Y256.898   
   X440.868      Y257.045   
   X440.645      Y257.137   
   X440.405      Y257.169   
   X440.165      Y257.137   
   X439.942      Y257.045   
   X439.750      Y256.898   
   X439.603      Y256.706   
   X439.510      Y256.482   
   X439.479      Y256.243   
   X439.510      Y256.003   
   X439.603      Y255.780   
   X439.750      Y255.588   
   X439.942      Y255.441   
   X440.165      Y255.348   
(Pass: 5)
   Z-0.300    
   X440.405      Y255.316   
   X440.645      Y255.348   
   X440.868      Y255.441   
   X441.060      Y255.588   
   X441.207      Y255.780   
   X441.299      Y256.003   
   X441.331      Y256.243   
   X441.299      Y256.482   
   X441.207      Y256.706   
   X441.060      Y256.898   
   X440.868      Y257.045   
   X440.645      Y257.137   
   X440.405      Y257.169   
   X440.165      Y257.137   
   X439.942      Y257.045   
   X439.750      Y256.898   
   X439.603      Y256.706   
   X439.510      Y256.482   
   X439.479      Y256.243   
   X439.510      Y256.003   
   X439.603      Y255.780   
   X439.750      Y255.588   
   X439.942      Y255.441   
   X440.165      Y255.348   
(Pass: 6)
   Z-0.800    
   X440.405      Y255.316   
   X440.645      Y255.348   
   X440.868      Y255.441   
   X441.060      Y255.588   
   X441.207      Y255.780   
   X441.299      Y256.003   
   X441.331      Y256.243   
   X441.299      Y256.482   
   X441.207      Y256.706   
   X441.060      Y256.898   
   X440.868      Y257.045   
   X440.645      Y257.137   
   X440.405      Y257.169   
   X440.165      Y257.137   
   X439.942      Y257.045   
   X439.750      Y256.898   
   X439.603      Y256.706   
   X439.510      Y256.482   
   X439.479      Y256.243   
   X439.510      Y256.003   
   X439.603      Y255.780   
   X439.750      Y255.588   
   X439.942      Y255.441   
   X440.165      Y255.348   
(BREAK pass 6)
G0   Z18.200    
(Pass: 1)
   X409.435      Y255.854   
G1   Z2.500      F200 
G17 G2   X409.4478     Y256.4768     R2.4000    
   X409.2991     Y257.0817     R2.4000    
   X408.9989     Y257.6275     R2.4000    
   X408.5676     Y258.0770     R2.4000    
   X408.0347     Y258.3995     R2.4000    
   X407.4365     Y258.5732     R2.4000    
   X406.7530     Y258.5873     R2.4000    
   X406.2236     Y258.4455     R2.4000    
   X405.6630     Y258.1371     R2.4000    
   X405.2135     Y257.7059     R2.4000    
   X404.8910     Y257.1730     R2.4000    
   X404.7173     Y256.5748     R2.4000    
   X404.7044     Y255.9520     R2.4000    
   X404.8531     Y255.3471     R2.4000    
   X405.1533     Y254.8013     R2.4000    
   X405.5846     Y254.3518     R2.4000    
   X406.1175     Y254.0292     R2.4000    
   X406.7157     Y253.8555     R2.4000    
   X407.3385     Y253.8426     R2.4000    
   X407.9434     Y253.9914     R2.4000    
   X408.4892     Y254.2916     R2.4000    
   X408.9387     Y254.7228     R2.4000    
   X409.2613     Y255.2557     R2.4000    
   X409.4349     Y255.8540     R2.4000    
(Pass: 2)
G1   Z1.800     
G17 G2   X409.4478     Y256.4768     R2.4000    
   X409.2991     Y257.0817     R2.4000    
   X408.9989     Y257.6275     R2.4000    
   X408.5676     Y258.0770     R2.4000    
   X408.0347     Y258.3995     R2.4000    
   X407.4365     Y258.5732     R2.4000    
   X406.7530     Y258.5873     R2.4000    
   X406.2236     Y258.4455     R2.4000    
   X405.6630     Y258.1371     R2.4000    
   X405.2135     Y257.7059     R2.4000    
   X404.8910     Y257.1730     R2.4000    
   X404.7173     Y256.5748     R2.4000    
   X404.7044     Y255.9520     R2.4000    
   X404.8531     Y255.3471     R2.4000    
   X405.1533     Y254.8013     R2.4000    
   X405.5846     Y254.3518     R2.4000    
   X406.1175     Y254.0292     R2.4000    
   X406.7157     Y253.8555     R2.4000    
   X407.3385     Y253.8426     R2.4000    
   X407.9434     Y253.9914     R2.4000    
   X408.4892     Y254.2916     R2.4000    
   X408.9387     Y254.7228     R2.4000    
   X409.2613     Y255.2557     R2.4000    
   X409.4349     Y255.8540     R2.4000    
(Pass: 3)
G1   Z1.100     
G17 G2   X409.4478     Y256.4768     R2.4000    
   X409.2991     Y257.0817     R2.4000    
   X408.9989     Y257.6275     R2.4000    
   X408.5676     Y258.0770     R2.4000    
   X408.0347     Y258.3995     R2.4000    
   X407.4365     Y258.5732     R2.4000    
   X406.7530     Y258.5873     R2.4000    
   X406.2236     Y258.4455     R2.4000    
   X405.6630     Y258.1371     R2.4000    
   X405.2135     Y257.7059     R2.4000    
   X404.8910     Y257.1730     R2.4000    
   X404.7173     Y256.5748     R2.4000    
   X404.7044     Y255.9520     R2.4000    
   X404.8531     Y255.3471     R2.4000    
   X405.1533     Y254.8013     R2.4000    
   X405.5846     Y254.3518     R2.4000    
