%
(Generated by SketchUcam {1.2})
(File: Router Plates.skp)
(Bit diameter: 3.1mm)
(Feed rate: 400.0mm/min)
(Plunge Feed rate: 200.0mm/min)
(Material Thickness: 3.2mm)
(Material length: 304.0mm X width: 608.0mm)
(Overhead Gantry: true)
(Retract feed rate NOT limited to plunge feed rate)
(Multipass enabled, Depth = 0.4mm)
(Optimization is ON)
(Z ZERO IS TABLETOP)
(www.PhlatBoyz.com)
G90 G21 G49 
M3 S15000
G0   Z18.200    
(Pass: 1)
   X150.835      Y230.804   
G1   Z2.800      F200 
   X151.019      Y230.663    F400 
   X151.233      Y230.575   
   X151.462      Y230.545   
   X151.691      Y230.575   
   X151.905      Y230.663   
   X152.089      Y230.804   
   X152.229      Y230.988   
   X152.318      Y231.201   
   X152.362      Y231.535   
   Y240.137   
   X152.312      Y240.472   
   X152.223      Y240.686   
   X152.083      Y240.869   
   X151.899      Y241.010   
   X151.685      Y241.099   
   X151.456      Y241.129   
   X151.227      Y241.099   
   X151.013      Y241.010   
   X150.829      Y240.869   
   X150.688      Y240.686   
   X150.600      Y240.472   
   X150.556      Y240.138   
   Y231.536   
   X150.606      Y231.201   
   X150.694      Y230.988   
   X150.835      Y230.804   
(Pass: 2)
   Z2.400      F200 
   X151.019      Y230.663    F400 
   X151.233      Y230.575   
   X151.462      Y230.545   
   X151.691      Y230.575   
   X151.905      Y230.663   
   X152.089      Y230.804   
   X152.229      Y230.988   
   X152.318      Y231.201   
   X152.362      Y231.535   
   Y240.137   
   X152.312      Y240.472   
   X152.223      Y240.686   
   X152.083      Y240.869   
   X151.899      Y241.010   
   X151.685      Y241.099   
   X151.456      Y241.129   
   X151.227      Y241.099   
   X151.013      Y241.010   
   X150.829      Y240.869   
   X150.688      Y240.686   
   X150.600      Y240.472   
   X150.556      Y240.138   
   Y231.536   
   X150.606      Y231.201   
   X150.694      Y230.988   
   X150.835      Y230.804   
(Pass: 3)
   Z2.000      F200 
   X151.019      Y230.663    F400 
   X151.233      Y230.575   
   X151.462      Y230.545   
   X151.691      Y230.575   
   X151.905      Y230.663   
   X152.089      Y230.804   
   X152.229      Y230.988   
   X152.318      Y231.201   
   X152.362      Y231.535   
   Y240.137   
   X152.312      Y240.472   
   X152.223      Y240.686   
   X152.083      Y240.869   
   X151.899      Y241.010   
   X151.685      Y241.099   
   X151.456      Y241.129   
   X151.227      Y241.099   
   X151.013      Y241.010   
   X150.829      Y240.869   
   X150.688      Y240.686   
   X150.600      Y240.472   
   X150.556      Y240.138   
   Y231.536   
   X150.606      Y231.201   
   X150.694      Y230.988   
   X150.835      Y230.804   
(Pass: 4)
   Z1.600      F200 
   X151.019      Y230.663    F400 
   X151.233      Y230.575   
   X151.462      Y230.545   
   X151.691      Y230.575   
   X151.905      Y230.663   
   X152.089      Y230.804   
   X152.229      Y230.988   
   X152.318      Y231.201   
   X152.362      Y231.535   
   Y240.137   
   X152.312      Y240.472   
   X152.223      Y240.686   
   X152.083      Y240.869   
   X151.899      Y241.010   
   X151.685      Y241.099   
   X151.456      Y241.129   
   X151.227      Y241.099   
   X151.013      Y241.010   
   X150.829      Y240.869   
   X150.688      Y240.686   
   X150.600      Y240.472   
   X150.556      Y240.138   
   Y231.536   
   X150.606      Y231.201   
   X150.694      Y230.988   
   X150.835      Y230.804   
(Pass: 5)
   Z1.200      F200 
   X151.019      Y230.663    F400 
   X151.233      Y230.575   
   X151.462      Y230.545   
   X151.691      Y230.575   
   X151.905      Y230.663   
   X152.089      Y230.804   
   X152.229      Y230.988   
   X152.318      Y231.201   
   X152.362      Y231.535   
   Y240.137   
   X152.312      Y240.472   
   X152.223      Y240.686   
   X152.083      Y240.869   
   X151.899      Y241.010   
   X151.685      Y241.099   
   X151.456      Y241.129   
   X151.227      Y241.099   
   X151.013      Y241.010   
   X150.829      Y240.869   
   X150.688      Y240.686   
   X150.600      Y240.472   
   X150.556      Y240.138   
   Y231.536   
   X150.606      Y231.201   
   X150.694      Y230.988   
   X150.835      Y230.804   
(Pass: 6)
   Z0.800      F200 
   X151.019      Y230.663    F400 
   X151.233      Y230.575   
   X151.462      Y230.545   
   X151.691      Y230.575   
   X151.905      Y230.663   
   X152.089      Y230.804   
   X152.229      Y230.988   
   X152.318      Y231.201   
   X152.362      Y231.535   
   Y240.137   
   X152.312      Y240.472   
   X152.223      Y240.686   
   X152.083      Y240.869   
   X151.899      Y241.010   
   X151.685      Y241.099   
   X151.456      Y241.129   
   X151.227      Y241.099   
   X151.013      Y241.010   
   X150.829      Y240.869   
   X150.688      Y240.686   
   X150.600      Y240.472   
   X150.556      Y240.138   
   Y231.536   
   X150.606      Y231.201   
   X150.694      Y230.988   
   X150.835      Y230.804   
(Pass: 7)
   Z0.400      F200 
   X151.019      Y230.663    F400 
   X151.233      Y230.575   
   X151.462      Y230.545   
   X151.691      Y230.575   
   X151.905      Y230.663   
   X152.089      Y230.804   
   X152.229      Y230.988   
   X152.318      Y231.201   
   X152.362      Y231.535   
   Y240.137   
   X152.312      Y240.472   
   X152.223      Y240.686   
   X152.083      Y240.869   
   X151.899      Y241.010   
   X151.685      Y241.099   
   X151.456      Y241.129   
   X151.227      Y241.099   
   X151.013      Y241.010   
   X150.829      Y240.869   
   X150.688      Y240.686   
   X150.600      Y240.472   
   X150.556      Y240.138   
   Y231.536   
   X150.606      Y231.201   
   X150.694      Y230.988   
   X150.835      Y230.804   
(Pass: 8)
   Z0.000      F200 
   X151.019      Y230.663    F400 
   X151.233      Y230.575   
   X151.462      Y230.545   
   X151.691      Y230.575   
   X151.905      Y230.663   
   X152.089      Y230.804   
   X152.229      Y230.988   
   X152.318      Y231.201   
   X152.362      Y231.535   
   Y240.137   
   X152.312      Y240.472   
   X152.223      Y240.686   
   X152.083      Y240.869   
   X151.899      Y241.010   
   X151.685      Y241.099   
   X151.456      Y241.129   
   X151.227      Y241.099   
   X151.013      Y241.010   
   X150.829      Y240.869   
   X150.688      Y240.686   
   X150.600      Y240.472   
   X150.556      Y240.138   
   Y231.536   
   X150.606      Y231.201   
   X150.694      Y230.988   
   X150.835      Y230.804   
(Pass: 9)
   Z-0.160     F200 
   X151.019      Y230.663    F400 
   X151.233      Y230.575   
   X151.462      Y230.545   
   X151.691      Y230.575   
   X151.905      Y230.663   
   X152.089      Y230.804   
   X152.229      Y230.988   
   X152.318      Y231.201   
   X152.362      Y231.535   
   Y240.137   
   X152.312      Y240.472   
   X152.223      Y240.686   
   X152.083      Y240.869   
   X151.899      Y241.010   
   X151.685      Y241.099   
   X151.456      Y241.129   
   X151.227      Y241.099   
   X151.013      Y241.010   
   X150.829      Y240.869   
   X150.688      Y240.686   
   X150.600      Y240.472   
   X150.556      Y240.138   
   Y231.536   
   X150.606      Y231.201   
   X150.694      Y230.988   
   X150.835      Y230.804   
G0   Z18.200    
(Pass: 1)
   X160.562      Y231.536   
G1   Z2.800      F200 
   X160.606      Y231.201    F400 
   X160.694      Y230.988   
   X160.835      Y230.804   
   X161.019      Y230.663   
   X161.233      Y230.575   
   X161.462      Y230.545   
   X161.691      Y230.575   
   X161.905      Y230.663   
   X162.089      Y230.804   
   X162.229      Y230.988   
   X162.318      Y231.201   
   X162.362      Y231.535   
   Y240.137   
   X162.312      Y240.472   
   X162.223      Y240.686   
   X162.083      Y240.869   
   X161.899      Y241.010   
   X161.685      Y241.099   
   X161.456      Y241.129   
   X161.227      Y241.099   
   X161.013      Y241.010   
   X160.829      Y240.869   
   X160.688      Y240.686   
   X160.600      Y240.472   
   X160.556      Y240.138   
   Y231.536   
(Pass: 2)
   Z2.400      F200 
   X160.606      Y231.201    F400 
   X160.694      Y230.988   
   X160.835      Y230.804   
   X161.019      Y230.663   
   X161.233      Y230.575   
   X161.462      Y230.545   
   X161.691      Y230.575   
   X161.905      Y230.663   
   X162.089      Y230.804   
   X162.229      Y230.988   
   X162.318      Y231.201   
   X162.362      Y231.535   
   Y240.137   
   X162.312      Y240.472   
   X162.223      Y240.686   
   X162.083      Y240.869   
   X161.899      Y241.010   
   X161.685      Y241.099   
   X161.456      Y241.129   
   X161.227      Y241.099   
   X161.013      Y241.010   
   X160.829      Y240.869   
   X160.688      Y240.686   
   X160.600      Y240.472   
   X160.556      Y240.138   
   Y231.536   
(Pass: 3)
   Z2.000      F200 
   X160.606      Y231.201    F400 
   X160.694      Y230.988   
   X160.835      Y230.804   
   X161.019      Y230.663   
   X161.233      Y230.575   
   X161.462      Y230.545   
   X161.691      Y230.575   
   X161.905      Y230.663   
   X162.089      Y230.804   
   X162.229      Y230.988   
   X162.318      Y231.201   
   X162.362      Y231.535   
   Y240.137   
   X162.312      Y240.472   
   X162.223      Y240.686   
   X162.083      Y240.869   
   X161.899      Y241.010   
   X161.685      Y241.099   
   X161.456      Y241.129   
   X161.227      Y241.099   
   X161.013      Y241.010   
   X160.829      Y240.869   
   X160.688      Y240.686   
   X160.600      Y240.472   
   X160.556      Y240.138   
   Y231.536   
(Pass: 4)
   Z1.600      F200 
   X160.606      Y231.201    F400 
   X160.694      Y230.988   
   X160.835      Y230.804   
   X161.019      Y230.663   
   X161.233      Y230.575   
   X161.462      Y230.545   
   X161.691      Y230.575   
   X161.905      Y230.663   
   X162.089      Y230.804   
   X162.229      Y230.988   
   X162.318      Y231.201   
   X162.362      Y231.535   
   Y240.137   
   X162.312      Y240.472   
   X162.223      Y240.686   
   X162.083      Y240.869   
   X161.899      Y241.010   
   X161.685      Y241.099   
   X161.456      Y241.129   
   X161.227      Y241.099   
   X161.013      Y241.010   
   X160.829      Y240.869   
   X160.688      Y240.686   
   X160.600      Y240.472   
   X160.556      Y240.138   
   Y231.536   
(Pass: 5)
   Z1.200      F200 
   X160.606      Y231.201    F400 
   X160.694      Y230.988   
   X160.835      Y230.804   
   X161.019      Y230.663   
   X161.233      Y230.575   
   X161.462      Y230.545   
   X161.691      Y230.575   
   X161.905      Y230.663   
   X162.089      Y230.804   
   X162.229      Y230.988   
   X162.318      Y231.201   
   X162.362      Y231.535   
   Y240.137   
   X162.312      Y240.472   
   X162.223      Y240.686   
   X162.083      Y240.869   
   X161.899      Y241.010   
   X161.685      Y241.099   
   X161.456      Y241.129   
   X161.227      Y241.099   
   X161.013      Y241.010   
   X160.829      Y240.869   
   X160.688      Y240.686   
   X160.600      Y240.472   
   X160.556      Y240.138   
   Y231.536   
(Pass: 6)
   Z0.800      F200 
   X160.606      Y231.201    F400 
   X160.694      Y230.988   
   X160.835      Y230.804   
   X161.019      Y230.663   
   X161.233      Y230.575   
   X161.462      Y230.545   
   X161.691      Y230.575   
   X161.905      Y230.663   
   X162.089      Y230.804   
   X162.229      Y230.988   
   X162.318      Y231.201   
   X162.362      Y231.535   
   Y240.137   
   X162.312      Y240.472   
   X162.223      Y240.686   
   X162.083      Y240.869   
   X161.899      Y241.010   
   X161.685      Y241.099   
   X161.456      Y241.129   
   X161.227      Y241.099   
   X161.013      Y241.010   
   X160.829      Y240.869   
   X160.688      Y240.686   
   X160.600      Y240.472   
   X160.556      Y240.138   
   Y231.536   
(Pass: 7)
   Z0.400      F200 
   X160.606      Y231.201    F400 
   X160.694      Y230.988   
   X160.835      Y230.804   
   X161.019      Y230.663   
   X161.233      Y230.575   
   X161.462      Y230.545   
   X161.691      Y230.575   
   X161.905      Y230.663   
   X162.089      Y230.804   
   X162.229      Y230.988   
   X162.318      Y231.201   
   X162.362      Y231.535   
   Y240.137   
   X162.312      Y240.472   
   X162.223      Y240.686   
   X162.083      Y240.869   
   X161.899      Y241.010   
   X161.685      Y241.099   
   X161.456      Y241.129   
   X161.227      Y241.099   
   X161.013      Y241.010   
   X160.829      Y240.869   
   X160.688      Y240.686   
   X160.600      Y240.472   
   X160.556      Y240.138   
   Y231.536   
(Pass: 8)
   Z0.000      F200 
   X160.606      Y231.201    F400 
   X160.694      Y230.988   
   X160.835      Y230.804   
   X161.019      Y230.663   
   X161.233      Y230.575   
   X161.462      Y230.545   
   X161.691      Y230.575   
   X161.905      Y230.663   
   X162.089      Y230.804   
   X162.229      Y230.988   
   X162.318      Y231.201   
   X162.362      Y231.535   
   Y240.137   
   X162.312      Y240.472   
   X162.223      Y240.686   
   X162.083      Y240.869   
   X161.899      Y241.010   
   X161.685      Y241.099   
   X161.456      Y241.129   
   X161.227      Y241.099   
   X161.013      Y241.010   
   X160.829      Y240.869   
   X160.688      Y240.686   
   X160.600      Y240.472   
   X160.556      Y240.138   
   Y231.536   
(Pass: 9)
   Z-0.160     F200 
   X160.606      Y231.201    F400 
   X160.694      Y230.988   
   X160.835      Y230.804   
   X161.019      Y230.663   
   X161.233      Y230.575   
   X161.462      Y230.545   
   X161.691      Y230.575   
   X161.905      Y230.663   
   X162.089      Y230.804   
   X162.229      Y230.988   
   X162.318      Y231.201   
   X162.362      Y231.535   
   Y240.137   
   X162.312      Y240.472   
   X162.223      Y240.686   
   X162.083      Y240.869   
   X161.899      Y241.010   
   X161.685      Y241.099   
   X161.456      Y241.129   
   X161.227      Y241.099   
   X161.013      Y241.010   
   X160.829      Y240.869   
   X160.688      Y240.686   
   X160.600      Y240.472   
   X160.556      Y240.138   
   Y231.536   
G0   Z18.200    
(Pass: 1)
   X170.562   
G1   Z2.800      F200 
   X170.606      Y231.201    F400 
   X170.694      Y230.988   
   X170.835      Y230.804   
   X171.019      Y230.663   
   X171.233      Y230.575   
   X171.462      Y230.545   
   X171.691      Y230.575   
   X171.905      Y230.663   
   X172.089      Y230.804   
   X172.229      Y230.988   
   X172.318      Y231.201   
   X172.362      Y231.535   
   Y240.137   
   X172.312      Y240.472   
   X172.223      Y240.686   
   X172.083      Y240.869   
   X171.899      Y241.010   
   X171.685      Y241.099   
   X171.456      Y241.129   
   X171.227      Y241.099   
   X171.013      Y241.010   
   X170.829      Y240.869   
   X170.688      Y240.686   
   X170.600      Y240.472   
   X170.556      Y240.138   
   Y231.536   
(Pass: 2)
   Z2.400      F200 
   X170.606      Y231.201    F400 
   X170.694      Y230.988   
   X170.835      Y230.804   
   X171.019      Y230.663   
   X171.233      Y230.575   
   X171.462      Y230.545   
   X171.691      Y230.575   
   X171.905      Y230.663   
   X172.089      Y230.804   
   X172.229      Y230.988   
   X172.318      Y231.201   
   X172.362      Y231.535   
   Y240.137   
   X172.312      Y240.472   
   X172.223      Y240.686   
   X172.083      Y240.869   
   X171.899      Y241.010   
   X171.685      Y241.099   
   X171.456      Y241.129   
   X171.227      Y241.099   
   X171.013      Y241.010   
   X170.829      Y240.869   
   X170.688      Y240.686   
   X170.600      Y240.472   
   X170.556      Y240.138   
   Y231.536   
(Pass: 3)
   Z2.000      F200 
   X170.606      Y231.201    F400 
   X170.694      Y230.988   
   X170.835      Y230.804   
   X171.019      Y230.663   
   X171.233      Y230.575   
   X171.462      Y230.545   
   X171.691      Y230.575   
   X171.905      Y230.663   
   X172.089      Y230.804   
   X172.229      Y230.988   
   X172.318      Y231.201   
   X172.362      Y231.535   
   Y240.137   
   X172.312      Y240.472   
   X172.223      Y240.686   
   X172.083      Y240.869   
   X171.899      Y241.010   
   X171.685      Y241.099   
   X171.456      Y241.129   
   X171.227      Y241.099   
   X171.013      Y241.010   
   X170.829      Y240.869   
   X170.688      Y240.686   
   X170.600      Y240.472   
   X170.556      Y240.138   
   Y231.536   
(Pass: 4)
   Z1.600      F200 
   X170.606      Y231.201    F400 
   X170.694      Y230.988   
   X170.835      Y230.804   
   X171.019      Y230.663   
   X171.233      Y230.575   
   X171.462      Y230.545   
   X171.691      Y230.575   
   X171.905      Y230.663   
   X172.089      Y230.804   
   X172.229      Y230.988   
   X172.318      Y231.201   
   X172.362      Y231.535   
   Y240.137   
   X172.312      Y240.472   
   X172.223      Y240.686   
   X172.083      Y240.869   
   X171.899      Y241.010   
   X171.685      Y241.099   
   X171.456      Y241.129   
   X171.227      Y241.099   
   X171.013      Y241.010   
   X170.829      Y240.869   
   X170.688      Y240.686   
   X170.600      Y240.472   
   X170.556      Y240.138   
   Y231.536   
(Pass: 5)
   Z1.200      F200 
   X170.606      Y231.201    F400 
   X170.694      Y230.988   
   X170.835      Y230.804   
   X171.019      Y230.663   
   X171.233      Y230.575   
   X171.462      Y230.545   
   X171.691      Y230.575   
   X171.905      Y230.663   
   X172.089      Y230.804   
   X172.229      Y230.988   
   X172.318      Y231.201   
   X172.362      Y231.535   
   Y240.137   
   X172.312      Y240.472   
   X172.223      Y240.686   
   X172.083      Y240.869   
   X171.899      Y241.010   
   X171.685      Y241.099   
   X171.456      Y241.129   
   X171.227      Y241.099   
   X171.013      Y241.010   
   X170.829      Y240.869   
   X170.688      Y240.686   
   X170.600      Y240.472   
   X170.556      Y240.138   
   Y231.536   
(Pass: 6)
   Z0.800      F200 
   X170.606      Y231.201    F400 
   X170.694      Y230.988   
   X170.835      Y230.804   
   X171.019      Y230.663   
   X171.233      Y230.575   
   X171.462      Y230.545   
   X171.691      Y230.575   
   X171.905      Y230.663   
   X172.089      Y230.804   
   X172.229      Y230.988   
   X172.318      Y231.201   
   X172.362      Y231.535   
   Y240.137   
   X172.312      Y240.472   
   X172.223      Y240.686   
   X172.083      Y240.869   
   X171.899      Y241.010   
   X171.685      Y241.099   
   X171.456      Y241.129   
   X171.227      Y241.099   
   X171.013      Y241.010   
   X170.829      Y240.869   
   X170.688      Y240.686   
   X170.600      Y240.472   
   X170.556      Y240.138   
   Y231.536   
(Pass: 7)
   Z0.400      F200 
   X170.606      Y231.201    F400 
   X170.694      Y230.988   
   X170.835      Y230.804   
   X171.019      Y230.663   
   X171.233      Y230.575   
   X171.462      Y230.545   
   X171.691      Y230.575   
   X171.905      Y230.663   
   X172.089      Y230.804   
   X172.229      Y230.988   
   X172.318      Y231.201   
   X172.362      Y231.535   
   Y240.137   
   X172.312      Y240.472   
   X172.223      Y240.686   
   X172.083      Y240.869   
   X171.899      Y241.010   
   X171.685      Y241.099   
   X171.456      Y241.129   
   X171.227      Y241.099   
   X171.013      Y241.010   
   X170.829      Y240.869   
   X170.688      Y240.686   
   X170.600      Y240.472   
   X170.556      Y240.138   
   Y231.536   
(Pass: 8)
   Z0.000      F200 
   X170.606      Y231.201    F400 
   X170.694      Y230.988   
   X170.835      Y230.804   
   X171.019      Y230.663   
   X171.233      Y230.575   
   X171.462      Y230.545   
   X171.691      Y230.575   
   X171.905      Y230.663   
   X172.089      Y230.804   
   X172.229      Y230.988   
   X172.318      Y231.201   
   X172.362      Y231.535   
   Y240.137   
   X172.312      Y240.472   
   X172.223      Y240.686   
   X172.083      Y240.869   
   X171.899      Y241.010   
   X171.685      Y241.099   
   X171.456      Y241.129   
   X171.227      Y241.099   
   X171.013      Y241.010   
   X170.829      Y240.869   
   X170.688      Y240.686   
   X170.600      Y240.472   
   X170.556      Y240.138   
   Y231.536   
(Pass: 9)
   Z-0.160     F200 
   X170.606      Y231.201    F400 
   X170.694      Y230.988   
   X170.835      Y230.804   
   X171.019      Y230.663   
   X171.233      Y230.575   
   X171.462      Y230.545   
   X171.691      Y230.575   
   X171.905      Y230.663   
   X172.089      Y230.804   
   X172.229      Y230.988   
   X172.318      Y231.201   
   X172.362      Y231.535   
   Y240.137   
   X172.312      Y240.472   
   X172.223      Y240.686   
   X172.083      Y240.869   
   X171.899      Y241.010   
   X171.685      Y241.099   
   X171.456      Y241.129   
   X171.227      Y241.099   
   X171.013      Y241.010   
   X170.829      Y240.869   
   X170.688      Y240.686   
   X170.600      Y240.472   
   X170.556      Y240.138   
   Y231.536   
G0   Z18.200    
(Pass: 1)
   X180.571   
G1   Z2.800      F200 
   X180.616      Y231.201    F400 
   X180.704      Y230.988   
   X180.845      Y230.804   
   X181.028      Y230.663   
   X181.242      Y230.575   
   X181.472      Y230.545   
   X181.701      Y230.575   
   X181.915      Y230.663   
   X182.098      Y230.804   
   X182.239      Y230.988   
   X182.328      Y231.201   
   X182.371      Y231.535   
   Y240.137   
   X182.322      Y240.472   
   X182.233      Y240.686   
   X182.092      Y240.869   
   X181.909      Y241.010   
   X181.695      Y241.099   
   X181.466      Y241.129   
   X181.236      Y241.099   
   X181.022      Y241.010   
   X180.839      Y240.869   
   X180.698      Y240.686   
   X180.610      Y240.472   
   X180.566      Y240.138   
   Y231.536   
(Pass: 2)
   Z2.400      F200 
   X180.616      Y231.201    F400 
   X180.704      Y230.988   
   X180.845      Y230.804   
   X181.028      Y230.663   
   X181.242      Y230.575   
   X181.472      Y230.545   
   X181.701      Y230.575   
   X181.915      Y230.663   
   X182.098      Y230.804   
   X182.239      Y230.988   
   X182.328      Y231.201   
   X182.371      Y231.535   
   Y240.137   
   X182.322      Y240.472   
   X182.233      Y240.686   
   X182.092      Y240.869   
   X181.909      Y241.010   
   X181.695      Y241.099   
   X181.466      Y241.129   
   X181.236      Y241.099   
   X181.022      Y241.010   
   X180.839      Y240.869   
   X180.698      Y240.686   
   X180.610      Y240.472   
   X180.566      Y240.138   
   Y231.536   
(Pass: 3)
   Z2.000      F200 
   X180.616      Y231.201    F400 
   X180.704      Y230.988   
   X180.845      Y230.804   
   X181.028      Y230.663   
   X181.242      Y230.575   
   X181.472      Y230.545   
   X181.701      Y230.575   
   X181.915      Y230.663   
   X182.098      Y230.804   
   X182.239      Y230.988   
   X182.328      Y231.201   
   X182.371      Y231.535   
   Y240.137   
   X182.322      Y240.472   
   X182.233      Y240.686   
   X182.092      Y240.869   
   X181.909      Y241.010   
   X181.695      Y241.099   
   X181.466      Y241.129   
   X181.236      Y241.099   
   X181.022      Y241.010   
   X180.839      Y240.869   
   X180.698      Y240.686   
   X180.610      Y240.472   
   X180.566      Y240.138   
   Y231.536   
(Pass: 4)
   Z1.600      F200 
   X180.616      Y231.201    F400 
   X180.704      Y230.988   
   X180.845      Y230.804   
   X181.028      Y230.663   
   X181.242      Y230.575   
   X181.472      Y230.545   
   X181.701      Y230.575   
   X181.915      Y230.663   
   X182.098      Y230.804   
   X182.239      Y230.988   
   X182.328      Y231.201   
   X182.371      Y231.535   
   Y240.137   
   X182.322      Y240.472   
   X182.233      Y240.686   
   X182.092      Y240.869   
   X181.909      Y241.010   
   X181.695      Y241.099   
   X181.466      Y241.129   
   X181.236      Y241.099   
   X181.022      Y241.010   
   X180.839      Y240.869   
   X180.698      Y240.686   
   X180.610      Y240.472   
   X180.566      Y240.138   
   Y231.536   
(Pass: 5)
   Z1.200      F200 
   X180.616      Y231.201    F400 
   X180.704      Y230.988   
   X180.845      Y230.804   
   X181.028      Y230.663   
   X181.242      Y230.575   
   X181.472      Y230.545   
   X181.701      Y230.575   
   X181.915      Y230.663   
   X182.098      Y230.804   
   X182.239      Y230.988   
   X182.328      Y231.201   
   X182.371      Y231.535   
   Y240.137   
   X182.322      Y240.472   
   X182.233      Y240.686   
   X182.092      Y240.869   
   X181.909      Y241.010   
   X181.695      Y241.099   
   X181.466      Y241.129   
   X181.236      Y241.099   
   X181.022      Y241.010   
   X180.839      Y240.869   
   X180.698      Y240.686   
   X180.610      Y240.472   
   X180.566      Y240.138   
   Y231.536   
(Pass: 6)
   Z0.800      F200 
   X180.616      Y231.201    F400 
   X180.704      Y230.988   
   X180.845      Y230.804   
   X181.028      Y230.663   
   X181.242      Y230.575   
   X181.472      Y230.545   
   X181.701      Y230.575   
   X181.915      Y230.663   
   X182.098      Y230.804   
   X182.239      Y230.988   
   X182.328      Y231.201   
   X182.371      Y231.535   
   Y240.137   
   X182.322      Y240.472   
   X182.233      Y240.686   
   X182.092      Y240.869   
   X181.909      Y241.010   
   X181.695      Y241.099   
   X181.466      Y241.129   
   X181.236      Y241.099   
   X181.022      Y241.010   
   X180.839      Y240.869   
   X180.698      Y240.686   
   X180.610      Y240.472   
   X180.566      Y240.138   
   Y231.536   
(Pass: 7)
   Z0.400      F200 
   X180.616      Y231.201    F400 
   X180.704      Y230.988   
   X180.845      Y230.804   
   X181.028      Y230.663   
   X181.242      Y230.575   
   X181.472      Y230.545   
   X181.701      Y230.575   
   X181.915      Y230.663   
   X182.098      Y230.804   
   X182.239      Y230.988   
   X182.328      Y231.201   
   X182.371      Y231.535   
   Y240.137   
   X182.322      Y240.472   
   X182.233      Y240.686   
   X182.092      Y240.869   
   X181.909      Y241.010   
   X181.695      Y241.099   
   X181.466      Y241.129   
   X181.236      Y241.099   
   X181.022      Y241.010   
   X180.839      Y240.869   
   X180.698      Y240.686   
   X180.610      Y240.472   
   X180.566      Y240.138   
   Y231.536   
(Pass: 8)
   Z0.000      F200 
   X180.616      Y231.201    F400 
   X180.704      Y230.988   
   X180.845      Y230.804   
   X181.028      Y230.663   
   X181.242      Y230.575   
   X181.472      Y230.545   
   X181.701      Y230.575   
   X181.915      Y230.663   
   X182.098      Y230.804   
   X182.239      Y230.988   
   X182.328      Y231.201   
   X182.371      Y231.535   
   Y240.137   
   X182.322      Y240.472   
   X182.233      Y240.686   
   X182.092      Y240.869   
   X181.909      Y241.010   
   X181.695      Y241.099   
   X181.466      Y241.129   
   X181.236      Y241.099   
   X181.022      Y241.010   
   X180.839      Y240.869   
   X180.698      Y240.686   
   X180.610      Y240.472   
   X180.566      Y240.138   
   Y231.536   
(Pass: 9)
   Z-0.160     F200 
   X180.616      Y231.201    F400 
   X180.704      Y230.988   
   X180.845      Y230.804   
   X181.028      Y230.663   
   X181.242      Y230.575   
   X181.472      Y230.545   
   X181.701      Y230.575   
   X181.915      Y230.663   
   X182.098      Y230.804   
   X182.239      Y230.988   
   X182.328      Y231.201   
   X182.371      Y231.535   
   Y240.137   
   X182.322      Y240.472   
   X182.233      Y240.686   
   X182.092      Y240.869   
   X181.909      Y241.010   
   X181.695      Y241.099   
   X181.466      Y241.129   
   X181.236      Y241.099   
   X181.022      Y241.010   
   X180.839      Y240.869   
   X180.698      Y240.686   
   X180.610      Y240.472   
   X180.566      Y240.138   
   Y231.536   
G0   Z18.200    
(Pass: 1)
   X190.562   
G1   Z2.800      F200 
   X190.606      Y231.201    F400 
   X190.694      Y230.988   
   X190.835      Y230.804   
   X191.019      Y230.663   
   X191.233      Y230.575   
   X191.462      Y230.545   
   X191.691      Y230.575   
   X191.905      Y230.663   
   X192.089      Y230.804   
   X192.229      Y230.988   
   X192.318      Y231.201   
   X192.362      Y231.535   
   Y240.137   
   X192.312      Y240.472   
   X192.223      Y240.686   
   X192.083      Y240.869   
   X191.899      Y241.010   
   X191.685      Y241.099   
   X191.456      Y241.129   
   X191.227      Y241.099   
   X191.013      Y241.010   
   X190.829      Y240.869   
   X190.688      Y240.686   
   X190.600      Y240.472   
   X190.556      Y240.138   
   Y231.536   
(Pass: 2)
   Z2.400      F200 
   X190.606      Y231.201    F400 
   X190.694      Y230.988   
   X190.835      Y230.804   
   X191.019      Y230.663   
   X191.233      Y230.575   
   X191.462      Y230.545   
   X191.691      Y230.575   
   X191.905      Y230.663   
   X192.089      Y230.804   
   X192.229      Y230.988   
   X192.318      Y231.201   
   X192.362      Y231.535   
   Y240.137   
   X192.312      Y240.472   
   X192.223      Y240.686   
   X192.083      Y240.869   
   X191.899      Y241.010   
   X191.685      Y241.099   
   X191.456      Y241.129   
   X191.227      Y241.099   
   X191.013      Y241.010   
   X190.829      Y240.869   
   X190.688      Y240.686   
   X190.600      Y240.472   
   X190.556      Y240.138   
   Y231.536   
(Pass: 3)
   Z2.000      F200 
   X190.606      Y231.201    F400 
   X190.694      Y230.988   
   X190.835      Y230.804   
   X191.019      Y230.663   
   X191.233      Y230.575   
   X191.462      Y230.545   
   X191.691      Y230.575   
   X191.905      Y230.663   
   X192.089      Y230.804   
   X192.229      Y230.988   
   X192.318      Y231.201   
   X192.362      Y231.535   
   Y240.137   
   X192.312      Y240.472   
   X192.223      Y240.686   
   X192.083      Y240.869   
   X191.899      Y241.010   
   X191.685      Y241.099   
   X191.456      Y241.129   
   X191.227      Y241.099   
   X191.013      Y241.010   
   X190.829      Y240.869   
   X190.688      Y240.686   
   X190.600      Y240.472   
   X190.556      Y240.138   
   Y231.536   
(Pass: 4)
   Z1.600      F200 
   X190.606      Y231.201    F400 
   X190.694      Y230.988   
   X190.835      Y230.804   
   X191.019      Y230.663   
   X191.233      Y230.575   
   X191.462      Y230.545   
   X191.691      Y230.575   
   X191.905      Y230.663   
   X192.089      Y230.804   
   X192.229      Y230.988   
   X192.318      Y231.201   
   X192.362      Y231.535   
   Y240.137   
   X192.312      Y240.472   
   X192.223      Y240.686   
   X192.083      Y240.869   
   X191.899      Y241.010   
   X191.685      Y241.099   
   X191.456      Y241.129   
   X191.227      Y241.099   
   X191.013      Y241.010   
   X190.829      Y240.869   
   X190.688      Y240.686   
   X190.600      Y240.472   
   X190.556      Y240.138   
   Y231.536   
(Pass: 5)
   Z1.200      F200 
   X190.606      Y231.201    F400 
   X190.694      Y230.988   
   X190.835      Y230.804   
   X191.019      Y230.663   
   X191.233      Y230.575   
   X191.462      Y230.545   
   X191.691      Y230.575   
   X191.905      Y230.663   
   X192.089      Y230.804   
   X192.229      Y230.988   
   X192.318      Y231.201   
   X192.362      Y231.535   
   Y240.137   
   X192.312      Y240.472   
   X192.223      Y240.686   
   X192.083      Y240.869   
   X191.899      Y241.010   
   X191.685      Y241.099   
   X191.456      Y241.129   
   X191.227      Y241.099   
   X191.013      Y241.010   
   X190.829      Y240.869   
   X190.688      Y240.686   
   X190.600      Y240.472   
   X190.556      Y240.138   
   Y231.536   
(Pass: 6)
   Z0.800      F200 
   X190.606      Y231.201    F400 
   X190.694      Y230.988   
   X190.835      Y230.804   
   X191.019      Y230.663   
   X191.233      Y230.575   
   X191.462      Y230.545   
   X191.691      Y230.575   
   X191.905      Y230.663   
   X192.089      Y230.804   
   X192.229      Y230.988   
   X192.318      Y231.201   
   X192.362      Y231.535   
   Y240.137   
   X192.312      Y240.472   
   X192.223      Y240.686   
   X192.083      Y240.869   
   X191.899      Y241.010   
   X191.685      Y241.099   
   X191.456      Y241.129   
   X191.227      Y241.099   
   X191.013      Y241.010   
   X190.829      Y240.869   
   X190.688      Y240.686   
   X190.600      Y240.472   
   X190.556      Y240.138   
   Y231.536   
(Pass: 7)
   Z0.400      F200 
   X190.606      Y231.201    F400 
   X190.694      Y230.988   
   X190.835      Y230.804   
   X191.019      Y230.663   
