%
(Generated by SketchUcam {1.2})
(File: Router Control Board copy.skp)
(Bit diameter: 2.0mm)
(Feed rate: 400.0mm/min)
(Plunge Feed rate: 300.0mm/min)
(Material Thickness: 3.5mm)
(Material length: 2550.0mm X width: 1220.0mm)
(Overhead Gantry: true)
(Retract feed rate NOT limited to plunge feed rate)
(Multipass enabled, Depth = 0.5mm)
(Optimization is ON)
(www.PhlatBoyz.com)
G90 G21 G49 
M3 S11000
G0   Z5.000     
(Pass: 1)
   X5.718        Y15.255    
G1   Z-0.500     F300 
G17 G2   X5.6550       Y15.2625      R0.2500     F400 
   X5.5967       Y15.2863      R0.2500    
   X5.5465       Y15.3244      R0.2500    
   X5.5079       Y15.3742      R0.2500    
   X5.4835       Y15.4323      R0.2500    
   X5.4750       Y15.4947      R0.2500    
   X5.4829       Y15.5572      R0.2500    
   X5.5067       Y15.6156      R0.2500    
   X5.5448       Y15.6657      R0.2500    
   X5.5946       Y15.7043      R0.2500    
   X5.6527       Y15.7287      R0.2500    
   X5.7152       Y15.7373      R0.2500    
   X5.7777       Y15.7294      R0.2500    
   X5.8360       Y15.7055      R0.2500    
   X5.8862       Y15.6674      R0.2500    
   X5.9248       Y15.6176      R0.2500    
   X5.9492       Y15.5595      R0.2500    
   X5.9577       Y15.4971      R0.2500    
   X5.9498       Y15.4346      R0.2500    
   X5.9260       Y15.3763      R0.2500    
   X5.8879       Y15.3261      R0.2500    
   X5.8381       Y15.2875      R0.2500    
   X5.7800       Y15.2631      R0.2500    
   X5.7176       Y15.2545      R0.2500    
(Pass: 2)
G1   Z-1.000     F300 
G17 G2   X5.6550       Y15.2625      R0.2500     F400 
   X5.5967       Y15.2863      R0.2500    
   X5.5465       Y15.3244      R0.2500    
   X5.5079       Y15.3742      R0.2500    
   X5.4835       Y15.4323      R0.2500    
   X5.4750       Y15.4947      R0.2500    
   X5.4829       Y15.5572      R0.2500    
   X5.5067       Y15.6156      R0.2500    
   X5.5448       Y15.6657      R0.2500    
   X5.5946       Y15.7043      R0.2500    
   X5.6527       Y15.7287      R0.2500    
   X5.7152       Y15.7373      R0.2500    
   X5.7777       Y15.7294      R0.2500    
   X5.8360       Y15.7055      R0.2500    
   X5.8862       Y15.6674      R0.2500    
   X5.9248       Y15.6176      R0.2500    
   X5.9492       Y15.5595      R0.2500    
   X5.9577       Y15.4971      R0.2500    
   X5.9498       Y15.4346      R0.2500    
   X5.9260       Y15.3763      R0.2500    
   X5.8879       Y15.3261      R0.2500    
   X5.8381       Y15.2875      R0.2500    
   X5.7800       Y15.2631      R0.2500    
   X5.7176       Y15.2545      R0.2500    
(Pass: 3)
G1   Z-1.500     F300 
G17 G2   X5.6550       Y15.2625      R0.2500     F400 
   X5.5967       Y15.2863      R0.2500    
   X5.5465       Y15.3244      R0.2500    
   X5.5079       Y15.3742      R0.2500    
   X5.4835       Y15.4323      R0.2500    
   X5.4750       Y15.4947      R0.2500    
   X5.4829       Y15.5572      R0.2500    
   X5.5067       Y15.6156      R0.2500    
   X5.5448       Y15.6657      R0.2500    
   X5.5946       Y15.7043      R0.2500    
   X5.6527       Y15.7287      R0.2500    
   X5.7152       Y15.7373      R0.2500    
   X5.7777       Y15.7294      R0.2500    
   X5.8360       Y15.7055      R0.2500    
   X5.8862       Y15.6674      R0.2500    
   X5.9248       Y15.6176      R0.2500    
   X5.9492       Y15.5595      R0.2500    
   X5.9577       Y15.4971      R0.2500    
   X5.9498       Y15.4346      R0.2500    
   X5.9260       Y15.3763      R0.2500    
   X5.8879       Y15.3261      R0.2500    
   X5.8381       Y15.2875      R0.2500    
   X5.7800       Y15.2631      R0.2500    
   X5.7176       Y15.2545      R0.2500    
(Pass: 4)
G1   Z-2.000     F300 
G17 G2   X5.6550       Y15.2625      R0.2500     F400 
   X5.5967       Y15.2863      R0.2500    
   X5.5465       Y15.3244      R0.2500    
   X5.5079       Y15.3742      R0.2500    
   X5.4835       Y15.4323      R0.2500    
   X5.4750       Y15.4947      R0.2500    
   X5.4829       Y15.5572      R0.2500    
   X5.5067       Y15.6156      R0.2500    
   X5.5448       Y15.6657      R0.2500    
   X5.5946       Y15.7043      R0.2500    
   X5.6527       Y15.7287      R0.2500    
   X5.7152       Y15.7373      R0.2500    
   X5.7777       Y15.7294      R0.2500    
   X5.8360       Y15.7055      R0.2500    
   X5.8862       Y15.6674      R0.2500    
   X5.9248       Y15.6176      R0.2500    
   X5.9492       Y15.5595      R0.2500    
   X5.9577       Y15.4971      R0.2500    
   X5.9498       Y15.4346      R0.2500    
   X5.9260       Y15.3763      R0.2500    
   X5.8879       Y15.3261      R0.2500    
   X5.8381       Y15.2875      R0.2500    
   X5.7800       Y15.2631      R0.2500    
   X5.7176       Y15.2545      R0.2500    
(Pass: 5)
G1   Z-2.500     F300 
G17 G2   X5.6550       Y15.2625      R0.2500     F400 
   X5.5967       Y15.2863      R0.2500    
   X5.5465       Y15.3244      R0.2500    
   X5.5079       Y15.3742      R0.2500    
   X5.4835       Y15.4323      R0.2500    
   X5.4750       Y15.4947      R0.2500    
   X5.4829       Y15.5572      R0.2500    
   X5.5067       Y15.6156      R0.2500    
   X5.5448       Y15.6657      R0.2500    
   X5.5946       Y15.7043      R0.2500    
   X5.6527       Y15.7287      R0.2500    
   X5.7152       Y15.7373      R0.2500    
   X5.7777       Y15.7294      R0.2500    
   X5.8360       Y15.7055      R0.2500    
   X5.8862       Y15.6674      R0.2500    
   X5.9248       Y15.6176      R0.2500    
   X5.9492       Y15.5595      R0.2500    
   X5.9577       Y15.4971      R0.2500    
   X5.9498       Y15.4346      R0.2500    
   X5.9260       Y15.3763      R0.2500    
   X5.8879       Y15.3261      R0.2500    
   X5.8381       Y15.2875      R0.2500    
   X5.7800       Y15.2631      R0.2500    
   X5.7176       Y15.2545      R0.2500    
(Pass: 6)
G1   Z-3.000     F300 
G17 G2   X5.6550       Y15.2625      R0.2500     F400 
   X5.5967       Y15.2863      R0.2500    
   X5.5465       Y15.3244      R0.2500    
   X5.5079       Y15.3742      R0.2500    
   X5.4835       Y15.4323      R0.2500    
   X5.4750       Y15.4947      R0.2500    
   X5.4829       Y15.5572      R0.2500    
   X5.5067       Y15.6156      R0.2500    
   X5.5448       Y15.6657      R0.2500    
   X5.5946       Y15.7043      R0.2500    
   X5.6527       Y15.7287      R0.2500    
   X5.7152       Y15.7373      R0.2500    
   X5.7777       Y15.7294      R0.2500    
   X5.8360       Y15.7055      R0.2500    
   X5.8862       Y15.6674      R0.2500    
   X5.9248       Y15.6176      R0.2500    
   X5.9492       Y15.5595      R0.2500    
   X5.9577       Y15.4971      R0.2500    
   X5.9498       Y15.4346      R0.2500    
   X5.9260       Y15.3763      R0.2500    
   X5.8879       Y15.3261      R0.2500    
   X5.8381       Y15.2875      R0.2500    
   X5.7800       Y15.2631      R0.2500    
   X5.7176       Y15.2545      R0.2500    
(Pass: 7)
G1   Z-3.500     F300 
G17 G2   X5.6550       Y15.2625      R0.2500     F400 
   X5.5967       Y15.2863      R0.2500    
   X5.5465       Y15.3244      R0.2500    
   X5.5079       Y15.3742      R0.2500    
   X5.4835       Y15.4323      R0.2500    
   X5.4750       Y15.4947      R0.2500    
   X5.4829       Y15.5572      R0.2500    
   X5.5067       Y15.6156      R0.2500    
   X5.5448       Y15.6657      R0.2500    
   X5.5946       Y15.7043      R0.2500    
   X5.6527       Y15.7287      R0.2500    
   X5.7152       Y15.7373      R0.2500    
   X5.7777       Y15.7294      R0.2500    
   X5.8360       Y15.7055      R0.2500    
   X5.8862       Y15.6674      R0.2500    
   X5.9248       Y15.6176      R0.2500    
   X5.9492       Y15.5595      R0.2500    
   X5.9577       Y15.4971      R0.2500    
   X5.9498       Y15.4346      R0.2500    
   X5.9260       Y15.3763      R0.2500    
   X5.8879       Y15.3261      R0.2500    
   X5.8381       Y15.2875      R0.2500    
   X5.7800       Y15.2631      R0.2500    
   X5.7176       Y15.2545      R0.2500    
G0   Z5.000     
(Pass: 1)
   X15.437       Y31.493    
G1   Z-0.500     F300 
G17 G3   X15.1340      Y31.7376      R1.5000     F400 
G1   X15.793       Y31.336    
G17 G3   X15.4372      Y31.4933      R1.5000    
G1   X16.178       Y31.276    
G17 G3   X15.7932      Y31.3358      R1.5000    
G1   X16.565    
G17 G3   X16.1779      Y31.2758      R1.5000    
G1   X16.928       Y31.458    
G17 G3   X16.5650      Y31.3175      R1.5000    
G1   X17.243       Y31.687    
G17 G3   X16.9281      Y31.4579      R1.5000    
G1   X17.487       Y31.991    
G17 G3   X17.2426      Y31.6875      R1.5000    
G1   X17.644       Y32.347    
G17 G3   X17.4868      Y31.9906      R1.5000    
G1   X17.704       Y32.731    
G17 G3   X17.6443      Y32.3467      R1.5000    
G1   Y33.118    
G17 G3   X17.7043      Y32.7314      R1.5000    
G1   X17.522       Y33.482    
G17 G3   X17.6626      Y33.1185      R1.5000    
G1   X17.293       Y33.796    
G17 G3   X17.5222      Y33.4816      R1.5000    
G1   X16.989       Y34.040    
G17 G3   X17.2926      Y33.7960      R1.5000    
G1   X16.633       Y34.198    
G17 G3   X16.9895      Y34.0403      R1.5000    
G1   X16.249       Y34.258    
G17 G3   X16.6334      Y34.1978      R1.5000    
G1   X15.862    
G17 G3   X16.2487      Y34.2577      R1.5000    
G1   X15.499       Y34.076    
G17 G3   X15.8616      Y34.2161      R1.5000    
G1   X15.184       Y33.846    
G17 G3   X15.4985      Y34.0757      R1.5000    
G1   X14.940       Y33.543    
G17 G3   X15.1841      Y33.8461      R1.5000    
G1   X14.782       Y33.187    
G17 G3   X14.9398      Y33.5429      R1.5000    
G1   X14.722       Y32.802    
G17 G3   X14.7823      Y33.1869      R1.5000    
G1   Y32.415    
G17 G3   X14.7224      Y32.8022      R1.5000    
G1   X14.904       Y32.052    
G17 G3   X14.7640      Y32.4151      R1.5000    
G1   X15.134       Y31.738    
G17 G3   X14.9044      Y32.0520      R1.5000    
(Pass: 2)
G1   X15.437       Y31.493    
   Z-1.000     F300 
G17 G3   X15.1340      Y31.7376      R1.5000     F400 
G1   X15.793       Y31.336    
G17 G3   X15.4372      Y31.4933      R1.5000    
G1   X16.178       Y31.276    
G17 G3   X15.7932      Y31.3358      R1.5000    
G1   X16.565    
G17 G3   X16.1779      Y31.2758      R1.5000    
G1   X16.928       Y31.458    
G17 G3   X16.5650      Y31.3175      R1.5000    
G1   X17.243       Y31.687    
G17 G3   X16.9281      Y31.4579      R1.5000    
G1   X17.487       Y31.991    
G17 G3   X17.2426      Y31.6875      R1.5000    
G1   X17.644       Y32.347    
G17 G3   X17.4868      Y31.9906      R1.5000    
G1   X17.704       Y32.731    
G17 G3   X17.6443      Y32.3467      R1.5000    
G1   Y33.118    
G17 G3   X17.7043      Y32.7314      R1.5000    
G1   X17.522       Y33.482    
G17 G3   X17.6626      Y33.1185      R1.5000    
G1   X17.293       Y33.796    
G17 G3   X17.5222      Y33.4816      R1.5000    
G1   X16.989       Y34.040    
G17 G3   X17.2926      Y33.7960      R1.5000    
G1   X16.633       Y34.198    
G17 G3   X16.9895      Y34.0403      R1.5000    
G1   X16.249       Y34.258    
G17 G3   X16.6334      Y34.1978      R1.5000    
G1   X15.862    
G17 G3   X16.2487      Y34.2577      R1.5000    
G1   X15.499       Y34.076    
G17 G3   X15.8616      Y34.2161      R1.5000    
G1   X15.184       Y33.846    
G17 G3   X15.4985      Y34.0757      R1.5000    
G1   X14.940       Y33.543    
G17 G3   X15.1841      Y33.8461      R1.5000    
G1   X14.782       Y33.187    
G17 G3   X14.9398      Y33.5429      R1.5000    
G1   X14.722       Y32.802    
G17 G3   X14.7823      Y33.1869      R1.5000    
G1   Y32.415    
G17 G3   X14.7224      Y32.8022      R1.5000    
G1   X14.904       Y32.052    
G17 G3   X14.7640      Y32.4151      R1.5000    
G1   X15.134       Y31.738    
G17 G3   X14.9044      Y32.0520      R1.5000    
(Pass: 3)
G1   X15.437       Y31.493    
   Z-1.500     F300 
G17 G3   X15.1340      Y31.7376      R1.5000     F400 
G1   X15.793       Y31.336    
G17 G3   X15.4372      Y31.4933      R1.5000    
G1   X16.178       Y31.276    
G17 G3   X15.7932      Y31.3358      R1.5000    
G1   X16.565    
G17 G3   X16.1779      Y31.2758      R1.5000    
G1   X16.928       Y31.458    
G17 G3   X16.5650      Y31.3175      R1.5000    
G1   X17.243       Y31.687    
G17 G3   X16.9281      Y31.4579      R1.5000    
G1   X17.487       Y31.991    
G17 G3   X17.2426      Y31.6875      R1.5000    
G1   X17.644       Y32.347    
G17 G3   X17.4868      Y31.9906      R1.5000    
G1   X17.704       Y32.731    
G17 G3   X17.6443      Y32.3467      R1.5000    
G1   Y33.118    
G17 G3   X17.7043      Y32.7314      R1.5000    
G1   X17.522       Y33.482    
G17 G3   X17.6626      Y33.1185      R1.5000    
G1   X17.293       Y33.796    
G17 G3   X17.5222      Y33.4816      R1.5000    
G1   X16.989       Y34.040    
G17 G3   X17.2926      Y33.7960      R1.5000    
G1   X16.633       Y34.198    
G17 G3   X16.9895      Y34.0403      R1.5000    
G1   X16.249       Y34.258    
G17 G3   X16.6334      Y34.1978      R1.5000    
G1   X15.862    
G17 G3   X16.2487      Y34.2577      R1.5000    
G1   X15.499       Y34.076    
G17 G3   X15.8616      Y34.2161      R1.5000    
G1   X15.184       Y33.846    
G17 G3   X15.4985      Y34.0757      R1.5000    
G1   X14.940       Y33.543    
G17 G3   X15.1841      Y33.8461      R1.5000    
G1   X14.782       Y33.187    
G17 G3   X14.9398      Y33.5429      R1.5000    
G1   X14.722       Y32.802    
G17 G3   X14.7823      Y33.1869      R1.5000    
G1   Y32.415    
G17 G3   X14.7224      Y32.8022      R1.5000    
G1   X14.904       Y32.052    
G17 G3   X14.7640      Y32.4151      R1.5000    
G1   X15.134       Y31.738    
G17 G3   X14.9044      Y32.0520      R1.5000    
(Pass: 4)
G1   X15.437       Y31.493    
   Z-2.000     F300 
G17 G3   X15.1340      Y31.7376      R1.5000     F400 
G1   X15.793       Y31.336    
G17 G3   X15.4372      Y31.4933      R1.5000    
G1   X16.178       Y31.276    
G17 G3   X15.7932      Y31.3358      R1.5000    
G1   X16.565    
G17 G3   X16.1779      Y31.2758      R1.5000    
G1   X16.928       Y31.458    
G17 G3   X16.5650      Y31.3175      R1.5000    
G1   X17.243       Y31.687    
G17 G3   X16.9281      Y31.4579      R1.5000    
G1   X17.487       Y31.991    
G17 G3   X17.2426      Y31.6875      R1.5000    
G1   X17.644       Y32.347    
G17 G3   X17.4868      Y31.9906      R1.5000    
G1   X17.704       Y32.731    
G17 G3   X17.6443      Y32.3467      R1.5000    
G1   Y33.118    
G17 G3   X17.7043      Y32.7314      R1.5000    
G1   X17.522       Y33.482    
G17 G3   X17.6626      Y33.1185      R1.5000    
G1   X17.293       Y33.796    
G17 G3   X17.5222      Y33.4816      R1.5000    
G1   X16.989       Y34.040    
G17 G3   X17.2926      Y33.7960      R1.5000    
G1   X16.633       Y34.198    
G17 G3   X16.9895      Y34.0403      R1.5000    
G1   X16.249       Y34.258    
G17 G3   X16.6334      Y34.1978      R1.5000    
G1   X15.862    
G17 G3   X16.2487      Y34.2577      R1.5000    
G1   X15.499       Y34.076    
G17 G3   X15.8616      Y34.2161      R1.5000    
G1   X15.184       Y33.846    
G17 G3   X15.4985      Y34.0757      R1.5000    
G1   X14.940       Y33.543    
G17 G3   X15.1841      Y33.8461      R1.5000    
G1   X14.782       Y33.187    
G17 G3   X14.9398      Y33.5429      R1.5000    
G1   X14.722       Y32.802    
G17 G3   X14.7823      Y33.1869      R1.5000    
G1   Y32.415    
G17 G3   X14.7224      Y32.8022      R1.5000    
G1   X14.904       Y32.052    
G17 G3   X14.7640      Y32.4151      R1.5000    
G1   X15.134       Y31.738    
G17 G3   X14.9044      Y32.0520      R1.5000    
(Pass: 5)
G1   X15.437       Y31.493    
   Z-2.500     F300 
G17 G3   X15.1340      Y31.7376      R1.5000     F400 
G1   X15.793       Y31.336    
G17 G3   X15.4372      Y31.4933      R1.5000    
G1   X16.178       Y31.276    
G17 G3   X15.7932      Y31.3358      R1.5000    
G1   X16.565    
G17 G3   X16.1779      Y31.2758      R1.5000    
G1   X16.928       Y31.458    
G17 G3   X16.5650      Y31.3175      R1.5000    
G1   X17.243       Y31.687    
G17 G3   X16.9281      Y31.4579      R1.5000    
G1   X17.487       Y31.991    
G17 G3   X17.2426      Y31.6875      R1.5000    
G1   X17.644       Y32.347    
G17 G3   X17.4868      Y31.9906      R1.5000    
G1   X17.704       Y32.731    
G17 G3   X17.6443      Y32.3467      R1.5000    
G1   Y33.118    
G17 G3   X17.7043      Y32.7314      R1.5000    
G1   X17.522       Y33.482    
G17 G3   X17.6626      Y33.1185      R1.5000    
G1   X17.293       Y33.796    
G17 G3   X17.5222      Y33.4816      R1.5000    
G1   X16.989       Y34.040    
G17 G3   X17.2926      Y33.7960      R1.5000    
G1   X16.633       Y34.198    
G17 G3   X16.9895      Y34.0403      R1.5000    
G1   X16.249       Y34.258    
G17 G3   X16.6334      Y34.1978      R1.5000    
G1   X15.862    
G17 G3   X16.2487      Y34.2577      R1.5000    
G1   X15.499       Y34.076    
G17 G3   X15.8616      Y34.2161      R1.5000    
G1   X15.184       Y33.846    
G17 G3   X15.4985      Y34.0757      R1.5000    
G1   X14.940       Y33.543    
G17 G3   X15.1841      Y33.8461      R1.5000    
G1   X14.782       Y33.187    
G17 G3   X14.9398      Y33.5429      R1.5000    
G1   X14.722       Y32.802    
G17 G3   X14.7823      Y33.1869      R1.5000    
G1   Y32.415    
G17 G3   X14.7224      Y32.8022      R1.5000    
G1   X14.904       Y32.052    
G17 G3   X14.7640      Y32.4151      R1.5000    
G1   X15.134       Y31.738    
G17 G3   X14.9044      Y32.0520      R1.5000    
(Pass: 6)
G1   X15.437       Y31.493    
   Z-3.000     F300 
G17 G3   X15.1340      Y31.7376      R1.5000     F400 
G1   X15.793       Y31.336    
G17 G3   X15.4372      Y31.4933      R1.5000    
G1   X16.178       Y31.276    
G17 G3   X15.7932      Y31.3358      R1.5000    
G1   X16.565    
G17 G3   X16.1779      Y31.2758      R1.5000    
G1   X16.928       Y31.458    
G17 G3   X16.5650      Y31.3175      R1.5000    
G1   X17.243       Y31.687    
G17 G3   X16.9281      Y31.4579      R1.5000    
G1   X17.487       Y31.991    
G17 G3   X17.2426      Y31.6875      R1.5000    
G1   X17.644       Y32.347    
G17 G3   X17.4868      Y31.9906      R1.5000    
G1   X17.704       Y32.731    
G17 G3   X17.6443      Y32.3467      R1.5000    
G1   Y33.118    
G17 G3   X17.7043      Y32.7314      R1.5000    
G1   X17.522       Y33.482    
G17 G3   X17.6626      Y33.1185      R1.5000    
G1   X17.293       Y33.796    
G17 G3   X17.5222      Y33.4816      R1.5000    
G1   X16.989       Y34.040    
G17 G3   X17.2926      Y33.7960      R1.5000    
G1   X16.633       Y34.198    
G17 G3   X16.9895      Y34.0403      R1.5000    
G1   X16.249       Y34.258    
G17 G3   X16.6334      Y34.1978      R1.5000    
G1   X15.862    
G17 G3   X16.2487      Y34.2577      R1.5000    
G1   X15.499       Y34.076    
G17 G3   X15.8616      Y34.2161      R1.5000    
G1   X15.184       Y33.846    
G17 G3   X15.4985      Y34.0757      R1.5000    
G1   X14.940       Y33.543    
G17 G3   X15.1841      Y33.8461      R1.5000    
G1   X14.782       Y33.187    
G17 G3   X14.9398      Y33.5429      R1.5000    
G1   X14.722       Y32.802    
G17 G3   X14.7823      Y33.1869      R1.5000    
G1   Y32.415    
G17 G3   X14.7224      Y32.8022      R1.5000    
G1   X14.904       Y32.052    
G17 G3   X14.7640      Y32.4151      R1.5000    
G1   X15.134       Y31.738    
G17 G3   X14.9044      Y32.0520      R1.5000    
(Pass: 7)
G1   X15.437       Y31.493    
   Z-3.500     F300 
G17 G3   X15.1340      Y31.7376      R1.5000     F400 
G1   X15.793       Y31.336    
G17 G3   X15.4372      Y31.4933      R1.5000    
G1   X16.178       Y31.276    
G17 G3   X15.7932      Y31.3358      R1.5000    
G1   X16.565    
G17 G3   X16.1779      Y31.2758      R1.5000    
G1   X16.928       Y31.458    
G17 G3   X16.5650      Y31.3175      R1.5000    
G1   X17.243       Y31.687    
G17 G3   X16.9281      Y31.4579      R1.5000    
G1   X17.487       Y31.991    
G17 G3   X17.2426      Y31.6875      R1.5000    
G1   X17.644       Y32.347    
G17 G3   X17.4868      Y31.9906      R1.5000    
G1   X17.704       Y32.731    
G17 G3   X17.6443      Y32.3467      R1.5000    
G1   Y33.118    
G17 G3   X17.7043      Y32.7314      R1.5000    
G1   X17.522       Y33.482    
G17 G3   X17.6626      Y33.1185      R1.5000    
G1   X17.293       Y33.796    
G17 G3   X17.5222      Y33.4816      R1.5000    
G1   X16.989       Y34.040    
G17 G3   X17.2926      Y33.7960      R1.5000    
G1   X16.633       Y34.198    
G17 G3   X16.9895      Y34.0403      R1.5000    
G1   X16.249       Y34.258    
G17 G3   X16.6334      Y34.1978      R1.5000    
G1   X15.862    
G17 G3   X16.2487      Y34.2577      R1.5000    
G1   X15.499       Y34.076    
G17 G3   X15.8616      Y34.2161      R1.5000    
G1   X15.184       Y33.846    
G17 G3   X15.4985      Y34.0757      R1.5000    
G1   X14.940       Y33.543    
G17 G3   X15.1841      Y33.8461      R1.5000    
G1   X14.782       Y33.187    
G17 G3   X14.9398      Y33.5429      R1.5000    
G1   X14.722       Y32.802    
G17 G3   X14.7823      Y33.1869      R1.5000    
G1   Y32.415    
G17 G3   X14.7224      Y32.8022      R1.5000    
G1   X14.904       Y32.052    
G17 G3   X14.7640      Y32.4151      R1.5000    
G1   X15.134       Y31.738    
G17 G3   X14.9044      Y32.0520      R1.5000    
G0   Z5.000     
(Pass: 1)
   X27.534       Y5.654     
G1   Z-0.500     F300 
G17 G2   X27.5814      Y5.6960       R0.2500     F400 
   X27.6378      Y5.7241       R0.2500    
   X27.6995      Y5.7367       R0.2500    
   X27.7624      Y5.7328       R0.2500    
   X27.8222      Y5.7128       R0.2500    
   X27.8747      Y5.6781       R0.2500    
   X27.9165      Y5.6309       R0.2500    
   X27.9446      Y5.5745       R0.2500    
   X27.9571      Y5.5127       R0.2500    
   X27.9533      Y5.4498       R0.2500    
   X27.9333      Y5.3901       R0.2500    
   X27.8985      Y5.3375       R0.2500    
   X27.8513      Y5.2958       R0.2500    
   X27.7949      Y5.2677       R0.2500    
   X27.7332      Y5.2551       R0.2500    
   X27.6703      Y5.2590       R0.2500    
   X27.6105      Y5.2790       R0.2500    
   X27.5580      Y5.3137       R0.2500    
   X27.5162      Y5.3609       R0.2500    
   X27.4881      Y5.4173       R0.2500    
   X27.4756      Y5.4791       R0.2500    
   X27.4794      Y5.5420       R0.2500    
   X27.4994      Y5.6017       R0.2500    
   X27.5342      Y5.6543       R0.2500    
(Pass: 2)
G1   Z-1.000     F300 
G17 G2   X27.5814      Y5.6960       R0.2500     F400 
   X27.6378      Y5.7241       R0.2500    
   X27.6995      Y5.7367       R0.2500    
   X27.7624      Y5.7328       R0.2500    
   X27.8222      Y5.7128       R0.2500    
   X27.8747      Y5.6781       R0.2500    
   X27.9165      Y5.6309       R0.2500    
   X27.9446      Y5.5745       R0.2500    
   X27.9571      Y5.5127       R0.2500    
   X27.9533      Y5.4498       R0.2500    
   X27.9333      Y5.3901       R0.2500    
   X27.8985      Y5.3375       R0.2500    
   X27.8513      Y5.2958       R0.2500    
   X27.7949      Y5.2677       R0.2500    
   X27.7332      Y5.2551       R0.2500    
   X27.6703      Y5.2590       R0.2500    
   X27.6105      Y5.2790       R0.2500    
   X27.5580      Y5.3137       R0.2500    
   X27.5162      Y5.3609       R0.2500    
   X27.4881      Y5.4173       R0.2500    
   X27.4756      Y5.4791       R0.2500    
   X27.4794      Y5.5420       R0.2500    
   X27.4994      Y5.6017       R0.2500    
   X27.5342      Y5.6543       R0.2500    
(Pass: 3)
G1   Z-1.500     F300 
G17 G2   X27.5814      Y5.6960       R0.2500     F400 
   X27.6378      Y5.7241       R0.2500    
   X27.6995      Y5.7367       R0.2500    
   X27.7624      Y5.7328       R0.2500    
   X27.8222      Y5.7128       R0.2500    
   X27.8747      Y5.6781       R0.2500    
   X27.9165      Y5.6309       R0.2500    
   X27.9446      Y5.5745       R0.2500    
   X27.9571      Y5.5127       R0.2500    
   X27.9533      Y5.4498       R0.2500    
   X27.9333      Y5.3901       R0.2500    
   X27.8985      Y5.3375       R0.2500    
   X27.8513      Y5.2958       R0.2500    
   X27.7949      Y5.2677       R0.2500    
   X27.7332      Y5.2551       R0.2500    
   X27.6703      Y5.2590       R0.2500    
   X27.6105      Y5.2790       R0.2500    
   X27.5580      Y5.3137       R0.2500    
   X27.5162      Y5.3609       R0.2500    
   X27.4881      Y5.4173       R0.2500    
   X27.4756      Y5.4791       R0.2500    
   X27.4794      Y5.5420       R0.2500    
   X27.4994      Y5.6017       R0.2500    
   X27.5342      Y5.6543       R0.2500    
(Pass: 4)
G1   Z-2.000     F300 
G17 G2   X27.5814      Y5.6960       R0.2500     F400 
   X27.6378      Y5.7241       R0.2500    
   X27.6995      Y5.7367       R0.2500    
   X27.7624      Y5.7328       R0.2500    
   X27.8222      Y5.7128       R0.2500    
   X27.8747      Y5.6781       R0.2500    
   X27.9165      Y5.6309       R0.2500    
   X27.9446      Y5.5745       R0.2500    
   X27.9571      Y5.5127       R0.2500    
   X27.9533      Y5.4498       R0.2500    
   X27.9333      Y5.3901       R0.2500    
   X27.8985      Y5.3375       R0.2500    
   X27.8513      Y5.2958       R0.2500    
   X27.7949      Y5.2677       R0.2500    
   X27.7332      Y5.2551       R0.2500    
   X27.6703      Y5.2590       R0.2500    
   X27.6105      Y5.2790       R0.2500    
   X27.5580      Y5.3137       R0.2500    
   X27.5162      Y5.3609       R0.2500    
   X27.4881      Y5.4173       R0.2500    
   X27.4756      Y5.4791       R0.2500    
   X27.4794      Y5.5420       R0.2500    
   X27.4994      Y5.6017       R0.2500    
   X27.5342      Y5.6543       R0.2500    
(Pass: 5)
G1   Z-2.500     F300 
G17 G2   X27.5814      Y5.6960       R0.2500     F400 
   X27.6378      Y5.7241       R0.2500    
   X27.6995      Y5.7367       R0.2500    
   X27.7624      Y5.7328       R0.2500    
   X27.8222      Y5.7128       R0.2500    
   X27.8747      Y5.6781       R0.2500    
   X27.9165      Y5.6309       R0.2500    
   X27.9446      Y5.5745       R0.2500    
   X27.9571      Y5.5127       R0.2500    
   X27.9533      Y5.4498       R0.2500    
   X27.9333      Y5.3901       R0.2500    
   X27.8985      Y5.3375       R0.2500    
   X27.8513      Y5.2958       R0.2500    
   X27.7949      Y5.2677       R0.2500    
   X27.7332      Y5.2551       R0.2500    
   X27.6703      Y5.2590       R0.2500    
   X27.6105      Y5.2790       R0.2500    
   X27.5580      Y5.3137       R0.2500    
   X27.5162      Y5.3609       R0.2500    
   X27.4881      Y5.4173       R0.2500    
   X27.4756      Y5.4791       R0.2500    
   X27.4794      Y5.5420       R0.2500    
   X27.4994      Y5.6017       R0.2500    
   X27.5342      Y5.6543       R0.2500    
(Pass: 6)
G1   Z-3.000     F300 
G17 G2   X27.5814      Y5.6960       R0.2500     F400 
   X27.6378      Y5.7241       R0.2500    
   X27.6995      Y5.7367       R0.2500    
   X27.7624      Y5.7328       R0.2500    
   X27.8222      Y5.7128       R0.2500    
   X27.8747      Y5.6781       R0.2500    
   X27.9165      Y5.6309       R0.2500    
   X27.9446      Y5.5745       R0.2500    
   X27.9571      Y5.5127       R0.2500    
   X27.9533      Y5.4498       R0.2500    
   X27.9333      Y5.3901       R0.2500    
   X27.8985      Y5.3375       R0.2500    
   X27.8513      Y5.2958       R0.2500    
   X27.7949      Y5.2677       R0.2500    
   X27.7332      Y5.2551       R0.2500    
   X27.6703      Y5.2590       R0.2500    
   X27.6105      Y5.2790       R0.2500    
   X27.5580      Y5.3137       R0.2500    
   X27.5162      Y5.3609       R0.2500    
   X27.4881      Y5.4173       R0.2500    
   X27.4756      Y5.4791       R0.2500    
   X27.4794      Y5.5420       R0.2500    
   X27.4994      Y5.6017       R0.2500    
   X27.5342      Y5.6543       R0.2500    
(Pass: 7)
G1   Z-3.500     F300 
G17 G2   X27.5814      Y5.6960       R0.2500     F400 
   X27.6378      Y5.7241       R0.2500    
   X27.6995      Y5.7367       R0.2500    
   X27.7624      Y5.7328       R0.2500    
   X27.8222      Y5.7128       R0.2500    
   X27.8747      Y5.6781       R0.2500    
   X27.9165      Y5.6309       R0.2500    
   X27.9446      Y5.5745       R0.2500    
   X27.9571      Y5.5127       R0.2500    
   X27.9533      Y5.4498       R0.2500    
   X27.9333      Y5.3901       R0.2500    
   X27.8985      Y5.3375       R0.2500    
   X27.8513      Y5.2958       R0.2500    
   X27.7949      Y5.2677       R0.2500    
   X27.7332      Y5.2551       R0.2500    
   X27.6703      Y5.2590       R0.2500    
   X27.6105      Y5.2790       R0.2500    
   X27.5580      Y5.3137       R0.2500    
   X27.5162      Y5.3609       R0.2500    
   X27.4881      Y5.4173       R0.2500    
   X27.4756      Y5.4791       R0.2500    
   X27.4794      Y5.5420       R0.2500    
   X27.4994      Y5.6017       R0.2500    
   X27.5342      Y5.6543       R0.2500    
G0   Z5.000     
(Pass: 1)
   X16.224       Y151.609   
G1   Z-0.500     F300 
G17 G2   X15.8367      Y151.6507     R1.5000     F400 
   X15.4736      Y151.7911     R1.5000    
   X15.1591      Y152.0207     R1.5000    
   X14.9149      Y152.3239     R1.5000    
   X14.7574      Y152.6800     R1.5000    
   X14.6974      Y153.0646     R1.5000    
   X14.7391      Y153.4517     R1.5000    
   X14.8795      Y153.8149     R1.5000    
   X15.1091      Y154.1293     R1.5000    
   X15.4122      Y154.3735     R1.5000    
   X15.7683      Y154.5310     R1.5000    
   X16.1530      Y154.5910     R1.5000    
   X16.5401      Y154.5494     R1.5000    
   X16.9032      Y154.4089     R1.5000    
   X17.2176      Y154.1793     R1.5000    
   X17.4619      Y153.8762     R1.5000    
   X17.6194      Y153.5201     R1.5000    
   X17.6793      Y153.1354     R1.5000    
   X17.6377      Y152.7484     R1.5000    
   X17.4973      Y152.3852     R1.5000    
   X17.2677      Y152.0708     R1.5000    
   X16.9645      Y151.8265     R1.5000    
   X16.6085      Y151.6691     R1.5000    
   X16.2238      Y151.6091     R1.5000    
(Pass: 2)
G1   Z-1.000     F300 
G17 G2   X15.8367      Y151.6507     R1.5000     F400 
   X15.4736      Y151.7911     R1.5000    
   X15.1591      Y152.0207     R1.5000    
   X14.9149      Y152.3239     R1.5000    
   X14.7574      Y152.6800     R1.5000    
   X14.6974      Y153.0646     R1.5000    
   X14.7391      Y153.4517     R1.5000    
   X14.8795      Y153.8149     R1.5000    
   X15.1091      Y154.1293     R1.5000    
   X15.4122      Y154.3735     R1.5000    
   X15.7683      Y154.5310     R1.5000    
   X16.1530      Y154.5910     R1.5000    
   X16.5401      Y154.5494     R1.5000    
   X16.9032      Y154.4089     R1.5000    
   X17.2176      Y154.1793     R1.5000    
   X17.4619      Y153.8762     R1.5000    
   X17.6194      Y153.5201     R1.5000    
   X17.6793      Y153.1354     R1.5000    
   X17.6377      Y152.7484     R1.5000    
   X17.4973      Y152.3852     R1.5000    
   X17.2677      Y152.0708     R1.5000    
   X16.9645      Y151.8265     R1.5000    
   X16.6085      Y151.6691     R1.5000    
   X16.2238      Y151.6091     R1.5000    
(Pass: 3)
G1   Z-1.500     F300 
G17 G2   X15.8367      Y151.6507     R1.5000     F400 
   X15.4736      Y151.7911     R1.5000    
   X15.1591      Y152.0207     R1.5000    
   X14.9149      Y152.3239     R1.5000    
   X14.7574      Y152.6800     R1.5000    
   X14.6974      Y153.0646     R1.5000    
   X14.7391      Y153.4517     R1.5000    
   X14.8795      Y153.8149     R1.5000    
   X15.1091      Y154.1293     R1.5000    
   X15.4122      Y154.3735     R1.5000    
   X15.7683      Y154.5310     R1.5000    
   X16.1530      Y154.5910     R1.5000    
   X16.5401      Y154.5494     R1.5000    
   X16.9032      Y154.4089     R1.5000    
   X17.2176      Y154.1793     R1.5000    
   X17.4619      Y153.8762     R1.5000    
   X17.6194      Y153.5201     R1.5000    
   X17.6793      Y153.1354     R1.5000    
   X17.6377      Y152.7484     R1.5000    
   X17.4973      Y152.3852     R1.5000    
   X17.2677      Y152.0708     R1.5000    
   X16.9645      Y151.8265     R1.5000    
   X16.6085      Y151.6691     R1.5000    
   X16.2238      Y151.6091     R1.5000    
(Pass: 4)
G1   Z-2.000     F300 
G17 G2   X15.8367      Y151.6507     R1.5000     F400 
   X15.4736      Y151.7911     R1.5000    
   X15.1591      Y152.0207     R1.5000    
   X14.9149      Y152.3239     R1.5000    
   X14.7574      Y152.6800     R1.5000    
   X14.6974      Y153.0646     R1.5000    
   X14.7391      Y153.4517     R1.5000    
   X14.8795      Y153.8149     R1.5000    
   X15.1091      Y154.1293     R1.5000    
   X15.4122      Y154.3735     R1.5000    
   X15.7683      Y154.5310     R1.5000    
   X16.1530      Y154.5910     R1.5000    
   X16.5401      Y154.5494     R1.5000    
   X16.9032      Y154.4089     R1.5000    
   X17.2176      Y154.1793     R1.5000    
   X17.4619      Y153.8762     R1.5000    
   X17.6194      Y153.5201     R1.5000    
   X17.6793      Y153.1354     R1.5000    
   X17.6377      Y152.7484     R1.5000    
   X17.4973      Y152.3852     R1.5000    
   X17.2677      Y152.0708     R1.5000    
   X16.9645      Y151.8265     R1.5000    
   X16.6085      Y151.6691     R1.5000    
   X16.2238      Y151.6091     R1.5000    
(Pass: 5)
G1   Z-2.500     F300 
G17 G2   X15.8367      Y151.6507     R1.5000     F400 
   X15.4736      Y151.7911     R1.5000    
   X15.1591      Y152.0207     R1.5000    
   X14.9149      Y152.3239     R1.5000    
   X14.7574      Y152.6800     R1.5000    
   X14.6974      Y153.0646     R1.5000    
   X14.7391      Y153.4517     R1.5000    
   X14.8795      Y153.8149     R1.5000    
   X15.1091      Y154.1293     R1.5000    
   X15.4122      Y154.3735     R1.5000    
   X15.7683      Y154.5310     R1.5000    
   X16.1530      Y154.5910     R1.5000    
   X16.5401      Y154.5494     R1.5000    
   X16.9032      Y154.4089     R1.5000    
   X17.2176      Y154.1793     R1.5000    
   X17.4619      Y153.8762     R1.5000    
   X17.6194      Y153.5201     R1.5000    
   X17.6793      Y153.1354     R1.5000    
   X17.6377      Y152.7484     R1.5000    
   X17.4973      Y152.3852     R1.5000    
   X17.2677      Y152.0708     R1.5000    
   X16.9645      Y151.8265     R1.5000    
   X16.6085      Y151.6691     R1.5000    
   X16.2238      Y151.6091     R1.5000    
(Pass: 6)
G1   Z-3.000     F300 
G17 G2   X15.8367      Y151.6507     R1.5000     F400 
   X15.4736      Y151.7911     R1.5000    
   X15.1591      Y152.0207     R1.5000    
   X14.9149      Y152.3239     R1.5000    
   X14.7574      Y152.6800     R1.5000    
   X14.6974      Y153.0646     R1.5000    
   X14.7391      Y153.4517     R1.5000    
   X14.8795      Y153.8149     R1.5000    
   X15.1091      Y154.1293     R1.5000    
   X15.4122      Y154.3735     R1.5000    
   X15.7683      Y154.5310     R1.5000    
   X16.1530      Y154.5910     R1.5000    
   X16.5401      Y154.5494     R1.5000    
   X16.9032      Y154.4089     R1.5000    
   X17.2176      Y154.1793     R1.5000    
   X17.4619      Y153.8762     R1.5000    
   X17.6194      Y153.5201     R1.5000    
   X17.6793      Y153.1354     R1.5000    
   X17.6377      Y152.7484     R1.5000    
   X17.4973      Y152.3852     R1.5000    
   X17.2677      Y152.0708     R1.5000    
   X16.9645      Y151.8265     R1.5000    
   X16.6085      Y151.6691     R1.5000    
   X16.2238      Y151.6091     R1.5000    
(Pass: 7)
G1   Z-3.500     F300 
G17 G2   X15.8367      Y151.6507     R1.5000     F400 
   X15.4736      Y151.7911     R1.5000    
   X15.1591      Y152.0207     R1.5000    
   X14.9149      Y152.3239     R1.5000    
   X14.7574      Y152.6800     R1.5000    
   X14.6974      Y153.0646     R1.5000    
   X14.7391      Y153.4517     R1.5000    
   X14.8795      Y153.8149     R1.5000    
   X15.1091      Y154.1293     R1.5000    
   X15.4122      Y154.3735     R1.5000    
   X15.7683      Y154.5310     R1.5000    
   X16.1530      Y154.5910     R1.5000    
   X16.5401      Y154.5494     R1.5000    
   X16.9032      Y154.4089     R1.5000    
   X17.2176      Y154.1793     R1.5000    
   X17.4619      Y153.8762     R1.5000    
   X17.6194      Y153.5201     R1.5000    
   X17.6793      Y153.1354     R1.5000    
   X17.6377      Y152.7484     R1.5000    
   X17.4973      Y152.3852     R1.5000    
   X17.2677      Y152.0708     R1.5000    
   X16.9645      Y151.8265     R1.5000    
   X16.6085      Y151.6691     R1.5000    
   X16.2238      Y151.6091     R1.5000    
G0   Z5.000     
(Pass: 1)
   X5.811        Y170.161   
G1   Z-0.500     F300 
G17 G3   X5.7527       Y170.1375     R0.2500     F400 
G1   X5.861        Y170.199   
G17 G3   X5.8110       Y170.1613     R0.2500    
G1   X5.900        Y170.249   
G17 G3   X5.8612       Y170.1994     R0.2500    
G1   X5.924        Y170.307   
G17 G3   X5.8998       Y170.2492     R0.2500    
G1   X5.933        Y170.370   
G17 G3   X5.9242       Y170.3073     R0.2500    
G1   Y170.432   
G17 G3   X5.9328       Y170.3697     R0.2500    
G1   X5.901        Y170.491   
G17 G3   X5.9249       Y170.4322     R0.2500    
G1   X5.863        Y170.541   
G17 G3   X5.9010       Y170.4906     R0.2500    
G1   X5.813        Y170.579   
G17 G3   X5.8629       Y170.5408     R0.2500    
G1   X5.755        Y170.604   
G17 G3   X5.8131       Y170.5794     R0.2500    
G1   X5.693        Y170.612   
G17 G3   X5.7550       Y170.6038     R0.2500    
G1   X5.630     
G17 G3   X5.6926       Y170.6123     R0.2500    
G1   X5.572        Y170.581   
G17 G3   X5.6301       Y170.6044     R0.2500    
G1   X5.522        Y170.542   
G17 G3   X5.5717       Y170.5805     R0.2500    
G1   X5.483        Y170.493   
G17 G3   X5.5216       Y170.5424     R0.2500    
G1   X5.459        Y170.435   
G17 G3   X5.4830       Y170.4926     R0.2500    
G1   X5.450        Y170.372   
G17 G3   X5.4586       Y170.4345     R0.2500    
G1   Y170.310   
G17 G3   X5.4500       Y170.3721     R0.2500    
G1   X5.482        Y170.251   
G17 G3   X5.4579       Y170.3096     R0.2500    
G1   X5.520        Y170.201   
G17 G3   X5.4818       Y170.2513     R0.2500    
G1   X5.570        Y170.162   
G17 G3   X5.5199       Y170.2011     R0.2500    
G1   X5.628        Y170.138   
G17 G3   X5.5697       Y170.1625     R0.2500    
G1   X5.690        Y170.130   
G17 G3   X5.6278       Y170.1381     R0.2500    
G1   X5.753     
G17 G3   X5.6902       Y170.1296     R0.2500    
(Pass: 2)
G1   X5.811        Y170.161   
   Z-1.000     F300 
G17 G3   X5.7527       Y170.1375     R0.2500     F400 
G1   X5.861        Y170.199   
G17 G3   X5.8110       Y170.1613     R0.2500    
G1   X5.900        Y170.249   
G17 G3   X5.8612       Y170.1994     R0.2500    
G1   X5.924        Y170.307   
G17 G3   X5.8998       Y170.2492     R0.2500    
G1   X5.933        Y170.370   
G17 G3   X5.9242       Y170.3073     R0.2500    
G1   Y170.432   
G17 G3   X5.9328       Y170.3697     R0.2500    
G1   X5.901        Y170.491   
G17 G3   X5.9249       Y170.4322     R0.2500    
G1   X5.863        Y170.541   
G17 G3   X5.9010       Y170.4906     R0.2500    
G1   X5.813        Y170.579   
G17 G3   X5.8629       Y170.5408     R0.2500    
G1   X5.755        Y170.604   
G17 G3   X5.8131       Y170.5794     R0.2500    
G1   X5.693        Y170.612   
G17 G3   X5.7550       Y170.6038     R0.2500    
G1   X5.630     
G17 G3   X5.6926       Y170.6123     R0.2500    
G1   X5.572        Y170.581   
G17 G3   X5.6301       Y170.6044     R0.2500    
G1   X5.522        Y170.542   
G17 G3   X5.5717       Y170.5805     R0.2500    
G1   X5.483        Y170.493   
G17 G3   X5.5216       Y170.5424     R0.2500    
G1   X5.459        Y170.435   
G17 G3   X5.4830       Y170.4926     R0.2500    
G1   X5.450        Y170.372   
G17 G3   X5.4586       Y170.4345     R0.2500    
G1   Y170.310   
G17 G3   X5.4500       Y170.3721     R0.2500    
G1   X5.482        Y170.251   
G17 G3   X5.4579       Y170.3096     R0.2500    
G1   X5.520        Y170.201   
G17 G3   X5.4818       Y170.2513     R0.2500    
G1   X5.570        Y170.162   
G17 G3   X5.5199       Y170.2011     R0.2500    
G1   X5.628        Y170.138   
G17 G3   X5.5697       Y170.1625     R0.2500    
G1   X5.690        Y170.130   
G17 G3   X5.6278       Y170.1381     R0.2500    
G1   X5.753     
G17 G3   X5.6902       Y170.1296     R0.2500    
(Pass: 3)
G1   X5.811        Y170.161   
   Z-1.500     F300 
G17 G3   X5.7527       Y170.1375     R0.2500     F400 
G1   X5.861        Y170.199   
G17 G3   X5.8110       Y170.1613     R0.2500    
G1   X5.900        Y170.249   
G17 G3   X5.8612       Y170.1994     R0.2500    
G1   X5.924        Y170.307   
G17 G3   X5.8998       Y170.2492     R0.2500    
G1   X5.933        Y170.370   
G17 G3   X5.9242       Y170.3073     R0.2500    
G1   Y170.432   
G17 G3   X5.9328       Y170.3697     R0.2500    
G1   X5.901        Y170.491   
G17 G3   X5.9249       Y170.4322     R0.2500    
G1   X5.863        Y170.541   
G17 G3   X5.9010       Y170.4906     R0.2500    
G1   X5.813        Y170.579   
G17 G3   X5.8629       Y170.5408     R0.2500    
G1   X5.755        Y170.604   
G17 G3   X5.8131       Y170.5794     R0.2500    
G1   X5.693        Y170.612   
G17 G3   X5.7550       Y170.6038     R0.2500    
G1   X5.630     
G17 G3   X5.6926       Y170.6123     R0.2500    
G1   X5.572        Y170.581   
G17 G3   X5.6301       Y170.6044     R0.2500    
G1   X5.522        Y170.542   
G17 G3   X5.5717       Y170.5805     R0.2500    
G1   X5.483        Y170.493   
G17 G3   X5.5216       Y170.5424     R0.2500    
G1   X5.459        Y170.435   
G17 G3   X5.4830       Y170.4926     R0.2500    
G1   X5.450        Y170.372   
G17 G3   X5.4586       Y170.4345     R0.2500    
G1   Y170.310   
G17 G3   X5.4500       Y170.3721     R0.2500    
G1   X5.482        Y170.251   
G17 G3   X5.4579       Y170.3096     R0.2500    
G1   X5.520        Y170.201   
G17 G3   X5.4818       Y170.2513     R0.2500    
G1   X5.570        Y170.162   
G17 G3   X5.5199       Y170.2011     R0.2500    
G1   X5.628        Y170.138   
G17 G3   X5.5697       Y170.1625     R0.2500    
G1   X5.690        Y170.130   
G17 G3   X5.6278       Y170.1381     R0.2500    
G1   X5.753     
G17 G3   X5.6902       Y170.1296     R0.2500    
(Pass: 4)
G1   X5.811        Y170.161   
   Z-2.000     F300 
G17 G3   X5.7527       Y170.1375     R0.2500     F400 
G1   X5.861        Y170.199   
G17 G3   X5.8110       Y170.1613     R0.2500    
G1   X5.900        Y170.249   
G17 G3   X5.8612       Y170.1994     R0.2500    
G1   X5.924        Y170.307   
G17 G3   X5.8998       Y170.2492     R0.2500    
G1   X5.933        Y170.370   
G17 G3   X5.9242       Y170.3073     R0.2500    
G1   Y170.432   
G17 G3   X5.9328       Y170.3697     R0.2500    
G1   X5.901        Y170.491   
G17 G3   X5.9249       Y170.4322     R0.2500    
G1   X5.863        Y170.541   
G17 G3   X5.9010       Y170.4906     R0.2500    
G1   X5.813        Y170.579   
G17 G3   X5.8629       Y170.5408     R0.2500    
G1   X5.755        Y170.604   
G17 G3   X5.8131       Y170.5794     R0.2500    
G1   X5.693        Y170.612   
G17 G3   X5.7550       Y170.6038     R0.2500    
G1   X5.630     
G17 G3   X5.6926       Y170.6123     R0.2500    
G1   X5.572        Y170.581   
G17 G3   X5.6301       Y170.6044     R0.2500    
G1   X5.522        Y170.542   
G17 G3   X5.5717       Y170.5805     R0.2500    
G1   X5.483        Y170.493   
G17 G3   X5.5216       Y170.5424     R0.2500    
G1   X5.459        Y170.435   
G17 G3   X5.4830       Y170.4926     R0.2500    
G1   X5.450        Y170.372   
G17 G3   X5.4586       Y170.4345     R0.2500    
G1   Y170.310   
G17 G3   X5.4500       Y170.3721     R0.2500    
G1   X5.482        Y170.251   
G17 G3   X5.4579       Y170.3096     R0.2500    
G1   X5.520        Y170.201   
G17 G3   X5.4818       Y170.2513     R0.2500    
G1   X5.570        Y170.162   
G17 G3   X5.5199       Y170.2011     R0.2500    
G1   X5.628        Y170.138   
G17 G3   X5.5697       Y170.1625     R0.2500    
G1   X5.690        Y170.130   
G17 G3   X5.6278       Y170.1381     R0.2500    
G1   X5.753     
G17 G3   X5.6902       Y170.1296     R0.2500    
(Pass: 5)
G1   X5.811        Y170.161   
   Z-2.500     F300 
G17 G3   X5.7527       Y170.1375     R0.2500     F400 
G1   X5.861        Y170.199   
G17 G3   X5.8110       Y170.1613     R0.2500    
G1   X5.900        Y170.249   
G17 G3   X5.8612       Y170.1994     R0.2500    
G1   X5.924        Y170.307   
G17 G3   X5.8998       Y170.2492     R0.2500    
G1   X5.933        Y170.370   
G17 G3   X5.9242       Y170.3073     R0.2500    
G1   Y170.432   
G17 G3   X5.9328       Y170.3697     R0.2500    
G1   X5.901        Y170.491   
G17 G3   X5.9249       Y170.4322     R0.2500    
G1   X5.863        Y170.541   
G17 G3   X5.9010       Y170.4906     R0.2500    
G1   X5.813        Y170.579   
G17 G3   X5.8629       Y170.5408     R0.2500    
G1   X5.755        Y170.604   
G17 G3   X5.8131       Y170.5794     R0.2500    
G1   X5.693        Y170.612   
G17 G3   X5.7550       Y170.6038     R0.2500    
G1   X5.630     
G17 G3   X5.6926       Y170.6123     R0.2500    
G1   X5.572        Y170.581   
G17 G3   X5.6301       Y170.6044     R0.2500    
G1   X5.522        Y170.542   
G17 G3   X5.5717       Y170.5805     R0.2500    
G1   X5.483        Y170.493   
G17 G3   X5.5216       Y170.5424     R0.2500    
G1   X5.459        Y170.435   
G17 G3   X5.4830       Y170.4926     R0.2500    
G1   X5.450        Y170.372   
G17 G3   X5.4586       Y170.4345     R0.2500    
G1   Y170.310   
G17 G3   X5.4500       Y170.3721     R0.2500    
G1   X5.482        Y170.251   
G17 G3   X5.4579       Y170.3096     R0.2500    
G1   X5.520        Y170.201   
G17 G3   X5.4818       Y170.2513     R0.2500    
G1   X5.570        Y170.162   
G17 G3   X5.5199       Y170.2011     R0.2500    
G1   X5.628        Y170.138   
G17 G3   X5.5697       Y170.1625     R0.2500    
G1   X5.690        Y170.130   
G17 G3   X5.6278       Y170.1381     R0.2500    
G1   X5.753     
G17 G3   X5.6902       Y170.1296     R0.2500    
(Pass: 6)
G1   X5.811        Y170.161   
   Z-3.000     F300 
G17 G3   X5.7527       Y170.1375     R0.2500     F400 
G1   X5.861        Y170.199   
G17 G3   X5.8110       Y170.1613     R0.2500    
G1   X5.900        Y170.249   
G17 G3   X5.8612       Y170.1994     R0.2500    
G1   X5.924        Y170.307   
G17 G3   X5.8998       Y170.2492     R0.2500    
G1   X5.933        Y170.370   
G17 G3   X5.9242       Y170.3073     R0.2500    
G1   Y170.432   
G17 G3   X5.9328       Y170.3697     R0.2500    
G1   X5.901        Y170.491   
G17 G3   X5.9249       Y170.4322     R0.2500    
G1   X5.863        Y170.541   
G17 G3   X5.9010       Y170.4906     R0.2500    
G1   X5.813        Y170.579   
G17 G3   X5.8629       Y170.5408     R0.2500    
G1   X5.755        Y170.604   
G17 G3   X5.8131       Y170.5794     R0.2500    
G1   X5.693        Y170.612   
G17 G3   X5.7550       Y170.6038     R0.2500    
G1   X5.630     
G17 G3   X5.6926       Y170.6123     R0.2500    
G1   X5.572        Y170.581   
G17 G3   X5.6301       Y170.6044     R0.2500    
G1   X5.522        Y170.542   
G17 G3   X5.5717       Y170.5805     R0.2500    
G1   X5.483        Y170.493   
G17 G3   X5.5216       Y170.5424     R0.2500    
G1   X5.459        Y170.435   
G17 G3   X5.4830       Y170.4926     R0.2500    
G1   X5.450        Y170.372   
G17 G3   X5.4586       Y170.4345     R0.2500    
G1   Y170.310   
G17 G3   X5.4500       Y170.3721     R0.2500    
G1   X5.482        Y170.251   
G17 G3   X5.4579       Y170.3096     R0.2500    
G1   X5.520        Y170.201   
G17 G3   X5.4818       Y170.2513     R0.2500    
G1   X5.570        Y170.162   
G17 G3   X5.5199       Y170.2011     R0.2500    
G1   X5.628        Y170.138   
G17 G3   X5.5697       Y170.1625     R0.2500    
G1   X5.690        Y170.130   
G17 G3   X5.6278       Y170.1381     R0.2500    
G1   X5.753     
G17 G3   X5.6902       Y170.1296     R0.2500    
(Pass: 7)
G1   X5.811        Y170.161   
   Z-3.500     F300 
G17 G3   X5.7527       Y170.1375     R0.2500     F400 
G1   X5.861        Y170.199   
G17 G3   X5.8110       Y170.1613     R0.2500    
G1   X5.900        Y170.249   
G17 G3   X5.8612       Y170.1994     R0.2500    
G1   X5.924        Y170.307   
G17 G3   X5.8998       Y170.2492     R0.2500    
G1   X5.933        Y170.370   
G17 G3   X5.9242       Y170.3073     R0.2500    
G1   Y170.432   
G17 G3   X5.9328       Y170.3697     R0.2500    
G1   X5.901        Y170.491   
G17 G3   X5.9249       Y170.4322     R0.2500    
G1   X5.863        Y170.541   
G17 G3   X5.9010       Y170.4906     R0.2500    
G1   X5.813        Y170.579   
G17 G3   X5.8629       Y170.5408     R0.2500    
G1   X5.755        Y170.604   
G17 G3   X5.8131       Y170.5794     R0.2500    
G1   X5.693        Y170.612   
G17 G3   X5.7550       Y170.6038     R0.2500    
G1   X5.630     
G17 G3   X5.6926       Y170.6123     R0.2500    
G1   X5.572        Y170.581   
G17 G3   X5.6301       Y170.6044     R0.2500    
G1   X5.522        Y170.542   
G17 G3   X5.5717       Y170.5805     R0.2500    
G1   X5.483        Y170.493   
G17 G3   X5.5216       Y170.5424     R0.2500    
G1   X5.459        Y170.435   
G17 G3   X5.4830       Y170.4926     R0.2500    
G1   X5.450        Y170.372   
G17 G3   X5.4586       Y170.4345     R0.2500    
G1   Y170.310   
G17 G3   X5.4500       Y170.3721     R0.2500    
G1   X5.482        Y170.251   
G17 G3   X5.4579       Y170.3096     R0.2500    
G1   X5.520        Y170.201   
G17 G3   X5.4818       Y170.2513     R0.2500    
G1   X5.570        Y170.162   
G17 G3   X5.5199       Y170.2011     R0.2500    
G1   X5.628        Y170.138   
G17 G3   X5.5697       Y170.1625     R0.2500    
G1   X5.690        Y170.130   
G17 G3   X5.6278       Y170.1381     R0.2500    
G1   X5.753     
G17 G3   X5.6902       Y170.1296     R0.2500    
G0   Z5.000     
(Pass: 1)
   X27.509       Y180.213   
G1   Z-0.500     F300 
G17 G3   X27.4745      Y180.2651     R0.2500     F400 
G1   X27.556       Y180.171   
G17 G3   X27.5092      Y180.2126     R0.2500    
G1   X27.613       Y180.143   
G17 G3   X27.5564      Y180.1708     R0.2500    
G1   X27.675       Y180.130   
G17 G3   X27.6128      Y180.1427     R0.2500    
G1   X27.737    
G17 G3   X27.6746      Y180.1301     R0.2500    
G1   X27.797    
G17 G3   X27.7375      Y180.1340     R0.2500    
G1   X27.850       Y180.189   
G17 G3   X27.7972      Y180.1540     R0.2500    
G1   X27.892       Y180.236   
G17 G3   X27.8498      Y180.1888     R0.2500    
G1   X27.920       Y180.292   
G17 G3   X27.8915      Y180.2360     R0.2500    
G1   X27.932       Y180.354   
G17 G3   X27.9196      Y180.2923     R0.2500    
G1   Y180.417   
G17 G3   X27.9322      Y180.3541     R0.2500    
G1   Y180.477   
G17 G3   X27.9283      Y180.4170     R0.2500    
G1   X27.874       Y180.529   
G17 G3   X27.9083      Y180.4767     R0.2500    
G1   X27.826       Y180.571   
G17 G3   X27.8736      Y180.5293     R0.2500    
G1   X27.770       Y180.599   
G17 G3   X27.8264      Y180.5710     R0.2500    
G1   X27.708       Y180.612   
G17 G3   X27.7700      Y180.5991     R0.2500    
G1   X27.645    
G17 G3   X27.7082      Y180.6117     R0.2500    
G1   X27.586    
G17 G3   X27.6453      Y180.6079     R0.2500    
G1   X27.533       Y180.553   
G17 G3   X27.5856      Y180.5879     R0.2500    
G1   X27.491       Y180.506   
G17 G3   X27.5330      Y180.5531     R0.2500    
G1   X27.463       Y180.449   
G17 G3   X27.4913      Y180.5059     R0.2500    
G1   X27.451       Y180.388   
G17 G3   X27.4632      Y180.4495     R0.2500    
G1   Y180.325   
G17 G3   X27.4506      Y180.3878     R0.2500    
G1   Y180.265   
G17 G3   X27.4545      Y180.3249     R0.2500    
(Pass: 2)
G1   X27.509       Y180.213   
   Z-1.000     F300 
G17 G3   X27.4745      Y180.2651     R0.2500     F400 
G1   X27.556       Y180.171   
G17 G3   X27.5092      Y180.2126     R0.2500    
G1   X27.613       Y180.143   
G17 G3   X27.5564      Y180.1708     R0.2500    
G1   X27.675       Y180.130   
G17 G3   X27.6128      Y180.1427     R0.2500    
G1   X27.737    
G17 G3   X27.6746      Y180.1301     R0.2500    
G1   X27.797    
G17 G3   X27.7375      Y180.1340     R0.2500    
G1   X27.850       Y180.189   
G17 G3   X27.7972      Y180.1540     R0.2500    
G1   X27.892       Y180.236   
G17 G3   X27.8498      Y180.1888     R0.2500    
G1   X27.920       Y180.292   
G17 G3   X27.8915      Y180.2360     R0.2500    
G1   X27.932       Y180.354   
G17 G3   X27.9196      Y180.2923     R0.2500    
G1   Y180.417   
G17 G3   X27.9322      Y180.3541     R0.2500    
G1   Y180.477   
G17 G3   X27.9283      Y180.4170     R0.2500    
G1   X27.874       Y180.529   
G17 G3   X27.9083      Y180.4767     R0.2500    
G1   X27.826       Y180.571   
G17 G3   X27.8736      Y180.5293     R0.2500    
G1   X27.770       Y180.599   
G17 G3   X27.8264      Y180.5710     R0.2500    
G1   X27.708       Y180.612   
G17 G3   X27.7700      Y180.5991     R0.2500    
G1   X27.645    
G17 G3   X27.7082      Y180.6117     R0.2500    
G1   X27.586    
G17 G3   X27.6453      Y180.6079     R0.2500    
G1   X27.533       Y180.553   
G17 G3   X27.5856      Y180.5879     R0.2500    
G1   X27.491       Y180.506   
G17 G3   X27.5330      Y180.5531     R0.2500    
G1   X27.463       Y180.449   
G17 G3   X27.4913      Y180.5059     R0.2500    
G1   X27.451       Y180.388   
G17 G3   X27.4632      Y180.4495     R0.2500    
G1   Y180.325   
G17 G3   X27.4506      Y180.3878     R0.2500    
G1   Y180.265   
G17 G3   X27.4545      Y180.3249     R0.2500    
(Pass: 3)
G1   X27.509       Y180.213   
   Z-1.500     F300 
G17 G3   X27.4745      Y180.2651     R0.2500     F400 
G1   X27.556       Y180.171   
G17 G3   X27.5092      Y180.2126     R0.2500    
G1   X27.613       Y180.143   
G17 G3   X27.5564      Y180.1708     R0.2500    
G1   X27.675       Y180.130   
G17 G3   X27.6128      Y180.1427     R0.2500    
G1   X27.737    
G17 G3   X27.6746      Y180.1301     R0.2500    
G1   X27.797    
G17 G3   X27.7375      Y180.1340     R0.2500    
G1   X27.850       Y180.189   
G17 G3   X27.7972      Y180.1540     R0.2500    
G1   X27.892       Y180.236   
G17 G3   X27.8498      Y180.1888     R0.2500    
G1   X27.920       Y180.292   
G17 G3   X27.8915      Y180.2360     R0.2500    
G1   X27.932       Y180.354   
G17 G3   X27.9196      Y180.2923     R0.2500    
G1   Y180.417   
G17 G3   X27.9322      Y180.3541     R0.2500    
G1   Y180.477   
G17 G3   X27.9283      Y180.4170     R0.2500    
G1   X27.874       Y180.529   
G17 G3   X27.9083      Y180.4767     R0.2500    
G1   X27.826       Y180.571   
G17 G3   X27.8736      Y180.5293     R0.2500    
G1   X27.770       Y180.599   
G17 G3   X27.8264      Y180.5710     R0.2500    
G1   X27.708       Y180.612   
G17 G3   X27.7700      Y180.5991     R0.2500    
G1   X27.645    
G17 G3   X27.7082      Y180.6117     R0.2500    
G1   X27.586    
G17 G3   X27.6453      Y180.6079     R0.2500    
G1   X27.533       Y180.553   
G17 G3   X27.5856      Y180.5879     R0.2500    
G1   X27.491       Y180.506   
G17 G3   X27.5330      Y180.5531     R0.2500    
G1   X27.463       Y180.449   
G17 G3   X27.4913      Y180.5059     R0.2500    
G1   X27.451       Y180.388   
G17 G3   X27.4632      Y180.4495     R0.2500    
G1   Y180.325   
G17 G3   X27.4506      Y180.3878     R0.2500    
G1   Y180.265   
G17 G3   X27.4545      Y180.3249     R0.2500    
(Pass: 4)
G1   X27.509       Y180.213   
   Z-2.000     F300 
G17 G3   X27.4745      Y180.2651     R0.2500     F400 
G1   X27.556       Y180.171   
G17 G3   X27.5092      Y180.2126     R0.2500    
G1   X27.613       Y180.143   
G17 G3   X27.5564      Y180.1708     R0.2500    
G1   X27.675       Y180.130   
G17 G3   X27.6128      Y180.1427     R0.2500    
G1   X27.737    
G17 G3   X27.6746      Y180.1301     R0.2500    
G1   X27.797    
G17 G3   X27.7375      Y180.1340     R0.2500    
G1   X27.850       Y180.189   
G17 G3   X27.7972      Y180.1540     R0.2500    
G1   X27.892       Y180.236   
G17 G3   X27.8498      Y180.1888     R0.2500    
G1   X27.920       Y180.292   
G17 G3   X27.8915      Y180.2360     R0.2500    
G1   X27.932       Y180.354   
G17 G3   X27.9196      Y180.2923     R0.2500    
G1   Y180.417   
G17 G3   X27.9322      Y180.3541     R0.2500    
G1   Y180.477   
G17 G3   X27.9283      Y180.4170     R0.2500    
G1   X27.874       Y180.529   
G17 G3   X27.9083      Y180.4767     R0.2500    
G1   X27.826       Y180.571   
G17 G3   X27.8736      Y180.5293     R0.2500    
G1   X27.770       Y180.599   
G17 G3   X27.8264      Y180.5710     R0.2500    
G1   X27.708       Y180.612   
G17 G3   X27.7700      Y180.5991     R0.2500    
G1   X27.645    
G17 G3   X27.7082      Y180.6117     R0.2500    
G1   X27.586    
G17 G3   X27.6453      Y180.6079     R0.2500    
G1   X27.533       Y180.553   
G17 G3   X27.5856      Y180.5879     R0.2500    
G1   X27.491       Y180.506   
G17 G3   X27.5330      Y180.5531     R0.2500    
G1   X27.463       Y180.449   
G17 G3   X27.4913      Y180.5059     R0.2500    
G1   X27.451       Y180.388   
G17 G3   X27.4632      Y180.4495     R0.2500    
G1   Y180.325   
G17 G3   X27.4506      Y180.3878     R0.2500    
G1   Y180.265   
G17 G3   X27.4545      Y180.3249     R0.2500    
(Pass: 5)
G1   X27.509       Y180.213   
   Z-2.500     F300 
G17 G3   X27.4745      Y180.2651     R0.2500     F400 
G1   X27.556       Y180.171   
G17 G3   X27.5092      Y180.2126     R0.2500    
G1   X27.613       Y180.143   
G17 G3   X27.5564      Y180.1708     R0.2500    
G1   X27.675       Y180.130   
G17 G3   X27.6128      Y180.1427     R0.2500    
G1   X27.737    
G17 G3   X27.6746      Y180.1301     R0.2500    
G1   X27.797    
G17 G3   X27.7375      Y180.1340     R0.2500    
G1   X27.850       Y180.189   
G17 G3   X27.7972      Y180.1540     R0.2500    
G1   X27.892       Y180.236   
G17 G3   X27.8498      Y180.1888     R0.2500    
G1   X27.920       Y180.292   
G17 G3   X27.8915      Y180.2360     R0.2500    
G1   X27.932       Y180.354   
G17 G3   X27.9196      Y180.2923     R0.2500    
G1   Y180.417   
G17 G3   X27.9322      Y180.3541     R0.2500    
G1   Y180.477   
G17 G3   X27.9283      Y180.4170     R0.2500    
G1   X27.874       Y180.529   
G17 G3   X27.9083      Y180.4767     R0.2500    
G1   X27.826       Y180.571   
G17 G3   X27.8736      Y180.5293     R0.2500    
G1   X27.770       Y180.599   
G17 G3   X27.8264      Y180.5710     R0.2500    
G1   X27.708       Y180.612   
G17 G3   X27.7700      Y180.5991     R0.2500    
G1   X27.645    
G17 G3   X27.7082      Y180.6117     R0.2500    
G1   X27.586    
G17 G3   X27.6453      Y180.6079     R0.2500    
G1   X27.533       Y180.553   
G17 G3   X27.5856      Y180.5879     R0.2500    
G1   X27.491       Y180.506   
G17 G3   X27.5330      Y180.5531     R0.2500    
G1   X27.463       Y180.449   
G17 G3   X27.4913      Y180.5059     R0.2500    
G1   X27.451       Y180.388   
G17 G3   X27.4632      Y180.4495     R0.2500    
G1   Y180.325   
G17 G3   X27.4506      Y180.3878     R0.2500    
G1   Y180.265   
G17 G3   X27.4545      Y180.3249     R0.2500    
(Pass: 6)
G1   X27.509       Y180.213   
   Z-3.000     F300 
G17 G3   X27.4745      Y180.2651     R0.2500     F400 
G1   X27.556       Y180.171   
G17 G3   X27.5092      Y180.2126     R0.2500    
G1   X27.613       Y180.143   
G17 G3   X27.5564      Y180.1708     R0.2500    
G1   X27.675       Y180.130   
G17 G3   X27.6128      Y180.1427     R0.2500    
G1   X27.737    
G17 G3   X27.6746      Y180.1301     R0.2500    
G1   X27.797    
G17 G3   X27.7375      Y180.1340     R0.2500    
G1   X27.850       Y180.189   
G17 G3   X27.7972      Y180.1540     R0.2500    
G1   X27.892       Y180.236   
G17 G3   X27.8498      Y180.1888     R0.2500    
G1   X27.920       Y180.292   
G17 G3   X27.8915      Y180.2360     R0.2500    
G1   X27.932       Y180.354   
G17 G3   X27.9196      Y180.2923     R0.2500    
G1   Y180.417   
G17 G3   X27.9322      Y180.3541     R0.2500    
G1   Y180.477   
G17 G3   X27.9283      Y180.4170     R0.2500    
G1   X27.874       Y180.529   
G17 G3   X27.9083      Y180.4767     R0.2500    
G1   X27.826       Y180.571   
G17 G3   X27.8736      Y180.5293     R0.2500    
G1   X27.770       Y180.599   
G17 G3   X27.8264      Y180.5710     R0.2500    
G1   X27.708       Y180.612   
G17 G3   X27.7700      Y180.5991     R0.2500    
G1   X27.645    
G17 G3   X27.7082      Y180.6117     R0.2500    
G1   X27.586    
G17 G3   X27.6453      Y180.6079     R0.2500    
G1   X27.533       Y180.553   
G17 G3   X27.5856      Y180.5879     R0.2500    
G1   X27.491       Y180.506   
G17 G3   X27.5330      Y180.5531     R0.2500    
G1   X27.463       Y180.449   
G17 G3   X27.4913      Y180.5059     R0.2500    
G1   X27.451       Y180.388   
G17 G3   X27.4632      Y180.4495     R0.2500    
G1   Y180.325   
G17 G3   X27.4506      Y180.3878     R0.2500    
G1   Y180.265   
G17 G3   X27.4545      Y180.3249     R0.2500    
(Pass: 7)
G1   X27.509       Y180.213   
   Z-3.500     F300 
G17 G3   X27.4745      Y180.2651     R0.2500     F400 
G1   X27.556       Y180.171   
G17 G3   X27.5092      Y180.2126     R0.2500    
G1   X27.613       Y180.143   
G17 G3   X27.5564      Y180.1708     R0.2500    
G1   X27.675       Y180.130   
G17 G3   X27.6128      Y180.1427     R0.2500    
G1   X27.737    
G17 G3   X27.6746      Y180.1301     R0.2500    
G1   X27.797    
G17 G3   X27.7375      Y180.1340     R0.2500    
G1   X27.850       Y180.189   
G17 G3   X27.7972      Y180.1540     R0.2500    
G1   X27.892       Y180.236   
G17 G3   X27.8498      Y180.1888     R0.2500    
G1   X27.920       Y180.292   
G17 G3   X27.8915      Y180.2360     R0.2500    
G1   X27.932       Y180.354   
G17 G3   X27.9196      Y180.2923     R0.2500    
G1   Y180.417   
G17 G3   X27.9322      Y180.3541     R0.2500    
G1   Y180.477   
G17 G3   X27.9283      Y180.4170     R0.2500    
G1   X27.874       Y180.529   
G17 G3   X27.9083      Y180.4767     R0.2500    
G1   X27.826       Y180.571   
G17 G3   X27.8736      Y180.5293     R0.2500    
G1   X27.770       Y180.599   
G17 G3   X27.8264      Y180.5710     R0.2500    
G1   X27.708       Y180.612   
G17 G3   X27.7700      Y180.5991     R0.2500    
G1   X27.645    
G17 G3   X27.7082      Y180.6117     R0.2500    
G1   X27.586    
G17 G3   X27.6453      Y180.6079     R0.2500    
G1   X27.533       Y180.553   
G17 G3   X27.5856      Y180.5879     R0.2500    
G1   X27.491       Y180.506   
G17 G3   X27.5330      Y180.5531     R0.2500    
G1   X27.463       Y180.449   
G17 G3   X27.4913      Y180.5059     R0.2500    
G1   X27.451       Y180.388   
G17 G3   X27.4632      Y180.4495     R0.2500    
G1   Y180.325   
G17 G3   X27.4506      Y180.3878     R0.2500    
G1   Y180.265   
G17 G3   X27.4545      Y180.3249     R0.2500    
G0   Z5.000     
(Pass: 1)
   X29.265       Y183.977   
G1   Z-0.500     F300 
   X4.134      F400 
   X3.325        Y183.871   
   X2.860        Y183.713   
   X2.449        Y183.510   
   X2.068        Y183.256   
   X1.723        Y182.954   
   X1.421        Y182.609   
   X1.167        Y182.228   
   X0.964        Y181.818   
   X0.806        Y181.353   
   X0.700        Y180.543   
   Y5.412     
   X0.806        Y4.602     
   X0.964        Y4.137     
   X1.167        Y3.726     
   X1.421        Y3.345     
   X1.724        Y3.001     
   X2.068        Y2.699     
   X2.449        Y2.444     
   X2.860        Y2.242     
   X3.325        Y2.084     
   X4.134        Y1.977     
   X29.265    
   X30.075       Y2.084     
   X30.540       Y2.242     
   X30.951       Y2.444     
   X31.332       Y2.699     
   X31.676       Y3.001     
   X31.978       Y3.345     
   X32.233       Y3.726     
   X32.435       Y4.137     
   X32.593       Y4.602     
   X32.700       Y5.412     
   Y180.543   
   X32.593       Y181.353   
   X32.435       Y181.818   
   X32.233       Y182.228   
   X31.978       Y182.609   
   X31.676       Y182.954   
   X31.332       Y183.256   
   X30.951       Y183.510   
   X30.540       Y183.713   
   X30.075       Y183.871   
   X29.265       Y183.977   
(Pass: 2)
   Z-1.000     F300 
   X4.134      F400 
   X3.325        Y183.871   
   X2.860        Y183.713   
   X2.449        Y183.510   
   X2.068        Y183.256   
   X1.723        Y182.954   
   X1.421        Y182.609   
   X1.167        Y182.228   
   X0.964        Y181.818   
   X0.806        Y181.353   
   X0.700        Y180.543   
   Y5.412     
   X0.806        Y4.602     
   X0.964        Y4.137     
   X1.167        Y3.726     
   X1.421        Y3.345     
   X1.724        Y3.001     
   X2.068        Y2.699     
   X2.449        Y2.444     
   X2.860        Y2.242     
   X3.325        Y2.084     
   X4.134        Y1.977     
   X29.265    
   X30.075       Y2.084     
   X30.540       Y2.242     
   X30.951       Y2.444     
   X31.332       Y2.699     
   X31.676       Y3.001     
   X31.978       Y3.345     
   X32.233       Y3.726     
   X32.435       Y4.137     
   X32.593       Y4.602     
   X32.700       Y5.412     
   Y180.543   
   X32.593       Y181.353   
   X32.435       Y181.818   
   X32.233       Y182.228   
   X31.978       Y182.609   
   X31.676       Y182.954   
   X31.332       Y183.256   
   X30.951       Y183.510   
   X30.540       Y183.713   
   X30.075       Y183.871   
   X29.265       Y183.977   
(Pass: 3)
   Z-1.500     F300 
   X4.134      F400 
   X3.325        Y183.871   
   X2.860        Y183.713   
   X2.449        Y183.510   
   X2.068        Y183.256   
   X1.723        Y182.954   
   X1.421        Y182.609   
   X1.167        Y182.228   
   X0.964        Y181.818   
   X0.806        Y181.353   
   X0.700        Y180.543   
   Y5.412     
   X0.806        Y4.602     
   X0.964        Y4.137     
   X1.167        Y3.726     
   X1.421        Y3.345     
   X1.724        Y3.001     
   X2.068        Y2.699     
   X2.449        Y2.444     
   X2.860        Y2.242     
   X3.325        Y2.084     
   X4.134        Y1.977     
   X29.265    
   X30.075       Y2.084     
   X30.540       Y2.242     
   X30.951       Y2.444     
   X31.332       Y2.699     
   X31.676       Y3.001     
   X31.978       Y3.345     
   X32.233       Y3.726     
   X32.435       Y4.137     
   X32.593       Y4.602     
   X32.700       Y5.412     
   Y180.543   
   X32.593       Y181.353   
   X32.435       Y181.818   
   X32.233       Y182.228   
   X31.978       Y182.609   
   X31.676       Y182.954   
   X31.332       Y183.256   
   X30.951       Y183.510   
   X30.540       Y183.713   
   X30.075       Y183.871   
   X29.265       Y183.977   
(Pass: 4)
   Z-2.000     F300 
   X4.134      F400 
   X3.325        Y183.871   
   X2.860        Y183.713   
   X2.449        Y183.510   
   X2.068        Y183.256   
   X1.723        Y182.954   
   X1.421        Y182.609   
   X1.167        Y182.228   
   X0.964        Y181.818   
   X0.806        Y181.353   
   X0.700        Y180.543   
   Y5.412     
   X0.806        Y4.602     
   X0.964        Y4.137     
   X1.167        Y3.726     
   X1.421        Y3.345     
   X1.724        Y3.001     
   X2.068        Y2.699     
   X2.449        Y2.444     
   X2.860        Y2.242     
   X3.325        Y2.084     
   X4.134        Y1.977     
   X29.265    
   X30.075       Y2.084     
   X30.540       Y2.242     
   X30.951       Y2.444     
   X31.332       Y2.699     
   X31.676       Y3.001     
   X31.978       Y3.345     
   X32.233       Y3.726     
   X32.435       Y4.137     
   X32.593       Y4.602     
   X32.700       Y5.412     
   Y180.543   
   X32.593       Y181.353   
   X32.435       Y181.818   
   X32.233       Y182.228   
   X31.978       Y182.609   
   X31.676       Y182.954   
   X31.332       Y183.256   
   X30.951       Y183.510   
   X30.540       Y183.713   
   X30.075       Y183.871   
   X29.265       Y183.977   
(Pass: 5)
   Z-2.500     F300 
   X4.134      F400 
   X3.325        Y183.871   
   X2.860        Y183.713   
   X2.449        Y183.510   
   X2.068        Y183.256   
   X1.723        Y182.954   
   X1.421        Y182.609   
   X1.167        Y182.228   
   X0.964        Y181.818   
   X0.806        Y181.353   
   X0.700        Y180.543   
   Y5.412     
   X0.806        Y4.602     
   X0.964        Y4.137     
   X1.167        Y3.726     
   X1.421        Y3.345     
   X1.724        Y3.001     
   X2.068        Y2.699     
   X2.449        Y2.444     
   X2.860        Y2.242     
   X3.325        Y2.084     
   X4.134        Y1.977     
   X29.265    
   X30.075       Y2.084     
   X30.540       Y2.242     
   X30.951       Y2.444     
   X31.332       Y2.699     
   X31.676       Y3.001     
   X31.978       Y3.345     
   X32.233       Y3.726     
   X32.435       Y4.137     
   X32.593       Y4.602     
   X32.700       Y5.412     
   Y180.543   
   X32.593       Y181.353   
   X32.435       Y181.818   
   X32.233       Y182.228   
   X31.978       Y182.609   
   X31.676       Y182.954   
   X31.332       Y183.256   
   X30.951       Y183.510   
   X30.540       Y183.713   
   X30.075       Y183.871   
   X29.265       Y183.977   
(Pass: 6)
   Z-3.000     F300 
   X4.134      F400 
   X3.325        Y183.871   
   X2.860        Y183.713   
   X2.449        Y183.510   
   X2.068        Y183.256   
   X1.723        Y182.954   
   X1.421        Y182.609   
   X1.167        Y182.228   
   X0.964        Y181.818   
   X0.806        Y181.353   
   X0.700        Y180.543   
   Y5.412     
   X0.806        Y4.602     
   X0.964        Y4.137     
   X1.167        Y3.726     
   X1.421        Y3.345     
   X1.724        Y3.001     
   X2.068        Y2.699     
   X2.449        Y2.444     
   X2.860        Y2.242     
   X3.325        Y2.084     
   X4.134        Y1.977     
   X29.265    
   X30.075       Y2.084     
   X30.540       Y2.242     
   X30.951       Y2.444     
   X31.332       Y2.699     
   X31.676       Y3.001     
   X31.978       Y3.345     
   X32.233       Y3.726     
   X32.435       Y4.137     
   X32.593       Y4.602     
   X32.700       Y5.412     
   Y180.543   
   X32.593       Y181.353   
   X32.435       Y181.818   
   X32.233       Y182.228   
   X31.978       Y182.609   
   X31.676       Y182.954   
   X31.332       Y183.256   
   X30.951       Y183.510   
   X30.540       Y183.713   
   X30.075       Y183.871   
   X29.265       Y183.977   
(Pass: 7)
   Z-3.500     F300 
   X4.134      F400 
   X3.325        Y183.871   
   X2.860        Y183.713   
   X2.449        Y183.510   
   X2.068        Y183.256   
   X1.723        Y182.954   
   X1.421        Y182.609   
   X1.167        Y182.228   
   X0.964        Y181.818   
   X0.806        Y181.353   
   X0.700        Y180.543   
   Y5.412     
   X0.806        Y4.602     
   X0.964        Y4.137     
   X1.167        Y3.726     
   X1.421        Y3.345     
   X1.724        Y3.001     
   X2.068        Y2.699     
   X2.449        Y2.444     
   X2.860        Y2.242     
   X3.325        Y2.084     
   X4.134        Y1.977     
   X29.265    
   X30.075       Y2.084     
   X30.540       Y2.242     
   X30.951       Y2.444     
   X31.332       Y2.699     
   X31.676       Y3.001     
   X31.978       Y3.345     
   X32.233       Y3.726     
   X32.435       Y4.137     
   X32.593       Y4.602     
   X32.700       Y5.412     
   Y180.543   
   X32.593       Y181.353   
   X32.435       Y181.818   
   X32.233       Y182.228   
   X31.978       Y182.609   
   X31.676       Y182.954   
   X31.332       Y183.256   
   X30.951       Y183.510   
   X30.540       Y183.713   
   X30.075       Y183.871   
   X29.265       Y183.977   
G0   Z5.000     
G0 X0 Y0 (home)
M05
M30
%
