%
(Generated by SketchUcam {1.2})
(File: Router Control Board.skp)
(Bit diameter: 2.0mm)
(Feed rate: 1000.0mm/min)
(Plunge Feed rate: 500.0mm/min)
(Material Thickness: 3.5mm)
(Material length: 304.0mm X width: 608.0mm)
(Overhead Gantry: true)
(Retract feed rate NOT limited to plunge feed rate)
(Multipass enabled, Depth = 0.5mm)
(Optimization is ON)
(www.PhlatBoyz.com)
G90 G21 G49 
M3 S10000
G0   Z5.000     
(Pass: 1)
   X13.705       Y13.593    
G1   Z-0.500     F500 
G17 G2   X13.6519      Y13.6276      R0.2500     F1000
   X13.6101      Y13.6747      R0.2500    
   X13.5819      Y13.7311      R0.2500    
   X13.5692      Y13.7928      R0.2500    
   X13.5730      Y13.8557      R0.2500    
   X13.5929      Y13.9155      R0.2500    
   X13.6276      Y13.9681      R0.2500    
   X13.6747      Y14.0099      R0.2500    
   X13.7311      Y14.0381      R0.2500    
   X13.7928      Y14.0508      R0.2500    
   X13.8557      Y14.0470      R0.2500    
   X13.9155      Y14.0271      R0.2500    
   X13.9681      Y13.9924      R0.2500    
   X14.0099      Y13.9453      R0.2500    
   X14.0381      Y13.8889      R0.2500    
   X14.0508      Y13.8272      R0.2500    
   X14.0470      Y13.7643      R0.2500    
   X14.0271      Y13.7045      R0.2500    
   X13.9924      Y13.6519      R0.2500    
   X13.9453      Y13.6101      R0.2500    
   X13.8889      Y13.5819      R0.2500    
   X13.8272      Y13.5692      R0.2500    
   X13.7643      Y13.5730      R0.2500    
   X13.7045      Y13.5929      R0.2500    
(Pass: 2)
G1   Z-1.000     F500 
G17 G2   X13.6519      Y13.6276      R0.2500     F1000
   X13.6101      Y13.6747      R0.2500    
   X13.5819      Y13.7311      R0.2500    
   X13.5692      Y13.7928      R0.2500    
   X13.5730      Y13.8557      R0.2500    
   X13.5929      Y13.9155      R0.2500    
   X13.6276      Y13.9681      R0.2500    
   X13.6747      Y14.0099      R0.2500    
   X13.7311      Y14.0381      R0.2500    
   X13.7928      Y14.0508      R0.2500    
   X13.8557      Y14.0470      R0.2500    
   X13.9155      Y14.0271      R0.2500    
   X13.9681      Y13.9924      R0.2500    
   X14.0099      Y13.9453      R0.2500    
   X14.0381      Y13.8889      R0.2500    
   X14.0508      Y13.8272      R0.2500    
   X14.0470      Y13.7643      R0.2500    
   X14.0271      Y13.7045      R0.2500    
   X13.9924      Y13.6519      R0.2500    
   X13.9453      Y13.6101      R0.2500    
   X13.8889      Y13.5819      R0.2500    
   X13.8272      Y13.5692      R0.2500    
   X13.7643      Y13.5730      R0.2500    
   X13.7045      Y13.5929      R0.2500    
(Pass: 3)
G1   Z-1.500     F500 
G17 G2   X13.6519      Y13.6276      R0.2500     F1000
   X13.6101      Y13.6747      R0.2500    
   X13.5819      Y13.7311      R0.2500    
   X13.5692      Y13.7928      R0.2500    
   X13.5730      Y13.8557      R0.2500    
   X13.5929      Y13.9155      R0.2500    
   X13.6276      Y13.9681      R0.2500    
   X13.6747      Y14.0099      R0.2500    
   X13.7311      Y14.0381      R0.2500    
   X13.7928      Y14.0508      R0.2500    
   X13.8557      Y14.0470      R0.2500    
   X13.9155      Y14.0271      R0.2500    
   X13.9681      Y13.9924      R0.2500    
   X14.0099      Y13.9453      R0.2500    
   X14.0381      Y13.8889      R0.2500    
   X14.0508      Y13.8272      R0.2500    
   X14.0470      Y13.7643      R0.2500    
   X14.0271      Y13.7045      R0.2500    
   X13.9924      Y13.6519      R0.2500    
   X13.9453      Y13.6101      R0.2500    
   X13.8889      Y13.5819      R0.2500    
   X13.8272      Y13.5692      R0.2500    
   X13.7643      Y13.5730      R0.2500    
   X13.7045      Y13.5929      R0.2500    
(Pass: 4)
G1   Z-2.000     F500 
G17 G2   X13.6519      Y13.6276      R0.2500     F1000
   X13.6101      Y13.6747      R0.2500    
   X13.5819      Y13.7311      R0.2500    
   X13.5692      Y13.7928      R0.2500    
   X13.5730      Y13.8557      R0.2500    
   X13.5929      Y13.9155      R0.2500    
   X13.6276      Y13.9681      R0.2500    
   X13.6747      Y14.0099      R0.2500    
   X13.7311      Y14.0381      R0.2500    
   X13.7928      Y14.0508      R0.2500    
   X13.8557      Y14.0470      R0.2500    
   X13.9155      Y14.0271      R0.2500    
   X13.9681      Y13.9924      R0.2500    
   X14.0099      Y13.9453      R0.2500    
   X14.0381      Y13.8889      R0.2500    
   X14.0508      Y13.8272      R0.2500    
   X14.0470      Y13.7643      R0.2500    
   X14.0271      Y13.7045      R0.2500    
   X13.9924      Y13.6519      R0.2500    
   X13.9453      Y13.6101      R0.2500    
   X13.8889      Y13.5819      R0.2500    
   X13.8272      Y13.5692      R0.2500    
   X13.7643      Y13.5730      R0.2500    
   X13.7045      Y13.5929      R0.2500    
(Pass: 5)
G1   Z-2.500     F500 
G17 G2   X13.6519      Y13.6276      R0.2500     F1000
   X13.6101      Y13.6747      R0.2500    
   X13.5819      Y13.7311      R0.2500    
   X13.5692      Y13.7928      R0.2500    
   X13.5730      Y13.8557      R0.2500    
   X13.5929      Y13.9155      R0.2500    
   X13.6276      Y13.9681      R0.2500    
   X13.6747      Y14.0099      R0.2500    
   X13.7311      Y14.0381      R0.2500    
   X13.7928      Y14.0508      R0.2500    
   X13.8557      Y14.0470      R0.2500    
   X13.9155      Y14.0271      R0.2500    
   X13.9681      Y13.9924      R0.2500    
   X14.0099      Y13.9453      R0.2500    
   X14.0381      Y13.8889      R0.2500    
   X14.0508      Y13.8272      R0.2500    
   X14.0470      Y13.7643      R0.2500    
   X14.0271      Y13.7045      R0.2500    
   X13.9924      Y13.6519      R0.2500    
   X13.9453      Y13.6101      R0.2500    
   X13.8889      Y13.5819      R0.2500    
   X13.8272      Y13.5692      R0.2500    
   X13.7643      Y13.5730      R0.2500    
   X13.7045      Y13.5929      R0.2500    
(Pass: 6)
G1   Z-3.000     F500 
G17 G2   X13.6519      Y13.6276      R0.2500     F1000
   X13.6101      Y13.6747      R0.2500    
   X13.5819      Y13.7311      R0.2500    
   X13.5692      Y13.7928      R0.2500    
   X13.5730      Y13.8557      R0.2500    
   X13.5929      Y13.9155      R0.2500    
   X13.6276      Y13.9681      R0.2500    
   X13.6747      Y14.0099      R0.2500    
   X13.7311      Y14.0381      R0.2500    
   X13.7928      Y14.0508      R0.2500    
   X13.8557      Y14.0470      R0.2500    
   X13.9155      Y14.0271      R0.2500    
   X13.9681      Y13.9924      R0.2500    
   X14.0099      Y13.9453      R0.2500    
   X14.0381      Y13.8889      R0.2500    
   X14.0508      Y13.8272      R0.2500    
   X14.0470      Y13.7643      R0.2500    
   X14.0271      Y13.7045      R0.2500    
   X13.9924      Y13.6519      R0.2500    
   X13.9453      Y13.6101      R0.2500    
   X13.8889      Y13.5819      R0.2500    
   X13.8272      Y13.5692      R0.2500    
   X13.7643      Y13.5730      R0.2500    
   X13.7045      Y13.5929      R0.2500    
(Pass: 7)
G1   Z-3.500     F500 
G17 G2   X13.6519      Y13.6276      R0.2500     F1000
   X13.6101      Y13.6747      R0.2500    
   X13.5819      Y13.7311      R0.2500    
   X13.5692      Y13.7928      R0.2500    
   X13.5730      Y13.8557      R0.2500    
   X13.5929      Y13.9155      R0.2500    
   X13.6276      Y13.9681      R0.2500    
   X13.6747      Y14.0099      R0.2500    
   X13.7311      Y14.0381      R0.2500    
   X13.7928      Y14.0508      R0.2500    
   X13.8557      Y14.0470      R0.2500    
   X13.9155      Y14.0271      R0.2500    
   X13.9681      Y13.9924      R0.2500    
   X14.0099      Y13.9453      R0.2500    
   X14.0381      Y13.8889      R0.2500    
   X14.0508      Y13.8272      R0.2500    
   X14.0470      Y13.7643      R0.2500    
   X14.0271      Y13.7045      R0.2500    
   X13.9924      Y13.6519      R0.2500    
   X13.9453      Y13.6101      R0.2500    
   X13.8889      Y13.5819      R0.2500    
   X13.8272      Y13.5692      R0.2500    
   X13.7643      Y13.5730      R0.2500    
   X13.7045      Y13.5929      R0.2500    
G0   Z5.000     
(Pass: 1)
   X22.173       Y22.173    
G1   Z-0.500     F500 
G17 G2   X21.8283      Y22.5663      R4.0000     F1000
   X21.5378      Y23.0011      R4.0000    
   X21.3065      Y23.4701      R4.0000    
   X21.1384      Y23.9653      R4.0000    
   X21.0363      Y24.4782      R4.0000    
   X21.0000      Y25.0327      R4.0000    
G1   Y96.567    
G17 G2   X21.0363      Y97.1218      R4.0000    
   X21.1384      Y97.6347      R4.0000    
   X21.3065      Y98.1299      R4.0000    
   X21.5378      Y98.5989      R4.0000    
   X21.8283      Y99.0337      R4.0000    
   X22.1731      Y99.4269      R4.0000    
   X22.5663      Y99.7717      R4.0000    
   X23.0011      Y100.0622     R4.0000    
   X23.4701      Y100.2935     R4.0000    
   X23.9653      Y100.4616     R4.0000    
   X24.4782      Y100.5637     R4.0000    
   X25.0327      Y100.6000     R4.0000    
G1   X100.377   
G17 G2   X100.9318     Y100.5637     R4.0000    
   X101.4447     Y100.4616     R4.0000    
   X101.9399     Y100.2935     R4.0000    
   X102.4089     Y100.0622     R4.0000    
   X102.8437     Y99.7717      R4.0000    
   X103.2369     Y99.4269      R4.0000    
   X103.5817     Y99.0337      R4.0000    
   X103.8722     Y98.5989      R4.0000    
   X104.1035     Y98.1299      R4.0000    
   X104.2716     Y97.6347      R4.0000    
   X104.3737     Y97.1218      R4.0000    
   X104.4100     Y96.5673      R4.0000    
G1   Y25.033    
G17 G2   X104.3737     Y24.4782      R4.0000    
   X104.2716     Y23.9653      R4.0000    
   X104.1035     Y23.4701      R4.0000    
   X103.8722     Y23.0011      R4.0000    
   X103.5817     Y22.5663      R4.0000    
   X103.2369     Y22.1731      R4.0000    
   X102.8437     Y21.8283      R4.0000    
   X102.4089     Y21.5378      R4.0000    
   X101.9399     Y21.3065      R4.0000    
   X101.4447     Y21.1384      R4.0000    
   X100.9318     Y21.0363      R4.0000    
   X100.3773     Y21.0000      R4.0000    
G1   X25.033    
G17 G2   X24.4782      Y21.0363      R4.0000    
   X23.9653      Y21.1384      R4.0000    
   X23.4701      Y21.3065      R4.0000    
   X23.0011      Y21.5378      R4.0000    
   X22.5663      Y21.8283      R4.0000    
   X22.1731      Y22.1731      R4.0000    
(Pass: 2)
G1   Z-1.000     F500 
G17 G2   X21.8283      Y22.5663      R4.0000     F1000
   X21.5378      Y23.0011      R4.0000    
   X21.3065      Y23.4701      R4.0000    
   X21.1384      Y23.9653      R4.0000    
   X21.0363      Y24.4782      R4.0000    
   X21.0000      Y25.0327      R4.0000    
G1   Y96.567    
G17 G2   X21.0363      Y97.1218      R4.0000    
   X21.1384      Y97.6347      R4.0000    
   X21.3065      Y98.1299      R4.0000    
   X21.5378      Y98.5989      R4.0000    
   X21.8283      Y99.0337      R4.0000    
   X22.1731      Y99.4269      R4.0000    
   X22.5663      Y99.7717      R4.0000    
   X23.0011      Y100.0622     R4.0000    
   X23.4701      Y100.2935     R4.0000    
   X23.9653      Y100.4616     R4.0000    
   X24.4782      Y100.5637     R4.0000    
   X25.0327      Y100.6000     R4.0000    
G1   X100.377   
G17 G2   X100.9318     Y100.5637     R4.0000    
   X101.4447     Y100.4616     R4.0000    
   X101.9399     Y100.2935     R4.0000    
   X102.4089     Y100.0622     R4.0000    
   X102.8437     Y99.7717      R4.0000    
   X103.2369     Y99.4269      R4.0000    
   X103.5817     Y99.0337      R4.0000    
   X103.8722     Y98.5989      R4.0000    
   X104.1035     Y98.1299      R4.0000    
   X104.2716     Y97.6347      R4.0000    
   X104.3737     Y97.1218      R4.0000    
   X104.4100     Y96.5673      R4.0000    
G1   Y25.033    
G17 G2   X104.3737     Y24.4782      R4.0000    
   X104.2716     Y23.9653      R4.0000    
   X104.1035     Y23.4701      R4.0000    
   X103.8722     Y23.0011      R4.0000    
   X103.5817     Y22.5663      R4.0000    
   X103.2369     Y22.1731      R4.0000    
   X102.8437     Y21.8283      R4.0000    
   X102.4089     Y21.5378      R4.0000    
   X101.9399     Y21.3065      R4.0000    
   X101.4447     Y21.1384      R4.0000    
   X100.9318     Y21.0363      R4.0000    
   X100.3773     Y21.0000      R4.0000    
G1   X25.033    
G17 G2   X24.4782      Y21.0363      R4.0000    
   X23.9653      Y21.1384      R4.0000    
   X23.4701      Y21.3065      R4.0000    
   X23.0011      Y21.5378      R4.0000    
   X22.5663      Y21.8283      R4.0000    
   X22.1731      Y22.1731      R4.0000    
(Pass: 3)
G1   Z-1.500     F500 
G17 G2   X21.8283      Y22.5663      R4.0000     F1000
   X21.5378      Y23.0011      R4.0000    
   X21.3065      Y23.4701      R4.0000    
   X21.1384      Y23.9653      R4.0000    
   X21.0363      Y24.4782      R4.0000    
   X21.0000      Y25.0327      R4.0000    
G1   Y96.567    
G17 G2   X21.0363      Y97.1218      R4.0000    
   X21.1384      Y97.6347      R4.0000    
   X21.3065      Y98.1299      R4.0000    
   X21.5378      Y98.5989      R4.0000    
   X21.8283      Y99.0337      R4.0000    
   X22.1731      Y99.4269      R4.0000    
   X22.5663      Y99.7717      R4.0000    
   X23.0011      Y100.0622     R4.0000    
   X23.4701      Y100.2935     R4.0000    
   X23.9653      Y100.4616     R4.0000    
   X24.4782      Y100.5637     R4.0000    
   X25.0327      Y100.6000     R4.0000    
G1   X100.377   
G17 G2   X100.9318     Y100.5637     R4.0000    
   X101.4447     Y100.4616     R4.0000    
   X101.9399     Y100.2935     R4.0000    
   X102.4089     Y100.0622     R4.0000    
   X102.8437     Y99.7717      R4.0000    
   X103.2369     Y99.4269      R4.0000    
   X103.5817     Y99.0337      R4.0000    
   X103.8722     Y98.5989      R4.0000    
   X104.1035     Y98.1299      R4.0000    
   X104.2716     Y97.6347      R4.0000    
   X104.3737     Y97.1218      R4.0000    
   X104.4100     Y96.5673      R4.0000    
G1   Y25.033    
G17 G2   X104.3737     Y24.4782      R4.0000    
   X104.2716     Y23.9653      R4.0000    
   X104.1035     Y23.4701      R4.0000    
   X103.8722     Y23.0011      R4.0000    
   X103.5817     Y22.5663      R4.0000    
   X103.2369     Y22.1731      R4.0000    
   X102.8437     Y21.8283      R4.0000    
   X102.4089     Y21.5378      R4.0000    
   X101.9399     Y21.3065      R4.0000    
   X101.4447     Y21.1384      R4.0000    
   X100.9318     Y21.0363      R4.0000    
   X100.3773     Y21.0000      R4.0000    
G1   X25.033    
G17 G2   X24.4782      Y21.0363      R4.0000    
   X23.9653      Y21.1384      R4.0000    
   X23.4701      Y21.3065      R4.0000    
   X23.0011      Y21.5378      R4.0000    
   X22.5663      Y21.8283      R4.0000    
   X22.1731      Y22.1731      R4.0000    
(Pass: 4)
G1   Z-2.000     F500 
G17 G2   X21.8283      Y22.5663      R4.0000     F1000
   X21.5378      Y23.0011      R4.0000    
   X21.3065      Y23.4701      R4.0000    
   X21.1384      Y23.9653      R4.0000    
   X21.0363      Y24.4782      R4.0000    
   X21.0000      Y25.0327      R4.0000    
G1   Y96.567    
G17 G2   X21.0363      Y97.1218      R4.0000    
   X21.1384      Y97.6347      R4.0000    
   X21.3065      Y98.1299      R4.0000    
   X21.5378      Y98.5989      R4.0000    
   X21.8283      Y99.0337      R4.0000    
   X22.1731      Y99.4269      R4.0000    
   X22.5663      Y99.7717      R4.0000    
   X23.0011      Y100.0622     R4.0000    
   X23.4701      Y100.2935     R4.0000    
   X23.9653      Y100.4616     R4.0000    
   X24.4782      Y100.5637     R4.0000    
   X25.0327      Y100.6000     R4.0000    
G1   X100.377   
G17 G2   X100.9318     Y100.5637     R4.0000    
   X101.4447     Y100.4616     R4.0000    
   X101.9399     Y100.2935     R4.0000    
   X102.4089     Y100.0622     R4.0000    
   X102.8437     Y99.7717      R4.0000    
   X103.2369     Y99.4269      R4.0000    
   X103.5817     Y99.0337      R4.0000    
   X103.8722     Y98.5989      R4.0000    
   X104.1035     Y98.1299      R4.0000    
   X104.2716     Y97.6347      R4.0000    
   X104.3737     Y97.1218      R4.0000    
   X104.4100     Y96.5673      R4.0000    
G1   Y25.033    
G17 G2   X104.3737     Y24.4782      R4.0000    
   X104.2716     Y23.9653      R4.0000    
   X104.1035     Y23.4701      R4.0000    
   X103.8722     Y23.0011      R4.0000    
   X103.5817     Y22.5663      R4.0000    
   X103.2369     Y22.1731      R4.0000    
   X102.8437     Y21.8283      R4.0000    
   X102.4089     Y21.5378      R4.0000    
   X101.9399     Y21.3065      R4.0000    
   X101.4447     Y21.1384      R4.0000    
   X100.9318     Y21.0363      R4.0000    
   X100.3773     Y21.0000      R4.0000    
G1   X25.033    
G17 G2   X24.4782      Y21.0363      R4.0000    
   X23.9653      Y21.1384      R4.0000    
   X23.4701      Y21.3065      R4.0000    
   X23.0011      Y21.5378      R4.0000    
   X22.5663      Y21.8283      R4.0000    
   X22.1731      Y22.1731      R4.0000    
(Pass: 5)
G1   Z-2.500     F500 
G17 G2   X21.8283      Y22.5663      R4.0000     F1000
   X21.5378      Y23.0011      R4.0000    
   X21.3065      Y23.4701      R4.0000    
   X21.1384      Y23.9653      R4.0000    
   X21.0363      Y24.4782      R4.0000    
   X21.0000      Y25.0327      R4.0000    
G1   Y96.567    
G17 G2   X21.0363      Y97.1218      R4.0000    
   X21.1384      Y97.6347      R4.0000    
   X21.3065      Y98.1299      R4.0000    
   X21.5378      Y98.5989      R4.0000    
   X21.8283      Y99.0337      R4.0000    
   X22.1731      Y99.4269      R4.0000    
   X22.5663      Y99.7717      R4.0000    
   X23.0011      Y100.0622     R4.0000    
   X23.4701      Y100.2935     R4.0000    
   X23.9653      Y100.4616     R4.0000    
   X24.4782      Y100.5637     R4.0000    
   X25.0327      Y100.6000     R4.0000    
G1   X100.377   
G17 G2   X100.9318     Y100.5637     R4.0000    
   X101.4447     Y100.4616     R4.0000    
   X101.9399     Y100.2935     R4.0000    
   X102.4089     Y100.0622     R4.0000    
   X102.8437     Y99.7717      R4.0000    
   X103.2369     Y99.4269      R4.0000    
   X103.5817     Y99.0337      R4.0000    
   X103.8722     Y98.5989      R4.0000    
   X104.1035     Y98.1299      R4.0000    
   X104.2716     Y97.6347      R4.0000    
   X104.3737     Y97.1218      R4.0000    
   X104.4100     Y96.5673      R4.0000    
G1   Y25.033    
G17 G2   X104.3737     Y24.4782      R4.0000    
   X104.2716     Y23.9653      R4.0000    
   X104.1035     Y23.4701      R4.0000    
   X103.8722     Y23.0011      R4.0000    
   X103.5817     Y22.5663      R4.0000    
   X103.2369     Y22.1731      R4.0000    
   X102.8437     Y21.8283      R4.0000    
   X102.4089     Y21.5378      R4.0000    
   X101.9399     Y21.3065      R4.0000    
   X101.4447     Y21.1384      R4.0000    
   X100.9318     Y21.0363      R4.0000    
   X100.3773     Y21.0000      R4.0000    
G1   X25.033    
G17 G2   X24.4782      Y21.0363      R4.0000    
   X23.9653      Y21.1384      R4.0000    
   X23.4701      Y21.3065      R4.0000    
   X23.0011      Y21.5378      R4.0000    
   X22.5663      Y21.8283      R4.0000    
   X22.1731      Y22.1731      R4.0000    
(Pass: 6)
G1   Z-3.000     F500 
G17 G2   X21.8283      Y22.5663      R4.0000     F1000
   X21.5378      Y23.0011      R4.0000    
   X21.3065      Y23.4701      R4.0000    
   X21.1384      Y23.9653      R4.0000    
   X21.0363      Y24.4782      R4.0000    
   X21.0000      Y25.0327      R4.0000    
G1   Y96.567    
G17 G2   X21.0363      Y97.1218      R4.0000    
   X21.1384      Y97.6347      R4.0000    
   X21.3065      Y98.1299      R4.0000    
   X21.5378      Y98.5989      R4.0000    
   X21.8283      Y99.0337      R4.0000    
   X22.1731      Y99.4269      R4.0000    
   X22.5663      Y99.7717      R4.0000    
   X23.0011      Y100.0622     R4.0000    
   X23.4701      Y100.2935     R4.0000    
   X23.9653      Y100.4616     R4.0000    
   X24.4782      Y100.5637     R4.0000    
   X25.0327      Y100.6000     R4.0000    
G1   X100.377   
G17 G2   X100.9318     Y100.5637     R4.0000    
   X101.4447     Y100.4616     R4.0000    
   X101.9399     Y100.2935     R4.0000    
   X102.4089     Y100.0622     R4.0000    
   X102.8437     Y99.7717      R4.0000    
   X103.2369     Y99.4269      R4.0000    
   X103.5817     Y99.0337      R4.0000    
   X103.8722     Y98.5989      R4.0000    
   X104.1035     Y98.1299      R4.0000    
   X104.2716     Y97.6347      R4.0000    
   X104.3737     Y97.1218      R4.0000    
   X104.4100     Y96.5673      R4.0000    
G1   Y25.033    
G17 G2   X104.3737     Y24.4782      R4.0000    
   X104.2716     Y23.9653      R4.0000    
   X104.1035     Y23.4701      R4.0000    
   X103.8722     Y23.0011      R4.0000    
   X103.5817     Y22.5663      R4.0000    
   X103.2369     Y22.1731      R4.0000    
   X102.8437     Y21.8283      R4.0000    
   X102.4089     Y21.5378      R4.0000    
   X101.9399     Y21.3065      R4.0000    
   X101.4447     Y21.1384      R4.0000    
   X100.9318     Y21.0363      R4.0000    
   X100.3773     Y21.0000      R4.0000    
G1   X25.033    
G17 G2   X24.4782      Y21.0363      R4.0000    
   X23.9653      Y21.1384      R4.0000    
   X23.4701      Y21.3065      R4.0000    
   X23.0011      Y21.5378      R4.0000    
   X22.5663      Y21.8283      R4.0000    
   X22.1731      Y22.1731      R4.0000    
(Pass: 7)
G1   Z-3.500     F500 
G17 G2   X21.8283      Y22.5663      R4.0000     F1000
   X21.5378      Y23.0011      R4.0000    
   X21.3065      Y23.4701      R4.0000    
   X21.1384      Y23.9653      R4.0000    
   X21.0363      Y24.4782      R4.0000    
   X21.0000      Y25.0327      R4.0000    
G1   Y96.567    
G17 G2   X21.0363      Y97.1218      R4.0000    
   X21.1384      Y97.6347      R4.0000    
   X21.3065      Y98.1299      R4.0000    
   X21.5378      Y98.5989      R4.0000    
   X21.8283      Y99.0337      R4.0000    
   X22.1731      Y99.4269      R4.0000    
   X22.5663      Y99.7717      R4.0000    
   X23.0011      Y100.0622     R4.0000    
   X23.4701      Y100.2935     R4.0000    
   X23.9653      Y100.4616     R4.0000    
   X24.4782      Y100.5637     R4.0000    
   X25.0327      Y100.6000     R4.0000    
G1   X100.377   
G17 G2   X100.9318     Y100.5637     R4.0000    
   X101.4447     Y100.4616     R4.0000    
   X101.9399     Y100.2935     R4.0000    
   X102.4089     Y100.0622     R4.0000    
   X102.8437     Y99.7717      R4.0000    
   X103.2369     Y99.4269      R4.0000    
   X103.5817     Y99.0337      R4.0000    
   X103.8722     Y98.5989      R4.0000    
   X104.1035     Y98.1299      R4.0000    
   X104.2716     Y97.6347      R4.0000    
   X104.3737     Y97.1218      R4.0000    
   X104.4100     Y96.5673      R4.0000    
G1   Y25.033    
G17 G2   X104.3737     Y24.4782      R4.0000    
   X104.2716     Y23.9653      R4.0000    
   X104.1035     Y23.4701      R4.0000    
   X103.8722     Y23.0011      R4.0000    
   X103.5817     Y22.5663      R4.0000    
   X103.2369     Y22.1731      R4.0000    
   X102.8437     Y21.8283      R4.0000    
   X102.4089     Y21.5378      R4.0000    
   X101.9399     Y21.3065      R4.0000    
   X101.4447     Y21.1384      R4.0000    
   X100.9318     Y21.0363      R4.0000    
   X100.3773     Y21.0000      R4.0000    
G1   X25.033    
G17 G2   X24.4782      Y21.0363      R4.0000    
   X23.9653      Y21.1384      R4.0000    
   X23.4701      Y21.3065      R4.0000    
   X23.0011      Y21.5378      R4.0000    
   X22.5663      Y21.8283      R4.0000    
   X22.1731      Y22.1731      R4.0000    
G0   Z5.000     
(Pass: 1)
   X13.872       Y107.557   
G1   Z-0.500     F500 
G17 G2   X13.8100      Y107.5486     R0.2500     F1000
   X13.7475      Y107.5569     R0.2500    
   X13.6893      Y107.5810     R0.2500    
   X13.6393      Y107.6193     R0.2500    
   X13.6010      Y107.6693     R0.2500    
   X13.5769      Y107.7275     R0.2500    
   X13.5686      Y107.7900     R0.2500    
   X13.5769      Y107.8525     R0.2500    
   X13.6010      Y107.9107     R0.2500    
   X13.6393      Y107.9607     R0.2500    
   X13.6893      Y107.9990     R0.2500    
   X13.7475      Y108.0231     R0.2500    
   X13.8100      Y108.0314     R0.2500    
   X13.8725      Y108.0231     R0.2500    
   X13.9307      Y107.9990     R0.2500    
   X13.9807      Y107.9607     R0.2500    
   X14.0190      Y107.9107     R0.2500    
   X14.0431      Y107.8525     R0.2500    
   X14.0514      Y107.7900     R0.2500    
   X14.0431      Y107.7275     R0.2500    
   X14.0190      Y107.6693     R0.2500    
   X13.9807      Y107.6193     R0.2500    
   X13.9307      Y107.5810     R0.2500    
   X13.8725      Y107.5569     R0.2500    
(Pass: 2)
G1   Z-1.000     F500 
G17 G2   X13.8100      Y107.5486     R0.2500     F1000
   X13.7475      Y107.5569     R0.2500    
   X13.6893      Y107.5810     R0.2500    
   X13.6393      Y107.6193     R0.2500    
   X13.6010      Y107.6693     R0.2500    
   X13.5769      Y107.7275     R0.2500    
   X13.5686      Y107.7900     R0.2500    
   X13.5769      Y107.8525     R0.2500    
   X13.6010      Y107.9107     R0.2500    
   X13.6393      Y107.9607     R0.2500    
   X13.6893      Y107.9990     R0.2500    
   X13.7475      Y108.0231     R0.2500    
   X13.8100      Y108.0314     R0.2500    
   X13.8725      Y108.0231     R0.2500    
   X13.9307      Y107.9990     R0.2500    
   X13.9807      Y107.9607     R0.2500    
   X14.0190      Y107.9107     R0.2500    
   X14.0431      Y107.8525     R0.2500    
   X14.0514      Y107.7900     R0.2500    
   X14.0431      Y107.7275     R0.2500    
   X14.0190      Y107.6693     R0.2500    
   X13.9807      Y107.6193     R0.2500    
   X13.9307      Y107.5810     R0.2500    
   X13.8725      Y107.5569     R0.2500    
(Pass: 3)
G1   Z-1.500     F500 
G17 G2   X13.8100      Y107.5486     R0.2500     F1000
   X13.7475      Y107.5569     R0.2500    
   X13.6893      Y107.5810     R0.2500    
   X13.6393      Y107.6193     R0.2500    
   X13.6010      Y107.6693     R0.2500    
   X13.5769      Y107.7275     R0.2500    
   X13.5686      Y107.7900     R0.2500    
   X13.5769      Y107.8525     R0.2500    
   X13.6010      Y107.9107     R0.2500    
   X13.6393      Y107.9607     R0.2500    
   X13.6893      Y107.9990     R0.2500    
   X13.7475      Y108.0231     R0.2500    
   X13.8100      Y108.0314     R0.2500    
   X13.8725      Y108.0231     R0.2500    
   X13.9307      Y107.9990     R0.2500    
   X13.9807      Y107.9607     R0.2500    
   X14.0190      Y107.9107     R0.2500    
   X14.0431      Y107.8525     R0.2500    
   X14.0514      Y107.7900     R0.2500    
   X14.0431      Y107.7275     R0.2500    
   X14.0190      Y107.6693     R0.2500    
   X13.9807      Y107.6193     R0.2500    
   X13.9307      Y107.5810     R0.2500    
   X13.8725      Y107.5569     R0.2500    
(Pass: 4)
G1   Z-2.000     F500 
G17 G2   X13.8100      Y107.5486     R0.2500     F1000
   X13.7475      Y107.5569     R0.2500    
   X13.6893      Y107.5810     R0.2500    
   X13.6393      Y107.6193     R0.2500    
   X13.6010      Y107.6693     R0.2500    
   X13.5769      Y107.7275     R0.2500    
   X13.5686      Y107.7900     R0.2500    
   X13.5769      Y107.8525     R0.2500    
   X13.6010      Y107.9107     R0.2500    
   X13.6393      Y107.9607     R0.2500    
   X13.6893      Y107.9990     R0.2500    
   X13.7475      Y108.0231     R0.2500    
   X13.8100      Y108.0314     R0.2500    
   X13.8725      Y108.0231     R0.2500    
   X13.9307      Y107.9990     R0.2500    
   X13.9807      Y107.9607     R0.2500    
   X14.0190      Y107.9107     R0.2500    
   X14.0431      Y107.8525     R0.2500    
   X14.0514      Y107.7900     R0.2500    
   X14.0431      Y107.7275     R0.2500    
   X14.0190      Y107.6693     R0.2500    
   X13.9807      Y107.6193     R0.2500    
   X13.9307      Y107.5810     R0.2500    
   X13.8725      Y107.5569     R0.2500    
(Pass: 5)
G1   Z-2.500     F500 
G17 G2   X13.8100      Y107.5486     R0.2500     F1000
   X13.7475      Y107.5569     R0.2500    
   X13.6893      Y107.5810     R0.2500    
   X13.6393      Y107.6193     R0.2500    
   X13.6010      Y107.6693     R0.2500    
   X13.5769      Y107.7275     R0.2500    
   X13.5686      Y107.7900     R0.2500    
   X13.5769      Y107.8525     R0.2500    
   X13.6010      Y107.9107     R0.2500    
   X13.6393      Y107.9607     R0.2500    
   X13.6893      Y107.9990     R0.2500    
   X13.7475      Y108.0231     R0.2500    
   X13.8100      Y108.0314     R0.2500    
   X13.8725      Y108.0231     R0.2500    
   X13.9307      Y107.9990     R0.2500    
   X13.9807      Y107.9607     R0.2500    
   X14.0190      Y107.9107     R0.2500    
   X14.0431      Y107.8525     R0.2500    
   X14.0514      Y107.7900     R0.2500    
   X14.0431      Y107.7275     R0.2500    
   X14.0190      Y107.6693     R0.2500    
   X13.9807      Y107.6193     R0.2500    
   X13.9307      Y107.5810     R0.2500    
   X13.8725      Y107.5569     R0.2500    
(Pass: 6)
G1   Z-3.000     F500 
G17 G2   X13.8100      Y107.5486     R0.2500     F1000
   X13.7475      Y107.5569     R0.2500    
   X13.6893      Y107.5810     R0.2500    
   X13.6393      Y107.6193     R0.2500    
   X13.6010      Y107.6693     R0.2500    
   X13.5769      Y107.7275     R0.2500    
   X13.5686      Y107.7900     R0.2500    
   X13.5769      Y107.8525     R0.2500    
   X13.6010      Y107.9107     R0.2500    
   X13.6393      Y107.9607     R0.2500    
   X13.6893      Y107.9990     R0.2500    
   X13.7475      Y108.0231     R0.2500    
   X13.8100      Y108.0314     R0.2500    
   X13.8725      Y108.0231     R0.2500    
   X13.9307      Y107.9990     R0.2500    
   X13.9807      Y107.9607     R0.2500    
   X14.0190      Y107.9107     R0.2500    
   X14.0431      Y107.8525     R0.2500    
   X14.0514      Y107.7900     R0.2500    
   X14.0431      Y107.7275     R0.2500    
   X14.0190      Y107.6693     R0.2500    
   X13.9807      Y107.6193     R0.2500    
   X13.9307      Y107.5810     R0.2500    
   X13.8725      Y107.5569     R0.2500    
(Pass: 7)
G1   Z-3.500     F500 
G17 G2   X13.8100      Y107.5486     R0.2500     F1000
   X13.7475      Y107.5569     R0.2500    
   X13.6893      Y107.5810     R0.2500    
   X13.6393      Y107.6193     R0.2500    
   X13.6010      Y107.6693     R0.2500    
   X13.5769      Y107.7275     R0.2500    
   X13.5686      Y107.7900     R0.2500    
   X13.5769      Y107.8525     R0.2500    
   X13.6010      Y107.9107     R0.2500    
   X13.6393      Y107.9607     R0.2500    
   X13.6893      Y107.9990     R0.2500    
   X13.7475      Y108.0231     R0.2500    
   X13.8100      Y108.0314     R0.2500    
   X13.8725      Y108.0231     R0.2500    
   X13.9307      Y107.9990     R0.2500    
   X13.9807      Y107.9607     R0.2500    
   X14.0190      Y107.9107     R0.2500    
   X14.0431      Y107.8525     R0.2500    
   X14.0514      Y107.7900     R0.2500    
   X14.0431      Y107.7275     R0.2500    
   X14.0190      Y107.6693     R0.2500    
   X13.9807      Y107.6193     R0.2500    
   X13.9307      Y107.5810     R0.2500    
   X13.8725      Y107.5569     R0.2500    
G0   Z5.000     
(Pass: 1)
   X24.326       Y125.270   
G1   Z-0.500     F500 
G17 G2   X24.0043      Y125.4897     R1.5000     F1000
   X23.7508      Y125.7853     R1.5000    
   X23.5825      Y126.1364     R1.5000    
   X23.5108      Y126.5190     R1.5000    
   X23.5406      Y126.9072     R1.5000    
   X23.6699      Y127.2745     R1.5000    
   X23.8897      Y127.5957     R1.5000    
   X24.1853      Y127.8492     R1.5000    
   X24.5364      Y128.0175     R1.5000    
   X24.9190      Y128.0892     R1.5000    
   X25.3072      Y128.0594     R1.5000    
   X25.6745      Y127.9301     R1.5000    
   X25.9957      Y127.7103     R1.5000    
   X26.2492      Y127.4147     R1.5000    
   X26.4175      Y127.0636     R1.5000    
   X26.4892      Y126.6810     R1.5000    
   X26.4594      Y126.2928     R1.5000    
   X26.3301      Y125.9255     R1.5000    
   X26.1103      Y125.6043     R1.5000    
   X25.8147      Y125.3508     R1.5000    
   X25.4636      Y125.1825     R1.5000    
   X25.0810      Y125.1108     R1.5000    
   X24.6928      Y125.1406     R1.5000    
   X24.3255      Y125.2699     R1.5000    
(Pass: 2)
G1   Z-1.000     F500 
G17 G2   X24.0043      Y125.4897     R1.5000     F1000
   X23.7508      Y125.7853     R1.5000    
   X23.5825      Y126.1364     R1.5000    
   X23.5108      Y126.5190     R1.5000    
   X23.5406      Y126.9072     R1.5000    
   X23.6699      Y127.2745     R1.5000    
   X23.8897      Y127.5957     R1.5000    
   X24.1853      Y127.8492     R1.5000    
   X24.5364      Y128.0175     R1.5000    
   X24.9190      Y128.0892     R1.5000    
   X25.3072      Y128.0594     R1.5000    
   X25.6745      Y127.9301     R1.5000    
   X25.9957      Y127.7103     R1.5000    
   X26.2492      Y127.4147     R1.5000    
   X26.4175      Y127.0636     R1.5000    
   X26.4892      Y126.6810     R1.5000    
   X26.4594      Y126.2928     R1.5000    
   X26.3301      Y125.9255     R1.5000    
   X26.1103      Y125.6043     R1.5000    
   X25.8147      Y125.3508     R1.5000    
   X25.4636      Y125.1825     R1.5000    
   X25.0810      Y125.1108     R1.5000    
   X24.6928      Y125.1406     R1.5000    
   X24.3255      Y125.2699     R1.5000    
(Pass: 3)
G1   Z-1.500     F500 
G17 G2   X24.0043      Y125.4897     R1.5000     F1000
   X23.7508      Y125.7853     R1.5000    
   X23.5825      Y126.1364     R1.5000    
   X23.5108      Y126.5190     R1.5000    
   X23.5406      Y126.9072     R1.5000    
   X23.6699      Y127.2745     R1.5000    
   X23.8897      Y127.5957     R1.5000    
   X24.1853      Y127.8492     R1.5000    
   X24.5364      Y128.0175     R1.5000    
   X24.9190      Y128.0892     R1.5000    
   X25.3072      Y128.0594     R1.5000    
   X25.6745      Y127.9301     R1.5000    
   X25.9957      Y127.7103     R1.5000    
   X26.2492      Y127.4147     R1.5000    
   X26.4175      Y127.0636     R1.5000    
   X26.4892      Y126.6810     R1.5000    
   X26.4594      Y126.2928     R1.5000    
   X26.3301      Y125.9255     R1.5000    
   X26.1103      Y125.6043     R1.5000    
   X25.8147      Y125.3508     R1.5000    
   X25.4636      Y125.1825     R1.5000    
   X25.0810      Y125.1108     R1.5000    
   X24.6928      Y125.1406     R1.5000    
   X24.3255      Y125.2699     R1.5000    
(Pass: 4)
G1   Z-2.000     F500 
G17 G2   X24.0043      Y125.4897     R1.5000     F1000
   X23.7508      Y125.7853     R1.5000    
   X23.5825      Y126.1364     R1.5000    
   X23.5108      Y126.5190     R1.5000    
   X23.5406      Y126.9072     R1.5000    
   X23.6699      Y127.2745     R1.5000    
   X23.8897      Y127.5957     R1.5000    
   X24.1853      Y127.8492     R1.5000    
   X24.5364      Y128.0175     R1.5000    
   X24.9190      Y128.0892     R1.5000    
   X25.3072      Y128.0594     R1.5000    
   X25.6745      Y127.9301     R1.5000    
   X25.9957      Y127.7103     R1.5000    
   X26.2492      Y127.4147     R1.5000    
   X26.4175      Y127.0636     R1.5000    
   X26.4892      Y126.6810     R1.5000    
   X26.4594      Y126.2928     R1.5000    
   X26.3301      Y125.9255     R1.5000    
   X26.1103      Y125.6043     R1.5000    
   X25.8147      Y125.3508     R1.5000    
   X25.4636      Y125.1825     R1.5000    
   X25.0810      Y125.1108     R1.5000    
   X24.6928      Y125.1406     R1.5000    
   X24.3255      Y125.2699     R1.5000    
(Pass: 5)
G1   Z-2.500     F500 
G17 G2   X24.0043      Y125.4897     R1.5000     F1000
   X23.7508      Y125.7853     R1.5000    
   X23.5825      Y126.1364     R1.5000    
   X23.5108      Y126.5190     R1.5000    
   X23.5406      Y126.9072     R1.5000    
   X23.6699      Y127.2745     R1.5000    
   X23.8897      Y127.5957     R1.5000    
   X24.1853      Y127.8492     R1.5000    
   X24.5364      Y128.0175     R1.5000    
   X24.9190      Y128.0892     R1.5000    
   X25.3072      Y128.0594     R1.5000    
   X25.6745      Y127.9301     R1.5000    
   X25.9957      Y127.7103     R1.5000    
   X26.2492      Y127.4147     R1.5000    
   X26.4175      Y127.0636     R1.5000    
   X26.4892      Y126.6810     R1.5000    
   X26.4594      Y126.2928     R1.5000    
   X26.3301      Y125.9255     R1.5000    
   X26.1103      Y125.6043     R1.5000    
   X25.8147      Y125.3508     R1.5000    
   X25.4636      Y125.1825     R1.5000    
   X25.0810      Y125.1108     R1.5000    
   X24.6928      Y125.1406     R1.5000    
   X24.3255      Y125.2699     R1.5000    
(Pass: 6)
G1   Z-3.000     F500 
G17 G2   X24.0043      Y125.4897     R1.5000     F1000
   X23.7508      Y125.7853     R1.5000    
   X23.5825      Y126.1364     R1.5000    
   X23.5108      Y126.5190     R1.5000    
   X23.5406      Y126.9072     R1.5000    
   X23.6699      Y127.2745     R1.5000    
   X23.8897      Y127.5957     R1.5000    
   X24.1853      Y127.8492     R1.5000    
   X24.5364      Y128.0175     R1.5000    
   X24.9190      Y128.0892     R1.5000    
   X25.3072      Y128.0594     R1.5000    
   X25.6745      Y127.9301     R1.5000    
   X25.9957      Y127.7103     R1.5000    
   X26.2492      Y127.4147     R1.5000    
   X26.4175      Y127.0636     R1.5000    
   X26.4892      Y126.6810     R1.5000    
   X26.4594      Y126.2928     R1.5000    
   X26.3301      Y125.9255     R1.5000    
   X26.1103      Y125.6043     R1.5000    
   X25.8147      Y125.3508     R1.5000    
   X25.4636      Y125.1825     R1.5000    
   X25.0810      Y125.1108     R1.5000    
   X24.6928      Y125.1406     R1.5000    
   X24.3255      Y125.2699     R1.5000    
(Pass: 7)
G1   Z-3.500     F500 
G17 G2   X24.0043      Y125.4897     R1.5000     F1000
   X23.7508      Y125.7853     R1.5000    
   X23.5825      Y126.1364     R1.5000    
   X23.5108      Y126.5190     R1.5000    
   X23.5406      Y126.9072     R1.5000    
   X23.6699      Y127.2745     R1.5000    
   X23.8897      Y127.5957     R1.5000    
   X24.1853      Y127.8492     R1.5000    
   X24.5364      Y128.0175     R1.5000    
   X24.9190      Y128.0892     R1.5000    
   X25.3072      Y128.0594     R1.5000    
   X25.6745      Y127.9301     R1.5000    
   X25.9957      Y127.7103     R1.5000    
   X26.2492      Y127.4147     R1.5000    
   X26.4175      Y127.0636     R1.5000    
   X26.4892      Y126.6810     R1.5000    
   X26.4594      Y126.2928     R1.5000    
   X26.3301      Y125.9255     R1.5000    
   X26.1103      Y125.6043     R1.5000    
   X25.8147      Y125.3508     R1.5000    
   X25.4636      Y125.1825     R1.5000    
   X25.0810      Y125.1108     R1.5000    
   X24.6928      Y125.1406     R1.5000    
   X24.3255      Y125.2699     R1.5000    
G0   Z5.000     
(Pass: 1)
   X43.545       Y126.271   
G1   Z-0.500     F500 
G17 G2   X43.5098      Y126.6590     R1.5000     F1000
   X43.5759      Y127.0427     R1.5000    
   X43.7390      Y127.3962     R1.5000    
   X43.9880      Y127.6955     R1.5000    
   X44.3060      Y127.9201     R1.5000    
   X44.6713      Y128.0547     R1.5000    
   X45.0590      Y128.0902     R1.5000    
   X45.4427      Y128.0241     R1.5000    
   X45.7962      Y127.8610     R1.5000    
   X46.0955      Y127.6120     R1.5000    
   X46.3201      Y127.2940     R1.5000    
   X46.4547      Y126.9287     R1.5000    
   X46.4902      Y126.5410     R1.5000    
   X46.4241      Y126.1573     R1.5000    
   X46.2610      Y125.8038     R1.5000    
   X46.0120      Y125.5045     R1.5000    
   X45.6940      Y125.2799     R1.5000    
   X45.3287      Y125.1453     R1.5000    
   X44.9410      Y125.1098     R1.5000    
   X44.5573      Y125.1759     R1.5000    
   X44.2038      Y125.3390     R1.5000    
   X43.9045      Y125.5880     R1.5000    
   X43.6799      Y125.9060     R1.5000    
   X43.5453      Y126.2713     R1.5000    
(Pass: 2)
G1   Z-1.000     F500 
G17 G2   X43.5098      Y126.6590     R1.5000     F1000
   X43.5759      Y127.0427     R1.5000    
   X43.7390      Y127.3962     R1.5000    
   X43.9880      Y127.6955     R1.5000    
   X44.3060      Y127.9201     R1.5000    
   X44.6713      Y128.0547     R1.5000    
   X45.0590      Y128.0902     R1.5000    
   X45.4427      Y128.0241     R1.5000    
   X45.7962      Y127.8610     R1.5000    
   X46.0955      Y127.6120     R1.5000    
   X46.3201      Y127.2940     R1.5000    
   X46.4547      Y126.9287     R1.5000    
   X46.4902      Y126.5410     R1.5000    
   X46.4241      Y126.1573     R1.5000    
   X46.2610      Y125.8038     R1.5000    
   X46.0120      Y125.5045     R1.5000    
   X45.6940      Y125.2799     R1.5000    
   X45.3287      Y125.1453     R1.5000    
   X44.9410      Y125.1098     R1.5000    
   X44.5573      Y125.1759     R1.5000    
   X44.2038      Y125.3390     R1.5000    
   X43.9045      Y125.5880     R1.5000    
   X43.6799      Y125.9060     R1.5000    
   X43.5453      Y126.2713     R1.5000    
(Pass: 3)
G1   Z-1.500     F500 
G17 G2   X43.5098      Y126.6590     R1.5000     F1000
   X43.5759      Y127.0427     R1.5000    
   X43.7390      Y127.3962     R1.5000    
   X43.9880      Y127.6955     R1.5000    
   X44.3060      Y127.9201     R1.5000    
   X44.6713      Y128.0547     R1.5000    
   X45.0590      Y128.0902     R1.5000    
   X45.4427      Y128.0241     R1.5000    
   X45.7962      Y127.8610     R1.5000    
   X46.0955      Y127.6120     R1.5000    
   X46.3201      Y127.2940     R1.5000    
   X46.4547      Y126.9287     R1.5000    
   X46.4902      Y126.5410     R1.5000    
   X46.4241      Y126.1573     R1.5000    
   X46.2610      Y125.8038     R1.5000    
   X46.0120      Y125.5045     R1.5000    
   X45.6940      Y125.2799     R1.5000    
   X45.3287      Y125.1453     R1.5000    
   X44.9410      Y125.1098     R1.5000    
   X44.5573      Y125.1759     R1.5000    
   X44.2038      Y125.3390     R1.5000    
   X43.9045      Y125.5880     R1.5000    
   X43.6799      Y125.9060     R1.5000    
   X43.5453      Y126.2713     R1.5000    
(Pass: 4)
G1   Z-2.000     F500 
G17 G2   X43.5098      Y126.6590     R1.5000     F1000
   X43.5759      Y127.0427     R1.5000    
   X43.7390      Y127.3962     R1.5000    
   X43.9880      Y127.6955     R1.5000    
   X44.3060      Y127.9201     R1.5000    
   X44.6713      Y128.0547     R1.5000    
   X45.0590      Y128.0902     R1.5000    
   X45.4427      Y128.0241     R1.5000    
   X45.7962      Y127.8610     R1.5000    
   X46.0955      Y127.6120     R1.5000    
   X46.3201      Y127.2940     R1.5000    
   X46.4547      Y126.9287     R1.5000    
   X46.4902      Y126.5410     R1.5000    
   X46.4241      Y126.1573     R1.5000    
   X46.2610      Y125.8038     R1.5000    
   X46.0120      Y125.5045     R1.5000    
   X45.6940      Y125.2799     R1.5000    
   X45.3287      Y125.1453     R1.5000    
   X44.9410      Y125.1098     R1.5000    
   X44.5573      Y125.1759     R1.5000    
   X44.2038      Y125.3390     R1.5000    
   X43.9045      Y125.5880     R1.5000    
   X43.6799      Y125.9060     R1.5000    
   X43.5453      Y126.2713     R1.5000    
(Pass: 5)
G1   Z-2.500     F500 
G17 G2   X43.5098      Y126.6590     R1.5000     F1000
   X43.5759      Y127.0427     R1.5000    
   X43.7390      Y127.3962     R1.5000    
   X43.9880      Y127.6955     R1.5000    
   X44.3060      Y127.9201     R1.5000    
   X44.6713      Y128.0547     R1.5000    
   X45.0590      Y128.0902     R1.5000    
   X45.4427      Y128.0241     R1.5000    
   X45.7962      Y127.8610     R1.5000    
   X46.0955      Y127.6120     R1.5000    
   X46.3201      Y127.2940     R1.5000    
   X46.4547      Y126.9287     R1.5000    
   X46.4902      Y126.5410     R1.5000    
   X46.4241      Y126.1573     R1.5000    
   X46.2610      Y125.8038     R1.5000    
   X46.0120      Y125.5045     R1.5000    
   X45.6940      Y125.2799     R1.5000    
   X45.3287      Y125.1453     R1.5000    
   X44.9410      Y125.1098     R1.5000    
   X44.5573      Y125.1759     R1.5000    
   X44.2038      Y125.3390     R1.5000    
   X43.9045      Y125.5880     R1.5000    
   X43.6799      Y125.9060     R1.5000    
   X43.5453      Y126.2713     R1.5000    
(Pass: 6)
G1   Z-3.000     F500 
G17 G2   X43.5098      Y126.6590     R1.5000     F1000
   X43.5759      Y127.0427     R1.5000    
   X43.7390      Y127.3962     R1.5000    
   X43.9880      Y127.6955     R1.5000    
   X44.3060      Y127.9201     R1.5000    
   X44.6713      Y128.0547     R1.5000    
   X45.0590      Y128.0902     R1.5000    
   X45.4427      Y128.0241     R1.5000    
   X45.7962      Y127.8610     R1.5000    
   X46.0955      Y127.6120     R1.5000    
   X46.3201      Y127.2940     R1.5000    
   X46.4547      Y126.9287     R1.5000    
   X46.4902      Y126.5410     R1.5000    
   X46.4241      Y126.1573     R1.5000    
   X46.2610      Y125.8038     R1.5000    
   X46.0120      Y125.5045     R1.5000    
   X45.6940      Y125.2799     R1.5000    
   X45.3287      Y125.1453     R1.5000    
   X44.9410      Y125.1098     R1.5000    
   X44.5573      Y125.1759     R1.5000    
   X44.2038      Y125.3390     R1.5000    
   X43.9045      Y125.5880     R1.5000    
   X43.6799      Y125.9060     R1.5000    
   X43.5453      Y126.2713     R1.5000    
(Pass: 7)
G1   Z-3.500     F500 
G17 G2   X43.5098      Y126.6590     R1.5000     F1000
   X43.5759      Y127.0427     R1.5000    
   X43.7390      Y127.3962     R1.5000    
   X43.9880      Y127.6955     R1.5000    
   X44.3060      Y127.9201     R1.5000    
   X44.6713      Y128.0547     R1.5000    
   X45.0590      Y128.0902     R1.5000    
   X45.4427      Y128.0241     R1.5000    
   X45.7962      Y127.8610     R1.5000    
   X46.0955      Y127.6120     R1.5000    
   X46.3201      Y127.2940     R1.5000    
   X46.4547      Y126.9287     R1.5000    
   X46.4902      Y126.5410     R1.5000    
   X46.4241      Y126.1573     R1.5000    
   X46.2610      Y125.8038     R1.5000    
   X46.0120      Y125.5045     R1.5000    
   X45.6940      Y125.2799     R1.5000    
   X45.3287      Y125.1453     R1.5000    
   X44.9410      Y125.1098     R1.5000    
   X44.5573      Y125.1759     R1.5000    
   X44.2038      Y125.3390     R1.5000    
   X43.9045      Y125.5880     R1.5000    
   X43.6799      Y125.9060     R1.5000    
   X43.5453      Y126.2713     R1.5000    
G0   Z5.000     
(Pass: 1)
   X63.509       Y126.601   
G1   Z-0.500     F500 
G17 G2   X63.5598      Y126.9872     R1.5000     F1000
   X63.7091      Y127.3468     R1.5000    
   X63.9463      Y127.6554     R1.5000    
   X64.2554      Y127.8922     R1.5000    
   X64.6152      Y128.0409     R1.5000    
   X65.0012      Y128.0914     R1.5000    
   X65.3872      Y128.0402     R1.5000    
   X65.7468      Y127.8909     R1.5000    
   X66.0554      Y127.6537     R1.5000    
   X66.2922      Y127.3446     R1.5000    
   X66.4409      Y126.9848     R1.5000    
   X66.4914      Y126.5988     R1.5000    
   X66.4402      Y126.2128     R1.5000    
   X66.2909      Y125.8532     R1.5000    
   X66.0537      Y125.5446     R1.5000    
   X65.7446      Y125.3078     R1.5000    
   X65.3848      Y125.1591     R1.5000    
   X64.9988      Y125.1086     R1.5000    
   X64.6128      Y125.1598     R1.5000    
   X64.2532      Y125.3091     R1.5000    
   X63.9446      Y125.5463     R1.5000    
   X63.7078      Y125.8554     R1.5000    
   X63.5591      Y126.2152     R1.5000    
   X63.5086      Y126.6012     R1.5000    
(Pass: 2)
G1   Z-1.000     F500 
G17 G2   X63.5598      Y126.9872     R1.5000     F1000
   X63.7091      Y127.3468     R1.5000    
   X63.9463      Y127.6554     R1.5000    
   X64.2554      Y127.8922     R1.5000    
   X64.6152      Y128.0409     R1.5000    
   X65.0012      Y128.0914     R1.5000    
   X65.3872      Y128.0402     R1.5000    
   X65.7468      Y127.8909     R1.5000    
   X66.0554      Y127.6537     R1.5000    
   X66.2922      Y127.3446     R1.5000    
   X66.4409      Y126.9848     R1.5000    
   X66.4914      Y126.5988     R1.5000    
   X66.4402      Y126.2128     R1.5000    
   X66.2909      Y125.8532     R1.5000    
   X66.0537      Y125.5446     R1.5000    
   X65.7446      Y125.3078     R1.5000    
   X65.3848      Y125.1591     R1.5000    
   X64.9988      Y125.1086     R1.5000    
   X64.6128      Y125.1598     R1.5000    
   X64.2532      Y125.3091     R1.5000    
   X63.9446      Y125.5463     R1.5000    
   X63.7078      Y125.8554     R1.5000    
   X63.5591      Y126.2152     R1.5000    
   X63.5086      Y126.6012     R1.5000    
(Pass: 3)
G1   Z-1.500     F500 
G17 G2   X63.5598      Y126.9872     R1.5000     F1000
   X63.7091      Y127.3468     R1.5000    
   X63.9463      Y127.6554     R1.5000    
   X64.2554      Y127.8922     R1.5000    
   X64.6152      Y128.0409     R1.5000    
   X65.0012      Y128.0914     R1.5000    
   X65.3872      Y128.0402     R1.5000    
   X65.7468      Y127.8909     R1.5000    
   X66.0554      Y127.6537     R1.5000    
   X66.2922      Y127.3446     R1.5000    
   X66.4409      Y126.9848     R1.5000    
   X66.4914      Y126.5988     R1.5000    
   X66.4402      Y126.2128     R1.5000    
   X66.2909      Y125.8532     R1.5000    
   X66.0537      Y125.5446     R1.5000    
   X65.7446      Y125.3078     R1.5000    
   X65.3848      Y125.1591     R1.5000    
   X64.9988      Y125.1086     R1.5000    
   X64.6128      Y125.1598     R1.5000    
   X64.2532      Y125.3091     R1.5000    
   X63.9446      Y125.5463     R1.5000    
   X63.7078      Y125.8554     R1.5000    
   X63.5591      Y126.2152     R1.5000    
   X63.5086      Y126.6012     R1.5000    
(Pass: 4)
G1   Z-2.000     F500 
G17 G2   X63.5598      Y126.9872     R1.5000     F1000
   X63.7091      Y127.3468     R1.5000    
   X63.9463      Y127.6554     R1.5000    
   X64.2554      Y127.8922     R1.5000    
   X64.6152      Y128.0409     R1.5000    
   X65.0012      Y128.0914     R1.5000    
   X65.3872      Y128.0402     R1.5000    
   X65.7468      Y127.8909     R1.5000    
   X66.0554      Y127.6537     R1.5000    
   X66.2922      Y127.3446     R1.5000    
   X66.4409      Y126.9848     R1.5000    
   X66.4914      Y126.5988     R1.5000    
   X66.4402      Y126.2128     R1.5000    
   X66.2909      Y125.8532     R1.5000    
   X66.0537      Y125.5446     R1.5000    
   X65.7446      Y125.3078     R1.5000    
   X65.3848      Y125.1591     R1.5000    
   X64.9988      Y125.1086     R1.5000    
   X64.6128      Y125.1598     R1.5000    
   X64.2532      Y125.3091     R1.5000    
   X63.9446      Y125.5463     R1.5000    
   X63.7078      Y125.8554     R1.5000    
   X63.5591      Y126.2152     R1.5000    
   X63.5086      Y126.6012     R1.5000    
(Pass: 5)
G1   Z-2.500     F500 
G17 G2   X63.5598      Y126.9872     R1.5000     F1000
   X63.7091      Y127.3468     R1.5000    
   X63.9463      Y127.6554     R1.5000    
   X64.2554      Y127.8922     R1.5000    
   X64.6152      Y128.0409     R1.5000    
   X65.0012      Y128.0914     R1.5000    
   X65.3872      Y128.0402     R1.5000    
   X65.7468      Y127.8909     R1.5000    
   X66.0554      Y127.6537     R1.5000    
   X66.2922      Y127.3446     R1.5000    
   X66.4409      Y126.9848     R1.5000    
   X66.4914      Y126.5988     R1.5000    
   X66.4402      Y126.2128     R1.5000    
   X66.2909      Y125.8532     R1.5000    
   X66.0537      Y125.5446     R1.5000    
   X65.7446      Y125.3078     R1.5000    
   X65.3848      Y125.1591     R1.5000    
   X64.9988      Y125.1086     R1.5000    
   X64.6128      Y125.1598     R1.5000    
   X64.2532      Y125.3091     R1.5000    
   X63.9446      Y125.5463     R1.5000    
   X63.7078      Y125.8554     R1.5000    
   X63.5591      Y126.2152     R1.5000    
   X63.5086      Y126.6012     R1.5000    
(Pass: 6)
G1   Z-3.000     F500 
G17 G2   X63.5598      Y126.9872     R1.5000     F1000
   X63.7091      Y127.3468     R1.5000    
   X63.9463      Y127.6554     R1.5000    
   X64.2554      Y127.8922     R1.5000    
   X64.6152      Y128.0409     R1.5000    
   X65.0012      Y128.0914     R1.5000    
   X65.3872      Y128.0402     R1.5000    
   X65.7468      Y127.8909     R1.5000    
   X66.0554      Y127.6537     R1.5000    
   X66.2922      Y127.3446     R1.5000    
   X66.4409      Y126.9848     R1.5000    
   X66.4914      Y126.5988     R1.5000    
   X66.4402      Y126.2128     R1.5000    
   X66.2909      Y125.8532     R1.5000    
   X66.0537      Y125.5446     R1.5000    
   X65.7446      Y125.3078     R1.5000    
   X65.3848      Y125.1591     R1.5000    
   X64.9988      Y125.1086     R1.5000    
   X64.6128      Y125.1598     R1.5000    
   X64.2532      Y125.3091     R1.5000    
   X63.9446      Y125.5463     R1.5000    
   X63.7078      Y125.8554     R1.5000    
   X63.5591      Y126.2152     R1.5000    
   X63.5086      Y126.6012     R1.5000    
(Pass: 7)
G1   Z-3.500     F500 
G17 G2   X63.5598      Y126.9872     R1.5000     F1000
   X63.7091      Y127.3468     R1.5000    
   X63.9463      Y127.6554     R1.5000    
   X64.2554      Y127.8922     R1.5000    
   X64.6152      Y128.0409     R1.5000    
   X65.0012      Y128.0914     R1.5000    
   X65.3872      Y128.0402     R1.5000    
   X65.7468      Y127.8909     R1.5000    
   X66.0554      Y127.6537     R1.5000    
   X66.2922      Y127.3446     R1.5000    
   X66.4409      Y126.9848     R1.5000    
   X66.4914      Y126.5988     R1.5000    
   X66.4402      Y126.2128     R1.5000    
   X66.2909      Y125.8532     R1.5000    
   X66.0537      Y125.5446     R1.5000    
   X65.7446      Y125.3078     R1.5000    
   X65.3848      Y125.1591     R1.5000    
   X64.9988      Y125.1086     R1.5000    
   X64.6128      Y125.1598     R1.5000    
   X64.2532      Y125.3091     R1.5000    
   X63.9446      Y125.5463     R1.5000    
   X63.7078      Y125.8554     R1.5000    
   X63.5591      Y126.2152     R1.5000    
   X63.5086      Y126.6012     R1.5000    
G0   Z5.000     
(Pass: 1)
   X111.374      Y107.876   
G1   Z-0.500     F500 
G17 G2   X111.4043     Y107.9313     R0.2500     F1000
   X111.4476     Y107.9771     R0.2500    
   X111.5012     Y108.0102     R0.2500    
   X111.5616     Y108.0283     R0.2500    
   X111.6245     Y108.0301     R0.2500    
   X111.6859     Y108.0156     R0.2500    
   X111.7413     Y107.9857     R0.2500    
   X111.7871     Y107.9424     R0.2500    
   X111.8202     Y107.8888     R0.2500    
   X111.8383     Y107.8284     R0.2500    
   X111.8401     Y107.7655     R0.2500    
   X111.8256     Y107.7041     R0.2500    
   X111.7957     Y107.6487     R0.2500    
   X111.7524     Y107.6029     R0.2500    
   X111.6988     Y107.5698     R0.2500    
   X111.6384     Y107.5517     R0.2500    
   X111.5755     Y107.5499     R0.2500    
   X111.5141     Y107.5644     R0.2500    
   X111.4587     Y107.5943     R0.2500    
   X111.4129     Y107.6376     R0.2500    
   X111.3798     Y107.6912     R0.2500    
   X111.3617     Y107.7516     R0.2500    
   X111.3599     Y107.8145     R0.2500    
   X111.3744     Y107.8759     R0.2500    
(Pass: 2)
G1   Z-1.000     F500 
G17 G2   X111.4043     Y107.9313     R0.2500     F1000
   X111.4476     Y107.9771     R0.2500    
   X111.5012     Y108.0102     R0.2500    
   X111.5616     Y108.0283     R0.2500    
   X111.6245     Y108.0301     R0.2500    
   X111.6859     Y108.0156     R0.2500    
   X111.7413     Y107.9857     R0.2500    
   X111.7871     Y107.9424     R0.2500    
   X111.8202     Y107.8888     R0.2500    
   X111.8383     Y107.8284     R0.2500    
   X111.8401     Y107.7655     R0.2500    
   X111.8256     Y107.7041     R0.2500    
   X111.7957     Y107.6487     R0.2500    
   X111.7524     Y107.6029     R0.2500    
   X111.6988     Y107.5698     R0.2500    
   X111.6384     Y107.5517     R0.2500    
   X111.5755     Y107.5499     R0.2500    
   X111.5141     Y107.5644     R0.2500    
   X111.4587     Y107.5943     R0.2500    
   X111.4129     Y107.6376     R0.2500    
   X111.3798     Y107.6912     R0.2500    
   X111.3617     Y107.7516     R0.2500    
   X111.3599     Y107.8145     R0.2500    
   X111.3744     Y107.8759     R0.2500    
(Pass: 3)
G1   Z-1.500     F500 
G17 G2   X111.4043     Y107.9313     R0.2500     F1000
   X111.4476     Y107.9771     R0.2500    
   X111.5012     Y108.0102     R0.2500    
   X111.5616     Y108.0283     R0.2500    
   X111.6245     Y108.0301     R0.2500    
   X111.6859     Y108.0156     R0.2500    
   X111.7413     Y107.9857     R0.2500    
   X111.7871     Y107.9424     R0.2500    
   X111.8202     Y107.8888     R0.2500    
   X111.8383     Y107.8284     R0.2500    
   X111.8401     Y107.7655     R0.2500    
   X111.8256     Y107.7041     R0.2500    
   X111.7957     Y107.6487     R0.2500    
   X111.7524     Y107.6029     R0.2500    
   X111.6988     Y107.5698     R0.2500    
   X111.6384     Y107.5517     R0.2500    
   X111.5755     Y107.5499     R0.2500    
   X111.5141     Y107.5644     R0.2500    
   X111.4587     Y107.5943     R0.2500    
   X111.4129     Y107.6376     R0.2500    
   X111.3798     Y107.6912     R0.2500    
   X111.3617     Y107.7516     R0.2500    
   X111.3599     Y107.8145     R0.2500    
   X111.3744     Y107.8759     R0.2500    
(Pass: 4)
G1   Z-2.000     F500 
G17 G2   X111.4043     Y107.9313     R0.2500     F1000
   X111.4476     Y107.9771     R0.2500    
   X111.5012     Y108.0102     R0.2500    
   X111.5616     Y108.0283     R0.2500    
   X111.6245     Y108.0301     R0.2500    
   X111.6859     Y108.0156     R0.2500    
   X111.7413     Y107.9857     R0.2500    
   X111.7871     Y107.9424     R0.2500    
   X111.8202     Y107.8888     R0.2500    
   X111.8383     Y107.8284     R0.2500    
   X111.8401     Y107.7655     R0.2500    
   X111.8256     Y107.7041     R0.2500    
   X111.7957     Y107.6487     R0.2500    
   X111.7524     Y107.6029     R0.2500    
   X111.6988     Y107.5698     R0.2500    
   X111.6384     Y107.5517     R0.2500    
   X111.5755     Y107.5499     R0.2500    
   X111.5141     Y107.5644     R0.2500    
   X111.4587     Y107.5943     R0.2500    
   X111.4129     Y107.6376     R0.2500    
   X111.3798     Y107.6912     R0.2500    
   X111.3617     Y107.7516     R0.2500    
   X111.3599     Y107.8145     R0.2500    
   X111.3744     Y107.8759     R0.2500    
(Pass: 5)
G1   Z-2.500     F500 
G17 G2   X111.4043     Y107.9313     R0.2500     F1000
   X111.4476     Y107.9771     R0.2500    
   X111.5012     Y108.0102     R0.2500    
   X111.5616     Y108.0283     R0.2500    
   X111.6245     Y108.0301     R0.2500    
   X111.6859     Y108.0156     R0.2500    
   X111.7413     Y107.9857     R0.2500    
   X111.7871     Y107.9424     R0.2500    
   X111.8202     Y107.8888     R0.2500    
   X111.8383     Y107.8284     R0.2500    
   X111.8401     Y107.7655     R0.2500    
   X111.8256     Y107.7041     R0.2500    
   X111.7957     Y107.6487     R0.2500    
   X111.7524     Y107.6029     R0.2500    
   X111.6988     Y107.5698     R0.2500    
   X111.6384     Y107.5517     R0.2500    
   X111.5755     Y107.5499     R0.2500    
   X111.5141     Y107.5644     R0.2500    
   X111.4587     Y107.5943     R0.2500    
   X111.4129     Y107.6376     R0.2500    
   X111.3798     Y107.6912     R0.2500    
   X111.3617     Y107.7516     R0.2500    
   X111.3599     Y107.8145     R0.2500    
   X111.3744     Y107.8759     R0.2500    
(Pass: 6)
G1   Z-3.000     F500 
G17 G2   X111.4043     Y107.9313     R0.2500     F1000
   X111.4476     Y107.9771     R0.2500    
   X111.5012     Y108.0102     R0.2500    
   X111.5616     Y108.0283     R0.2500    
   X111.6245     Y108.0301     R0.2500    
   X111.6859     Y108.0156     R0.2500    
   X111.7413     Y107.9857     R0.2500    
   X111.7871     Y107.9424     R0.2500    
   X111.8202     Y107.8888     R0.2500    
   X111.8383     Y107.8284     R0.2500    
   X111.8401     Y107.7655     R0.2500    
   X111.8256     Y107.7041     R0.2500    
   X111.7957     Y107.6487     R0.2500    
   X111.7524     Y107.6029     R0.2500    
   X111.6988     Y107.5698     R0.2500    
   X111.6384     Y107.5517     R0.2500    
   X111.5755     Y107.5499     R0.2500    
   X111.5141     Y107.5644     R0.2500    
   X111.4587     Y107.5943     R0.2500    
   X111.4129     Y107.6376     R0.2500    
   X111.3798     Y107.6912     R0.2500    
   X111.3617     Y107.7516     R0.2500    
   X111.3599     Y107.8145     R0.2500    
   X111.3744     Y107.8759     R0.2500    
(Pass: 7)
G1   Z-3.500     F500 
G17 G2   X111.4043     Y107.9313     R0.2500     F1000
   X111.4476     Y107.9771     R0.2500    
   X111.5012     Y108.0102     R0.2500    
   X111.5616     Y108.0283     R0.2500    
   X111.6245     Y108.0301     R0.2500    
   X111.6859     Y108.0156     R0.2500    
   X111.7413     Y107.9857     R0.2500    
   X111.7871     Y107.9424     R0.2500    
   X111.8202     Y107.8888     R0.2500    
   X111.8383     Y107.8284     R0.2500    
   X111.8401     Y107.7655     R0.2500    
   X111.8256     Y107.7041     R0.2500    
   X111.7957     Y107.6487     R0.2500    
   X111.7524     Y107.6029     R0.2500    
   X111.6988     Y107.5698     R0.2500    
   X111.6384     Y107.5517     R0.2500    
   X111.5755     Y107.5499     R0.2500    
   X111.5141     Y107.5644     R0.2500    
   X111.4587     Y107.5943     R0.2500    
   X111.4129     Y107.6376     R0.2500    
   X111.3798     Y107.6912     R0.2500    
   X111.3617     Y107.7516     R0.2500    
   X111.3599     Y107.8145     R0.2500    
   X111.3744     Y107.8759     R0.2500    
G0   Z5.000     
(Pass: 1)
   X121.410      Y114.100   
G1   Z-0.500     F500 
   Y115.600    F1000
   X164.410   
   Y114.100   
   X121.410   
(Pass: 2)
   Z-1.000     F500 
   Y115.600    F1000
   X164.410   
   Y114.100   
   X121.410   
(Pass: 3)
   Z-1.500     F500 
   Y115.600    F1000
   X164.410   
   Y114.100   
   X121.410   
(Pass: 4)
   Z-2.000     F500 
   Y115.600    F1000
   X164.410   
   Y114.100   
   X121.410   
(Pass: 5)
   Z-2.500     F500 
   Y115.600    F1000
   X164.410   
   Y114.100   
   X121.410   
(Pass: 6)
   Z-3.000     F500 
   Y115.600    F1000
   X164.410   
   Y114.100   
   X121.410   
(Pass: 7)
   Z-3.500     F500 
   Y115.600    F1000
   X164.410   
   Y114.100   
   X121.410   
G0   Z5.000     
(Pass: 1)
   X180.819      Y106.567   
G1   Z-0.500     F500 
G17 G2   X180.8477     Y106.8503     R1.1000     F1000
   X180.9487     Y107.1167     R1.1000    
   X181.1152     Y107.3479     R1.1000    
   X181.3358     Y107.5281     R1.1000    
   X181.5956     Y107.6451     R1.1000    
   X181.8768     Y107.6909     R1.1000    
   X182.1603     Y107.6623     R1.1000    
   X182.4267     Y107.5613     R1.1000    
   X182.6579     Y107.3948     R1.1000    
   X182.8381     Y107.1742     R1.1000    
   X182.9551     Y106.9144     R1.1000    
   X183.0009     Y106.6332     R1.1000    
   X182.9723     Y106.3497     R1.1000    
   X182.8713     Y106.0833     R1.1000    
   X182.7048     Y105.8521     R1.1000    
   X182.4842     Y105.6719     R1.1000    
   X182.2244     Y105.5549     R1.1000    
   X181.9432     Y105.5091     R1.1000    
   X181.6597     Y105.5377     R1.1000    
   X181.3933     Y105.6387     R1.1000    
   X181.1621     Y105.8052     R1.1000    
   X180.9819     Y106.0258     R1.1000    
   X180.8649     Y106.2856     R1.1000    
   X180.8191     Y106.5668     R1.1000    
(Pass: 2)
G1   Z-1.000     F500 
G17 G2   X180.8477     Y106.8503     R1.1000     F1000
   X180.9487     Y107.1167     R1.1000    
   X181.1152     Y107.3479     R1.1000    
   X181.3358     Y107.5281     R1.1000    
   X181.5956     Y107.6451     R1.1000    
   X181.8768     Y107.6909     R1.1000    
   X182.1603     Y107.6623     R1.1000    
   X182.4267     Y107.5613     R1.1000    
   X182.6579     Y107.3948     R1.1000    
   X182.8381     Y107.1742     R1.1000    
   X182.9551     Y106.9144     R1.1000    
   X183.0009     Y106.6332     R1.1000    
   X182.9723     Y106.3497     R1.1000    
   X182.8713     Y106.0833     R1.1000    
   X182.7048     Y105.8521     R1.1000    
   X182.4842     Y105.6719     R1.1000    
   X182.2244     Y105.5549     R1.1000    
   X181.9432     Y105.5091     R1.1000    
   X181.6597     Y105.5377     R1.1000    
   X181.3933     Y105.6387     R1.1000    
   X181.1621     Y105.8052     R1.1000    
   X180.9819     Y106.0258     R1.1000    
   X180.8649     Y106.2856     R1.1000    
   X180.8191     Y106.5668     R1.1000    
(Pass: 3)
G1   Z-1.500     F500 
G17 G2   X180.8477     Y106.8503     R1.1000     F1000
   X180.9487     Y107.1167     R1.1000    
   X181.1152     Y107.3479     R1.1000    
   X181.3358     Y107.5281     R1.1000    
   X181.5956     Y107.6451     R1.1000    
   X181.8768     Y107.6909     R1.1000    
   X182.1603     Y107.6623     R1.1000    
   X182.4267     Y107.5613     R1.1000    
   X182.6579     Y107.3948     R1.1000    
   X182.8381     Y107.1742     R1.1000    
   X182.9551     Y106.9144     R1.1000    
   X183.0009     Y106.6332     R1.1000    
   X182.9723     Y106.3497     R1.1000    
   X182.8713     Y106.0833     R1.1000    
   X182.7048     Y105.8521     R1.1000    
   X182.4842     Y105.6719     R1.1000    
   X182.2244     Y105.5549     R1.1000    
   X181.9432     Y105.5091     R1.1000    
   X181.6597     Y105.5377     R1.1000    
   X181.3933     Y105.6387     R1.1000    
   X181.1621     Y105.8052     R1.1000    
   X180.9819     Y106.0258     R1.1000    
   X180.8649     Y106.2856     R1.1000    
   X180.8191     Y106.5668     R1.1000    
(Pass: 4)
G1   Z-2.000     F500 
G17 G2   X180.8477     Y106.8503     R1.1000     F1000
   X180.9487     Y107.1167     R1.1000    
   X181.1152     Y107.3479     R1.1000    
   X181.3358     Y107.5281     R1.1000    
   X181.5956     Y107.6451     R1.1000    
   X181.8768     Y107.6909     R1.1000    
   X182.1603     Y107.6623     R1.1000    
   X182.4267     Y107.5613     R1.1000    
   X182.6579     Y107.3948     R1.1000    
   X182.8381     Y107.1742     R1.1000    
   X182.9551     Y106.9144     R1.1000    
   X183.0009     Y106.6332     R1.1000    
   X182.9723     Y106.3497     R1.1000    
   X182.8713     Y106.0833     R1.1000    
   X182.7048     Y105.8521     R1.1000    
   X182.4842     Y105.6719     R1.1000    
   X182.2244     Y105.5549     R1.1000    
   X181.9432     Y105.5091     R1.1000    
   X181.6597     Y105.5377     R1.1000    
   X181.3933     Y105.6387     R1.1000    
   X181.1621     Y105.8052     R1.1000    
   X180.9819     Y106.0258     R1.1000    
   X180.8649     Y106.2856     R1.1000    
   X180.8191     Y106.5668     R1.1000    
(Pass: 5)
G1   Z-2.500     F500 
G17 G2   X180.8477     Y106.8503     R1.1000     F1000
   X180.9487     Y107.1167     R1.1000    
   X181.1152     Y107.3479     R1.1000    
   X181.3358     Y107.5281     R1.1000    
   X181.5956     Y107.6451     R1.1000    
   X181.8768     Y107.6909     R1.1000    
   X182.1603     Y107.6623     R1.1000    
   X182.4267     Y107.5613     R1.1000    
   X182.6579     Y107.3948     R1.1000    
   X182.8381     Y107.1742     R1.1000    
   X182.9551     Y106.9144     R1.1000    
   X183.0009     Y106.6332     R1.1000    
   X182.9723     Y106.3497     R1.1000    
   X182.8713     Y106.0833     R1.1000    
   X182.7048     Y105.8521     R1.1000    
   X182.4842     Y105.6719     R1.1000    
   X182.2244     Y105.5549     R1.1000    
   X181.9432     Y105.5091     R1.1000    
   X181.6597     Y105.5377     R1.1000    
   X181.3933     Y105.6387     R1.1000    
   X181.1621     Y105.8052     R1.1000    
   X180.9819     Y106.0258     R1.1000    
   X180.8649     Y106.2856     R1.1000    
   X180.8191     Y106.5668     R1.1000    
(Pass: 6)
G1   Z-3.000     F500 
G17 G2   X180.8477     Y106.8503     R1.1000     F1000
   X180.9487     Y107.1167     R1.1000    
   X181.1152     Y107.3479     R1.1000    
   X181.3358     Y107.5281     R1.1000    
   X181.5956     Y107.6451     R1.1000    
   X181.8768     Y107.6909     R1.1000    
   X182.1603     Y107.6623     R1.1000    
   X182.4267     Y107.5613     R1.1000    
   X182.6579     Y107.3948     R1.1000    
   X182.8381     Y107.1742     R1.1000    
   X182.9551     Y106.9144     R1.1000    
   X183.0009     Y106.6332     R1.1000    
   X182.9723     Y106.3497     R1.1000    
   X182.8713     Y106.0833     R1.1000    
   X182.7048     Y105.8521     R1.1000    
   X182.4842     Y105.6719     R1.1000    
   X182.2244     Y105.5549     R1.1000    
   X181.9432     Y105.5091     R1.1000    
   X181.6597     Y105.5377     R1.1000    
   X181.3933     Y105.6387     R1.1000    
   X181.1621     Y105.8052     R1.1000    
   X180.9819     Y106.0258     R1.1000    
   X180.8649     Y106.2856     R1.1000    
   X180.8191     Y106.5668     R1.1000    
(Pass: 7)
G1   Z-3.500     F500 
G17 G2   X180.8477     Y106.8503     R1.1000     F1000
   X180.9487     Y107.1167     R1.1000    
   X181.1152     Y107.3479     R1.1000    
   X181.3358     Y107.5281     R1.1000    
   X181.5956     Y107.6451     R1.1000    
   X181.8768     Y107.6909     R1.1000    
   X182.1603     Y107.6623     R1.1000    
   X182.4267     Y107.5613     R1.1000    
   X182.6579     Y107.3948     R1.1000    
   X182.8381     Y107.1742     R1.1000    
   X182.9551     Y106.9144     R1.1000    
   X183.0009     Y106.6332     R1.1000    
   X182.9723     Y106.3497     R1.1000    
   X182.8713     Y106.0833     R1.1000    
   X182.7048     Y105.8521     R1.1000    
   X182.4842     Y105.6719     R1.1000    
   X182.2244     Y105.5549     R1.1000    
   X181.9432     Y105.5091     R1.1000    
   X181.6597     Y105.5377     R1.1000    
   X181.3933     Y105.6387     R1.1000    
   X181.1621     Y105.8052     R1.1000    
   X180.9819     Y106.0258     R1.1000    
   X180.8649     Y106.2856     R1.1000    
   X180.8191     Y106.5668     R1.1000    
G0   Z5.000     
(Pass: 1)
   X191.743      Y125.266   
G1   Z-0.500     F500 
G17 G2   X191.4206     Y125.4841     R1.5000     F1000
   X191.1655     Y125.7782     R1.5000    
   X190.9952     Y126.1283     R1.5000    
   X190.9213     Y126.5106     R1.5000    
   X190.9489     Y126.8989     R1.5000    
   X191.0760     Y127.2669     R1.5000    
   X191.2941     Y127.5894     R1.5000    
   X191.5882     Y127.8445     R1.5000    
   X191.9383     Y128.0148     R1.5000    
   X192.3206     Y128.0887     R1.5000    
   X192.7089     Y128.0611     R1.5000    
   X193.0769     Y127.9340     R1.5000    
   X193.3994     Y127.7159     R1.5000    
   X193.6545     Y127.4218     R1.5000    
   X193.8248     Y127.0717     R1.5000    
   X193.8987     Y126.6894     R1.5000    
   X193.8711     Y126.3011     R1.5000    
   X193.7440     Y125.9331     R1.5000    
   X193.5259     Y125.6106     R1.5000    
   X193.2318     Y125.3555     R1.5000    
   X192.8817     Y125.1852     R1.5000    
   X192.4994     Y125.1113     R1.5000    
   X192.1111     Y125.1389     R1.5000    
   X191.7431     Y125.2660     R1.5000    
(Pass: 2)
G1   Z-1.000     F500 
G17 G2   X191.4206     Y125.4841     R1.5000     F1000
   X191.1655     Y125.7782     R1.5000    
   X190.9952     Y126.1283     R1.5000    
   X190.9213     Y126.5106     R1.5000    
   X190.9489     Y126.8989     R1.5000    
   X191.0760     Y127.2669     R1.5000    
   X191.2941     Y127.5894     R1.5000    
   X191.5882     Y127.8445     R1.5000    
   X191.9383     Y128.0148     R1.5000    
   X192.3206     Y128.0887     R1.5000    
   X192.7089     Y128.0611     R1.5000    
   X193.0769     Y127.9340     R1.5000    
   X193.3994     Y127.7159     R1.5000    
   X193.6545     Y127.4218     R1.5000    
   X193.8248     Y127.0717     R1.5000    
   X193.8987     Y126.6894     R1.5000    
   X193.8711     Y126.3011     R1.5000    
   X193.7440     Y125.9331     R1.5000    
   X193.5259     Y125.6106     R1.5000    
   X193.2318     Y125.3555     R1.5000    
   X192.8817     Y125.1852     R1.5000    
   X192.4994     Y125.1113     R1.5000    
   X192.1111     Y125.1389     R1.5000    
   X191.7431     Y125.2660     R1.5000    
(Pass: 3)
G1   Z-1.500     F500 
G17 G2   X191.4206     Y125.4841     R1.5000     F1000
   X191.1655     Y125.7782     R1.5000    
   X190.9952     Y126.1283     R1.5000    
   X190.9213     Y126.5106     R1.5000    
   X190.9489     Y126.8989     R1.5000    
   X191.0760     Y127.2669     R1.5000    
   X191.2941     Y127.5894     R1.5000    
   X191.5882     Y127.8445     R1.5000    
   X191.9383     Y128.0148     R1.5000    
   X192.3206     Y128.0887     R1.5000    
   X192.7089     Y128.0611     R1.5000    
   X193.0769     Y127.9340     R1.5000    
   X193.3994     Y127.7159     R1.5000    
   X193.6545     Y127.4218     R1.5000    
   X193.8248     Y127.0717     R1.5000    
   X193.8987     Y126.6894     R1.5000    
   X193.8711     Y126.3011     R1.5000    
   X193.7440     Y125.9331     R1.5000    
   X193.5259     Y125.6106     R1.5000    
   X193.2318     Y125.3555     R1.5000    
   X192.8817     Y125.1852     R1.5000    
   X192.4994     Y125.1113     R1.5000    
   X192.1111     Y125.1389     R1.5000    
   X191.7431     Y125.2660     R1.5000    
(Pass: 4)
G1   Z-2.000     F500 
G17 G2   X191.4206     Y125.4841     R1.5000     F1000
   X191.1655     Y125.7782     R1.5000    
   X190.9952     Y126.1283     R1.5000    
   X190.9213     Y126.5106     R1.5000    
   X190.9489     Y126.8989     R1.5000    
   X191.0760     Y127.2669     R1.5000    
   X191.2941     Y127.5894     R1.5000    
   X191.5882     Y127.8445     R1.5000    
   X191.9383     Y128.0148     R1.5000    
   X192.3206     Y128.0887     R1.5000    
   X192.7089     Y128.0611     R1.5000    
   X193.0769     Y127.9340     R1.5000    
   X193.3994     Y127.7159     R1.5000    
   X193.6545     Y127.4218     R1.5000    
   X193.8248     Y127.0717     R1.5000    
   X193.8987     Y126.6894     R1.5000    
   X193.8711     Y126.3011     R1.5000    
   X193.7440     Y125.9331     R1.5000    
   X193.5259     Y125.6106     R1.5000    
   X193.2318     Y125.3555     R1.5000    
   X192.8817     Y125.1852     R1.5000    
   X192.4994     Y125.1113     R1.5000    
   X192.1111     Y125.1389     R1.5000    
   X191.7431     Y125.2660     R1.5000    
(Pass: 5)
G1   Z-2.500     F500 
G17 G2   X191.4206     Y125.4841     R1.5000     F1000
   X191.1655     Y125.7782     R1.5000    
   X190.9952     Y126.1283     R1.5000    
   X190.9213     Y126.5106     R1.5000    
   X190.9489     Y126.8989     R1.5000    
   X191.0760     Y127.2669     R1.5000    
   X191.2941     Y127.5894     R1.5000    
   X191.5882     Y127.8445     R1.5000    
   X191.9383     Y128.0148     R1.5000    
   X192.3206     Y128.0887     R1.5000    
   X192.7089     Y128.0611     R1.5000    
   X193.0769     Y127.9340     R1.5000    
   X193.3994     Y127.7159     R1.5000    
   X193.6545     Y127.4218     R1.5000    
   X193.8248     Y127.0717     R1.5000    
   X193.8987     Y126.6894     R1.5000    
   X193.8711     Y126.3011     R1.5000    
   X193.7440     Y125.9331     R1.5000    
   X193.5259     Y125.6106     R1.5000    
   X193.2318     Y125.3555     R1.5000    
   X192.8817     Y125.1852     R1.5000    
   X192.4994     Y125.1113     R1.5000    
   X192.1111     Y125.1389     R1.5000    
   X191.7431     Y125.2660     R1.5000    
(Pass: 6)
G1   Z-3.000     F500 
G17 G2   X191.4206     Y125.4841     R1.5000     F1000
   X191.1655     Y125.7782     R1.5000    
   X190.9952     Y126.1283     R1.5000    
   X190.9213     Y126.5106     R1.5000    
   X190.9489     Y126.8989     R1.5000    
   X191.0760     Y127.2669     R1.5000    
   X191.2941     Y127.5894     R1.5000    
   X191.5882     Y127.8445     R1.5000    
   X191.9383     Y128.0148     R1.5000    
   X192.3206     Y128.0887     R1.5000    
   X192.7089     Y128.0611     R1.5000    
   X193.0769     Y127.9340     R1.5000    
   X193.3994     Y127.7159     R1.5000    
   X193.6545     Y127.4218     R1.5000    
   X193.8248     Y127.0717     R1.5000    
   X193.8987     Y126.6894     R1.5000    
   X193.8711     Y126.3011     R1.5000    
   X193.7440     Y125.9331     R1.5000    
   X193.5259     Y125.6106     R1.5000    
   X193.2318     Y125.3555     R1.5000    
   X192.8817     Y125.1852     R1.5000    
   X192.4994     Y125.1113     R1.5000    
   X192.1111     Y125.1389     R1.5000    
   X191.7431     Y125.2660     R1.5000    
(Pass: 7)
G1   Z-3.500     F500 
G17 G2   X191.4206     Y125.4841     R1.5000     F1000
   X191.1655     Y125.7782     R1.5000    
   X190.9952     Y126.1283     R1.5000    
   X190.9213     Y126.5106     R1.5000    
   X190.9489     Y126.8989     R1.5000    
   X191.0760     Y127.2669     R1.5000    
   X191.2941     Y127.5894     R1.5000    
   X191.5882     Y127.8445     R1.5000    
   X191.9383     Y128.0148     R1.5000    
   X192.3206     Y128.0887     R1.5000    
   X192.7089     Y128.0611     R1.5000    
   X193.0769     Y127.9340     R1.5000    
   X193.3994     Y127.7159     R1.5000    
   X193.6545     Y127.4218     R1.5000    
   X193.8248     Y127.0717     R1.5000    
   X193.8987     Y126.6894     R1.5000    
   X193.8711     Y126.3011     R1.5000    
   X193.7440     Y125.9331     R1.5000    
   X193.5259     Y125.6106     R1.5000    
   X193.2318     Y125.3555     R1.5000    
   X192.8817     Y125.1852     R1.5000    
   X192.4994     Y125.1113     R1.5000    
   X192.1111     Y125.1389     R1.5000    
   X191.7431     Y125.2660     R1.5000    
G0   Z5.000     
(Pass: 1)
   X210.922      Y126.504   
G1   Z-0.500     F500 
G17 G2   X210.9475     Y126.8920     R1.5000     F1000
   X211.0729     Y127.2606     R1.5000    
   X211.2895     Y127.5842     R1.5000    
   X211.5824     Y127.8406     R1.5000    
   X211.9317     Y128.0126     R1.5000    
   X212.3136     Y128.0882     R1.5000    
   X212.7020     Y128.0625     R1.5000    
   X213.0706     Y127.9371     R1.5000    
   X213.3942     Y127.7205     R1.5000    
   X213.6506     Y127.4276     R1.5000    
   X213.8226     Y127.0783     R1.5000    
   X213.8982     Y126.6964     R1.5000    
   X213.8725     Y126.3080     R1.5000    
   X213.7471     Y125.9394     R1.5000    
   X213.5305     Y125.6158     R1.5000    
   X213.2376     Y125.3594     R1.5000    
   X212.8883     Y125.1874     R1.5000    
   X212.5064     Y125.1118     R1.5000    
   X212.1180     Y125.1375     R1.5000    
   X211.7494     Y125.2629     R1.5000    
   X211.4258     Y125.4795     R1.5000    
   X211.1694     Y125.7724     R1.5000    
   X210.9974     Y126.1217     R1.5000    
   X210.9218     Y126.5036     R1.5000    
(Pass: 2)
G1   Z-1.000     F500 
G17 G2   X210.9475     Y126.8920     R1.5000     F1000
   X211.0729     Y127.2606     R1.5000    
   X211.2895     Y127.5842     R1.5000    
   X211.5824     Y127.8406     R1.5000    
   X211.9317     Y128.0126     R1.5000    
   X212.3136     Y128.0882     R1.5000    
   X212.7020     Y128.0625     R1.5000    
   X213.0706     Y127.9371     R1.5000    
   X213.3942     Y127.7205     R1.5000    
   X213.6506     Y127.4276     R1.5000    
   X213.8226     Y127.0783     R1.5000    
   X213.8982     Y126.6964     R1.5000    
   X213.8725     Y126.3080     R1.5000    
   X213.7471     Y125.9394     R1.5000    
   X213.5305     Y125.6158     R1.5000    
   X213.2376     Y125.3594     R1.5000    
   X212.8883     Y125.1874     R1.5000    
   X212.5064     Y125.1118     R1.5000    
   X212.1180     Y125.1375     R1.5000    
   X211.7494     Y125.2629     R1.5000    
   X211.4258     Y125.4795     R1.5000    
   X211.1694     Y125.7724     R1.5000    
   X210.9974     Y126.1217     R1.5000    
   X210.9218     Y126.5036     R1.5000    
(Pass: 3)
G1   Z-1.500     F500 
G17 G2   X210.9475     Y126.8920     R1.5000     F1000
   X211.0729     Y127.2606     R1.5000    
   X211.2895     Y127.5842     R1.5000    
   X211.5824     Y127.8406     R1.5000    
   X211.9317     Y128.0126     R1.5000    
   X212.3136     Y128.0882     R1.5000    
   X212.7020     Y128.0625     R1.5000    
   X213.0706     Y127.9371     R1.5000    
   X213.3942     Y127.7205     R1.5000    
   X213.6506     Y127.4276     R1.5000    
   X213.8226     Y127.0783     R1.5000    
   X213.8982     Y126.6964     R1.5000    
   X213.8725     Y126.3080     R1.5000    
   X213.7471     Y125.9394     R1.5000    
   X213.5305     Y125.6158     R1.5000    
   X213.2376     Y125.3594     R1.5000    
   X212.8883     Y125.1874     R1.5000    
   X212.5064     Y125.1118     R1.5000    
   X212.1180     Y125.1375     R1.5000    
   X211.7494     Y125.2629     R1.5000    
   X211.4258     Y125.4795     R1.5000    
   X211.1694     Y125.7724     R1.5000    
   X210.9974     Y126.1217     R1.5000    
   X210.9218     Y126.5036     R1.5000    
(Pass: 4)
G1   Z-2.000     F500 
G17 G2   X210.9475     Y126.8920     R1.5000     F1000
   X211.0729     Y127.2606     R1.5000    
   X211.2895     Y127.5842     R1.5000    
   X211.5824     Y127.8406     R1.5000    
   X211.9317     Y128.0126     R1.5000    
   X212.3136     Y128.0882     R1.5000    
   X212.7020     Y128.0625     R1.5000    
   X213.0706     Y127.9371     R1.5000    
   X213.3942     Y127.7205     R1.5000    
   X213.6506     Y127.4276     R1.5000    
   X213.8226     Y127.0783     R1.5000    
   X213.8982     Y126.6964     R1.5000    
   X213.8725     Y126.3080     R1.5000    
   X213.7471     Y125.9394     R1.5000    
   X213.5305     Y125.6158     R1.5000    
   X213.2376     Y125.3594     R1.5000    
   X212.8883     Y125.1874     R1.5000    
   X212.5064     Y125.1118     R1.5000    
   X212.1180     Y125.1375     R1.5000    
   X211.7494     Y125.2629     R1.5000    
   X211.4258     Y125.4795     R1.5000    
   X211.1694     Y125.7724     R1.5000    
   X210.9974     Y126.1217     R1.5000    
   X210.9218     Y126.5036     R1.5000    
(Pass: 5)
G1   Z-2.500     F500 
G17 G2   X210.9475     Y126.8920     R1.5000     F1000
   X211.0729     Y127.2606     R1.5000    
   X211.2895     Y127.5842     R1.5000    
   X211.5824     Y127.8406     R1.5000    
   X211.9317     Y128.0126     R1.5000    
   X212.3136     Y128.0882     R1.5000    
   X212.7020     Y128.0625     R1.5000    
   X213.0706     Y127.9371     R1.5000    
   X213.3942     Y127.7205     R1.5000    
   X213.6506     Y127.4276     R1.5000    
   X213.8226     Y127.0783     R1.5000    
   X213.8982     Y126.6964     R1.5000    
   X213.8725     Y126.3080     R1.5000    
   X213.7471     Y125.9394     R1.5000    
   X213.5305     Y125.6158     R1.5000    
   X213.2376     Y125.3594     R1.5000    
   X212.8883     Y125.1874     R1.5000    
   X212.5064     Y125.1118     R1.5000    
   X212.1180     Y125.1375     R1.5000    
   X211.7494     Y125.2629     R1.5000    
   X211.4258     Y125.4795     R1.5000    
   X211.1694     Y125.7724     R1.5000    
   X210.9974     Y126.1217     R1.5000    
   X210.9218     Y126.5036     R1.5000    
(Pass: 6)
G1   Z-3.000     F500 
G17 G2   X210.9475     Y126.8920     R1.5000     F1000
   X211.0729     Y127.2606     R1.5000    
   X211.2895     Y127.5842     R1.5000    
   X211.5824     Y127.8406     R1.5000    
   X211.9317     Y128.0126     R1.5000    
   X212.3136     Y128.0882     R1.5000    
   X212.7020     Y128.0625     R1.5000    
   X213.0706     Y127.9371     R1.5000    
   X213.3942     Y127.7205     R1.5000    
   X213.6506     Y127.4276     R1.5000    
   X213.8226     Y127.0783     R1.5000    
   X213.8982     Y126.6964     R1.5000    
   X213.8725     Y126.3080     R1.5000    
   X213.7471     Y125.9394     R1.5000    
   X213.5305     Y125.6158     R1.5000    
   X213.2376     Y125.3594     R1.5000    
   X212.8883     Y125.1874     R1.5000    
   X212.5064     Y125.1118     R1.5000    
   X212.1180     Y125.1375     R1.5000    
   X211.7494     Y125.2629     R1.5000    
   X211.4258     Y125.4795     R1.5000    
   X211.1694     Y125.7724     R1.5000    
   X210.9974     Y126.1217     R1.5000    
   X210.9218     Y126.5036     R1.5000    
(Pass: 7)
G1   Z-3.500     F500 
G17 G2   X210.9475     Y126.8920     R1.5000     F1000
   X211.0729     Y127.2606     R1.5000    
   X211.2895     Y127.5842     R1.5000    
   X211.5824     Y127.8406     R1.5000    
   X211.9317     Y128.0126     R1.5000    
   X212.3136     Y128.0882     R1.5000    
   X212.7020     Y128.0625     R1.5000    
   X213.0706     Y127.9371     R1.5000    
   X213.3942     Y127.7205     R1.5000    
   X213.6506     Y127.4276     R1.5000    
   X213.8226     Y127.0783     R1.5000    
   X213.8982     Y126.6964     R1.5000    
   X213.8725     Y126.3080     R1.5000    
   X213.7471     Y125.9394     R1.5000    
   X213.5305     Y125.6158     R1.5000    
   X213.2376     Y125.3594     R1.5000    
   X212.8883     Y125.1874     R1.5000    
   X212.5064     Y125.1118     R1.5000    
   X212.1180     Y125.1375     R1.5000    
   X211.7494     Y125.2629     R1.5000    
   X211.4258     Y125.4795     R1.5000    
   X211.1694     Y125.7724     R1.5000    
   X210.9974     Y126.1217     R1.5000    
   X210.9218     Y126.5036     R1.5000    
G0   Z5.000     
(Pass: 1)
   X230.926      Y126.451   
G1   Z-0.500     F500 
G17 G2   X230.9381     Y126.8402     R1.5000     F1000
   X231.0504     Y127.2130     R1.5000    
   X231.2554     Y127.5440     R1.5000    
   X231.5391     Y127.8107     R1.5000    
   X231.8821     Y127.9948     R1.5000    
   X232.2611     Y128.0839     R1.5000    
   X232.6502     Y128.0719     R1.5000    
   X233.0230     Y127.9596     R1.5000    
   X233.3540     Y127.7546     R1.5000    
   X233.6207     Y127.4709     R1.5000    
   X233.8048     Y127.1279     R1.5000    
   X233.8939     Y126.7489     R1.5000    
   X233.8819     Y126.3598     R1.5000    
   X233.7696     Y125.9870     R1.5000    
   X233.5646     Y125.6560     R1.5000    
   X233.2809     Y125.3893     R1.5000    
   X232.9379     Y125.2052     R1.5000    
   X232.5589     Y125.1161     R1.5000    
   X232.1698     Y125.1281     R1.5000    
   X231.7970     Y125.2404     R1.5000    
   X231.4660     Y125.4454     R1.5000    
   X231.1993     Y125.7291     R1.5000    
   X231.0152     Y126.0721     R1.5000    
   X230.9261     Y126.4511     R1.5000    
(Pass: 2)
G1   Z-1.000     F500 
G17 G2   X230.9381     Y126.8402     R1.5000     F1000
   X231.0504     Y127.2130     R1.5000    
   X231.2554     Y127.5440     R1.5000    
   X231.5391     Y127.8107     R1.5000    
   X231.8821     Y127.9948     R1.5000    
   X232.2611     Y128.0839     R1.5000    
   X232.6502     Y128.0719     R1.5000    
   X233.0230     Y127.9596     R1.5000    
   X233.3540     Y127.7546     R1.5000    
   X233.6207     Y127.4709     R1.5000    
   X233.8048     Y127.1279     R1.5000    
   X233.8939     Y126.7489     R1.5000    
   X233.8819     Y126.3598     R1.5000    
   X233.7696     Y125.9870     R1.5000    
   X233.5646     Y125.6560     R1.5000    
   X233.2809     Y125.3893     R1.5000    
   X232.9379     Y125.2052     R1.5000    
   X232.5589     Y125.1161     R1.5000    
   X232.1698     Y125.1281     R1.5000    
   X231.7970     Y125.2404     R1.5000    
   X231.4660     Y125.4454     R1.5000    
   X231.1993     Y125.7291     R1.5000    
   X231.0152     Y126.0721     R1.5000    
   X230.9261     Y126.4511     R1.5000    
(Pass: 3)
G1   Z-1.500     F500 
G17 G2   X230.9381     Y126.8402     R1.5000     F1000
   X231.0504     Y127.2130     R1.5000    
   X231.2554     Y127.5440     R1.5000    
   X231.5391     Y127.8107     R1.5000    
   X231.8821     Y127.9948     R1.5000    
   X232.2611     Y128.0839     R1.5000    
   X232.6502     Y128.0719     R1.5000    
   X233.0230     Y127.9596     R1.5000    
   X233.3540     Y127.7546     R1.5000    
   X233.6207     Y127.4709     R1.5000    
   X233.8048     Y127.1279     R1.5000    
   X233.8939     Y126.7489     R1.5000    
   X233.8819     Y126.3598     R1.5000    
   X233.7696     Y125.9870     R1.5000    
   X233.5646     Y125.6560     R1.5000    
   X233.2809     Y125.3893     R1.5000    
   X232.9379     Y125.2052     R1.5000    
   X232.5589     Y125.1161     R1.5000    
   X232.1698     Y125.1281     R1.5000    
   X231.7970     Y125.2404     R1.5000    
   X231.4660     Y125.4454     R1.5000    
   X231.1993     Y125.7291     R1.5000    
   X231.0152     Y126.0721     R1.5000    
   X230.9261     Y126.4511     R1.5000    
(Pass: 4)
G1   Z-2.000     F500 
G17 G2   X230.9381     Y126.8402     R1.5000     F1000
   X231.0504     Y127.2130     R1.5000    
   X231.2554     Y127.5440     R1.5000    
   X231.5391     Y127.8107     R1.5000    
   X231.8821     Y127.9948     R1.5000    
   X232.2611     Y128.0839     R1.5000    
   X232.6502     Y128.0719     R1.5000    
   X233.0230     Y127.9596     R1.5000    
   X233.3540     Y127.7546     R1.5000    
   X233.6207     Y127.4709     R1.5000    
   X233.8048     Y127.1279     R1.5000    
   X233.8939     Y126.7489     R1.5000    
   X233.8819     Y126.3598     R1.5000    
   X233.7696     Y125.9870     R1.5000    
   X233.5646     Y125.6560     R1.5000    
   X233.2809     Y125.3893     R1.5000    
   X232.9379     Y125.2052     R1.5000    
   X232.5589     Y125.1161     R1.5000    
   X232.1698     Y125.1281     R1.5000    
   X231.7970     Y125.2404     R1.5000    
   X231.4660     Y125.4454     R1.5000    
   X231.1993     Y125.7291     R1.5000    
   X231.0152     Y126.0721     R1.5000    
   X230.9261     Y126.4511     R1.5000    
(Pass: 5)
G1   Z-2.500     F500 
G17 G2   X230.9381     Y126.8402     R1.5000     F1000
   X231.0504     Y127.2130     R1.5000    
   X231.2554     Y127.5440     R1.5000    
   X231.5391     Y127.8107     R1.5000    
   X231.8821     Y127.9948     R1.5000    
   X232.2611     Y128.0839     R1.5000    
   X232.6502     Y128.0719     R1.5000    
   X233.0230     Y127.9596     R1.5000    
   X233.3540     Y127.7546     R1.5000    
   X233.6207     Y127.4709     R1.5000    
   X233.8048     Y127.1279     R1.5000    
   X233.8939     Y126.7489     R1.5000    
   X233.8819     Y126.3598     R1.5000    
   X233.7696     Y125.9870     R1.5000    
   X233.5646     Y125.6560     R1.5000    
   X233.2809     Y125.3893     R1.5000    
   X232.9379     Y125.2052     R1.5000    
   X232.5589     Y125.1161     R1.5000    
   X232.1698     Y125.1281     R1.5000    
   X231.7970     Y125.2404     R1.5000    
   X231.4660     Y125.4454     R1.5000    
   X231.1993     Y125.7291     R1.5000    
   X231.0152     Y126.0721     R1.5000    
   X230.9261     Y126.4511     R1.5000    
(Pass: 6)
G1   Z-3.000     F500 
G17 G2   X230.9381     Y126.8402     R1.5000     F1000
   X231.0504     Y127.2130     R1.5000    
   X231.2554     Y127.5440     R1.5000    
   X231.5391     Y127.8107     R1.5000    
   X231.8821     Y127.9948     R1.5000    
   X232.2611     Y128.0839     R1.5000    
   X232.6502     Y128.0719     R1.5000    
   X233.0230     Y127.9596     R1.5000    
   X233.3540     Y127.7546     R1.5000    
   X233.6207     Y127.4709     R1.5000    
   X233.8048     Y127.1279     R1.5000    
   X233.8939     Y126.7489     R1.5000    
   X233.8819     Y126.3598     R1.5000    
   X233.7696     Y125.9870     R1.5000    
   X233.5646     Y125.6560     R1.5000    
   X233.2809     Y125.3893     R1.5000    
   X232.9379     Y125.2052     R1.5000    
   X232.5589     Y125.1161     R1.5000    
   X232.1698     Y125.1281     R1.5000    
   X231.7970     Y125.2404     R1.5000    
   X231.4660     Y125.4454     R1.5000    
   X231.1993     Y125.7291     R1.5000    
   X231.0152     Y126.0721     R1.5000    
   X230.9261     Y126.4511     R1.5000    
(Pass: 7)
G1   Z-3.500     F500 
G17 G2   X230.9381     Y126.8402     R1.5000     F1000
   X231.0504     Y127.2130     R1.5000    
   X231.2554     Y127.5440     R1.5000    
   X231.5391     Y127.8107     R1.5000    
   X231.8821     Y127.9948     R1.5000    
   X232.2611     Y128.0839     R1.5000    
   X232.6502     Y128.0719     R1.5000    
   X233.0230     Y127.9596     R1.5000    
   X233.3540     Y127.7546     R1.5000    
   X233.6207     Y127.4709     R1.5000    
   X233.8048     Y127.1279     R1.5000    
   X233.8939     Y126.7489     R1.5000    
   X233.8819     Y126.3598     R1.5000    
   X233.7696     Y125.9870     R1.5000    
   X233.5646     Y125.6560     R1.5000    
   X233.2809     Y125.3893     R1.5000    
   X232.9379     Y125.2052     R1.5000    
   X232.5589     Y125.1161     R1.5000    
   X232.1698     Y125.1281     R1.5000    
   X231.7970     Y125.2404     R1.5000    
   X231.4660     Y125.4454     R1.5000    
   X231.1993     Y125.7291     R1.5000    
   X231.0152     Y126.0721     R1.5000    
   X230.9261     Y126.4511     R1.5000    
G0   Z5.000     
(Pass: 1)
   X234.844      Y100.600   
G1   Z-0.500     F500 
   X235.329      Y100.536    F1000
   X235.483      Y100.484   
   X235.659      Y100.397   
   X235.822      Y100.288   
   X235.969      Y100.159   
   X236.098      Y100.012   
   X236.207      Y99.849    
   X236.294      Y99.673    
   X236.346      Y99.519    
   X236.410      Y99.034    
   Y74.166    
   X236.346      Y73.681    
   X236.294      Y73.527    
   X236.207      Y73.351    
   X236.098      Y73.188    
   X235.969      Y73.041    
   X235.822      Y72.912    
   X235.659      Y72.803    
   X235.483      Y72.716    
   X235.329      Y72.664    
   X234.844      Y72.600    
   X182.976   
   X182.491      Y72.664    
   X182.337      Y72.716    
   X182.161      Y72.803    
   X181.998      Y72.912    
   X181.851      Y73.041    
   X181.722      Y73.188    
   X181.613      Y73.351    
   X181.526      Y73.527    
   X181.474      Y73.681    
   X181.410      Y74.166    
   Y99.034    
   X181.474      Y99.519    
   X181.526      Y99.673    
   X181.613      Y99.849    
   X181.722      Y100.012   
   X181.851      Y100.159   
   X181.998      Y100.288   
   X182.161      Y100.397   
   X182.337      Y100.484   
   X182.491      Y100.536   
   X182.976      Y100.600   
   X234.844   
(Pass: 2)
   Z-1.000     F500 
   X235.329      Y100.536    F1000
   X235.483      Y100.484   
   X235.659      Y100.397   
   X235.822      Y100.288   
   X235.969      Y100.159   
   X236.098      Y100.012   
   X236.207      Y99.849    
   X236.294      Y99.673    
   X236.346      Y99.519    
   X236.410      Y99.034    
   Y74.166    
   X236.346      Y73.681    
   X236.294      Y73.527    
   X236.207      Y73.351    
   X236.098      Y73.188    
   X235.969      Y73.041    
   X235.822      Y72.912    
   X235.659      Y72.803    
   X235.483      Y72.716    
   X235.329      Y72.664    
   X234.844      Y72.600    
   X182.976   
   X182.491      Y72.664    
   X182.337      Y72.716    
   X182.161      Y72.803    
   X181.998      Y72.912    
   X181.851      Y73.041    
   X181.722      Y73.188    
   X181.613      Y73.351    
   X181.526      Y73.527    
   X181.474      Y73.681    
   X181.410      Y74.166    
   Y99.034    
   X181.474      Y99.519    
   X181.526      Y99.673    
   X181.613      Y99.849    
   X181.722      Y100.012   
   X181.851      Y100.159   
   X181.998      Y100.288   
   X182.161      Y100.397   
   X182.337      Y100.484   
   X182.491      Y100.536   
   X182.976      Y100.600   
   X234.844   
(Pass: 3)
   Z-1.500     F500 
   X235.329      Y100.536    F1000
   X235.483      Y100.484   
   X235.659      Y100.397   
   X235.822      Y100.288   
   X235.969      Y100.159   
   X236.098      Y100.012   
   X236.207      Y99.849    
   X236.294      Y99.673    
   X236.346      Y99.519    
   X236.410      Y99.034    
   Y74.166    
   X236.346      Y73.681    
   X236.294      Y73.527    
   X236.207      Y73.351    
   X236.098      Y73.188    
   X235.969      Y73.041    
   X235.822      Y72.912    
   X235.659      Y72.803    
   X235.483      Y72.716    
   X235.329      Y72.664    
   X234.844      Y72.600    
   X182.976   
   X182.491      Y72.664    
   X182.337      Y72.716    
   X182.161      Y72.803    
   X181.998      Y72.912    
   X181.851      Y73.041    
   X181.722      Y73.188    
   X181.613      Y73.351    
   X181.526      Y73.527    
   X181.474      Y73.681    
   X181.410      Y74.166    
   Y99.034    
   X181.474      Y99.519    
   X181.526      Y99.673    
   X181.613      Y99.849    
   X181.722      Y100.012   
   X181.851      Y100.159   
   X181.998      Y100.288   
   X182.161      Y100.397   
   X182.337      Y100.484   
   X182.491      Y100.536   
   X182.976      Y100.600   
   X234.844   
(Pass: 4)
   Z-2.000     F500 
   X235.329      Y100.536    F1000
   X235.483      Y100.484   
   X235.659      Y100.397   
   X235.822      Y100.288   
   X235.969      Y100.159   
   X236.098      Y100.012   
   X236.207      Y99.849    
   X236.294      Y99.673    
   X236.346      Y99.519    
   X236.410      Y99.034    
   Y74.166    
   X236.346      Y73.681    
   X236.294      Y73.527    
   X236.207      Y73.351    
   X236.098      Y73.188    
   X235.969      Y73.041    
   X235.822      Y72.912    
   X235.659      Y72.803    
   X235.483      Y72.716    
   X235.329      Y72.664    
   X234.844      Y72.600    
   X182.976   
   X182.491      Y72.664    
   X182.337      Y72.716    
   X182.161      Y72.803    
   X181.998      Y72.912    
   X181.851      Y73.041    
   X181.722      Y73.188    
   X181.613      Y73.351    
   X181.526      Y73.527    
   X181.474      Y73.681    
   X181.410      Y74.166    
   Y99.034    
   X181.474      Y99.519    
   X181.526      Y99.673    
   X181.613      Y99.849    
   X181.722      Y100.012   
   X181.851      Y100.159   
   X181.998      Y100.288   
   X182.161      Y100.397   
   X182.337      Y100.484   
   X182.491      Y100.536   
   X182.976      Y100.600   
   X234.844   
(Pass: 5)
   Z-2.500     F500 
   X235.329      Y100.536    F1000
   X235.483      Y100.484   
   X235.659      Y100.397   
   X235.822      Y100.288   
   X235.969      Y100.159   
   X236.098      Y100.012   
   X236.207      Y99.849    
   X236.294      Y99.673    
   X236.346      Y99.519    
   X236.410      Y99.034    
   Y74.166    
   X236.346      Y73.681    
   X236.294      Y73.527    
   X236.207      Y73.351    
   X236.098      Y73.188    
   X235.969      Y73.041    
   X235.822      Y72.912    
   X235.659      Y72.803    
   X235.483      Y72.716    
   X235.329      Y72.664    
   X234.844      Y72.600    
   X182.976   
   X182.491      Y72.664    
   X182.337      Y72.716    
   X182.161      Y72.803    
   X181.998      Y72.912    
   X181.851      Y73.041    
   X181.722      Y73.188    
   X181.613      Y73.351    
   X181.526      Y73.527    
   X181.474      Y73.681    
   X181.410      Y74.166    
   Y99.034    
   X181.474      Y99.519    
   X181.526      Y99.673    
   X181.613      Y99.849    
   X181.722      Y100.012   
   X181.851      Y100.159   
   X181.998      Y100.288   
   X182.161      Y100.397   
   X182.337      Y100.484   
   X182.491      Y100.536   
   X182.976      Y100.600   
   X234.844   
(Pass: 6)
   Z-3.000     F500 
   X235.329      Y100.536    F1000
   X235.483      Y100.484   
   X235.659      Y100.397   
   X235.822      Y100.288   
   X235.969      Y100.159   
   X236.098      Y100.012   
   X236.207      Y99.849    
   X236.294      Y99.673    
   X236.346      Y99.519    
   X236.410      Y99.034    
   Y74.166    
   X236.346      Y73.681    
   X236.294      Y73.527    
   X236.207      Y73.351    
   X236.098      Y73.188    
   X235.969      Y73.041    
   X235.822      Y72.912    
   X235.659      Y72.803    
   X235.483      Y72.716    
   X235.329      Y72.664    
   X234.844      Y72.600    
   X182.976   
   X182.491      Y72.664    
   X182.337      Y72.716    
   X182.161      Y72.803    
   X181.998      Y72.912    
   X181.851      Y73.041    
   X181.722      Y73.188    
   X181.613      Y73.351    
   X181.526      Y73.527    
   X181.474      Y73.681    
   X181.410      Y74.166    
   Y99.034    
   X181.474      Y99.519    
   X181.526      Y99.673    
   X181.613      Y99.849    
   X181.722      Y100.012   
   X181.851      Y100.159   
   X181.998      Y100.288   
   X182.161      Y100.397   
   X182.337      Y100.484   
   X182.491      Y100.536   
   X182.976      Y100.600   
