%
(Generated by SketchUcam {1.2})
(File: Router Control Board copy.skp)
(Bit diameter: 2.0mm)
(Feed rate: 800.0mm/min)
(Plunge Feed rate: 500.0mm/min)
(Material Thickness: 3.5mm)
(Material length: 558.8mm X width: 1066.8mm)
(Overhead Gantry: true)
(Retract feed rate NOT limited to plunge feed rate)
(Multipass enabled, Depth = 0.5mm)
(Optimization is ON)
(www.PhlatBoyz.com)
G90 G21 G49 
M3 S11000
G0   Z5.000     
(Pass: 1)
   X13.705       Y13.593    
G1   Z-0.500     F500 
G17 G2   X13.6519      Y13.6276      R0.2500     F800 
   X13.6101      Y13.6747      R0.2500    
   X13.5819      Y13.7311      R0.2500    
   X13.5692      Y13.7928      R0.2500    
   X13.5730      Y13.8557      R0.2500    
   X13.5929      Y13.9155      R0.2500    
   X13.6276      Y13.9681      R0.2500    
   X13.6747      Y14.0099      R0.2500    
   X13.7311      Y14.0381      R0.2500    
   X13.7928      Y14.0508      R0.2500    
   X13.8557      Y14.0470      R0.2500    
   X13.9155      Y14.0271      R0.2500    
   X13.9681      Y13.9924      R0.2500    
   X14.0099      Y13.9453      R0.2500    
   X14.0381      Y13.8889      R0.2500    
   X14.0508      Y13.8272      R0.2500    
   X14.0470      Y13.7643      R0.2500    
   X14.0271      Y13.7045      R0.2500    
   X13.9924      Y13.6519      R0.2500    
   X13.9453      Y13.6101      R0.2500    
   X13.8889      Y13.5819      R0.2500    
   X13.8272      Y13.5692      R0.2500    
   X13.7643      Y13.5730      R0.2500    
   X13.7045      Y13.5929      R0.2500    
(Pass: 2)
G1   Z-1.000     F500 
G17 G2   X13.6519      Y13.6276      R0.2500     F800 
   X13.6101      Y13.6747      R0.2500    
   X13.5819      Y13.7311      R0.2500    
   X13.5692      Y13.7928      R0.2500    
   X13.5730      Y13.8557      R0.2500    
   X13.5929      Y13.9155      R0.2500    
   X13.6276      Y13.9681      R0.2500    
   X13.6747      Y14.0099      R0.2500    
   X13.7311      Y14.0381      R0.2500    
   X13.7928      Y14.0508      R0.2500    
   X13.8557      Y14.0470      R0.2500    
   X13.9155      Y14.0271      R0.2500    
   X13.9681      Y13.9924      R0.2500    
   X14.0099      Y13.9453      R0.2500    
   X14.0381      Y13.8889      R0.2500    
   X14.0508      Y13.8272      R0.2500    
   X14.0470      Y13.7643      R0.2500    
   X14.0271      Y13.7045      R0.2500    
   X13.9924      Y13.6519      R0.2500    
   X13.9453      Y13.6101      R0.2500    
   X13.8889      Y13.5819      R0.2500    
   X13.8272      Y13.5692      R0.2500    
   X13.7643      Y13.5730      R0.2500    
   X13.7045      Y13.5929      R0.2500    
(Pass: 3)
G1   Z-1.500     F500 
G17 G2   X13.6519      Y13.6276      R0.2500     F800 
   X13.6101      Y13.6747      R0.2500    
   X13.5819      Y13.7311      R0.2500    
   X13.5692      Y13.7928      R0.2500    
   X13.5730      Y13.8557      R0.2500    
   X13.5929      Y13.9155      R0.2500    
   X13.6276      Y13.9681      R0.2500    
   X13.6747      Y14.0099      R0.2500    
   X13.7311      Y14.0381      R0.2500    
   X13.7928      Y14.0508      R0.2500    
   X13.8557      Y14.0470      R0.2500    
   X13.9155      Y14.0271      R0.2500    
   X13.9681      Y13.9924      R0.2500    
   X14.0099      Y13.9453      R0.2500    
   X14.0381      Y13.8889      R0.2500    
   X14.0508      Y13.8272      R0.2500    
   X14.0470      Y13.7643      R0.2500    
   X14.0271      Y13.7045      R0.2500    
   X13.9924      Y13.6519      R0.2500    
   X13.9453      Y13.6101      R0.2500    
   X13.8889      Y13.5819      R0.2500    
   X13.8272      Y13.5692      R0.2500    
   X13.7643      Y13.5730      R0.2500    
   X13.7045      Y13.5929      R0.2500    
(Pass: 4)
G1   Z-2.000     F500 
G17 G2   X13.6519      Y13.6276      R0.2500     F800 
   X13.6101      Y13.6747      R0.2500    
   X13.5819      Y13.7311      R0.2500    
   X13.5692      Y13.7928      R0.2500    
   X13.5730      Y13.8557      R0.2500    
   X13.5929      Y13.9155      R0.2500    
   X13.6276      Y13.9681      R0.2500    
   X13.6747      Y14.0099      R0.2500    
   X13.7311      Y14.0381      R0.2500    
   X13.7928      Y14.0508      R0.2500    
   X13.8557      Y14.0470      R0.2500    
   X13.9155      Y14.0271      R0.2500    
   X13.9681      Y13.9924      R0.2500    
   X14.0099      Y13.9453      R0.2500    
   X14.0381      Y13.8889      R0.2500    
   X14.0508      Y13.8272      R0.2500    
   X14.0470      Y13.7643      R0.2500    
   X14.0271      Y13.7045      R0.2500    
   X13.9924      Y13.6519      R0.2500    
   X13.9453      Y13.6101      R0.2500    
   X13.8889      Y13.5819      R0.2500    
   X13.8272      Y13.5692      R0.2500    
   X13.7643      Y13.5730      R0.2500    
   X13.7045      Y13.5929      R0.2500    
(Pass: 5)
G1   Z-2.500     F500 
G17 G2   X13.6519      Y13.6276      R0.2500     F800 
   X13.6101      Y13.6747      R0.2500    
   X13.5819      Y13.7311      R0.2500    
   X13.5692      Y13.7928      R0.2500    
   X13.5730      Y13.8557      R0.2500    
   X13.5929      Y13.9155      R0.2500    
   X13.6276      Y13.9681      R0.2500    
   X13.6747      Y14.0099      R0.2500    
   X13.7311      Y14.0381      R0.2500    
   X13.7928      Y14.0508      R0.2500    
   X13.8557      Y14.0470      R0.2500    
   X13.9155      Y14.0271      R0.2500    
   X13.9681      Y13.9924      R0.2500    
   X14.0099      Y13.9453      R0.2500    
   X14.0381      Y13.8889      R0.2500    
   X14.0508      Y13.8272      R0.2500    
   X14.0470      Y13.7643      R0.2500    
   X14.0271      Y13.7045      R0.2500    
   X13.9924      Y13.6519      R0.2500    
   X13.9453      Y13.6101      R0.2500    
   X13.8889      Y13.5819      R0.2500    
   X13.8272      Y13.5692      R0.2500    
   X13.7643      Y13.5730      R0.2500    
   X13.7045      Y13.5929      R0.2500    
(Pass: 6)
G1   Z-3.000     F500 
G17 G2   X13.6519      Y13.6276      R0.2500     F800 
   X13.6101      Y13.6747      R0.2500    
   X13.5819      Y13.7311      R0.2500    
   X13.5692      Y13.7928      R0.2500    
   X13.5730      Y13.8557      R0.2500    
   X13.5929      Y13.9155      R0.2500    
   X13.6276      Y13.9681      R0.2500    
   X13.6747      Y14.0099      R0.2500    
   X13.7311      Y14.0381      R0.2500    
   X13.7928      Y14.0508      R0.2500    
   X13.8557      Y14.0470      R0.2500    
   X13.9155      Y14.0271      R0.2500    
   X13.9681      Y13.9924      R0.2500    
   X14.0099      Y13.9453      R0.2500    
   X14.0381      Y13.8889      R0.2500    
   X14.0508      Y13.8272      R0.2500    
   X14.0470      Y13.7643      R0.2500    
   X14.0271      Y13.7045      R0.2500    
   X13.9924      Y13.6519      R0.2500    
   X13.9453      Y13.6101      R0.2500    
   X13.8889      Y13.5819      R0.2500    
   X13.8272      Y13.5692      R0.2500    
   X13.7643      Y13.5730      R0.2500    
   X13.7045      Y13.5929      R0.2500    
(Pass: 7)
G1   Z-3.500     F500 
G17 G2   X13.6519      Y13.6276      R0.2500     F800 
   X13.6101      Y13.6747      R0.2500    
   X13.5819      Y13.7311      R0.2500    
   X13.5692      Y13.7928      R0.2500    
   X13.5730      Y13.8557      R0.2500    
   X13.5929      Y13.9155      R0.2500    
   X13.6276      Y13.9681      R0.2500    
   X13.6747      Y14.0099      R0.2500    
   X13.7311      Y14.0381      R0.2500    
   X13.7928      Y14.0508      R0.2500    
   X13.8557      Y14.0470      R0.2500    
   X13.9155      Y14.0271      R0.2500    
   X13.9681      Y13.9924      R0.2500    
   X14.0099      Y13.9453      R0.2500    
   X14.0381      Y13.8889      R0.2500    
   X14.0508      Y13.8272      R0.2500    
   X14.0470      Y13.7643      R0.2500    
   X14.0271      Y13.7045      R0.2500    
   X13.9924      Y13.6519      R0.2500    
   X13.9453      Y13.6101      R0.2500    
   X13.8889      Y13.5819      R0.2500    
   X13.8272      Y13.5692      R0.2500    
   X13.7643      Y13.5730      R0.2500    
   X13.7045      Y13.5929      R0.2500    
G0   Z5.000     
(Pass: 1)
   X37.515       Y27.932    
G1   Z-0.500     F500 
G17 G2   X37.2685      Y28.3017      R3.4000     F800 
   X37.0720      Y28.7002      R3.4000    
   X36.9292      Y29.1209      R3.4000    
   X36.8425      Y29.5567      R3.4000    
   X36.8100      Y30.0524      R3.4000    
G1   Y91.548    
G17 G2   X36.8425      Y92.0433      R3.4000    
   X36.9292      Y92.4791      R3.4000    
   X37.0720      Y92.8998      R3.4000    
   X37.2685      Y93.2983      R3.4000    
   X37.5153      Y93.6677      R3.4000    
   X37.8083      Y94.0017      R3.4000    
   X38.1423      Y94.2947      R3.4000    
   X38.5117      Y94.5415      R3.4000    
   X38.9102      Y94.7380      R3.4000    
   X39.3309      Y94.8808      R3.4000    
   X39.7667      Y94.9675      R3.4000    
   X40.2624      Y95.0000      R3.4000    
G1   X85.158    
G17 G2   X85.6533      Y94.9675      R3.4000    
   X86.0891      Y94.8808      R3.4000    
   X86.5098      Y94.7380      R3.4000    
   X86.9083      Y94.5415      R3.4000    
   X87.2777      Y94.2947      R3.4000    
   X87.6117      Y94.0017      R3.4000    
   X87.9047      Y93.6677      R3.4000    
   X88.1515      Y93.2983      R3.4000    
   X88.3480      Y92.8998      R3.4000    
   X88.4908      Y92.4791      R3.4000    
   X88.5775      Y92.0433      R3.4000    
   X88.6100      Y91.5476      R3.4000    
G1   Y30.052    
G17 G2   X88.5775      Y29.5567      R3.4000    
   X88.4908      Y29.1209      R3.4000    
   X88.3480      Y28.7002      R3.4000    
   X88.1515      Y28.3017      R3.4000    
   X87.9047      Y27.9323      R3.4000    
   X87.6117      Y27.5983      R3.4000    
   X87.2777      Y27.3053      R3.4000    
   X86.9083      Y27.0585      R3.4000    
   X86.5098      Y26.8620      R3.4000    
   X86.0891      Y26.7192      R3.4000    
   X85.6533      Y26.6325      R3.4000    
   X85.1576      Y26.6000      R3.4000    
G1   X40.262    
G17 G2   X39.7667      Y26.6325      R3.4000    
   X39.3309      Y26.7192      R3.4000    
   X38.9102      Y26.8620      R3.4000    
   X38.5117      Y27.0585      R3.4000    
   X38.1423      Y27.3053      R3.4000    
   X37.8083      Y27.5983      R3.4000    
   X37.5153      Y27.9323      R3.4000    
(Pass: 2)
G1   Z-1.000     F500 
G17 G2   X37.2685      Y28.3017      R3.4000     F800 
   X37.0720      Y28.7002      R3.4000    
   X36.9292      Y29.1209      R3.4000    
   X36.8425      Y29.5567      R3.4000    
   X36.8100      Y30.0524      R3.4000    
G1   Y91.548    
G17 G2   X36.8425      Y92.0433      R3.4000    
   X36.9292      Y92.4791      R3.4000    
   X37.0720      Y92.8998      R3.4000    
   X37.2685      Y93.2983      R3.4000    
   X37.5153      Y93.6677      R3.4000    
   X37.8083      Y94.0017      R3.4000    
   X38.1423      Y94.2947      R3.4000    
   X38.5117      Y94.5415      R3.4000    
   X38.9102      Y94.7380      R3.4000    
   X39.3309      Y94.8808      R3.4000    
   X39.7667      Y94.9675      R3.4000    
   X40.2624      Y95.0000      R3.4000    
G1   X85.158    
G17 G2   X85.6533      Y94.9675      R3.4000    
   X86.0891      Y94.8808      R3.4000    
   X86.5098      Y94.7380      R3.4000    
   X86.9083      Y94.5415      R3.4000    
   X87.2777      Y94.2947      R3.4000    
   X87.6117      Y94.0017      R3.4000    
   X87.9047      Y93.6677      R3.4000    
   X88.1515      Y93.2983      R3.4000    
   X88.3480      Y92.8998      R3.4000    
   X88.4908      Y92.4791      R3.4000    
   X88.5775      Y92.0433      R3.4000    
   X88.6100      Y91.5476      R3.4000    
G1   Y30.052    
G17 G2   X88.5775      Y29.5567      R3.4000    
   X88.4908      Y29.1209      R3.4000    
   X88.3480      Y28.7002      R3.4000    
   X88.1515      Y28.3017      R3.4000    
   X87.9047      Y27.9323      R3.4000    
   X87.6117      Y27.5983      R3.4000    
   X87.2777      Y27.3053      R3.4000    
   X86.9083      Y27.0585      R3.4000    
   X86.5098      Y26.8620      R3.4000    
   X86.0891      Y26.7192      R3.4000    
   X85.6533      Y26.6325      R3.4000    
   X85.1576      Y26.6000      R3.4000    
G1   X40.262    
G17 G2   X39.7667      Y26.6325      R3.4000    
   X39.3309      Y26.7192      R3.4000    
   X38.9102      Y26.8620      R3.4000    
   X38.5117      Y27.0585      R3.4000    
   X38.1423      Y27.3053      R3.4000    
   X37.8083      Y27.5983      R3.4000    
   X37.5153      Y27.9323      R3.4000    
(Pass: 3)
G1   Z-1.500     F500 
G17 G2   X37.2685      Y28.3017      R3.4000     F800 
   X37.0720      Y28.7002      R3.4000    
   X36.9292      Y29.1209      R3.4000    
   X36.8425      Y29.5567      R3.4000    
   X36.8100      Y30.0524      R3.4000    
G1   Y91.548    
G17 G2   X36.8425      Y92.0433      R3.4000    
   X36.9292      Y92.4791      R3.4000    
   X37.0720      Y92.8998      R3.4000    
   X37.2685      Y93.2983      R3.4000    
   X37.5153      Y93.6677      R3.4000    
   X37.8083      Y94.0017      R3.4000    
   X38.1423      Y94.2947      R3.4000    
   X38.5117      Y94.5415      R3.4000    
   X38.9102      Y94.7380      R3.4000    
   X39.3309      Y94.8808      R3.4000    
   X39.7667      Y94.9675      R3.4000    
   X40.2624      Y95.0000      R3.4000    
G1   X85.158    
G17 G2   X85.6533      Y94.9675      R3.4000    
   X86.0891      Y94.8808      R3.4000    
   X86.5098      Y94.7380      R3.4000    
   X86.9083      Y94.5415      R3.4000    
   X87.2777      Y94.2947      R3.4000    
   X87.6117      Y94.0017      R3.4000    
   X87.9047      Y93.6677      R3.4000    
   X88.1515      Y93.2983      R3.4000    
   X88.3480      Y92.8998      R3.4000    
   X88.4908      Y92.4791      R3.4000    
   X88.5775      Y92.0433      R3.4000    
   X88.6100      Y91.5476      R3.4000    
G1   Y30.052    
G17 G2   X88.5775      Y29.5567      R3.4000    
   X88.4908      Y29.1209      R3.4000    
   X88.3480      Y28.7002      R3.4000    
   X88.1515      Y28.3017      R3.4000    
   X87.9047      Y27.9323      R3.4000    
   X87.6117      Y27.5983      R3.4000    
   X87.2777      Y27.3053      R3.4000    
   X86.9083      Y27.0585      R3.4000    
   X86.5098      Y26.8620      R3.4000    
   X86.0891      Y26.7192      R3.4000    
   X85.6533      Y26.6325      R3.4000    
   X85.1576      Y26.6000      R3.4000    
G1   X40.262    
G17 G2   X39.7667      Y26.6325      R3.4000    
   X39.3309      Y26.7192      R3.4000    
   X38.9102      Y26.8620      R3.4000    
   X38.5117      Y27.0585      R3.4000    
   X38.1423      Y27.3053      R3.4000    
   X37.8083      Y27.5983      R3.4000    
   X37.5153      Y27.9323      R3.4000    
(Pass: 4)
G1   Z-2.000     F500 
G17 G2   X37.2685      Y28.3017      R3.4000     F800 
   X37.0720      Y28.7002      R3.4000    
   X36.9292      Y29.1209      R3.4000    
   X36.8425      Y29.5567      R3.4000    
   X36.8100      Y30.0524      R3.4000    
G1   Y91.548    
G17 G2   X36.8425      Y92.0433      R3.4000    
   X36.9292      Y92.4791      R3.4000    
   X37.0720      Y92.8998      R3.4000    
   X37.2685      Y93.2983      R3.4000    
   X37.5153      Y93.6677      R3.4000    
   X37.8083      Y94.0017      R3.4000    
   X38.1423      Y94.2947      R3.4000    
   X38.5117      Y94.5415      R3.4000    
   X38.9102      Y94.7380      R3.4000    
   X39.3309      Y94.8808      R3.4000    
   X39.7667      Y94.9675      R3.4000    
   X40.2624      Y95.0000      R3.4000    
G1   X85.158    
G17 G2   X85.6533      Y94.9675      R3.4000    
   X86.0891      Y94.8808      R3.4000    
   X86.5098      Y94.7380      R3.4000    
   X86.9083      Y94.5415      R3.4000    
   X87.2777      Y94.2947      R3.4000    
   X87.6117      Y94.0017      R3.4000    
   X87.9047      Y93.6677      R3.4000    
   X88.1515      Y93.2983      R3.4000    
   X88.3480      Y92.8998      R3.4000    
   X88.4908      Y92.4791      R3.4000    
   X88.5775      Y92.0433      R3.4000    
   X88.6100      Y91.5476      R3.4000    
G1   Y30.052    
G17 G2   X88.5775      Y29.5567      R3.4000    
   X88.4908      Y29.1209      R3.4000    
   X88.3480      Y28.7002      R3.4000    
   X88.1515      Y28.3017      R3.4000    
   X87.9047      Y27.9323      R3.4000    
   X87.6117      Y27.5983      R3.4000    
   X87.2777      Y27.3053      R3.4000    
   X86.9083      Y27.0585      R3.4000    
   X86.5098      Y26.8620      R3.4000    
   X86.0891      Y26.7192      R3.4000    
   X85.6533      Y26.6325      R3.4000    
   X85.1576      Y26.6000      R3.4000    
G1   X40.262    
G17 G2   X39.7667      Y26.6325      R3.4000    
   X39.3309      Y26.7192      R3.4000    
   X38.9102      Y26.8620      R3.4000    
   X38.5117      Y27.0585      R3.4000    
   X38.1423      Y27.3053      R3.4000    
   X37.8083      Y27.5983      R3.4000    
   X37.5153      Y27.9323      R3.4000    
(Pass: 5)
G1   Z-2.500     F500 
G17 G2   X37.2685      Y28.3017      R3.4000     F800 
   X37.0720      Y28.7002      R3.4000    
   X36.9292      Y29.1209      R3.4000    
   X36.8425      Y29.5567      R3.4000    
   X36.8100      Y30.0524      R3.4000    
G1   Y91.548    
G17 G2   X36.8425      Y92.0433      R3.4000    
   X36.9292      Y92.4791      R3.4000    
   X37.0720      Y92.8998      R3.4000    
   X37.2685      Y93.2983      R3.4000    
   X37.5153      Y93.6677      R3.4000    
   X37.8083      Y94.0017      R3.4000    
   X38.1423      Y94.2947      R3.4000    
   X38.5117      Y94.5415      R3.4000    
   X38.9102      Y94.7380      R3.4000    
   X39.3309      Y94.8808      R3.4000    
   X39.7667      Y94.9675      R3.4000    
   X40.2624      Y95.0000      R3.4000    
G1   X85.158    
G17 G2   X85.6533      Y94.9675      R3.4000    
   X86.0891      Y94.8808      R3.4000    
   X86.5098      Y94.7380      R3.4000    
   X86.9083      Y94.5415      R3.4000    
   X87.2777      Y94.2947      R3.4000    
   X87.6117      Y94.0017      R3.4000    
   X87.9047      Y93.6677      R3.4000    
   X88.1515      Y93.2983      R3.4000    
   X88.3480      Y92.8998      R3.4000    
   X88.4908      Y92.4791      R3.4000    
   X88.5775      Y92.0433      R3.4000    
   X88.6100      Y91.5476      R3.4000    
G1   Y30.052    
G17 G2   X88.5775      Y29.5567      R3.4000    
   X88.4908      Y29.1209      R3.4000    
   X88.3480      Y28.7002      R3.4000    
   X88.1515      Y28.3017      R3.4000    
   X87.9047      Y27.9323      R3.4000    
   X87.6117      Y27.5983      R3.4000    
   X87.2777      Y27.3053      R3.4000    
   X86.9083      Y27.0585      R3.4000    
   X86.5098      Y26.8620      R3.4000    
   X86.0891      Y26.7192      R3.4000    
   X85.6533      Y26.6325      R3.4000    
   X85.1576      Y26.6000      R3.4000    
G1   X40.262    
G17 G2   X39.7667      Y26.6325      R3.4000    
   X39.3309      Y26.7192      R3.4000    
   X38.9102      Y26.8620      R3.4000    
   X38.5117      Y27.0585      R3.4000    
   X38.1423      Y27.3053      R3.4000    
   X37.8083      Y27.5983      R3.4000    
   X37.5153      Y27.9323      R3.4000    
(Pass: 6)
G1   Z-3.000     F500 
G17 G2   X37.2685      Y28.3017      R3.4000     F800 
   X37.0720      Y28.7002      R3.4000    
   X36.9292      Y29.1209      R3.4000    
   X36.8425      Y29.5567      R3.4000    
   X36.8100      Y30.0524      R3.4000    
G1   Y91.548    
G17 G2   X36.8425      Y92.0433      R3.4000    
   X36.9292      Y92.4791      R3.4000    
   X37.0720      Y92.8998      R3.4000    
   X37.2685      Y93.2983      R3.4000    
   X37.5153      Y93.6677      R3.4000    
   X37.8083      Y94.0017      R3.4000    
   X38.1423      Y94.2947      R3.4000    
   X38.5117      Y94.5415      R3.4000    
   X38.9102      Y94.7380      R3.4000    
   X39.3309      Y94.8808      R3.4000    
   X39.7667      Y94.9675      R3.4000    
   X40.2624      Y95.0000      R3.4000    
G1   X85.158    
G17 G2   X85.6533      Y94.9675      R3.4000    
   X86.0891      Y94.8808      R3.4000    
   X86.5098      Y94.7380      R3.4000    
   X86.9083      Y94.5415      R3.4000    
   X87.2777      Y94.2947      R3.4000    
   X87.6117      Y94.0017      R3.4000    
   X87.9047      Y93.6677      R3.4000    
   X88.1515      Y93.2983      R3.4000    
   X88.3480      Y92.8998      R3.4000    
   X88.4908      Y92.4791      R3.4000    
   X88.5775      Y92.0433      R3.4000    
   X88.6100      Y91.5476      R3.4000    
G1   Y30.052    
G17 G2   X88.5775      Y29.5567      R3.4000    
   X88.4908      Y29.1209      R3.4000    
   X88.3480      Y28.7002      R3.4000    
   X88.1515      Y28.3017      R3.4000    
   X87.9047      Y27.9323      R3.4000    
   X87.6117      Y27.5983      R3.4000    
   X87.2777      Y27.3053      R3.4000    
   X86.9083      Y27.0585      R3.4000    
   X86.5098      Y26.8620      R3.4000    
   X86.0891      Y26.7192      R3.4000    
   X85.6533      Y26.6325      R3.4000    
   X85.1576      Y26.6000      R3.4000    
G1   X40.262    
G17 G2   X39.7667      Y26.6325      R3.4000    
   X39.3309      Y26.7192      R3.4000    
   X38.9102      Y26.8620      R3.4000    
   X38.5117      Y27.0585      R3.4000    
   X38.1423      Y27.3053      R3.4000    
   X37.8083      Y27.5983      R3.4000    
   X37.5153      Y27.9323      R3.4000    
(Pass: 7)
G1   Z-3.500     F500 
G17 G2   X37.2685      Y28.3017      R3.4000     F800 
   X37.0720      Y28.7002      R3.4000    
   X36.9292      Y29.1209      R3.4000    
   X36.8425      Y29.5567      R3.4000    
   X36.8100      Y30.0524      R3.4000    
G1   Y91.548    
G17 G2   X36.8425      Y92.0433      R3.4000    
   X36.9292      Y92.4791      R3.4000    
   X37.0720      Y92.8998      R3.4000    
   X37.2685      Y93.2983      R3.4000    
   X37.5153      Y93.6677      R3.4000    
   X37.8083      Y94.0017      R3.4000    
   X38.1423      Y94.2947      R3.4000    
   X38.5117      Y94.5415      R3.4000    
   X38.9102      Y94.7380      R3.4000    
   X39.3309      Y94.8808      R3.4000    
   X39.7667      Y94.9675      R3.4000    
   X40.2624      Y95.0000      R3.4000    
G1   X85.158    
G17 G2   X85.6533      Y94.9675      R3.4000    
   X86.0891      Y94.8808      R3.4000    
   X86.5098      Y94.7380      R3.4000    
   X86.9083      Y94.5415      R3.4000    
   X87.2777      Y94.2947      R3.4000    
   X87.6117      Y94.0017      R3.4000    
   X87.9047      Y93.6677      R3.4000    
   X88.1515      Y93.2983      R3.4000    
   X88.3480      Y92.8998      R3.4000    
   X88.4908      Y92.4791      R3.4000    
   X88.5775      Y92.0433      R3.4000    
   X88.6100      Y91.5476      R3.4000    
G1   Y30.052    
G17 G2   X88.5775      Y29.5567      R3.4000    
   X88.4908      Y29.1209      R3.4000    
   X88.3480      Y28.7002      R3.4000    
   X88.1515      Y28.3017      R3.4000    
   X87.9047      Y27.9323      R3.4000    
   X87.6117      Y27.5983      R3.4000    
   X87.2777      Y27.3053      R3.4000    
   X86.9083      Y27.0585      R3.4000    
   X86.5098      Y26.8620      R3.4000    
   X86.0891      Y26.7192      R3.4000    
   X85.6533      Y26.6325      R3.4000    
   X85.1576      Y26.6000      R3.4000    
G1   X40.262    
G17 G2   X39.7667      Y26.6325      R3.4000    
   X39.3309      Y26.7192      R3.4000    
   X38.9102      Y26.8620      R3.4000    
   X38.5117      Y27.0585      R3.4000    
   X38.1423      Y27.3053      R3.4000    
   X37.8083      Y27.5983      R3.4000    
   X37.5153      Y27.9323      R3.4000    
G0   Z5.000     
(Pass: 1)
   X32.822       Y46.086    
G1   Z-0.500     F500 
G17 G2   X32.7628      Y46.0645      R0.2500     F800 
   X32.7001      Y46.0588      R0.2500    
   X32.6380      Y46.0696      R0.2500    
   X32.5808      Y46.0961      R0.2500    
   X32.5325      Y46.1365      R0.2500    
   X32.4962      Y46.1880      R0.2500    
   X32.4745      Y46.2472      R0.2500    
   X32.4688      Y46.3099      R0.2500    
   X32.4796      Y46.3720      R0.2500    
   X32.5061      Y46.4292      R0.2500    
   X32.5465      Y46.4775      R0.2500    
   X32.5980      Y46.5138      R0.2500    
   X32.6572      Y46.5355      R0.2500    
   X32.7199      Y46.5412      R0.2500    
   X32.7820      Y46.5304      R0.2500    
   X32.8392      Y46.5039      R0.2500    
   X32.8875      Y46.4635      R0.2500    
   X32.9238      Y46.4120      R0.2500    
   X32.9455      Y46.3528      R0.2500    
   X32.9512      Y46.2901      R0.2500    
   X32.9404      Y46.2280      R0.2500    
   X32.9139      Y46.1708      R0.2500    
   X32.8735      Y46.1225      R0.2500    
   X32.8220      Y46.0862      R0.2500    
(Pass: 2)
G1   Z-1.000     F500 
G17 G2   X32.7628      Y46.0645      R0.2500     F800 
   X32.7001      Y46.0588      R0.2500    
   X32.6380      Y46.0696      R0.2500    
   X32.5808      Y46.0961      R0.2500    
   X32.5325      Y46.1365      R0.2500    
   X32.4962      Y46.1880      R0.2500    
   X32.4745      Y46.2472      R0.2500    
   X32.4688      Y46.3099      R0.2500    
   X32.4796      Y46.3720      R0.2500    
   X32.5061      Y46.4292      R0.2500    
   X32.5465      Y46.4775      R0.2500    
   X32.5980      Y46.5138      R0.2500    
   X32.6572      Y46.5355      R0.2500    
   X32.7199      Y46.5412      R0.2500    
   X32.7820      Y46.5304      R0.2500    
   X32.8392      Y46.5039      R0.2500    
   X32.8875      Y46.4635      R0.2500    
   X32.9238      Y46.4120      R0.2500    
   X32.9455      Y46.3528      R0.2500    
   X32.9512      Y46.2901      R0.2500    
   X32.9404      Y46.2280      R0.2500    
   X32.9139      Y46.1708      R0.2500    
   X32.8735      Y46.1225      R0.2500    
   X32.8220      Y46.0862      R0.2500    
(Pass: 3)
G1   Z-1.500     F500 
G17 G2   X32.7628      Y46.0645      R0.2500     F800 
   X32.7001      Y46.0588      R0.2500    
   X32.6380      Y46.0696      R0.2500    
   X32.5808      Y46.0961      R0.2500    
   X32.5325      Y46.1365      R0.2500    
   X32.4962      Y46.1880      R0.2500    
   X32.4745      Y46.2472      R0.2500    
   X32.4688      Y46.3099      R0.2500    
   X32.4796      Y46.3720      R0.2500    
   X32.5061      Y46.4292      R0.2500    
   X32.5465      Y46.4775      R0.2500    
   X32.5980      Y46.5138      R0.2500    
   X32.6572      Y46.5355      R0.2500    
   X32.7199      Y46.5412      R0.2500    
   X32.7820      Y46.5304      R0.2500    
   X32.8392      Y46.5039      R0.2500    
   X32.8875      Y46.4635      R0.2500    
   X32.9238      Y46.4120      R0.2500    
   X32.9455      Y46.3528      R0.2500    
   X32.9512      Y46.2901      R0.2500    
   X32.9404      Y46.2280      R0.2500    
   X32.9139      Y46.1708      R0.2500    
   X32.8735      Y46.1225      R0.2500    
   X32.8220      Y46.0862      R0.2500    
(Pass: 4)
G1   Z-2.000     F500 
G17 G2   X32.7628      Y46.0645      R0.2500     F800 
   X32.7001      Y46.0588      R0.2500    
   X32.6380      Y46.0696      R0.2500    
   X32.5808      Y46.0961      R0.2500    
   X32.5325      Y46.1365      R0.2500    
   X32.4962      Y46.1880      R0.2500    
   X32.4745      Y46.2472      R0.2500    
   X32.4688      Y46.3099      R0.2500    
   X32.4796      Y46.3720      R0.2500    
   X32.5061      Y46.4292      R0.2500    
   X32.5465      Y46.4775      R0.2500    
   X32.5980      Y46.5138      R0.2500    
   X32.6572      Y46.5355      R0.2500    
   X32.7199      Y46.5412      R0.2500    
   X32.7820      Y46.5304      R0.2500    
   X32.8392      Y46.5039      R0.2500    
   X32.8875      Y46.4635      R0.2500    
   X32.9238      Y46.4120      R0.2500    
   X32.9455      Y46.3528      R0.2500    
   X32.9512      Y46.2901      R0.2500    
   X32.9404      Y46.2280      R0.2500    
   X32.9139      Y46.1708      R0.2500    
   X32.8735      Y46.1225      R0.2500    
   X32.8220      Y46.0862      R0.2500    
(Pass: 5)
G1   Z-2.500     F500 
G17 G2   X32.7628      Y46.0645      R0.2500     F800 
   X32.7001      Y46.0588      R0.2500    
   X32.6380      Y46.0696      R0.2500    
   X32.5808      Y46.0961      R0.2500    
   X32.5325      Y46.1365      R0.2500    
   X32.4962      Y46.1880      R0.2500    
   X32.4745      Y46.2472      R0.2500    
   X32.4688      Y46.3099      R0.2500    
   X32.4796      Y46.3720      R0.2500    
   X32.5061      Y46.4292      R0.2500    
   X32.5465      Y46.4775      R0.2500    
   X32.5980      Y46.5138      R0.2500    
   X32.6572      Y46.5355      R0.2500    
   X32.7199      Y46.5412      R0.2500    
   X32.7820      Y46.5304      R0.2500    
   X32.8392      Y46.5039      R0.2500    
   X32.8875      Y46.4635      R0.2500    
   X32.9238      Y46.4120      R0.2500    
   X32.9455      Y46.3528      R0.2500    
   X32.9512      Y46.2901      R0.2500    
   X32.9404      Y46.2280      R0.2500    
   X32.9139      Y46.1708      R0.2500    
   X32.8735      Y46.1225      R0.2500    
   X32.8220      Y46.0862      R0.2500    
(Pass: 6)
G1   Z-3.000     F500 
G17 G2   X32.7628      Y46.0645      R0.2500     F800 
   X32.7001      Y46.0588      R0.2500    
   X32.6380      Y46.0696      R0.2500    
   X32.5808      Y46.0961      R0.2500    
   X32.5325      Y46.1365      R0.2500    
   X32.4962      Y46.1880      R0.2500    
   X32.4745      Y46.2472      R0.2500    
   X32.4688      Y46.3099      R0.2500    
   X32.4796      Y46.3720      R0.2500    
   X32.5061      Y46.4292      R0.2500    
   X32.5465      Y46.4775      R0.2500    
   X32.5980      Y46.5138      R0.2500    
   X32.6572      Y46.5355      R0.2500    
   X32.7199      Y46.5412      R0.2500    
   X32.7820      Y46.5304      R0.2500    
   X32.8392      Y46.5039      R0.2500    
   X32.8875      Y46.4635      R0.2500    
   X32.9238      Y46.4120      R0.2500    
   X32.9455      Y46.3528      R0.2500    
   X32.9512      Y46.2901      R0.2500    
   X32.9404      Y46.2280      R0.2500    
   X32.9139      Y46.1708      R0.2500    
   X32.8735      Y46.1225      R0.2500    
   X32.8220      Y46.0862      R0.2500    
(Pass: 7)
G1   Z-3.500     F500 
G17 G2   X32.7628      Y46.0645      R0.2500     F800 
   X32.7001      Y46.0588      R0.2500    
   X32.6380      Y46.0696      R0.2500    
   X32.5808      Y46.0961      R0.2500    
   X32.5325      Y46.1365      R0.2500    
   X32.4962      Y46.1880      R0.2500    
   X32.4745      Y46.2472      R0.2500    
   X32.4688      Y46.3099      R0.2500    
   X32.4796      Y46.3720      R0.2500    
   X32.5061      Y46.4292      R0.2500    
   X32.5465      Y46.4775      R0.2500    
   X32.5980      Y46.5138      R0.2500    
   X32.6572      Y46.5355      R0.2500    
   X32.7199      Y46.5412      R0.2500    
   X32.7820      Y46.5304      R0.2500    
   X32.8392      Y46.5039      R0.2500    
   X32.8875      Y46.4635      R0.2500    
   X32.9238      Y46.4120      R0.2500    
   X32.9455      Y46.3528      R0.2500    
   X32.9512      Y46.2901      R0.2500    
   X32.9404      Y46.2280      R0.2500    
   X32.9139      Y46.1708      R0.2500    
   X32.8735      Y46.1225      R0.2500    
   X32.8220      Y46.0862      R0.2500    
G0   Z5.000     
(Pass: 1)
   X32.710       Y75.059    
G1   Z-0.500     F500 
G17 G2   X32.6475      Y75.0669      R0.2500     F800 
   X32.5893      Y75.0910      R0.2500    
   X32.5393      Y75.1293      R0.2500    
   X32.5010      Y75.1793      R0.2500    
   X32.4769      Y75.2375      R0.2500    
   X32.4686      Y75.3000      R0.2500    
   X32.4769      Y75.3625      R0.2500    
   X32.5010      Y75.4207      R0.2500    
   X32.5393      Y75.4707      R0.2500    
   X32.5893      Y75.5090      R0.2500    
   X32.6475      Y75.5331      R0.2500    
   X32.7100      Y75.5414      R0.2500    
   X32.7725      Y75.5331      R0.2500    
   X32.8307      Y75.5090      R0.2500    
   X32.8807      Y75.4707      R0.2500    
   X32.9190      Y75.4207      R0.2500    
   X32.9431      Y75.3625      R0.2500    
   X32.9514      Y75.3000      R0.2500    
   X32.9431      Y75.2375      R0.2500    
   X32.9190      Y75.1793      R0.2500    
   X32.8807      Y75.1293      R0.2500    
   X32.8307      Y75.0910      R0.2500    
   X32.7725      Y75.0669      R0.2500    
   X32.7100      Y75.0586      R0.2500    
(Pass: 2)
G1   Z-1.000     F500 
G17 G2   X32.6475      Y75.0669      R0.2500     F800 
   X32.5893      Y75.0910      R0.2500    
   X32.5393      Y75.1293      R0.2500    
   X32.5010      Y75.1793      R0.2500    
   X32.4769      Y75.2375      R0.2500    
   X32.4686      Y75.3000      R0.2500    
   X32.4769      Y75.3625      R0.2500    
   X32.5010      Y75.4207      R0.2500    
   X32.5393      Y75.4707      R0.2500    
   X32.5893      Y75.5090      R0.2500    
   X32.6475      Y75.5331      R0.2500    
   X32.7100      Y75.5414      R0.2500    
   X32.7725      Y75.5331      R0.2500    
   X32.8307      Y75.5090      R0.2500    
   X32.8807      Y75.4707      R0.2500    
   X32.9190      Y75.4207      R0.2500    
   X32.9431      Y75.3625      R0.2500    
   X32.9514      Y75.3000      R0.2500    
   X32.9431      Y75.2375      R0.2500    
   X32.9190      Y75.1793      R0.2500    
   X32.8807      Y75.1293      R0.2500    
   X32.8307      Y75.0910      R0.2500    
   X32.7725      Y75.0669      R0.2500    
   X32.7100      Y75.0586      R0.2500    
(Pass: 3)
G1   Z-1.500     F500 
G17 G2   X32.6475      Y75.0669      R0.2500     F800 
   X32.5893      Y75.0910      R0.2500    
   X32.5393      Y75.1293      R0.2500    
   X32.5010      Y75.1793      R0.2500    
   X32.4769      Y75.2375      R0.2500    
   X32.4686      Y75.3000      R0.2500    
   X32.4769      Y75.3625      R0.2500    
   X32.5010      Y75.4207      R0.2500    
   X32.5393      Y75.4707      R0.2500    
   X32.5893      Y75.5090      R0.2500    
   X32.6475      Y75.5331      R0.2500    
   X32.7100      Y75.5414      R0.2500    
   X32.7725      Y75.5331      R0.2500    
   X32.8307      Y75.5090      R0.2500    
   X32.8807      Y75.4707      R0.2500    
   X32.9190      Y75.4207      R0.2500    
   X32.9431      Y75.3625      R0.2500    
   X32.9514      Y75.3000      R0.2500    
   X32.9431      Y75.2375      R0.2500    
   X32.9190      Y75.1793      R0.2500    
   X32.8807      Y75.1293      R0.2500    
   X32.8307      Y75.0910      R0.2500    
   X32.7725      Y75.0669      R0.2500    
   X32.7100      Y75.0586      R0.2500    
(Pass: 4)
G1   Z-2.000     F500 
G17 G2   X32.6475      Y75.0669      R0.2500     F800 
   X32.5893      Y75.0910      R0.2500    
   X32.5393      Y75.1293      R0.2500    
   X32.5010      Y75.1793      R0.2500    
   X32.4769      Y75.2375      R0.2500    
   X32.4686      Y75.3000      R0.2500    
   X32.4769      Y75.3625      R0.2500    
   X32.5010      Y75.4207      R0.2500    
   X32.5393      Y75.4707      R0.2500    
   X32.5893      Y75.5090      R0.2500    
   X32.6475      Y75.5331      R0.2500    
   X32.7100      Y75.5414      R0.2500    
   X32.7725      Y75.5331      R0.2500    
   X32.8307      Y75.5090      R0.2500    
   X32.8807      Y75.4707      R0.2500    
   X32.9190      Y75.4207      R0.2500    
   X32.9431      Y75.3625      R0.2500    
   X32.9514      Y75.3000      R0.2500    
   X32.9431      Y75.2375      R0.2500    
   X32.9190      Y75.1793      R0.2500    
   X32.8807      Y75.1293      R0.2500    
   X32.8307      Y75.0910      R0.2500    
   X32.7725      Y75.0669      R0.2500    
   X32.7100      Y75.0586      R0.2500    
(Pass: 5)
G1   Z-2.500     F500 
G17 G2   X32.6475      Y75.0669      R0.2500     F800 
   X32.5893      Y75.0910      R0.2500    
   X32.5393      Y75.1293      R0.2500    
   X32.5010      Y75.1793      R0.2500    
   X32.4769      Y75.2375      R0.2500    
   X32.4686      Y75.3000      R0.2500    
   X32.4769      Y75.3625      R0.2500    
   X32.5010      Y75.4207      R0.2500    
   X32.5393      Y75.4707      R0.2500    
   X32.5893      Y75.5090      R0.2500    
   X32.6475      Y75.5331      R0.2500    
   X32.7100      Y75.5414      R0.2500    
   X32.7725      Y75.5331      R0.2500    
   X32.8307      Y75.5090      R0.2500    
   X32.8807      Y75.4707      R0.2500    
   X32.9190      Y75.4207      R0.2500    
   X32.9431      Y75.3625      R0.2500    
   X32.9514      Y75.3000      R0.2500    
   X32.9431      Y75.2375      R0.2500    
   X32.9190      Y75.1793      R0.2500    
   X32.8807      Y75.1293      R0.2500    
   X32.8307      Y75.0910      R0.2500    
   X32.7725      Y75.0669      R0.2500    
   X32.7100      Y75.0586      R0.2500    
(Pass: 6)
G1   Z-3.000     F500 
G17 G2   X32.6475      Y75.0669      R0.2500     F800 
   X32.5893      Y75.0910      R0.2500    
   X32.5393      Y75.1293      R0.2500    
   X32.5010      Y75.1793      R0.2500    
   X32.4769      Y75.2375      R0.2500    
   X32.4686      Y75.3000      R0.2500    
   X32.4769      Y75.3625      R0.2500    
   X32.5010      Y75.4207      R0.2500    
   X32.5393      Y75.4707      R0.2500    
   X32.5893      Y75.5090      R0.2500    
   X32.6475      Y75.5331      R0.2500    
   X32.7100      Y75.5414      R0.2500    
   X32.7725      Y75.5331      R0.2500    
   X32.8307      Y75.5090      R0.2500    
   X32.8807      Y75.4707      R0.2500    
   X32.9190      Y75.4207      R0.2500    
   X32.9431      Y75.3625      R0.2500    
   X32.9514      Y75.3000      R0.2500    
   X32.9431      Y75.2375      R0.2500    
   X32.9190      Y75.1793      R0.2500    
   X32.8807      Y75.1293      R0.2500    
   X32.8307      Y75.0910      R0.2500    
   X32.7725      Y75.0669      R0.2500    
   X32.7100      Y75.0586      R0.2500    
(Pass: 7)
G1   Z-3.500     F500 
G17 G2   X32.6475      Y75.0669      R0.2500     F800 
   X32.5893      Y75.0910      R0.2500    
   X32.5393      Y75.1293      R0.2500    
   X32.5010      Y75.1793      R0.2500    
   X32.4769      Y75.2375      R0.2500    
   X32.4686      Y75.3000      R0.2500    
   X32.4769      Y75.3625      R0.2500    
   X32.5010      Y75.4207      R0.2500    
   X32.5393      Y75.4707      R0.2500    
   X32.5893      Y75.5090      R0.2500    
   X32.6475      Y75.5331      R0.2500    
   X32.7100      Y75.5414      R0.2500    
   X32.7725      Y75.5331      R0.2500    
   X32.8307      Y75.5090      R0.2500    
   X32.8807      Y75.4707      R0.2500    
   X32.9190      Y75.4207      R0.2500    
   X32.9431      Y75.3625      R0.2500    
   X32.9514      Y75.3000      R0.2500    
   X32.9431      Y75.2375      R0.2500    
   X32.9190      Y75.1793      R0.2500    
   X32.8807      Y75.1293      R0.2500    
   X32.8307      Y75.0910      R0.2500    
   X32.7725      Y75.0669      R0.2500    
   X32.7100      Y75.0586      R0.2500    
G0   Z5.000     
(Pass: 1)
   X13.872       Y107.557   
G1   Z-0.500     F500 
G17 G2   X13.8100      Y107.5486     R0.2500     F800 
   X13.7475      Y107.5569     R0.2500    
   X13.6893      Y107.5810     R0.2500    
   X13.6393      Y107.6193     R0.2500    
   X13.6010      Y107.6693     R0.2500    
   X13.5769      Y107.7275     R0.2500    
   X13.5686      Y107.7900     R0.2500    
   X13.5769      Y107.8525     R0.2500    
   X13.6010      Y107.9107     R0.2500    
   X13.6393      Y107.9607     R0.2500    
   X13.6893      Y107.9990     R0.2500    
   X13.7475      Y108.0231     R0.2500    
   X13.8100      Y108.0314     R0.2500    
   X13.8725      Y108.0231     R0.2500    
   X13.9307      Y107.9990     R0.2500    
   X13.9807      Y107.9607     R0.2500    
   X14.0190      Y107.9107     R0.2500    
   X14.0431      Y107.8525     R0.2500    
   X14.0514      Y107.7900     R0.2500    
   X14.0431      Y107.7275     R0.2500    
   X14.0190      Y107.6693     R0.2500    
   X13.9807      Y107.6193     R0.2500    
   X13.9307      Y107.5810     R0.2500    
   X13.8725      Y107.5569     R0.2500    
(Pass: 2)
G1   Z-1.000     F500 
G17 G2   X13.8100      Y107.5486     R0.2500     F800 
   X13.7475      Y107.5569     R0.2500    
   X13.6893      Y107.5810     R0.2500    
   X13.6393      Y107.6193     R0.2500    
   X13.6010      Y107.6693     R0.2500    
   X13.5769      Y107.7275     R0.2500    
   X13.5686      Y107.7900     R0.2500    
   X13.5769      Y107.8525     R0.2500    
   X13.6010      Y107.9107     R0.2500    
   X13.6393      Y107.9607     R0.2500    
   X13.6893      Y107.9990     R0.2500    
   X13.7475      Y108.0231     R0.2500    
   X13.8100      Y108.0314     R0.2500    
   X13.8725      Y108.0231     R0.2500    
   X13.9307      Y107.9990     R0.2500    
   X13.9807      Y107.9607     R0.2500    
   X14.0190      Y107.9107     R0.2500    
   X14.0431      Y107.8525     R0.2500    
   X14.0514      Y107.7900     R0.2500    
   X14.0431      Y107.7275     R0.2500    
   X14.0190      Y107.6693     R0.2500    
   X13.9807      Y107.6193     R0.2500    
   X13.9307      Y107.5810     R0.2500    
   X13.8725      Y107.5569     R0.2500    
(Pass: 3)
G1   Z-1.500     F500 
G17 G2   X13.8100      Y107.5486     R0.2500     F800 
   X13.7475      Y107.5569     R0.2500    
   X13.6893      Y107.5810     R0.2500    
   X13.6393      Y107.6193     R0.2500    
   X13.6010      Y107.6693     R0.2500    
   X13.5769      Y107.7275     R0.2500    
   X13.5686      Y107.7900     R0.2500    
   X13.5769      Y107.8525     R0.2500    
   X13.6010      Y107.9107     R0.2500    
   X13.6393      Y107.9607     R0.2500    
   X13.6893      Y107.9990     R0.2500    
   X13.7475      Y108.0231     R0.2500    
   X13.8100      Y108.0314     R0.2500    
   X13.8725      Y108.0231     R0.2500    
   X13.9307      Y107.9990     R0.2500    
   X13.9807      Y107.9607     R0.2500    
   X14.0190      Y107.9107     R0.2500    
   X14.0431      Y107.8525     R0.2500    
   X14.0514      Y107.7900     R0.2500    
   X14.0431      Y107.7275     R0.2500    
   X14.0190      Y107.6693     R0.2500    
   X13.9807      Y107.6193     R0.2500    
   X13.9307      Y107.5810     R0.2500    
   X13.8725      Y107.5569     R0.2500    
(Pass: 4)
G1   Z-2.000     F500 
G17 G2   X13.8100      Y107.5486     R0.2500     F800 
   X13.7475      Y107.5569     R0.2500    
   X13.6893      Y107.5810     R0.2500    
   X13.6393      Y107.6193     R0.2500    
   X13.6010      Y107.6693     R0.2500    
   X13.5769      Y107.7275     R0.2500    
   X13.5686      Y107.7900     R0.2500    
   X13.5769      Y107.8525     R0.2500    
   X13.6010      Y107.9107     R0.2500    
   X13.6393      Y107.9607     R0.2500    
   X13.6893      Y107.9990     R0.2500    
   X13.7475      Y108.0231     R0.2500    
   X13.8100      Y108.0314     R0.2500    
   X13.8725      Y108.0231     R0.2500    
   X13.9307      Y107.9990     R0.2500    
   X13.9807      Y107.9607     R0.2500    
   X14.0190      Y107.9107     R0.2500    
   X14.0431      Y107.8525     R0.2500    
   X14.0514      Y107.7900     R0.2500    
   X14.0431      Y107.7275     R0.2500    
   X14.0190      Y107.6693     R0.2500    
   X13.9807      Y107.6193     R0.2500    
   X13.9307      Y107.5810     R0.2500    
   X13.8725      Y107.5569     R0.2500    
(Pass: 5)
G1   Z-2.500     F500 
G17 G2   X13.8100      Y107.5486     R0.2500     F800 
   X13.7475      Y107.5569     R0.2500    
   X13.6893      Y107.5810     R0.2500    
   X13.6393      Y107.6193     R0.2500    
   X13.6010      Y107.6693     R0.2500    
   X13.5769      Y107.7275     R0.2500    
   X13.5686      Y107.7900     R0.2500    
   X13.5769      Y107.8525     R0.2500    
   X13.6010      Y107.9107     R0.2500    
   X13.6393      Y107.9607     R0.2500    
   X13.6893      Y107.9990     R0.2500    
   X13.7475      Y108.0231     R0.2500    
   X13.8100      Y108.0314     R0.2500    
   X13.8725      Y108.0231     R0.2500    
   X13.9307      Y107.9990     R0.2500    
   X13.9807      Y107.9607     R0.2500    
   X14.0190      Y107.9107     R0.2500    
   X14.0431      Y107.8525     R0.2500    
   X14.0514      Y107.7900     R0.2500    
   X14.0431      Y107.7275     R0.2500    
   X14.0190      Y107.6693     R0.2500    
   X13.9807      Y107.6193     R0.2500    
   X13.9307      Y107.5810     R0.2500    
   X13.8725      Y107.5569     R0.2500    
(Pass: 6)
G1   Z-3.000     F500 
G17 G2   X13.8100      Y107.5486     R0.2500     F800 
   X13.7475      Y107.5569     R0.2500    
   X13.6893      Y107.5810     R0.2500    
   X13.6393      Y107.6193     R0.2500    
   X13.6010      Y107.6693     R0.2500    
   X13.5769      Y107.7275     R0.2500    
   X13.5686      Y107.7900     R0.2500    
   X13.5769      Y107.8525     R0.2500    
   X13.6010      Y107.9107     R0.2500    
   X13.6393      Y107.9607     R0.2500    
   X13.6893      Y107.9990     R0.2500    
   X13.7475      Y108.0231     R0.2500    
   X13.8100      Y108.0314     R0.2500    
   X13.8725      Y108.0231     R0.2500    
   X13.9307      Y107.9990     R0.2500    
   X13.9807      Y107.9607     R0.2500    
   X14.0190      Y107.9107     R0.2500    
   X14.0431      Y107.8525     R0.2500    
   X14.0514      Y107.7900     R0.2500    
   X14.0431      Y107.7275     R0.2500    
   X14.0190      Y107.6693     R0.2500    
   X13.9807      Y107.6193     R0.2500    
   X13.9307      Y107.5810     R0.2500    
   X13.8725      Y107.5569     R0.2500    
(Pass: 7)
G1   Z-3.500     F500 
G17 G2   X13.8100      Y107.5486     R0.2500     F800 
   X13.7475      Y107.5569     R0.2500    
   X13.6893      Y107.5810     R0.2500    
   X13.6393      Y107.6193     R0.2500    
   X13.6010      Y107.6693     R0.2500    
   X13.5769      Y107.7275     R0.2500    
   X13.5686      Y107.7900     R0.2500    
   X13.5769      Y107.8525     R0.2500    
   X13.6010      Y107.9107     R0.2500    
   X13.6393      Y107.9607     R0.2500    
   X13.6893      Y107.9990     R0.2500    
   X13.7475      Y108.0231     R0.2500    
   X13.8100      Y108.0314     R0.2500    
   X13.8725      Y108.0231     R0.2500    
   X13.9307      Y107.9990     R0.2500    
   X13.9807      Y107.9607     R0.2500    
   X14.0190      Y107.9107     R0.2500    
   X14.0431      Y107.8525     R0.2500    
   X14.0514      Y107.7900     R0.2500    
   X14.0431      Y107.7275     R0.2500    
   X14.0190      Y107.6693     R0.2500    
   X13.9807      Y107.6193     R0.2500    
   X13.9307      Y107.5810     R0.2500    
   X13.8725      Y107.5569     R0.2500    
G0   Z5.000     
(Pass: 1)
   X24.326       Y125.270   
G1   Z-0.500     F500 
G17 G2   X24.0043      Y125.4897     R1.5000     F800 
   X23.7508      Y125.7853     R1.5000    
   X23.5825      Y126.1364     R1.5000    
   X23.5108      Y126.5190     R1.5000    
   X23.5406      Y126.9072     R1.5000    
   X23.6699      Y127.2745     R1.5000    
   X23.8897      Y127.5957     R1.5000    
   X24.1853      Y127.8492     R1.5000    
   X24.5364      Y128.0175     R1.5000    
   X24.9190      Y128.0892     R1.5000    
   X25.3072      Y128.0594     R1.5000    
   X25.6745      Y127.9301     R1.5000    
   X25.9957      Y127.7103     R1.5000    
   X26.2492      Y127.4147     R1.5000    
   X26.4175      Y127.0636     R1.5000    
   X26.4892      Y126.6810     R1.5000    
   X26.4594      Y126.2928     R1.5000    
   X26.3301      Y125.9255     R1.5000    
   X26.1103      Y125.6043     R1.5000    
   X25.8147      Y125.3508     R1.5000    
   X25.4636      Y125.1825     R1.5000    
   X25.0810      Y125.1108     R1.5000    
   X24.6928      Y125.1406     R1.5000    
   X24.3255      Y125.2699     R1.5000    
(Pass: 2)
G1   Z-1.000     F500 
G17 G2   X24.0043      Y125.4897     R1.5000     F800 
   X23.7508      Y125.7853     R1.5000    
   X23.5825      Y126.1364     R1.5000    
   X23.5108      Y126.5190     R1.5000    
   X23.5406      Y126.9072     R1.5000    
   X23.6699      Y127.2745     R1.5000    
   X23.8897      Y127.5957     R1.5000    
   X24.1853      Y127.8492     R1.5000    
   X24.5364      Y128.0175     R1.5000    
   X24.9190      Y128.0892     R1.5000    
   X25.3072      Y128.0594     R1.5000    
   X25.6745      Y127.9301     R1.5000    
   X25.9957      Y127.7103     R1.5000    
   X26.2492      Y127.4147     R1.5000    
   X26.4175      Y127.0636     R1.5000    
   X26.4892      Y126.6810     R1.5000    
   X26.4594      Y126.2928     R1.5000    
   X26.3301      Y125.9255     R1.5000    
   X26.1103      Y125.6043     R1.5000    
   X25.8147      Y125.3508     R1.5000    
   X25.4636      Y125.1825     R1.5000    
   X25.0810      Y125.1108     R1.5000    
   X24.6928      Y125.1406     R1.5000    
   X24.3255      Y125.2699     R1.5000    
(Pass: 3)
G1   Z-1.500     F500 
G17 G2   X24.0043      Y125.4897     R1.5000     F800 
   X23.7508      Y125.7853     R1.5000    
   X23.5825      Y126.1364     R1.5000    
   X23.5108      Y126.5190     R1.5000    
   X23.5406      Y126.9072     R1.5000    
   X23.6699      Y127.2745     R1.5000    
   X23.8897      Y127.5957     R1.5000    
   X24.1853      Y127.8492     R1.5000    
   X24.5364      Y128.0175     R1.5000    
   X24.9190      Y128.0892     R1.5000    
   X25.3072      Y128.0594     R1.5000    
   X25.6745      Y127.9301     R1.5000    
   X25.9957      Y127.7103     R1.5000    
   X26.2492      Y127.4147     R1.5000    
   X26.4175      Y127.0636     R1.5000    
   X26.4892      Y126.6810     R1.5000    
   X26.4594      Y126.2928     R1.5000    
   X26.3301      Y125.9255     R1.5000    
   X26.1103      Y125.6043     R1.5000    
   X25.8147      Y125.3508     R1.5000    
   X25.4636      Y125.1825     R1.5000    
   X25.0810      Y125.1108     R1.5000    
   X24.6928      Y125.1406     R1.5000    
   X24.3255      Y125.2699     R1.5000    
(Pass: 4)
G1   Z-2.000     F500 
G17 G2   X24.0043      Y125.4897     R1.5000     F800 
   X23.7508      Y125.7853     R1.5000    
   X23.5825      Y126.1364     R1.5000    
   X23.5108      Y126.5190     R1.5000    
   X23.5406      Y126.9072     R1.5000    
   X23.6699      Y127.2745     R1.5000    
   X23.8897      Y127.5957     R1.5000    
   X24.1853      Y127.8492     R1.5000    
   X24.5364      Y128.0175     R1.5000    
   X24.9190      Y128.0892     R1.5000    
   X25.3072      Y128.0594     R1.5000    
   X25.6745      Y127.9301     R1.5000    
   X25.9957      Y127.7103     R1.5000    
   X26.2492      Y127.4147     R1.5000    
   X26.4175      Y127.0636     R1.5000    
   X26.4892      Y126.6810     R1.5000    
   X26.4594      Y126.2928     R1.5000    
   X26.3301      Y125.9255     R1.5000    
   X26.1103      Y125.6043     R1.5000    
   X25.8147      Y125.3508     R1.5000    
   X25.4636      Y125.1825     R1.5000    
   X25.0810      Y125.1108     R1.5000    
   X24.6928      Y125.1406     R1.5000    
   X24.3255      Y125.2699     R1.5000    
(Pass: 5)
G1   Z-2.500     F500 
G17 G2   X24.0043      Y125.4897     R1.5000     F800 
   X23.7508      Y125.7853     R1.5000    
   X23.5825      Y126.1364     R1.5000    
   X23.5108      Y126.5190     R1.5000    
   X23.5406      Y126.9072     R1.5000    
   X23.6699      Y127.2745     R1.5000    
   X23.8897      Y127.5957     R1.5000    
   X24.1853      Y127.8492     R1.5000    
   X24.5364      Y128.0175     R1.5000    
   X24.9190      Y128.0892     R1.5000    
   X25.3072      Y128.0594     R1.5000    
   X25.6745      Y127.9301     R1.5000    
   X25.9957      Y127.7103     R1.5000    
   X26.2492      Y127.4147     R1.5000    
   X26.4175      Y127.0636     R1.5000    
   X26.4892      Y126.6810     R1.5000    
   X26.4594      Y126.2928     R1.5000    
   X26.3301      Y125.9255     R1.5000    
   X26.1103      Y125.6043     R1.5000    
   X25.8147      Y125.3508     R1.5000    
   X25.4636      Y125.1825     R1.5000    
   X25.0810      Y125.1108     R1.5000    
   X24.6928      Y125.1406     R1.5000    
   X24.3255      Y125.2699     R1.5000    
(Pass: 6)
G1   Z-3.000     F500 
G17 G2   X24.0043      Y125.4897     R1.5000     F800 
   X23.7508      Y125.7853     R1.5000    
   X23.5825      Y126.1364     R1.5000    
   X23.5108      Y126.5190     R1.5000    
   X23.5406      Y126.9072     R1.5000    
   X23.6699      Y127.2745     R1.5000    
   X23.8897      Y127.5957     R1.5000    
   X24.1853      Y127.8492     R1.5000    
   X24.5364      Y128.0175     R1.5000    
   X24.9190      Y128.0892     R1.5000    
   X25.3072      Y128.0594     R1.5000    
   X25.6745      Y127.9301     R1.5000    
   X25.9957      Y127.7103     R1.5000    
   X26.2492      Y127.4147     R1.5000    
   X26.4175      Y127.0636     R1.5000    
   X26.4892      Y126.6810     R1.5000    
   X26.4594      Y126.2928     R1.5000    
   X26.3301      Y125.9255     R1.5000    
   X26.1103      Y125.6043     R1.5000    
   X25.8147      Y125.3508     R1.5000    
   X25.4636      Y125.1825     R1.5000    
   X25.0810      Y125.1108     R1.5000    
   X24.6928      Y125.1406     R1.5000    
   X24.3255      Y125.2699     R1.5000    
(Pass: 7)
G1   Z-3.500     F500 
G17 G2   X24.0043      Y125.4897     R1.5000     F800 
   X23.7508      Y125.7853     R1.5000    
   X23.5825      Y126.1364     R1.5000    
   X23.5108      Y126.5190     R1.5000    
   X23.5406      Y126.9072     R1.5000    
   X23.6699      Y127.2745     R1.5000    
   X23.8897      Y127.5957     R1.5000    
   X24.1853      Y127.8492     R1.5000    
   X24.5364      Y128.0175     R1.5000    
   X24.9190      Y128.0892     R1.5000    
   X25.3072      Y128.0594     R1.5000    
   X25.6745      Y127.9301     R1.5000    
   X25.9957      Y127.7103     R1.5000    
   X26.2492      Y127.4147     R1.5000    
   X26.4175      Y127.0636     R1.5000    
   X26.4892      Y126.6810     R1.5000    
   X26.4594      Y126.2928     R1.5000    
   X26.3301      Y125.9255     R1.5000    
   X26.1103      Y125.6043     R1.5000    
   X25.8147      Y125.3508     R1.5000    
   X25.4636      Y125.1825     R1.5000    
   X25.0810      Y125.1108     R1.5000    
   X24.6928      Y125.1406     R1.5000    
   X24.3255      Y125.2699     R1.5000    
G0   Z5.000     
(Pass: 1)
   X43.545       Y126.271   
G1   Z-0.500     F500 
G17 G2   X43.5098      Y126.6590     R1.5000     F800 
   X43.5759      Y127.0427     R1.5000    
   X43.7390      Y127.3962     R1.5000    
   X43.9880      Y127.6955     R1.5000    
   X44.3060      Y127.9201     R1.5000    
   X44.6713      Y128.0547     R1.5000    
   X45.0590      Y128.0902     R1.5000    
   X45.4427      Y128.0241     R1.5000    
   X45.7962      Y127.8610     R1.5000    
   X46.0955      Y127.6120     R1.5000    
   X46.3201      Y127.2940     R1.5000    
   X46.4547      Y126.9287     R1.5000    
   X46.4902      Y126.5410     R1.5000    
   X46.4241      Y126.1573     R1.5000    
   X46.2610      Y125.8038     R1.5000    
   X46.0120      Y125.5045     R1.5000    
   X45.6940      Y125.2799     R1.5000    
   X45.3287      Y125.1453     R1.5000    
   X44.9410      Y125.1098     R1.5000    
   X44.5573      Y125.1759     R1.5000    
   X44.2038      Y125.3390     R1.5000    
   X43.9045      Y125.5880     R1.5000    
   X43.6799      Y125.9060     R1.5000    
   X43.5453      Y126.2713     R1.5000    
(Pass: 2)
G1   Z-1.000     F500 
G17 G2   X43.5098      Y126.6590     R1.5000     F800 
   X43.5759      Y127.0427     R1.5000    
   X43.7390      Y127.3962     R1.5000    
   X43.9880      Y127.6955     R1.5000    
   X44.3060      Y127.9201     R1.5000    
   X44.6713      Y128.0547     R1.5000    
   X45.0590      Y128.0902     R1.5000    
   X45.4427      Y128.0241     R1.5000    
   X45.7962      Y127.8610     R1.5000    
   X46.0955      Y127.6120     R1.5000    
   X46.3201      Y127.2940     R1.5000    
   X46.4547      Y126.9287     R1.5000    
   X46.4902      Y126.5410     R1.5000    
   X46.4241      Y126.1573     R1.5000    
   X46.2610      Y125.8038     R1.5000    
   X46.0120      Y125.5045     R1.5000    
   X45.6940      Y125.2799     R1.5000    
   X45.3287      Y125.1453     R1.5000    
   X44.9410      Y125.1098     R1.5000    
   X44.5573      Y125.1759     R1.5000    
   X44.2038      Y125.3390     R1.5000    
   X43.9045      Y125.5880     R1.5000    
   X43.6799      Y125.9060     R1.5000    
   X43.5453      Y126.2713     R1.5000    
(Pass: 3)
G1   Z-1.500     F500 
G17 G2   X43.5098      Y126.6590     R1.5000     F800 
   X43.5759      Y127.0427     R1.5000    
   X43.7390      Y127.3962     R1.5000    
   X43.9880      Y127.6955     R1.5000    
   X44.3060      Y127.9201     R1.5000    
   X44.6713      Y128.0547     R1.5000    
   X45.0590      Y128.0902     R1.5000    
   X45.4427      Y128.0241     R1.5000    
   X45.7962      Y127.8610     R1.5000    
   X46.0955      Y127.6120     R1.5000    
   X46.3201      Y127.2940     R1.5000    
   X46.4547      Y126.9287     R1.5000    
   X46.4902      Y126.5410     R1.5000    
   X46.4241      Y126.1573     R1.5000    
   X46.2610      Y125.8038     R1.5000    
   X46.0120      Y125.5045     R1.5000    
   X45.6940      Y125.2799     R1.5000    
   X45.3287      Y125.1453     R1.5000    
   X44.9410      Y125.1098     R1.5000    
   X44.5573      Y125.1759     R1.5000    
   X44.2038      Y125.3390     R1.5000    
   X43.9045      Y125.5880     R1.5000    
   X43.6799      Y125.9060     R1.5000    
   X43.5453      Y126.2713     R1.5000    
(Pass: 4)
G1   Z-2.000     F500 
G17 G2   X43.5098      Y126.6590     R1.5000     F800 
   X43.5759      Y127.0427     R1.5000    
   X43.7390      Y127.3962     R1.5000    
   X43.9880      Y127.6955     R1.5000    
   X44.3060      Y127.9201     R1.5000    
   X44.6713      Y128.0547     R1.5000    
   X45.0590      Y128.0902     R1.5000    
   X45.4427      Y128.0241     R1.5000    
   X45.7962      Y127.8610     R1.5000    
   X46.0955      Y127.6120     R1.5000    
   X46.3201      Y127.2940     R1.5000    
   X46.4547      Y126.9287     R1.5000    
   X46.4902      Y126.5410     R1.5000    
   X46.4241      Y126.1573     R1.5000    
   X46.2610      Y125.8038     R1.5000    
   X46.0120      Y125.5045     R1.5000    
   X45.6940      Y125.2799     R1.5000    
   X45.3287      Y125.1453     R1.5000    
   X44.9410      Y125.1098     R1.5000    
   X44.5573      Y125.1759     R1.5000    
   X44.2038      Y125.3390     R1.5000    
   X43.9045      Y125.5880     R1.5000    
   X43.6799      Y125.9060     R1.5000    
   X43.5453      Y126.2713     R1.5000    
(Pass: 5)
G1   Z-2.500     F500 
G17 G2   X43.5098      Y126.6590     R1.5000     F800 
   X43.5759      Y127.0427     R1.5000    
   X43.7390      Y127.3962     R1.5000    
   X43.9880      Y127.6955     R1.5000    
   X44.3060      Y127.9201     R1.5000    
   X44.6713      Y128.0547     R1.5000    
   X45.0590      Y128.0902     R1.5000    
   X45.4427      Y128.0241     R1.5000    
   X45.7962      Y127.8610     R1.5000    
   X46.0955      Y127.6120     R1.5000    
   X46.3201      Y127.2940     R1.5000    
   X46.4547      Y126.9287     R1.5000    
   X46.4902      Y126.5410     R1.5000    
   X46.4241      Y126.1573     R1.5000    
   X46.2610      Y125.8038     R1.5000    
   X46.0120      Y125.5045     R1.5000    
   X45.6940      Y125.2799     R1.5000    
   X45.3287      Y125.1453     R1.5000    
   X44.9410      Y125.1098     R1.5000    
   X44.5573      Y125.1759     R1.5000    
   X44.2038      Y125.3390     R1.5000    
   X43.9045      Y125.5880     R1.5000    
   X43.6799      Y125.9060     R1.5000    
   X43.5453      Y126.2713     R1.5000    
(Pass: 6)
G1   Z-3.000     F500 
G17 G2   X43.5098      Y126.6590     R1.5000     F800 
   X43.5759      Y127.0427     R1.5000    
   X43.7390      Y127.3962     R1.5000    
   X43.9880      Y127.6955     R1.5000    
   X44.3060      Y127.9201     R1.5000    
   X44.6713      Y128.0547     R1.5000    
   X45.0590      Y128.0902     R1.5000    
   X45.4427      Y128.0241     R1.5000    
   X45.7962      Y127.8610     R1.5000    
   X46.0955      Y127.6120     R1.5000    
   X46.3201      Y127.2940     R1.5000    
   X46.4547      Y126.9287     R1.5000    
   X46.4902      Y126.5410     R1.5000    
   X46.4241      Y126.1573     R1.5000    
   X46.2610      Y125.8038     R1.5000    
   X46.0120      Y125.5045     R1.5000    
   X45.6940      Y125.2799     R1.5000    
   X45.3287      Y125.1453     R1.5000    
   X44.9410      Y125.1098     R1.5000    
   X44.5573      Y125.1759     R1.5000    
   X44.2038      Y125.3390     R1.5000    
   X43.9045      Y125.5880     R1.5000    
   X43.6799      Y125.9060     R1.5000    
   X43.5453      Y126.2713     R1.5000    
(Pass: 7)
G1   Z-3.500     F500 
G17 G2   X43.5098      Y126.6590     R1.5000     F800 
   X43.5759      Y127.0427     R1.5000    
   X43.7390      Y127.3962     R1.5000    
   X43.9880      Y127.6955     R1.5000    
   X44.3060      Y127.9201     R1.5000    
   X44.6713      Y128.0547     R1.5000    
   X45.0590      Y128.0902     R1.5000    
   X45.4427      Y128.0241     R1.5000    
   X45.7962      Y127.8610     R1.5000    
   X46.0955      Y127.6120     R1.5000    
   X46.3201      Y127.2940     R1.5000    
   X46.4547      Y126.9287     R1.5000    
   X46.4902      Y126.5410     R1.5000    
   X46.4241      Y126.1573     R1.5000    
   X46.2610      Y125.8038     R1.5000    
   X46.0120      Y125.5045     R1.5000    
   X45.6940      Y125.2799     R1.5000    
   X45.3287      Y125.1453     R1.5000    
   X44.9410      Y125.1098     R1.5000    
   X44.5573      Y125.1759     R1.5000    
   X44.2038      Y125.3390     R1.5000    
   X43.9045      Y125.5880     R1.5000    
   X43.6799      Y125.9060     R1.5000    
   X43.5453      Y126.2713     R1.5000    
G0   Z5.000     
(Pass: 1)
   X63.509       Y126.601   
G1   Z-0.500     F500 
G17 G2   X63.5598      Y126.9872     R1.5000     F800 
   X63.7091      Y127.3468     R1.5000    
   X63.9463      Y127.6554     R1.5000    
   X64.2554      Y127.8922     R1.5000    
   X64.6152      Y128.0409     R1.5000    
   X65.0012      Y128.0914     R1.5000    
   X65.3872      Y128.0402     R1.5000    
   X65.7468      Y127.8909     R1.5000    
   X66.0554      Y127.6537     R1.5000    
   X66.2922      Y127.3446     R1.5000    
   X66.4409      Y126.9848     R1.5000    
   X66.4914      Y126.5988     R1.5000    
   X66.4402      Y126.2128     R1.5000    
   X66.2909      Y125.8532     R1.5000    
   X66.0537      Y125.5446     R1.5000    
   X65.7446      Y125.3078     R1.5000    
   X65.3848      Y125.1591     R1.5000    
   X64.9988      Y125.1086     R1.5000    
   X64.6128      Y125.1598     R1.5000    
   X64.2532      Y125.3091     R1.5000    
   X63.9446      Y125.5463     R1.5000    
   X63.7078      Y125.8554     R1.5000    
   X63.5591      Y126.2152     R1.5000    
   X63.5086      Y126.6012     R1.5000    
(Pass: 2)
G1   Z-1.000     F500 
G17 G2   X63.5598      Y126.9872     R1.5000     F800 
   X63.7091      Y127.3468     R1.5000    
   X63.9463      Y127.6554     R1.5000    
   X64.2554      Y127.8922     R1.5000    
   X64.6152      Y128.0409     R1.5000    
   X65.0012      Y128.0914     R1.5000    
   X65.3872      Y128.0402     R1.5000    
   X65.7468      Y127.8909     R1.5000    
   X66.0554      Y127.6537     R1.5000    
   X66.2922      Y127.3446     R1.5000    
   X66.4409      Y126.9848     R1.5000    
   X66.4914      Y126.5988     R1.5000    
   X66.4402      Y126.2128     R1.5000    
   X66.2909      Y125.8532     R1.5000    
   X66.0537      Y125.5446     R1.5000    
   X65.7446      Y125.3078     R1.5000    
   X65.3848      Y125.1591     R1.5000    
   X64.9988      Y125.1086     R1.5000    
   X64.6128      Y125.1598     R1.5000    
   X64.2532      Y125.3091     R1.5000    
   X63.9446      Y125.5463     R1.5000    
   X63.7078      Y125.8554     R1.5000    
   X63.5591      Y126.2152     R1.5000    
   X63.5086      Y126.6012     R1.5000    
(Pass: 3)
G1   Z-1.500     F500 
G17 G2   X63.5598      Y126.9872     R1.5000     F800 
   X63.7091      Y127.3468     R1.5000    
   X63.9463      Y127.6554     R1.5000    
   X64.2554      Y127.8922     R1.5000    
   X64.6152      Y128.0409     R1.5000    
   X65.0012      Y128.0914     R1.5000    
   X65.3872      Y128.0402     R1.5000    
   X65.7468      Y127.8909     R1.5000    
   X66.0554      Y127.6537     R1.5000    
   X66.2922      Y127.3446     R1.5000    
   X66.4409      Y126.9848     R1.5000    
   X66.4914      Y126.5988     R1.5000    
   X66.4402      Y126.2128     R1.5000    
   X66.2909      Y125.8532     R1.5000    
   X66.0537      Y125.5446     R1.5000    
   X65.7446      Y125.3078     R1.5000    
   X65.3848      Y125.1591     R1.5000    
   X64.9988      Y125.1086     R1.5000    
   X64.6128      Y125.1598     R1.5000    
   X64.2532      Y125.3091     R1.5000    
   X63.9446      Y125.5463     R1.5000    
   X63.7078      Y125.8554     R1.5000    
   X63.5591      Y126.2152     R1.5000    
   X63.5086      Y126.6012     R1.5000    
(Pass: 4)
G1   Z-2.000     F500 
G17 G2   X63.5598      Y126.9872     R1.5000     F800 
   X63.7091      Y127.3468     R1.5000    
   X63.9463      Y127.6554     R1.5000    
   X64.2554      Y127.8922     R1.5000    
   X64.6152      Y128.0409     R1.5000    
   X65.0012      Y128.0914     R1.5000    
   X65.3872      Y128.0402     R1.5000    
   X65.7468      Y127.8909     R1.5000    
   X66.0554      Y127.6537     R1.5000    
   X66.2922      Y127.3446     R1.5000    
   X66.4409      Y126.9848     R1.5000    
   X66.4914      Y126.5988     R1.5000    
   X66.4402      Y126.2128     R1.5000    
   X66.2909      Y125.8532     R1.5000    
   X66.0537      Y125.5446     R1.5000    
   X65.7446      Y125.3078     R1.5000    
   X65.3848      Y125.1591     R1.5000    
   X64.9988      Y125.1086     R1.5000    
   X64.6128      Y125.1598     R1.5000    
   X64.2532      Y125.3091     R1.5000    
   X63.9446      Y125.5463     R1.5000    
   X63.7078      Y125.8554     R1.5000    
   X63.5591      Y126.2152     R1.5000    
   X63.5086      Y126.6012     R1.5000    
(Pass: 5)
G1   Z-2.500     F500 
G17 G2   X63.5598      Y126.9872     R1.5000     F800 
   X63.7091      Y127.3468     R1.5000    
   X63.9463      Y127.6554     R1.5000    
   X64.2554      Y127.8922     R1.5000    
   X64.6152      Y128.0409     R1.5000    
   X65.0012      Y128.0914     R1.5000    
   X65.3872      Y128.0402     R1.5000    
   X65.7468      Y127.8909     R1.5000    
   X66.0554      Y127.6537     R1.5000    
   X66.2922      Y127.3446     R1.5000    
   X66.4409      Y126.9848     R1.5000    
   X66.4914      Y126.5988     R1.5000    
   X66.4402      Y126.2128     R1.5000    
   X66.2909      Y125.8532     R1.5000    
   X66.0537      Y125.5446     R1.5000    
   X65.7446      Y125.3078     R1.5000    
   X65.3848      Y125.1591     R1.5000    
   X64.9988      Y125.1086     R1.5000    
   X64.6128      Y125.1598     R1.5000    
   X64.2532      Y125.3091     R1.5000    
   X63.9446      Y125.5463     R1.5000    
   X63.7078      Y125.8554     R1.5000    
   X63.5591      Y126.2152     R1.5000    
   X63.5086      Y126.6012     R1.5000    
(Pass: 6)
G1   Z-3.000     F500 
G17 G2   X63.5598      Y126.9872     R1.5000     F800 
   X63.7091      Y127.3468     R1.5000    
   X63.9463      Y127.6554     R1.5000    
   X64.2554      Y127.8922     R1.5000    
   X64.6152      Y128.0409     R1.5000    
   X65.0012      Y128.0914     R1.5000    
   X65.3872      Y128.0402     R1.5000    
   X65.7468      Y127.8909     R1.5000    
   X66.0554      Y127.6537     R1.5000    
   X66.2922      Y127.3446     R1.5000    
   X66.4409      Y126.9848     R1.5000    
   X66.4914      Y126.5988     R1.5000    
   X66.4402      Y126.2128     R1.5000    
   X66.2909      Y125.8532     R1.5000    
   X66.0537      Y125.5446     R1.5000    
   X65.7446      Y125.3078     R1.5000    
   X65.3848      Y125.1591     R1.5000    
   X64.9988      Y125.1086     R1.5000    
   X64.6128      Y125.1598     R1.5000    
   X64.2532      Y125.3091     R1.5000    
   X63.9446      Y125.5463     R1.5000    
   X63.7078      Y125.8554     R1.5000    
   X63.5591      Y126.2152     R1.5000    
   X63.5086      Y126.6012     R1.5000    
(Pass: 7)
G1   Z-3.500     F500 
G17 G2   X63.5598      Y126.9872     R1.5000     F800 
   X63.7091      Y127.3468     R1.5000    
   X63.9463      Y127.6554     R1.5000    
   X64.2554      Y127.8922     R1.5000    
   X64.6152      Y128.0409     R1.5000    
   X65.0012      Y128.0914     R1.5000    
   X65.3872      Y128.0402     R1.5000    
   X65.7468      Y127.8909     R1.5000    
   X66.0554      Y127.6537     R1.5000    
   X66.2922      Y127.3446     R1.5000    
   X66.4409      Y126.9848     R1.5000    
   X66.4914      Y126.5988     R1.5000    
   X66.4402      Y126.2128     R1.5000    
   X66.2909      Y125.8532     R1.5000    
   X66.0537      Y125.5446     R1.5000    
   X65.7446      Y125.3078     R1.5000    
   X65.3848      Y125.1591     R1.5000    
   X64.9988      Y125.1086     R1.5000    
   X64.6128      Y125.1598     R1.5000    
   X64.2532      Y125.3091     R1.5000    
   X63.9446      Y125.5463     R1.5000    
   X63.7078      Y125.8554     R1.5000    
   X63.5591      Y126.2152     R1.5000    
   X63.5086      Y126.6012     R1.5000    
G0   Z5.000     
(Pass: 1)
   X111.374      Y107.876   
G1   Z-0.500     F500 
G17 G2   X111.4043     Y107.9313     R0.2500     F800 
   X111.4476     Y107.9771     R0.2500    
   X111.5012     Y108.0102     R0.2500    
   X111.5616     Y108.0283     R0.2500    
   X111.6245     Y108.0301     R0.2500    
   X111.6859     Y108.0156     R0.2500    
   X111.7413     Y107.9857     R0.2500    
   X111.7871     Y107.9424     R0.2500    
   X111.8202     Y107.8888     R0.2500    
   X111.8383     Y107.8284     R0.2500    
   X111.8401     Y107.7655     R0.2500    
   X111.8256     Y107.7041     R0.2500    
   X111.7957     Y107.6487     R0.2500    
   X111.7524     Y107.6029     R0.2500    
   X111.6988     Y107.5698     R0.2500    
   X111.6384     Y107.5517     R0.2500    
   X111.5755     Y107.5499     R0.2500    
   X111.5141     Y107.5644     R0.2500    
   X111.4587     Y107.5943     R0.2500    
   X111.4129     Y107.6376     R0.2500    
   X111.3798     Y107.6912     R0.2500    
   X111.3617     Y107.7516     R0.2500    
   X111.3599     Y107.8145     R0.2500    
   X111.3744     Y107.8759     R0.2500    
(Pass: 2)
G1   Z-1.000     F500 
G17 G2   X111.4043     Y107.9313     R0.2500     F800 
   X111.4476     Y107.9771     R0.2500    
   X111.5012     Y108.0102     R0.2500    
   X111.5616     Y108.0283     R0.2500    
   X111.6245     Y108.0301     R0.2500    
   X111.6859     Y108.0156     R0.2500    
   X111.7413     Y107.9857     R0.2500    
   X111.7871     Y107.9424     R0.2500    
   X111.8202     Y107.8888     R0.2500    
   X111.8383     Y107.8284     R0.2500    
   X111.8401     Y107.7655     R0.2500    
   X111.8256     Y107.7041     R0.2500    
   X111.7957     Y107.6487     R0.2500    
   X111.7524     Y107.6029     R0.2500    
   X111.6988     Y107.5698     R0.2500    
   X111.6384     Y107.5517     R0.2500    
   X111.5755     Y107.5499     R0.2500    
   X111.5141     Y107.5644     R0.2500    
   X111.4587     Y107.5943     R0.2500    
   X111.4129     Y107.6376     R0.2500    
   X111.3798     Y107.6912     R0.2500    
   X111.3617     Y107.7516     R0.2500    
   X111.3599     Y107.8145     R0.2500    
   X111.3744     Y107.8759     R0.2500    
(Pass: 3)
G1   Z-1.500     F500 
G17 G2   X111.4043     Y107.9313     R0.2500     F800 
   X111.4476     Y107.9771     R0.2500    
   X111.5012     Y108.0102     R0.2500    
   X111.5616     Y108.0283     R0.2500    
   X111.6245     Y108.0301     R0.2500    
   X111.6859     Y108.0156     R0.2500    
   X111.7413     Y107.9857     R0.2500    
   X111.7871     Y107.9424     R0.2500    
   X111.8202     Y107.8888     R0.2500    
   X111.8383     Y107.8284     R0.2500    
   X111.8401     Y107.7655     R0.2500    
   X111.8256     Y107.7041     R0.2500    
   X111.7957     Y107.6487     R0.2500    
   X111.7524     Y107.6029     R0.2500    
   X111.6988     Y107.5698     R0.2500    
   X111.6384     Y107.5517     R0.2500    
   X111.5755     Y107.5499     R0.2500    
   X111.5141     Y107.5644     R0.2500    
   X111.4587     Y107.5943     R0.2500    
   X111.4129     Y107.6376     R0.2500    
   X111.3798     Y107.6912     R0.2500    
   X111.3617     Y107.7516     R0.2500    
   X111.3599     Y107.8145     R0.2500    
   X111.3744     Y107.8759     R0.2500    
(Pass: 4)
G1   Z-2.000     F500 
G17 G2   X111.4043     Y107.9313     R0.2500     F800 
   X111.4476     Y107.9771     R0.2500    
   X111.5012     Y108.0102     R0.2500    
   X111.5616     Y108.0283     R0.2500    
   X111.6245     Y108.0301     R0.2500    
   X111.6859     Y108.0156     R0.2500    
   X111.7413     Y107.9857     R0.2500    
   X111.7871     Y107.9424     R0.2500    
   X111.8202     Y107.8888     R0.2500    
   X111.8383     Y107.8284     R0.2500    
   X111.8401     Y107.7655     R0.2500    
   X111.8256     Y107.7041     R0.2500    
   X111.7957     Y107.6487     R0.2500    
   X111.7524     Y107.6029     R0.2500    
   X111.6988     Y107.5698     R0.2500    
   X111.6384     Y107.5517     R0.2500    
   X111.5755     Y107.5499     R0.2500    
   X111.5141     Y107.5644     R0.2500    
   X111.4587     Y107.5943     R0.2500    
   X111.4129     Y107.6376     R0.2500    
   X111.3798     Y107.6912     R0.2500    
   X111.3617     Y107.7516     R0.2500    
   X111.3599     Y107.8145     R0.2500    
   X111.3744     Y107.8759     R0.2500    
(Pass: 5)
G1   Z-2.500     F500 
G17 G2   X111.4043     Y107.9313     R0.2500     F800 
   X111.4476     Y107.9771     R0.2500    
   X111.5012     Y108.0102     R0.2500    
   X111.5616     Y108.0283     R0.2500    
   X111.6245     Y108.0301     R0.2500    
   X111.6859     Y108.0156     R0.2500    
   X111.7413     Y107.9857     R0.2500    
   X111.7871     Y107.9424     R0.2500    
   X111.8202     Y107.8888     R0.2500    
   X111.8383     Y107.8284     R0.2500    
   X111.8401     Y107.7655     R0.2500    
   X111.8256     Y107.7041     R0.2500    
   X111.7957     Y107.6487     R0.2500    
   X111.7524     Y107.6029     R0.2500    
   X111.6988     Y107.5698     R0.2500    
   X111.6384     Y107.5517     R0.2500    
   X111.5755     Y107.5499     R0.2500    
   X111.5141     Y107.5644     R0.2500    
   X111.4587     Y107.5943     R0.2500    
   X111.4129     Y107.6376     R0.2500    
   X111.3798     Y107.6912     R0.2500    
   X111.3617     Y107.7516     R0.2500    
   X111.3599     Y107.8145     R0.2500    
   X111.3744     Y107.8759     R0.2500    
(Pass: 6)
G1   Z-3.000     F500 
G17 G2   X111.4043     Y107.9313     R0.2500     F800 
   X111.4476     Y107.9771     R0.2500    
   X111.5012     Y108.0102     R0.2500    
   X111.5616     Y108.0283     R0.2500    
   X111.6245     Y108.0301     R0.2500    
   X111.6859     Y108.0156     R0.2500    
   X111.7413     Y107.9857     R0.2500    
   X111.7871     Y107.9424     R0.2500    
   X111.8202     Y107.8888     R0.2500    
   X111.8383     Y107.8284     R0.2500    
   X111.8401     Y107.7655     R0.2500    
   X111.8256     Y107.7041     R0.2500    
   X111.7957     Y107.6487     R0.2500    
   X111.7524     Y107.6029     R0.2500    
   X111.6988     Y107.5698     R0.2500    
   X111.6384     Y107.5517     R0.2500    
   X111.5755     Y107.5499     R0.2500    
   X111.5141     Y107.5644     R0.2500    
   X111.4587     Y107.5943     R0.2500    
   X111.4129     Y107.6376     R0.2500    
   X111.3798     Y107.6912     R0.2500    
   X111.3617     Y107.7516     R0.2500    
   X111.3599     Y107.8145     R0.2500    
   X111.3744     Y107.8759     R0.2500    
(Pass: 7)
G1   Z-3.500     F500 
G17 G2   X111.4043     Y107.9313     R0.2500     F800 
   X111.4476     Y107.9771     R0.2500    
   X111.5012     Y108.0102     R0.2500    
   X111.5616     Y108.0283     R0.2500    
   X111.6245     Y108.0301     R0.2500    
   X111.6859     Y108.0156     R0.2500    
   X111.7413     Y107.9857     R0.2500    
   X111.7871     Y107.9424     R0.2500    
   X111.8202     Y107.8888     R0.2500    
   X111.8383     Y107.8284     R0.2500    
   X111.8401     Y107.7655     R0.2500    
   X111.8256     Y107.7041     R0.2500    
   X111.7957     Y107.6487     R0.2500    
   X111.7524     Y107.6029     R0.2500    
   X111.6988     Y107.5698     R0.2500    
   X111.6384     Y107.5517     R0.2500    
   X111.5755     Y107.5499     R0.2500    
   X111.5141     Y107.5644     R0.2500    
   X111.4587     Y107.5943     R0.2500    
   X111.4129     Y107.6376     R0.2500    
   X111.3798     Y107.6912     R0.2500    
   X111.3617     Y107.7516     R0.2500    
   X111.3599     Y107.8145     R0.2500    
   X111.3744     Y107.8759     R0.2500    
G0   Z5.000     
(Pass: 1)
   X121.410      Y114.100   
G1   Z-0.500     F500 
   Y115.600    F800 
   X164.410   
   Y114.100   
   X121.410   
(Pass: 2)
   Z-1.000     F500 
   Y115.600    F800 
   X164.410   
   Y114.100   
   X121.410   
(Pass: 3)
   Z-1.500     F500 
   Y115.600    F800 
   X164.410   
   Y114.100   
   X121.410   
(Pass: 4)
   Z-2.000     F500 
   Y115.600    F800 
   X164.410   
   Y114.100   
   X121.410   
(Pass: 5)
   Z-2.500     F500 
   Y115.600    F800 
   X164.410   
   Y114.100   
   X121.410   
(Pass: 6)
   Z-3.000     F500 
   Y115.600    F800 
   X164.410   
   Y114.100   
   X121.410   
(Pass: 7)
   Z-3.500     F500 
   Y115.600    F800 
   X164.410   
   Y114.100   
   X121.410   
G0   Z5.000     
(Pass: 1)
   X92.786       Y75.529    
G1   Z-0.500     F500 
G17 G2   X92.8427      Y75.5016      R0.2500     F800 
   X92.8903      Y75.4604      R0.2500    
   X92.9257      Y75.4083      R0.2500    
   X92.9464      Y75.3488      R0.2500    
   X92.9510      Y75.2859      R0.2500    
   X92.9391      Y75.2240      R0.2500    
   X92.9116      Y75.1673      R0.2500    
   X92.8704      Y75.1197      R0.2500    
   X92.8183      Y75.0843      R0.2500    
   X92.7588      Y75.0636      R0.2500    
   X92.6959      Y75.0590      R0.2500    
   X92.6340      Y75.0709      R0.2500    
   X92.5773      Y75.0984      R0.2500    
   X92.5297      Y75.1396      R0.2500    
   X92.4943      Y75.1917      R0.2500    
   X92.4736      Y75.2512      R0.2500    
   X92.4690      Y75.3141      R0.2500    
   X92.4809      Y75.3760      R0.2500    
   X92.5084      Y75.4327      R0.2500    
   X92.5496      Y75.4803      R0.2500    
   X92.6017      Y75.5157      R0.2500    
   X92.6612      Y75.5364      R0.2500    
   X92.7241      Y75.5410      R0.2500    
   X92.7860      Y75.5291      R0.2500    
(Pass: 2)
G1   Z-1.000     F500 
G17 G2   X92.8427      Y75.5016      R0.2500     F800 
   X92.8903      Y75.4604      R0.2500    
   X92.9257      Y75.4083      R0.2500    
   X92.9464      Y75.3488      R0.2500    
   X92.9510      Y75.2859      R0.2500    
   X92.9391      Y75.2240      R0.2500    
   X92.9116      Y75.1673      R0.2500    
   X92.8704      Y75.1197      R0.2500    
   X92.8183      Y75.0843      R0.2500    
   X92.7588      Y75.0636      R0.2500    
   X92.6959      Y75.0590      R0.2500    
   X92.6340      Y75.0709      R0.2500    
   X92.5773      Y75.0984      R0.2500    
   X92.5297      Y75.1396      R0.2500    
   X92.4943      Y75.1917      R0.2500    
   X92.4736      Y75.2512      R0.2500    
   X92.4690      Y75.3141      R0.2500    
   X92.4809      Y75.3760      R0.2500    
   X92.5084      Y75.4327      R0.2500    
   X92.5496      Y75.4803      R0.2500    
   X92.6017      Y75.5157      R0.2500    
   X92.6612      Y75.5364      R0.2500    
   X92.7241      Y75.5410      R0.2500    
   X92.7860      Y75.5291      R0.2500    
(Pass: 3)
G1   Z-1.500     F500 
G17 G2   X92.8427      Y75.5016      R0.2500     F800 
   X92.8903      Y75.4604      R0.2500    
   X92.9257      Y75.4083      R0.2500    
   X92.9464      Y75.3488      R0.2500    
   X92.9510      Y75.2859      R0.2500    
   X92.9391      Y75.2240      R0.2500    
   X92.9116      Y75.1673      R0.2500    
   X92.8704      Y75.1197      R0.2500    
   X92.8183      Y75.0843      R0.2500    
   X92.7588      Y75.0636      R0.2500    
   X92.6959      Y75.0590      R0.2500    
   X92.6340      Y75.0709      R0.2500    
   X92.5773      Y75.0984      R0.2500    
   X92.5297      Y75.1396      R0.2500    
   X92.4943      Y75.1917      R0.2500    
   X92.4736      Y75.2512      R0.2500    
   X92.4690      Y75.3141      R0.2500    
   X92.4809      Y75.3760      R0.2500    
   X92.5084      Y75.4327      R0.2500    
   X92.5496      Y75.4803      R0.2500    
   X92.6017      Y75.5157      R0.2500    
   X92.6612      Y75.5364      R0.2500    
   X92.7241      Y75.5410      R0.2500    
   X92.7860      Y75.5291      R0.2500    
(Pass: 4)
G1   Z-2.000     F500 
G17 G2   X92.8427      Y75.5016      R0.2500     F800 
   X92.8903      Y75.4604      R0.2500    
   X92.9257      Y75.4083      R0.2500    
   X92.9464      Y75.3488      R0.2500    
   X92.9510      Y75.2859      R0.2500    
   X92.9391      Y75.2240      R0.2500    
   X92.9116      Y75.1673      R0.2500    
   X92.8704      Y75.1197      R0.2500    
   X92.8183      Y75.0843      R0.2500    
   X92.7588      Y75.0636      R0.2500    
   X92.6959      Y75.0590      R0.2500    
   X92.6340      Y75.0709      R0.2500    
   X92.5773      Y75.0984      R0.2500    
   X92.5297      Y75.1396      R0.2500    
   X92.4943      Y75.1917      R0.2500    
   X92.4736      Y75.2512      R0.2500    
   X92.4690      Y75.3141      R0.2500    
   X92.4809      Y75.3760      R0.2500    
   X92.5084      Y75.4327      R0.2500    
   X92.5496      Y75.4803      R0.2500    
   X92.6017      Y75.5157      R0.2500    
   X92.6612      Y75.5364      R0.2500    
   X92.7241      Y75.5410      R0.2500    
   X92.7860      Y75.5291      R0.2500    
(Pass: 5)
G1   Z-2.500     F500 
G17 G2   X92.8427      Y75.5016      R0.2500     F800 
   X92.8903      Y75.4604      R0.2500    
   X92.9257      Y75.4083      R0.2500    
   X92.9464      Y75.3488      R0.2500    
   X92.9510      Y75.2859      R0.2500    
   X92.9391      Y75.2240      R0.2500    
   X92.9116      Y75.1673      R0.2500    
   X92.8704      Y75.1197      R0.2500    
   X92.8183      Y75.0843      R0.2500    
   X92.7588      Y75.0636      R0.2500    
   X92.6959      Y75.0590      R0.2500    
   X92.6340      Y75.0709      R0.2500    
   X92.5773      Y75.0984      R0.2500    
   X92.5297      Y75.1396      R0.2500    
   X92.4943      Y75.1917      R0.2500    
   X92.4736      Y75.2512      R0.2500    
   X92.4690      Y75.3141      R0.2500    
   X92.4809      Y75.3760      R0.2500    
   X92.5084      Y75.4327      R0.2500    
   X92.5496      Y75.4803      R0.2500    
   X92.6017      Y75.5157      R0.2500    
   X92.6612      Y75.5364      R0.2500    
   X92.7241      Y75.5410      R0.2500    
   X92.7860      Y75.5291      R0.2500    
(Pass: 6)
G1   Z-3.000     F500 
G17 G2   X92.8427      Y75.5016      R0.2500     F800 
   X92.8903      Y75.4604      R0.2500    
   X92.9257      Y75.4083      R0.2500    
   X92.9464      Y75.3488      R0.2500    
   X92.9510      Y75.2859      R0.2500    
   X92.9391      Y75.2240      R0.2500    
   X92.9116      Y75.1673      R0.2500    
   X92.8704      Y75.1197      R0.2500    
   X92.8183      Y75.0843      R0.2500    
   X92.7588      Y75.0636      R0.2500    
   X92.6959      Y75.0590      R0.2500    
   X92.6340      Y75.0709      R0.2500    
   X92.5773      Y75.0984      R0.2500    
   X92.5297      Y75.1396      R0.2500    
   X92.4943      Y75.1917      R0.2500    
   X92.4736      Y75.2512      R0.2500    
   X92.4690      Y75.3141      R0.2500    
   X92.4809      Y75.3760      R0.2500    
   X92.5084      Y75.4327      R0.2500    
   X92.5496      Y75.4803      R0.2500    
   X92.6017      Y75.5157      R0.2500    
   X92.6612      Y75.5364      R0.2500    
   X92.7241      Y75.5410      R0.2500    
   X92.7860      Y75.5291      R0.2500    
(Pass: 7)
G1   Z-3.500     F500 
G17 G2   X92.8427      Y75.5016      R0.2500     F800 
   X92.8903      Y75.4604      R0.2500    
   X92.9257      Y75.4083      R0.2500    
   X92.9464      Y75.3488      R0.2500    
   X92.9510      Y75.2859      R0.2500    
   X92.9391      Y75.2240      R0.2500    
   X92.9116      Y75.1673      R0.2500    
   X92.8704      Y75.1197      R0.2500    
   X92.8183      Y75.0843      R0.2500    
   X92.7588      Y75.0636      R0.2500    
   X92.6959      Y75.0590      R0.2500    
   X92.6340      Y75.0709      R0.2500    
   X92.5773      Y75.0984      R0.2500    
   X92.5297      Y75.1396      R0.2500    
   X92.4943      Y75.1917      R0.2500    
   X92.4736      Y75.2512      R0.2500    
   X92.4690      Y75.3141      R0.2500    
   X92.4809      Y75.3760      R0.2500    
   X92.5084      Y75.4327      R0.2500    
   X92.5496      Y75.4803      R0.2500    
   X92.6017      Y75.5157      R0.2500    
   X92.6612      Y75.5364      R0.2500    
   X92.7241      Y75.5410      R0.2500    
   X92.7860      Y75.5291      R0.2500    
G0   Z5.000     
(Pass: 1)
   X92.612       Y46.521    
G1   Z-0.500     F500 
G17 G2   X92.6726      Y46.5385      R0.2500     F800 
   X92.7356      Y46.5400      R0.2500    
   X92.7969      Y46.5252      R0.2500    
   X92.8522      Y46.4950      R0.2500    
   X92.8978      Y46.4516      R0.2500    
   X92.9307      Y46.3978      R0.2500    
   X92.9485      Y46.3374      R0.2500    
   X92.9500      Y46.2744      R0.2500    
   X92.9352      Y46.2131      R0.2500    
   X92.9050      Y46.1578      R0.2500    
   X92.8616      Y46.1122      R0.2500    
   X92.8078      Y46.0793      R0.2500    
   X92.7474      Y46.0615      R0.2500    
   X92.6844      Y46.0600      R0.2500    
   X92.6231      Y46.0748      R0.2500    
   X92.5678      Y46.1050      R0.2500    
   X92.5222      Y46.1484      R0.2500    
   X92.4893      Y46.2022      R0.2500    
   X92.4715      Y46.2626      R0.2500    
   X92.4700      Y46.3256      R0.2500    
   X92.4848      Y46.3869      R0.2500    
   X92.5150      Y46.4422      R0.2500    
   X92.5584      Y46.4878      R0.2500    
   X92.6122      Y46.5207      R0.2500    
(Pass: 2)
G1   Z-1.000     F500 
G17 G2   X92.6726      Y46.5385      R0.2500     F800 
   X92.7356      Y46.5400      R0.2500    
   X92.7969      Y46.5252      R0.2500    
   X92.8522      Y46.4950      R0.2500    
   X92.8978      Y46.4516      R0.2500    
   X92.9307      Y46.3978      R0.2500    
   X92.9485      Y46.3374      R0.2500    
   X92.9500      Y46.2744      R0.2500    
   X92.9352      Y46.2131      R0.2500    
   X92.9050      Y46.1578      R0.2500    
   X92.8616      Y46.1122      R0.2500    
   X92.8078      Y46.0793      R0.2500    
   X92.7474      Y46.0615      R0.2500    
   X92.6844      Y46.0600      R0.2500    
   X92.6231      Y46.0748      R0.2500    
   X92.5678      Y46.1050      R0.2500    
   X92.5222      Y46.1484      R0.2500    
   X92.4893      Y46.2022      R0.2500    
   X92.4715      Y46.2626      R0.2500    
   X92.4700      Y46.3256      R0.2500    
   X92.4848      Y46.3869      R0.2500    
   X92.5150      Y46.4422      R0.2500    
   X92.5584      Y46.4878      R0.2500    
   X92.6122      Y46.5207      R0.2500    
(Pass: 3)
G1   Z-1.500     F500 
G17 G2   X92.6726      Y46.5385      R0.2500     F800 
   X92.7356      Y46.5400      R0.2500    
   X92.7969      Y46.5252      R0.2500    
   X92.8522      Y46.4950      R0.2500    
   X92.8978      Y46.4516      R0.2500    
   X92.9307      Y46.3978      R0.2500    
   X92.9485      Y46.3374      R0.2500    
   X92.9500      Y46.2744      R0.2500    
   X92.9352      Y46.2131      R0.2500    
   X92.9050      Y46.1578      R0.2500    
   X92.8616      Y46.1122      R0.2500    
   X92.8078      Y46.0793      R0.2500    
   X92.7474      Y46.0615      R0.2500    
   X92.6844      Y46.0600      R0.2500    
   X92.6231      Y46.0748      R0.2500    
   X92.5678      Y46.1050      R0.2500    
   X92.5222      Y46.1484      R0.2500    
   X92.4893      Y46.2022      R0.2500    
   X92.4715      Y46.2626      R0.2500    
   X92.4700      Y46.3256      R0.2500    
   X92.4848      Y46.3869      R0.2500    
   X92.5150      Y46.4422      R0.2500    
   X92.5584      Y46.4878      R0.2500    
   X92.6122      Y46.5207      R0.2500    
(Pass: 4)
G1   Z-2.000     F500 
G17 G2   X92.6726      Y46.5385      R0.2500     F800 
   X92.7356      Y46.5400      R0.2500    
   X92.7969      Y46.5252      R0.2500    
   X92.8522      Y46.4950      R0.2500    
   X92.8978      Y46.4516      R0.2500    
   X92.9307      Y46.3978      R0.2500    
   X92.9485      Y46.3374      R0.2500    
   X92.9500      Y46.2744      R0.2500    
   X92.9352      Y46.2131      R0.2500    
   X92.9050      Y46.1578      R0.2500    
   X92.8616      Y46.1122      R0.2500    
   X92.8078      Y46.0793      R0.2500    
   X92.7474      Y46.0615      R0.2500    
   X92.6844      Y46.0600      R0.2500    
   X92.6231      Y46.0748      R0.2500    
   X92.5678      Y46.1050      R0.2500    
   X92.5222      Y46.1484      R0.2500    
   X92.4893      Y46.2022      R0.2500    
   X92.4715      Y46.2626      R0.2500    
   X92.4700      Y46.3256      R0.2500    
   X92.4848      Y46.3869      R0.2500    
   X92.5150      Y46.4422      R0.2500    
   X92.5584      Y46.4878      R0.2500    
   X92.6122      Y46.5207      R0.2500    
(Pass: 5)
G1   Z-2.500     F500 
G17 G2   X92.6726      Y46.5385      R0.2500     F800 
   X92.7356      Y46.5400      R0.2500    
   X92.7969      Y46.5252      R0.2500    
   X92.8522      Y46.4950      R0.2500    
   X92.8978      Y46.4516      R0.2500    
   X92.9307      Y46.3978      R0.2500    
   X92.9485      Y46.3374      R0.2500    
   X92.9500      Y46.2744      R0.2500    
   X92.9352      Y46.2131      R0.2500    
   X92.9050      Y46.1578      R0.2500    
   X92.8616      Y46.1122      R0.2500    
   X92.8078      Y46.0793      R0.2500    
   X92.7474      Y46.0615      R0.2500    
   X92.6844      Y46.0600      R0.2500    
   X92.6231      Y46.0748      R0.2500    
   X92.5678      Y46.1050      R0.2500    
   X92.5222      Y46.1484      R0.2500    
   X92.4893      Y46.2022      R0.2500    
   X92.4715      Y46.2626      R0.2500    
   X92.4700      Y46.3256      R0.2500    
   X92.4848      Y46.3869      R0.2500    
   X92.5150      Y46.4422      R0.2500    
   X92.5584      Y46.4878      R0.2500    
   X92.6122      Y46.5207      R0.2500    
(Pass: 6)
G1   Z-3.000     F500 
G17 G2   X92.6726      Y46.5385      R0.2500     F800 
   X92.7356      Y46.5400      R0.2500    
   X92.7969      Y46.5252      R0.2500    
   X92.8522      Y46.4950      R0.2500    
   X92.8978      Y46.4516      R0.2500    
   X92.9307      Y46.3978      R0.2500    
   X92.9485      Y46.3374      R0.2500    
   X92.9500      Y46.2744      R0.2500    
   X92.9352      Y46.2131      R0.2500    
   X92.9050      Y46.1578      R0.2500    
   X92.8616      Y46.1122      R0.2500    
   X92.8078      Y46.0793      R0.2500    
   X92.7474      Y46.0615      R0.2500    
   X92.6844      Y46.0600      R0.2500    
   X92.6231      Y46.0748      R0.2500    
   X92.5678      Y46.1050      R0.2500    
   X92.5222      Y46.1484      R0.2500    
   X92.4893      Y46.2022      R0.2500    
   X92.4715      Y46.2626      R0.2500    
   X92.4700      Y46.3256      R0.2500    
   X92.4848      Y46.3869      R0.2500    
   X92.5150      Y46.4422      R0.2500    
   X92.5584      Y46.4878      R0.2500    
   X92.6122      Y46.5207      R0.2500    
(Pass: 7)
G1   Z-3.500     F500 
G17 G2   X92.6726      Y46.5385      R0.2500     F800 
   X92.7356      Y46.5400      R0.2500    
   X92.7969      Y46.5252      R0.2500    
   X92.8522      Y46.4950      R0.2500    
   X92.8978      Y46.4516      R0.2500    
   X92.9307      Y46.3978      R0.2500    
   X92.9485      Y46.3374      R0.2500    
   X92.9500      Y46.2744      R0.2500    
   X92.9352      Y46.2131      R0.2500    
   X92.9050      Y46.1578      R0.2500    
   X92.8616      Y46.1122      R0.2500    
   X92.8078      Y46.0793      R0.2500    
   X92.7474      Y46.0615      R0.2500    
   X92.6844      Y46.0600      R0.2500    
   X92.6231      Y46.0748      R0.2500    
   X92.5678      Y46.1050      R0.2500    
   X92.5222      Y46.1484      R0.2500    
   X92.4893      Y46.2022      R0.2500    
   X92.4715      Y46.2626      R0.2500    
   X92.4700      Y46.3256      R0.2500    
   X92.4848      Y46.3869      R0.2500    
   X92.5150      Y46.4422      R0.2500    
   X92.5584      Y46.4878      R0.2500    
   X92.6122      Y46.5207      R0.2500    
G0   Z5.000     
(Pass: 1)
   X111.475      Y14.016    
G1   Z-0.500     F500 
G17 G2   X111.5322     Y14.0417      R0.2500     F800 
   X111.5945     Y14.0513      R0.2500    
   X111.6571     Y14.0445      R0.2500    
   X111.7159     Y14.0217      R0.2500    
   X111.7667     Y13.9845      R0.2500    
   X111.8062     Y13.9354      R0.2500    
   X111.8317     Y13.8778      R0.2500    
   X111.8413     Y13.8155      R0.2500    
   X111.8345     Y13.7529      R0.2500    
   X111.8117     Y13.6941      R0.2500    
   X111.7745     Y13.6433      R0.2500    
   X111.7254     Y13.6038      R0.2500    
   X111.6678     Y13.5783      R0.2500    
   X111.6055     Y13.5687      R0.2500    
   X111.5429     Y13.5755      R0.2500    
   X111.4841     Y13.5983      R0.2500    
   X111.4333     Y13.6355      R0.2500    
   X111.3938     Y13.6846      R0.2500    
   X111.3683     Y13.7422      R0.2500    
   X111.3587     Y13.8045      R0.2500    
   X111.3655     Y13.8671      R0.2500    
   X111.3883     Y13.9259      R0.2500    
   X111.4255     Y13.9767      R0.2500    
   X111.4746     Y14.0162      R0.2500    
(Pass: 2)
G1   Z-1.000     F500 
G17 G2   X111.5322     Y14.0417      R0.2500     F800 
   X111.5945     Y14.0513      R0.2500    
   X111.6571     Y14.0445      R0.2500    
   X111.7159     Y14.0217      R0.2500    
   X111.7667     Y13.9845      R0.2500    
   X111.8062     Y13.9354      R0.2500    
   X111.8317     Y13.8778      R0.2500    
   X111.8413     Y13.8155      R0.2500    
   X111.8345     Y13.7529      R0.2500    
   X111.8117     Y13.6941      R0.2500    
   X111.7745     Y13.6433      R0.2500    
   X111.7254     Y13.6038      R0.2500    
   X111.6678     Y13.5783      R0.2500    
   X111.6055     Y13.5687      R0.2500    
   X111.5429     Y13.5755      R0.2500    
   X111.4841     Y13.5983      R0.2500    
   X111.4333     Y13.6355      R0.2500    
   X111.3938     Y13.6846      R0.2500    
   X111.3683     Y13.7422      R0.2500    
   X111.3587     Y13.8045      R0.2500    
   X111.3655     Y13.8671      R0.2500    
   X111.3883     Y13.9259      R0.2500    
   X111.4255     Y13.9767      R0.2500    
   X111.4746     Y14.0162      R0.2500    
(Pass: 3)
G1   Z-1.500     F500 
G17 G2   X111.5322     Y14.0417      R0.2500     F800 
   X111.5945     Y14.0513      R0.2500    
   X111.6571     Y14.0445      R0.2500    
   X111.7159     Y14.0217      R0.2500    
   X111.7667     Y13.9845      R0.2500    
   X111.8062     Y13.9354      R0.2500    
   X111.8317     Y13.8778      R0.2500    
   X111.8413     Y13.8155      R0.2500    
   X111.8345     Y13.7529      R0.2500    
   X111.8117     Y13.6941      R0.2500    
   X111.7745     Y13.6433      R0.2500    
   X111.7254     Y13.6038      R0.2500    
   X111.6678     Y13.5783      R0.2500    
   X111.6055     Y13.5687      R0.2500    
   X111.5429     Y13.5755      R0.2500    
   X111.4841     Y13.5983      R0.2500    
   X111.4333     Y13.6355      R0.2500    
   X111.3938     Y13.6846      R0.2500    
   X111.3683     Y13.7422      R0.2500    
   X111.3587     Y13.8045      R0.2500    
   X111.3655     Y13.8671      R0.2500    
   X111.3883     Y13.9259      R0.2500    
   X111.4255     Y13.9767      R0.2500    
   X111.4746     Y14.0162      R0.2500    
(Pass: 4)
G1   Z-2.000     F500 
G17 G2   X111.5322     Y14.0417      R0.2500     F800 
   X111.5945     Y14.0513      R0.2500    
   X111.6571     Y14.0445      R0.2500    
   X111.7159     Y14.0217      R0.2500    
   X111.7667     Y13.9845      R0.2500    
   X111.8062     Y13.9354      R0.2500    
   X111.8317     Y13.8778      R0.2500    
   X111.8413     Y13.8155      R0.2500    
   X111.8345     Y13.7529      R0.2500    
   X111.8117     Y13.6941      R0.2500    
   X111.7745     Y13.6433      R0.2500    
   X111.7254     Y13.6038      R0.2500    
   X111.6678     Y13.5783      R0.2500    
   X111.6055     Y13.5687      R0.2500    
   X111.5429     Y13.5755      R0.2500    
   X111.4841     Y13.5983      R0.2500    
   X111.4333     Y13.6355      R0.2500    
   X111.3938     Y13.6846      R0.2500    
   X111.3683     Y13.7422      R0.2500    
   X111.3587     Y13.8045      R0.2500    
   X111.3655     Y13.8671      R0.2500    
   X111.3883     Y13.9259      R0.2500    
   X111.4255     Y13.9767      R0.2500    
   X111.4746     Y14.0162      R0.2500    
(Pass: 5)
G1   Z-2.500     F500 
G17 G2   X111.5322     Y14.0417      R0.2500     F800 
   X111.5945     Y14.0513      R0.2500    
   X111.6571     Y14.0445      R0.2500    
   X111.7159     Y14.0217      R0.2500    
   X111.7667     Y13.9845      R0.2500    
   X111.8062     Y13.9354      R0.2500    
   X111.8317     Y13.8778      R0.2500    
   X111.8413     Y13.8155      R0.2500    
   X111.8345     Y13.7529      R0.2500    
   X111.8117     Y13.6941      R0.2500    
   X111.7745     Y13.6433      R0.2500    
   X111.7254     Y13.6038      R0.2500    
   X111.6678     Y13.5783      R0.2500    
   X111.6055     Y13.5687      R0.2500    
   X111.5429     Y13.5755      R0.2500    
   X111.4841     Y13.5983      R0.2500    
   X111.4333     Y13.6355      R0.2500    
   X111.3938     Y13.6846      R0.2500    
   X111.3683     Y13.7422      R0.2500    
   X111.3587     Y13.8045      R0.2500    
   X111.3655     Y13.8671      R0.2500    
   X111.3883     Y13.9259      R0.2500    
   X111.4255     Y13.9767      R0.2500    
   X111.4746     Y14.0162      R0.2500    
(Pass: 6)
G1   Z-3.000     F500 
G17 G2   X111.5322     Y14.0417      R0.2500     F800 
   X111.5945     Y14.0513      R0.2500    
   X111.6571     Y14.0445      R0.2500    
   X111.7159     Y14.0217      R0.2500    
   X111.7667     Y13.9845      R0.2500    
   X111.8062     Y13.9354      R0.2500    
   X111.8317     Y13.8778      R0.2500    
   X111.8413     Y13.8155      R0.2500    
   X111.8345     Y13.7529      R0.2500    
   X111.8117     Y13.6941      R0.2500    
   X111.7745     Y13.6433      R0.2500    
   X111.7254     Y13.6038      R0.2500    
   X111.6678     Y13.5783      R0.2500    
   X111.6055     Y13.5687      R0.2500    
   X111.5429     Y13.5755      R0.2500    
   X111.4841     Y13.5983      R0.2500    
   X111.4333     Y13.6355      R0.2500    
   X111.3938     Y13.6846      R0.2500    
   X111.3683     Y13.7422      R0.2500    
   X111.3587     Y13.8045      R0.2500    
   X111.3655     Y13.8671      R0.2500    
   X111.3883     Y13.9259      R0.2500    
   X111.4255     Y13.9767      R0.2500    
   X111.4746     Y14.0162      R0.2500    
(Pass: 7)
G1   Z-3.500     F500 
G17 G2   X111.5322     Y14.0417      R0.2500     F800 
   X111.5945     Y14.0513      R0.2500    
   X111.6571     Y14.0445      R0.2500    
   X111.7159     Y14.0217      R0.2500    
   X111.7667     Y13.9845      R0.2500    
   X111.8062     Y13.9354      R0.2500    
   X111.8317     Y13.8778      R0.2500    
   X111.8413     Y13.8155      R0.2500    
   X111.8345     Y13.7529      R0.2500    
   X111.8117     Y13.6941      R0.2500    
   X111.7745     Y13.6433      R0.2500    
   X111.7254     Y13.6038      R0.2500    
   X111.6678     Y13.5783      R0.2500    
   X111.6055     Y13.5687      R0.2500    
   X111.5429     Y13.5755      R0.2500    
   X111.4841     Y13.5983      R0.2500    
   X111.4333     Y13.6355      R0.2500    
   X111.3938     Y13.6846      R0.2500    
   X111.3683     Y13.7422      R0.2500    
   X111.3587     Y13.8045      R0.2500    
   X111.3655     Y13.8671      R0.2500    
   X111.3883     Y13.9259      R0.2500    
   X111.4255     Y13.9767      R0.2500    
