%
(Generated by SketchUcam {1.2})
(File: Router Plates.skp)
(Bit diameter: 3.1mm)
(Feed rate: 300.0mm/min)
(Plunge Feed rate: 200.0mm/min)
(Material Thickness: 3.2mm)
(Material length: 304.0mm X width: 608.0mm)
(Overhead Gantry: true)
(Retract feed rate NOT limited to plunge feed rate)
(Multipass enabled, Depth = 1.0mm)
(Optimization is ON)
(Z ZERO IS TABLETOP)
(www.PhlatBoyz.com)
G90 G21 G49 
M3 S15000
G0   Z18.200    
(Pass: 1)
   X440.017      Y20.665    
G1   Z2.200      F200 
G17 G2   X440.0838     Y20.1596      R1.9685     F300 
   X440.2791     Y19.6881      R1.9685    
   X440.5897     Y19.2833      R1.9685    
   X440.9946     Y18.9727      R1.9685    
   X441.4660     Y18.7774      R1.9685    
   X441.9719     Y18.7108      R1.9685    
   X442.4778     Y18.7774      R1.9685    
   X442.9493     Y18.9727      R1.9685    
   X443.3541     Y19.2833      R1.9685    
   X443.6647     Y19.6881      R1.9685    
   X443.8600     Y20.1596      R1.9685    
   X443.9266     Y20.6655      R1.9685    
   X443.8600     Y21.1714      R1.9685    
   X443.6647     Y21.6428      R1.9685    
   X443.3541     Y22.0477      R1.9685    
   X442.9493     Y22.3583      R1.9685    
   X442.4778     Y22.5536      R1.9685    
   X441.9719     Y22.6202      R1.9685    
   X441.4660     Y22.5536      R1.9685    
   X440.9946     Y22.3583      R1.9685    
   X440.5897     Y22.0477      R1.9685    
   X440.2791     Y21.6428      R1.9685    
   X440.0838     Y21.1714      R1.9685    
   X440.0172     Y20.6655      R1.9685    
(Pass: 2)
G1   Z1.200      F200 
G17 G2   X440.0838     Y20.1596      R1.9685     F300 
   X440.2791     Y19.6881      R1.9685    
   X440.5897     Y19.2833      R1.9685    
   X440.9946     Y18.9727      R1.9685    
   X441.4660     Y18.7774      R1.9685    
   X441.9719     Y18.7108      R1.9685    
   X442.4778     Y18.7774      R1.9685    
   X442.9493     Y18.9727      R1.9685    
   X443.3541     Y19.2833      R1.9685    
   X443.6647     Y19.6881      R1.9685    
   X443.8600     Y20.1596      R1.9685    
   X443.9266     Y20.6655      R1.9685    
   X443.8600     Y21.1714      R1.9685    
   X443.6647     Y21.6428      R1.9685    
   X443.3541     Y22.0477      R1.9685    
   X442.9493     Y22.3583      R1.9685    
   X442.4778     Y22.5536      R1.9685    
   X441.9719     Y22.6202      R1.9685    
   X441.4660     Y22.5536      R1.9685    
   X440.9946     Y22.3583      R1.9685    
   X440.5897     Y22.0477      R1.9685    
   X440.2791     Y21.6428      R1.9685    
   X440.0838     Y21.1714      R1.9685    
   X440.0172     Y20.6655      R1.9685    
(Pass: 3)
G1   Z0.200      F200 
G17 G2   X440.0838     Y20.1596      R1.9685     F300 
   X440.2791     Y19.6881      R1.9685    
   X440.5897     Y19.2833      R1.9685    
   X440.9946     Y18.9727      R1.9685    
   X441.4660     Y18.7774      R1.9685    
   X441.9719     Y18.7108      R1.9685    
   X442.4778     Y18.7774      R1.9685    
   X442.9493     Y18.9727      R1.9685    
   X443.3541     Y19.2833      R1.9685    
   X443.6647     Y19.6881      R1.9685    
   X443.8600     Y20.1596      R1.9685    
   X443.9266     Y20.6655      R1.9685    
   X443.8600     Y21.1714      R1.9685    
   X443.6647     Y21.6428      R1.9685    
   X443.3541     Y22.0477      R1.9685    
   X442.9493     Y22.3583      R1.9685    
   X442.4778     Y22.5536      R1.9685    
   X441.9719     Y22.6202      R1.9685    
   X441.4660     Y22.5536      R1.9685    
   X440.9946     Y22.3583      R1.9685    
   X440.5897     Y22.0477      R1.9685    
   X440.2791     Y21.6428      R1.9685    
   X440.0838     Y21.1714      R1.9685    
   X440.0172     Y20.6655      R1.9685    
(Pass: 4)
G1   Z-0.800     F200 
G17 G2   X440.0838     Y20.1596      R1.9685     F300 
   X440.2791     Y19.6881      R1.9685    
   X440.5897     Y19.2833      R1.9685    
   X440.9946     Y18.9727      R1.9685    
   X441.4660     Y18.7774      R1.9685    
   X441.9719     Y18.7108      R1.9685    
   X442.4778     Y18.7774      R1.9685    
   X442.9493     Y18.9727      R1.9685    
   X443.3541     Y19.2833      R1.9685    
   X443.6647     Y19.6881      R1.9685    
   X443.8600     Y20.1596      R1.9685    
   X443.9266     Y20.6655      R1.9685    
   X443.8600     Y21.1714      R1.9685    
   X443.6647     Y21.6428      R1.9685    
   X443.3541     Y22.0477      R1.9685    
   X442.9493     Y22.3583      R1.9685    
   X442.4778     Y22.5536      R1.9685    
   X441.9719     Y22.6202      R1.9685    
   X441.4660     Y22.5536      R1.9685    
   X440.9946     Y22.3583      R1.9685    
   X440.5897     Y22.0477      R1.9685    
   X440.2791     Y21.6428      R1.9685    
   X440.0838     Y21.1714      R1.9685    
   X440.0172     Y20.6655      R1.9685    
G0   Z18.200    
(Pass: 1)
   X458.086      Y19.155    
G1   Z2.200      F200 
G17 G2   X458.1162     Y18.9258      R0.9000     F300 
   X458.2047     Y18.7121      R0.9000    
   X458.3455     Y18.5286      R0.9000    
   X458.5291     Y18.3877      R0.9000    
   X458.7428     Y18.2992      R0.9000    
   X458.9722     Y18.2690      R0.9000    
   X459.2015     Y18.2992      R0.9000    
   X459.4153     Y18.3877      R0.9000    
   X459.5988     Y18.5286      R0.9000    
   X459.7396     Y18.7121      R0.9000    
   X459.8282     Y18.9258      R0.9000    
   X459.8584     Y19.1552      R0.9000    
   X459.8282     Y19.3845      R0.9000    
   X459.7396     Y19.5983      R0.9000    
   X459.5988     Y19.7818      R0.9000    
   X459.4153     Y19.9227      R0.9000    
   X459.2015     Y20.0112      R0.9000    
   X458.9722     Y20.0414      R0.9000    
   X458.7428     Y20.0112      R0.9000    
   X458.5291     Y19.9227      R0.9000    
   X458.3455     Y19.7818      R0.9000    
   X458.2047     Y19.5983      R0.9000    
   X458.1162     Y19.3845      R0.9000    
   X458.0860     Y19.1552      R0.9000    
(Pass: 2)
G1   Z1.200      F200 
G17 G2   X458.1162     Y18.9258      R0.9000     F300 
   X458.2047     Y18.7121      R0.9000    
   X458.3455     Y18.5286      R0.9000    
   X458.5291     Y18.3877      R0.9000    
   X458.7428     Y18.2992      R0.9000    
   X458.9722     Y18.2690      R0.9000    
   X459.2015     Y18.2992      R0.9000    
   X459.4153     Y18.3877      R0.9000    
   X459.5988     Y18.5286      R0.9000    
   X459.7396     Y18.7121      R0.9000    
   X459.8282     Y18.9258      R0.9000    
   X459.8584     Y19.1552      R0.9000    
   X459.8282     Y19.3845      R0.9000    
   X459.7396     Y19.5983      R0.9000    
   X459.5988     Y19.7818      R0.9000    
   X459.4153     Y19.9227      R0.9000    
   X459.2015     Y20.0112      R0.9000    
   X458.9722     Y20.0414      R0.9000    
   X458.7428     Y20.0112      R0.9000    
   X458.5291     Y19.9227      R0.9000    
   X458.3455     Y19.7818      R0.9000    
   X458.2047     Y19.5983      R0.9000    
   X458.1162     Y19.3845      R0.9000    
   X458.0860     Y19.1552      R0.9000    
(Pass: 3)
G1   Z0.200      F200 
G17 G2   X458.1162     Y18.9258      R0.9000     F300 
   X458.2047     Y18.7121      R0.9000    
   X458.3455     Y18.5286      R0.9000    
   X458.5291     Y18.3877      R0.9000    
   X458.7428     Y18.2992      R0.9000    
   X458.9722     Y18.2690      R0.9000    
   X459.2015     Y18.2992      R0.9000    
   X459.4153     Y18.3877      R0.9000    
   X459.5988     Y18.5286      R0.9000    
   X459.7396     Y18.7121      R0.9000    
   X459.8282     Y18.9258      R0.9000    
   X459.8584     Y19.1552      R0.9000    
   X459.8282     Y19.3845      R0.9000    
   X459.7396     Y19.5983      R0.9000    
   X459.5988     Y19.7818      R0.9000    
   X459.4153     Y19.9227      R0.9000    
   X459.2015     Y20.0112      R0.9000    
   X458.9722     Y20.0414      R0.9000    
   X458.7428     Y20.0112      R0.9000    
   X458.5291     Y19.9227      R0.9000    
   X458.3455     Y19.7818      R0.9000    
   X458.2047     Y19.5983      R0.9000    
   X458.1162     Y19.3845      R0.9000    
   X458.0860     Y19.1552      R0.9000    
(Pass: 4)
G1   Z-0.800     F200 
G17 G2   X458.1162     Y18.9258      R0.9000     F300 
   X458.2047     Y18.7121      R0.9000    
   X458.3455     Y18.5286      R0.9000    
   X458.5291     Y18.3877      R0.9000    
   X458.7428     Y18.2992      R0.9000    
   X458.9722     Y18.2690      R0.9000    
   X459.2015     Y18.2992      R0.9000    
   X459.4153     Y18.3877      R0.9000    
   X459.5988     Y18.5286      R0.9000    
   X459.7396     Y18.7121      R0.9000    
   X459.8282     Y18.9258      R0.9000    
   X459.8584     Y19.1552      R0.9000    
   X459.8282     Y19.3845      R0.9000    
   X459.7396     Y19.5983      R0.9000    
   X459.5988     Y19.7818      R0.9000    
   X459.4153     Y19.9227      R0.9000    
   X459.2015     Y20.0112      R0.9000    
   X458.9722     Y20.0414      R0.9000    
   X458.7428     Y20.0112      R0.9000    
   X458.5291     Y19.9227      R0.9000    
   X458.3455     Y19.7818      R0.9000    
   X458.2047     Y19.5983      R0.9000    
   X458.1162     Y19.3845      R0.9000    
   X458.0860     Y19.1552      R0.9000    
G0   Z18.200    
(Pass: 1)
   X466.945   
G1   Z2.200      F200 
G17 G2   X467.0114     Y18.6493      R1.9685     F300 
   X467.2067     Y18.1778      R1.9685    
   X467.5173     Y17.7730      R1.9685    
   X467.9222     Y17.4624      R1.9685    
   X468.3936     Y17.2671      R1.9685    
   X468.8995     Y17.2005      R1.9685    
   X469.4054     Y17.2671      R1.9685    
   X469.8769     Y17.4624      R1.9685    
   X470.2817     Y17.7730      R1.9685    
   X470.5923     Y18.1778      R1.9685    
   X470.7876     Y18.6493      R1.9685    
   X470.8542     Y19.1552      R1.9685    
   X470.7876     Y19.6611      R1.9685    
   X470.5923     Y20.1325      R1.9685    
   X470.2817     Y20.5374      R1.9685    
   X469.8769     Y20.8480      R1.9685    
   X469.4054     Y21.0433      R1.9685    
   X468.8995     Y21.1099      R1.9685    
   X468.3936     Y21.0433      R1.9685    
   X467.9222     Y20.8480      R1.9685    
   X467.5173     Y20.5374      R1.9685    
   X467.2067     Y20.1325      R1.9685    
   X467.0114     Y19.6611      R1.9685    
   X466.9448     Y19.1552      R1.9685    
(Pass: 2)
G1   Z1.200      F200 
G17 G2   X467.0114     Y18.6493      R1.9685     F300 
   X467.2067     Y18.1778      R1.9685    
   X467.5173     Y17.7730      R1.9685    
   X467.9222     Y17.4624      R1.9685    
   X468.3936     Y17.2671      R1.9685    
   X468.8995     Y17.2005      R1.9685    
   X469.4054     Y17.2671      R1.9685    
   X469.8769     Y17.4624      R1.9685    
   X470.2817     Y17.7730      R1.9685    
   X470.5923     Y18.1778      R1.9685    
   X470.7876     Y18.6493      R1.9685    
   X470.8542     Y19.1552      R1.9685    
   X470.7876     Y19.6611      R1.9685    
   X470.5923     Y20.1325      R1.9685    
   X470.2817     Y20.5374      R1.9685    
   X469.8769     Y20.8480      R1.9685    
   X469.4054     Y21.0433      R1.9685    
   X468.8995     Y21.1099      R1.9685    
   X468.3936     Y21.0433      R1.9685    
   X467.9222     Y20.8480      R1.9685    
   X467.5173     Y20.5374      R1.9685    
   X467.2067     Y20.1325      R1.9685    
   X467.0114     Y19.6611      R1.9685    
   X466.9448     Y19.1552      R1.9685    
(Pass: 3)
G1   Z0.200      F200 
G17 G2   X467.0114     Y18.6493      R1.9685     F300 
   X467.2067     Y18.1778      R1.9685    
   X467.5173     Y17.7730      R1.9685    
   X467.9222     Y17.4624      R1.9685    
   X468.3936     Y17.2671      R1.9685    
   X468.8995     Y17.2005      R1.9685    
   X469.4054     Y17.2671      R1.9685    
   X469.8769     Y17.4624      R1.9685    
   X470.2817     Y17.7730      R1.9685    
   X470.5923     Y18.1778      R1.9685    
   X470.7876     Y18.6493      R1.9685    
   X470.8542     Y19.1552      R1.9685    
   X470.7876     Y19.6611      R1.9685    
   X470.5923     Y20.1325      R1.9685    
   X470.2817     Y20.5374      R1.9685    
   X469.8769     Y20.8480      R1.9685    
   X469.4054     Y21.0433      R1.9685    
   X468.8995     Y21.1099      R1.9685    
   X468.3936     Y21.0433      R1.9685    
   X467.9222     Y20.8480      R1.9685    
   X467.5173     Y20.5374      R1.9685    
   X467.2067     Y20.1325      R1.9685    
   X467.0114     Y19.6611      R1.9685    
   X466.9448     Y19.1552      R1.9685    
(Pass: 4)
G1   Z-0.800     F200 
G17 G2   X467.0114     Y18.6493      R1.9685     F300 
   X467.2067     Y18.1778      R1.9685    
   X467.5173     Y17.7730      R1.9685    
   X467.9222     Y17.4624      R1.9685    
   X468.3936     Y17.2671      R1.9685    
   X468.8995     Y17.2005      R1.9685    
   X469.4054     Y17.2671      R1.9685    
   X469.8769     Y17.4624      R1.9685    
   X470.2817     Y17.7730      R1.9685    
   X470.5923     Y18.1778      R1.9685    
   X470.7876     Y18.6493      R1.9685    
   X470.8542     Y19.1552      R1.9685    
   X470.7876     Y19.6611      R1.9685    
   X470.5923     Y20.1325      R1.9685    
   X470.2817     Y20.5374      R1.9685    
   X469.8769     Y20.8480      R1.9685    
   X469.4054     Y21.0433      R1.9685    
   X468.8995     Y21.1099      R1.9685    
   X468.3936     Y21.0433      R1.9685    
   X467.9222     Y20.8480      R1.9685    
   X467.5173     Y20.5374      R1.9685    
   X467.2067     Y20.1325      R1.9685    
   X467.0114     Y19.6611      R1.9685    
   X466.9448     Y19.1552      R1.9685    
G0   Z18.200    
(Pass: 1)
   X468.670      Y28.299    
G1   Z2.200      F200 
G17 G2   X468.8995     Y28.2690      R0.9000     F300 
   X469.1289     Y28.2992      R0.9000    
   X469.3426     Y28.3877      R0.9000    
   X469.5262     Y28.5286      R0.9000    
   X469.6670     Y28.7121      R0.9000    
   X469.7555     Y28.9258      R0.9000    
   X469.7857     Y29.1552      R0.9000    
   X469.7555     Y29.3845      R0.9000    
   X469.6670     Y29.5983      R0.9000    
   X469.5262     Y29.7818      R0.9000    
   X469.3426     Y29.9227      R0.9000    
   X469.1289     Y30.0112      R0.9000    
   X468.8995     Y30.0414      R0.9000    
   X468.6702     Y30.0112      R0.9000    
   X468.4564     Y29.9227      R0.9000    
   X468.2729     Y29.7818      R0.9000    
   X468.1321     Y29.5983      R0.9000    
   X468.0435     Y29.3845      R0.9000    
   X468.0133     Y29.1552      R0.9000    
   X468.0435     Y28.9258      R0.9000    
   X468.1321     Y28.7121      R0.9000    
   X468.2729     Y28.5286      R0.9000    
   X468.4564     Y28.3877      R0.9000    
   X468.6702     Y28.2992      R0.9000    
(Pass: 2)
G1   Z1.200      F200 
G17 G2   X468.8995     Y28.2690      R0.9000     F300 
   X469.1289     Y28.2992      R0.9000    
   X469.3426     Y28.3877      R0.9000    
   X469.5262     Y28.5286      R0.9000    
   X469.6670     Y28.7121      R0.9000    
   X469.7555     Y28.9258      R0.9000    
   X469.7857     Y29.1552      R0.9000    
   X469.7555     Y29.3845      R0.9000    
   X469.6670     Y29.5983      R0.9000    
   X469.5262     Y29.7818      R0.9000    
   X469.3426     Y29.9227      R0.9000    
   X469.1289     Y30.0112      R0.9000    
   X468.8995     Y30.0414      R0.9000    
   X468.6702     Y30.0112      R0.9000    
   X468.4564     Y29.9227      R0.9000    
   X468.2729     Y29.7818      R0.9000    
   X468.1321     Y29.5983      R0.9000    
   X468.0435     Y29.3845      R0.9000    
   X468.0133     Y29.1552      R0.9000    
   X468.0435     Y28.9258      R0.9000    
   X468.1321     Y28.7121      R0.9000    
   X468.2729     Y28.5286      R0.9000    
   X468.4564     Y28.3877      R0.9000    
   X468.6702     Y28.2992      R0.9000    
(Pass: 3)
G1   Z0.200      F200 
G17 G2   X468.8995     Y28.2690      R0.9000     F300 
   X469.1289     Y28.2992      R0.9000    
   X469.3426     Y28.3877      R0.9000    
   X469.5262     Y28.5286      R0.9000    
   X469.6670     Y28.7121      R0.9000    
   X469.7555     Y28.9258      R0.9000    
   X469.7857     Y29.1552      R0.9000    
   X469.7555     Y29.3845      R0.9000    
   X469.6670     Y29.5983      R0.9000    
   X469.5262     Y29.7818      R0.9000    
   X469.3426     Y29.9227      R0.9000    
   X469.1289     Y30.0112      R0.9000    
   X468.8995     Y30.0414      R0.9000    
   X468.6702     Y30.0112      R0.9000    
   X468.4564     Y29.9227      R0.9000    
   X468.2729     Y29.7818      R0.9000    
   X468.1321     Y29.5983      R0.9000    
   X468.0435     Y29.3845      R0.9000    
   X468.0133     Y29.1552      R0.9000    
   X468.0435     Y28.9258      R0.9000    
   X468.1321     Y28.7121      R0.9000    
   X468.2729     Y28.5286      R0.9000    
   X468.4564     Y28.3877      R0.9000    
   X468.6702     Y28.2992      R0.9000    
(Pass: 4)
G1   Z-0.800     F200 
G17 G2   X468.8995     Y28.2690      R0.9000     F300 
   X469.1289     Y28.2992      R0.9000    
   X469.3426     Y28.3877      R0.9000    
   X469.5262     Y28.5286      R0.9000    
   X469.6670     Y28.7121      R0.9000    
   X469.7555     Y28.9258      R0.9000    
   X469.7857     Y29.1552      R0.9000    
   X469.7555     Y29.3845      R0.9000    
   X469.6670     Y29.5983      R0.9000    
   X469.5262     Y29.7818      R0.9000    
   X469.3426     Y29.9227      R0.9000    
   X469.1289     Y30.0112      R0.9000    
   X468.8995     Y30.0414      R0.9000    
   X468.6702     Y30.0112      R0.9000    
   X468.4564     Y29.9227      R0.9000    
   X468.2729     Y29.7818      R0.9000    
   X468.1321     Y29.5983      R0.9000    
   X468.0435     Y29.3845      R0.9000    
   X468.0133     Y29.1552      R0.9000    
   X468.0435     Y28.9258      R0.9000    
   X468.1321     Y28.7121      R0.9000    
   X468.2729     Y28.5286      R0.9000    
   X468.4564     Y28.3877      R0.9000    
   X468.6702     Y28.2992      R0.9000    
G0   Z18.200    
(Pass: 1)
   X459.841      Y28.926    
G1   Z2.200      F200 
G17 G2   X459.8714     Y29.1552      R0.9000     F300 
   X459.8412     Y29.3845      R0.9000    
   X459.7527     Y29.5983      R0.9000    
   X459.6118     Y29.7818      R0.9000    
   X459.4283     Y29.9227      R0.9000    
   X459.2145     Y30.0112      R0.9000    
   X458.9852     Y30.0414      R0.9000    
   X458.7558     Y30.0112      R0.9000    
   X458.5421     Y29.9227      R0.9000    
   X458.3586     Y29.7818      R0.9000    
   X458.2177     Y29.5983      R0.9000    
   X458.1292     Y29.3845      R0.9000    
   X458.0990     Y29.1552      R0.9000    
   X458.1292     Y28.9258      R0.9000    
   X458.2177     Y28.7121      R0.9000    
   X458.3586     Y28.5286      R0.9000    
   X458.5421     Y28.3877      R0.9000    
   X458.7558     Y28.2992      R0.9000    
   X458.9852     Y28.2690      R0.9000    
   X459.2145     Y28.2992      R0.9000    
   X459.4283     Y28.3877      R0.9000    
   X459.6118     Y28.5286      R0.9000    
   X459.7527     Y28.7121      R0.9000    
   X459.8412     Y28.9258      R0.9000    
(Pass: 2)
G1   Z1.200      F200 
G17 G2   X459.8714     Y29.1552      R0.9000     F300 
   X459.8412     Y29.3845      R0.9000    
   X459.7527     Y29.5983      R0.9000    
   X459.6118     Y29.7818      R0.9000    
   X459.4283     Y29.9227      R0.9000    
   X459.2145     Y30.0112      R0.9000    
   X458.9852     Y30.0414      R0.9000    
   X458.7558     Y30.0112      R0.9000    
   X458.5421     Y29.9227      R0.9000    
   X458.3586     Y29.7818      R0.9000    
   X458.2177     Y29.5983      R0.9000    
   X458.1292     Y29.3845      R0.9000    
   X458.0990     Y29.1552      R0.9000    
   X458.1292     Y28.9258      R0.9000    
   X458.2177     Y28.7121      R0.9000    
   X458.3586     Y28.5286      R0.9000    
   X458.5421     Y28.3877      R0.9000    
   X458.7558     Y28.2992      R0.9000    
   X458.9852     Y28.2690      R0.9000    
   X459.2145     Y28.2992      R0.9000    
   X459.4283     Y28.3877      R0.9000    
   X459.6118     Y28.5286      R0.9000    
   X459.7527     Y28.7121      R0.9000    
   X459.8412     Y28.9258      R0.9000    
(Pass: 3)
G1   Z0.200      F200 
G17 G2   X459.8714     Y29.1552      R0.9000     F300 
   X459.8412     Y29.3845      R0.9000    
   X459.7527     Y29.5983      R0.9000    
   X459.6118     Y29.7818      R0.9000    
   X459.4283     Y29.9227      R0.9000    
   X459.2145     Y30.0112      R0.9000    
   X458.9852     Y30.0414      R0.9000    
   X458.7558     Y30.0112      R0.9000    
   X458.5421     Y29.9227      R0.9000    
   X458.3586     Y29.7818      R0.9000    
   X458.2177     Y29.5983      R0.9000    
   X458.1292     Y29.3845      R0.9000    
   X458.0990     Y29.1552      R0.9000    
   X458.1292     Y28.9258      R0.9000    
   X458.2177     Y28.7121      R0.9000    
   X458.3586     Y28.5286      R0.9000    
   X458.5421     Y28.3877      R0.9000    
   X458.7558     Y28.2992      R0.9000    
   X458.9852     Y28.2690      R0.9000    
   X459.2145     Y28.2992      R0.9000    
   X459.4283     Y28.3877      R0.9000    
   X459.6118     Y28.5286      R0.9000    
   X459.7527     Y28.7121      R0.9000    
   X459.8412     Y28.9258      R0.9000    
(Pass: 4)
G1   Z-0.800     F200 
G17 G2   X459.8714     Y29.1552      R0.9000     F300 
   X459.8412     Y29.3845      R0.9000    
   X459.7527     Y29.5983      R0.9000    
   X459.6118     Y29.7818      R0.9000    
   X459.4283     Y29.9227      R0.9000    
   X459.2145     Y30.0112      R0.9000    
   X458.9852     Y30.0414      R0.9000    
   X458.7558     Y30.0112      R0.9000    
   X458.5421     Y29.9227      R0.9000    
   X458.3586     Y29.7818      R0.9000    
   X458.2177     Y29.5983      R0.9000    
   X458.1292     Y29.3845      R0.9000    
   X458.0990     Y29.1552      R0.9000    
   X458.1292     Y28.9258      R0.9000    
   X458.2177     Y28.7121      R0.9000    
   X458.3586     Y28.5286      R0.9000    
   X458.5421     Y28.3877      R0.9000    
   X458.7558     Y28.2992      R0.9000    
   X458.9852     Y28.2690      R0.9000    
   X459.2145     Y28.2992      R0.9000    
   X459.4283     Y28.3877      R0.9000    
   X459.6118     Y28.5286      R0.9000    
   X459.7527     Y28.7121      R0.9000    
   X459.8412     Y28.9258      R0.9000    
G0   Z18.200    
(Pass: 1)
   X458.972      Y48.909    
G1   Z2.200      F200 
G17 G2   X459.2015     Y48.9392      R0.9000     F300 
   X459.4153     Y49.0277      R0.9000    
   X459.5988     Y49.1686      R0.9000    
   X459.7396     Y49.3521      R0.9000    
   X459.8282     Y49.5658      R0.9000    
   X459.8584     Y49.7952      R0.9000    
   X459.8282     Y50.0245      R0.9000    
   X459.7396     Y50.2383      R0.9000    
   X459.5988     Y50.4218      R0.9000    
   X459.4153     Y50.5626      R0.9000    
   X459.2015     Y50.6512      R0.9000    
   X458.9722     Y50.6814      R0.9000    
   X458.7428     Y50.6512      R0.9000    
   X458.5291     Y50.5626      R0.9000    
   X458.3455     Y50.4218      R0.9000    
   X458.2047     Y50.2383      R0.9000    
   X458.1162     Y50.0245      R0.9000    
   X458.0860     Y49.7952      R0.9000    
   X458.1162     Y49.5658      R0.9000    
   X458.2047     Y49.3521      R0.9000    
   X458.3455     Y49.1686      R0.9000    
   X458.5291     Y49.0277      R0.9000    
   X458.7428     Y48.9392      R0.9000    
   X458.9722     Y48.9090      R0.9000    
(Pass: 2)
G1   Z1.200      F200 
G17 G2   X459.2015     Y48.9392      R0.9000     F300 
   X459.4153     Y49.0277      R0.9000    
   X459.5988     Y49.1686      R0.9000    
   X459.7396     Y49.3521      R0.9000    
   X459.8282     Y49.5658      R0.9000    
   X459.8584     Y49.7952      R0.9000    
   X459.8282     Y50.0245      R0.9000    
   X459.7396     Y50.2383      R0.9000    
   X459.5988     Y50.4218      R0.9000    
   X459.4153     Y50.5626      R0.9000    
   X459.2015     Y50.6512      R0.9000    
   X458.9722     Y50.6814      R0.9000    
   X458.7428     Y50.6512      R0.9000    
   X458.5291     Y50.5626      R0.9000    
   X458.3455     Y50.4218      R0.9000    
   X458.2047     Y50.2383      R0.9000    
   X458.1162     Y50.0245      R0.9000    
   X458.0860     Y49.7952      R0.9000    
   X458.1162     Y49.5658      R0.9000    
   X458.2047     Y49.3521      R0.9000    
   X458.3455     Y49.1686      R0.9000    
   X458.5291     Y49.0277      R0.9000    
   X458.7428     Y48.9392      R0.9000    
   X458.9722     Y48.9090      R0.9000    
(Pass: 3)
G1   Z0.200      F200 
G17 G2   X459.2015     Y48.9392      R0.9000     F300 
   X459.4153     Y49.0277      R0.9000    
   X459.5988     Y49.1686      R0.9000    
   X459.7396     Y49.3521      R0.9000    
   X459.8282     Y49.5658      R0.9000    
   X459.8584     Y49.7952      R0.9000    
   X459.8282     Y50.0245      R0.9000    
   X459.7396     Y50.2383      R0.9000    
   X459.5988     Y50.4218      R0.9000    
   X459.4153     Y50.5626      R0.9000    
   X459.2015     Y50.6512      R0.9000    
   X458.9722     Y50.6814      R0.9000    
   X458.7428     Y50.6512      R0.9000    
   X458.5291     Y50.5626      R0.9000    
   X458.3455     Y50.4218      R0.9000    
   X458.2047     Y50.2383      R0.9000    
   X458.1162     Y50.0245      R0.9000    
   X458.0860     Y49.7952      R0.9000    
   X458.1162     Y49.5658      R0.9000    
   X458.2047     Y49.3521      R0.9000    
   X458.3455     Y49.1686      R0.9000    
   X458.5291     Y49.0277      R0.9000    
   X458.7428     Y48.9392      R0.9000    
   X458.9722     Y48.9090      R0.9000    
(Pass: 4)
G1   Z-0.800     F200 
G17 G2   X459.2015     Y48.9392      R0.9000     F300 
   X459.4153     Y49.0277      R0.9000    
   X459.5988     Y49.1686      R0.9000    
   X459.7396     Y49.3521      R0.9000    
   X459.8282     Y49.5658      R0.9000    
   X459.8584     Y49.7952      R0.9000    
   X459.8282     Y50.0245      R0.9000    
   X459.7396     Y50.2383      R0.9000    
   X459.5988     Y50.4218      R0.9000    
   X459.4153     Y50.5626      R0.9000    
   X459.2015     Y50.6512      R0.9000    
   X458.9722     Y50.6814      R0.9000    
   X458.7428     Y50.6512      R0.9000    
   X458.5291     Y50.5626      R0.9000    
   X458.3455     Y50.4218      R0.9000    
   X458.2047     Y50.2383      R0.9000    
   X458.1162     Y50.0245      R0.9000    
   X458.0860     Y49.7952      R0.9000    
   X458.1162     Y49.5658      R0.9000    
   X458.2047     Y49.3521      R0.9000    
   X458.3455     Y49.1686      R0.9000    
   X458.5291     Y49.0277      R0.9000    
   X458.7428     Y48.9392      R0.9000    
   X458.9722     Y48.9090      R0.9000    
G0   Z18.200    
(Pass: 1)
   X466.945      Y49.795    
G1   Z2.200      F200 
G17 G2   X467.0114     Y49.2893      R1.9685     F300 
   X467.2067     Y48.8178      R1.9685    
   X467.5173     Y48.4130      R1.9685    
   X467.9222     Y48.1024      R1.9685    
   X468.3936     Y47.9071      R1.9685    
   X468.8995     Y47.8405      R1.9685    
   X469.4054     Y47.9071      R1.9685    
   X469.8769     Y48.1024      R1.9685    
   X470.2817     Y48.4130      R1.9685    
   X470.5923     Y48.8178      R1.9685    
   X470.7876     Y49.2893      R1.9685    
   X470.8542     Y49.7952      R1.9685    
   X470.7876     Y50.3011      R1.9685    
   X470.5923     Y50.7725      R1.9685    
   X470.2817     Y51.1774      R1.9685    
   X469.8769     Y51.4880      R1.9685    
   X469.4054     Y51.6833      R1.9685    
   X468.8995     Y51.7499      R1.9685    
   X468.3936     Y51.6833      R1.9685    
   X467.9222     Y51.4880      R1.9685    
   X467.5173     Y51.1774      R1.9685    
   X467.2067     Y50.7725      R1.9685    
   X467.0114     Y50.3011      R1.9685    
   X466.9448     Y49.7952      R1.9685    
(Pass: 2)
G1   Z1.200      F200 
G17 G2   X467.0114     Y49.2893      R1.9685     F300 
   X467.2067     Y48.8178      R1.9685    
   X467.5173     Y48.4130      R1.9685    
   X467.9222     Y48.1024      R1.9685    
   X468.3936     Y47.9071      R1.9685    
   X468.8995     Y47.8405      R1.9685    
   X469.4054     Y47.9071      R1.9685    
   X469.8769     Y48.1024      R1.9685    
   X470.2817     Y48.4130      R1.9685    
   X470.5923     Y48.8178      R1.9685    
   X470.7876     Y49.2893      R1.9685    
   X470.8542     Y49.7952      R1.9685    
   X470.7876     Y50.3011      R1.9685    
   X470.5923     Y50.7725      R1.9685    
   X470.2817     Y51.1774      R1.9685    
   X469.8769     Y51.4880      R1.9685    
   X469.4054     Y51.6833      R1.9685    
   X468.8995     Y51.7499      R1.9685    
   X468.3936     Y51.6833      R1.9685    
   X467.9222     Y51.4880      R1.9685    
   X467.5173     Y51.1774      R1.9685    
   X467.2067     Y50.7725      R1.9685    
   X467.0114     Y50.3011      R1.9685    
   X466.9448     Y49.7952      R1.9685    
(Pass: 3)
G1   Z0.200      F200 
G17 G2   X467.0114     Y49.2893      R1.9685     F300 
   X467.2067     Y48.8178      R1.9685    
   X467.5173     Y48.4130      R1.9685    
   X467.9222     Y48.1024      R1.9685    
   X468.3936     Y47.9071      R1.9685    
   X468.8995     Y47.8405      R1.9685    
   X469.4054     Y47.9071      R1.9685    
   X469.8769     Y48.1024      R1.9685    
   X470.2817     Y48.4130      R1.9685    
   X470.5923     Y48.8178      R1.9685    
   X470.7876     Y49.2893      R1.9685    
   X470.8542     Y49.7952      R1.9685    
   X470.7876     Y50.3011      R1.9685    
   X470.5923     Y50.7725      R1.9685    
   X470.2817     Y51.1774      R1.9685    
   X469.8769     Y51.4880      R1.9685    
   X469.4054     Y51.6833      R1.9685    
   X468.8995     Y51.7499      R1.9685    
   X468.3936     Y51.6833      R1.9685    
   X467.9222     Y51.4880      R1.9685    
   X467.5173     Y51.1774      R1.9685    
   X467.2067     Y50.7725      R1.9685    
   X467.0114     Y50.3011      R1.9685    
   X466.9448     Y49.7952      R1.9685    
(Pass: 4)
G1   Z-0.800     F200 
G17 G2   X467.0114     Y49.2893      R1.9685     F300 
   X467.2067     Y48.8178      R1.9685    
   X467.5173     Y48.4130      R1.9685    
   X467.9222     Y48.1024      R1.9685    
   X468.3936     Y47.9071      R1.9685    
   X468.8995     Y47.8405      R1.9685    
   X469.4054     Y47.9071      R1.9685    
   X469.8769     Y48.1024      R1.9685    
   X470.2817     Y48.4130      R1.9685    
   X470.5923     Y48.8178      R1.9685    
   X470.7876     Y49.2893      R1.9685    
   X470.8542     Y49.7952      R1.9685    
   X470.7876     Y50.3011      R1.9685    
   X470.5923     Y50.7725      R1.9685    
   X470.2817     Y51.1774      R1.9685    
   X469.8769     Y51.4880      R1.9685    
   X469.4054     Y51.6833      R1.9685    
   X468.8995     Y51.7499      R1.9685    
   X468.3936     Y51.6833      R1.9685    
   X467.9222     Y51.4880      R1.9685    
   X467.5173     Y51.1774      R1.9685    
   X467.2067     Y50.7725      R1.9685    
   X467.0114     Y50.3011      R1.9685    
   X466.9448     Y49.7952      R1.9685    
G0   Z18.200    
(Pass: 1)
   X468.670      Y68.939    
G1   Z2.200      F200 
G17 G2   X468.8995     Y68.9090      R0.9000     F300 
   X469.1289     Y68.9392      R0.9000    
   X469.3426     Y69.0277      R0.9000    
   X469.5262     Y69.1686      R0.9000    
   X469.6670     Y69.3521      R0.9000    
   X469.7555     Y69.5658      R0.9000    
   X469.7857     Y69.7952      R0.9000    
   X469.7555     Y70.0245      R0.9000    
   X469.6670     Y70.2383      R0.9000    
   X469.5262     Y70.4218      R0.9000    
   X469.3426     Y70.5626      R0.9000    
   X469.1289     Y70.6512      R0.9000    
   X468.8995     Y70.6814      R0.9000    
   X468.6702     Y70.6512      R0.9000    
   X468.4564     Y70.5626      R0.9000    
   X468.2729     Y70.4218      R0.9000    
   X468.1321     Y70.2383      R0.9000    
   X468.0435     Y70.0245      R0.9000    
   X468.0133     Y69.7952      R0.9000    
   X468.0435     Y69.5658      R0.9000    
   X468.1321     Y69.3521      R0.9000    
   X468.2729     Y69.1686      R0.9000    
   X468.4564     Y69.0277      R0.9000    
   X468.6702     Y68.9392      R0.9000    
(Pass: 2)
G1   Z1.200      F200 
G17 G2   X468.8995     Y68.9090      R0.9000     F300 
   X469.1289     Y68.9392      R0.9000    
   X469.3426     Y69.0277      R0.9000    
   X469.5262     Y69.1686      R0.9000    
   X469.6670     Y69.3521      R0.9000    
   X469.7555     Y69.5658      R0.9000    
   X469.7857     Y69.7952      R0.9000    
   X469.7555     Y70.0245      R0.9000    
   X469.6670     Y70.2383      R0.9000    
   X469.5262     Y70.4218      R0.9000    
   X469.3426     Y70.5626      R0.9000    
   X469.1289     Y70.6512      R0.9000    
   X468.8995     Y70.6814      R0.9000    
   X468.6702     Y70.6512      R0.9000    
   X468.4564     Y70.5626      R0.9000    
   X468.2729     Y70.4218      R0.9000    
   X468.1321     Y70.2383      R0.9000    
   X468.0435     Y70.0245      R0.9000    
   X468.0133     Y69.7952      R0.9000    
   X468.0435     Y69.5658      R0.9000    
   X468.1321     Y69.3521      R0.9000    
   X468.2729     Y69.1686      R0.9000    
   X468.4564     Y69.0277      R0.9000    
   X468.6702     Y68.9392      R0.9000    
(Pass: 3)
G1   Z0.200      F200 
G17 G2   X468.8995     Y68.9090      R0.9000     F300 
   X469.1289     Y68.9392      R0.9000    
   X469.3426     Y69.0277      R0.9000    
   X469.5262     Y69.1686      R0.9000    
   X469.6670     Y69.3521      R0.9000    
   X469.7555     Y69.5658      R0.9000    
   X469.7857     Y69.7952      R0.9000    
   X469.7555     Y70.0245      R0.9000    
   X469.6670     Y70.2383      R0.9000    
   X469.5262     Y70.4218      R0.9000    
   X469.3426     Y70.5626      R0.9000    
   X469.1289     Y70.6512      R0.9000    
   X468.8995     Y70.6814      R0.9000    
   X468.6702     Y70.6512      R0.9000    
   X468.4564     Y70.5626      R0.9000    
   X468.2729     Y70.4218      R0.9000    
   X468.1321     Y70.2383      R0.9000    
   X468.0435     Y70.0245      R0.9000    
   X468.0133     Y69.7952      R0.9000    
   X468.0435     Y69.5658      R0.9000    
   X468.1321     Y69.3521      R0.9000    
   X468.2729     Y69.1686      R0.9000    
   X468.4564     Y69.0277      R0.9000    
   X468.6702     Y68.9392      R0.9000    
(Pass: 4)
G1   Z-0.800     F200 
G17 G2   X468.8995     Y68.9090      R0.9000     F300 
   X469.1289     Y68.9392      R0.9000    
   X469.3426     Y69.0277      R0.9000    
   X469.5262     Y69.1686      R0.9000    
   X469.6670     Y69.3521      R0.9000    
   X469.7555     Y69.5658      R0.9000    
   X469.7857     Y69.7952      R0.9000    
   X469.7555     Y70.0245      R0.9000    
   X469.6670     Y70.2383      R0.9000    
   X469.5262     Y70.4218      R0.9000    
   X469.3426     Y70.5626      R0.9000    
   X469.1289     Y70.6512      R0.9000    
   X468.8995     Y70.6814      R0.9000    
   X468.6702     Y70.6512      R0.9000    
   X468.4564     Y70.5626      R0.9000    
   X468.2729     Y70.4218      R0.9000    
   X468.1321     Y70.2383      R0.9000    
   X468.0435     Y70.0245      R0.9000    
   X468.0133     Y69.7952      R0.9000    
   X468.0435     Y69.5658      R0.9000    
   X468.1321     Y69.3521      R0.9000    
   X468.2729     Y69.1686      R0.9000    
   X468.4564     Y69.0277      R0.9000    
   X468.6702     Y68.9392      R0.9000    
G0   Z18.200    
(Pass: 1)
   X459.841      Y69.566    
G1   Z2.200      F200 
G17 G2   X459.8714     Y69.7952      R0.9000     F300 
   X459.8412     Y70.0245      R0.9000    
   X459.7527     Y70.2383      R0.9000    
   X459.6118     Y70.4218      R0.9000    
   X459.4283     Y70.5626      R0.9000    
   X459.2145     Y70.6512      R0.9000    
   X458.9852     Y70.6814      R0.9000    
   X458.7558     Y70.6512      R0.9000    
   X458.5421     Y70.5626      R0.9000    
   X458.3586     Y70.4218      R0.9000    
   X458.2177     Y70.2383      R0.9000    
   X458.1292     Y70.0245      R0.9000    
   X458.0990     Y69.7952      R0.9000    
   X458.1292     Y69.5658      R0.9000    
   X458.2177     Y69.3521      R0.9000    
   X458.3586     Y69.1686      R0.9000    
   X458.5421     Y69.0277      R0.9000    
   X458.7558     Y68.9392      R0.9000    
   X458.9852     Y68.9090      R0.9000    
   X459.2145     Y68.9392      R0.9000    
   X459.4283     Y69.0277      R0.9000    
   X459.6118     Y69.1686      R0.9000    
   X459.7527     Y69.3521      R0.9000    
   X459.8412     Y69.5658      R0.9000    
(Pass: 2)
G1   Z1.200      F200 
G17 G2   X459.8714     Y69.7952      R0.9000     F300 
   X459.8412     Y70.0245      R0.9000    
   X459.7527     Y70.2383      R0.9000    
   X459.6118     Y70.4218      R0.9000    
   X459.4283     Y70.5626      R0.9000    
   X459.2145     Y70.6512      R0.9000    
   X458.9852     Y70.6814      R0.9000    
   X458.7558     Y70.6512      R0.9000    
   X458.5421     Y70.5626      R0.9000    
   X458.3586     Y70.4218      R0.9000    
   X458.2177     Y70.2383      R0.9000    
   X458.1292     Y70.0245      R0.9000    
   X458.0990     Y69.7952      R0.9000    
   X458.1292     Y69.5658      R0.9000    
   X458.2177     Y69.3521      R0.9000    
   X458.3586     Y69.1686      R0.9000    
   X458.5421     Y69.0277      R0.9000    
   X458.7558     Y68.9392      R0.9000    
   X458.9852     Y68.9090      R0.9000    
   X459.2145     Y68.9392      R0.9000    
   X459.4283     Y69.0277      R0.9000    
   X459.6118     Y69.1686      R0.9000    
   X459.7527     Y69.3521      R0.9000    
   X459.8412     Y69.5658      R0.9000    
(Pass: 3)
G1   Z0.200      F200 
G17 G2   X459.8714     Y69.7952      R0.9000     F300 
   X459.8412     Y70.0245      R0.9000    
   X459.7527     Y70.2383      R0.9000    
   X459.6118     Y70.4218      R0.9000    
   X459.4283     Y70.5626      R0.9000    
   X459.2145     Y70.6512      R0.9000    
   X458.9852     Y70.6814      R0.9000    
   X458.7558     Y70.6512      R0.9000    
   X458.5421     Y70.5626      R0.9000    
   X458.3586     Y70.4218      R0.9000    
   X458.2177     Y70.2383      R0.9000    
   X458.1292     Y70.0245      R0.9000    
   X458.0990     Y69.7952      R0.9000    
   X458.1292     Y69.5658      R0.9000    
   X458.2177     Y69.3521      R0.9000    
   X458.3586     Y69.1686      R0.9000    
   X458.5421     Y69.0277      R0.9000    
   X458.7558     Y68.9392      R0.9000    
   X458.9852     Y68.9090      R0.9000    
   X459.2145     Y68.9392      R0.9000    
   X459.4283     Y69.0277      R0.9000    
   X459.6118     Y69.1686      R0.9000    
   X459.7527     Y69.3521      R0.9000    
   X459.8412     Y69.5658      R0.9000    
(Pass: 4)
G1   Z-0.800     F200 
G17 G2   X459.8714     Y69.7952      R0.9000     F300 
   X459.8412     Y70.0245      R0.9000    
   X459.7527     Y70.2383      R0.9000    
   X459.6118     Y70.4218      R0.9000    
   X459.4283     Y70.5626      R0.9000    
   X459.2145     Y70.6512      R0.9000    
   X458.9852     Y70.6814      R0.9000    
   X458.7558     Y70.6512      R0.9000    
   X458.5421     Y70.5626      R0.9000    
   X458.3586     Y70.4218      R0.9000    
   X458.2177     Y70.2383      R0.9000    
   X458.1292     Y70.0245      R0.9000    
   X458.0990     Y69.7952      R0.9000    
   X458.1292     Y69.5658      R0.9000    
   X458.2177     Y69.3521      R0.9000    
   X458.3586     Y69.1686      R0.9000    
   X458.5421     Y69.0277      R0.9000    
   X458.7558     Y68.9392      R0.9000    
   X458.9852     Y68.9090      R0.9000    
   X459.2145     Y68.9392      R0.9000    
   X459.4283     Y69.0277      R0.9000    
   X459.6118     Y69.1686      R0.9000    
   X459.7527     Y69.3521      R0.9000    
   X459.8412     Y69.5658      R0.9000    
G0   Z18.200    
(Pass: 1)
   X458.972      Y78.909    
G1   Z2.200      F200 
G17 G2   X459.2015     Y78.9392      R0.9000     F300 
   X459.4153     Y79.0277      R0.9000    
   X459.5988     Y79.1686      R0.9000    
   X459.7396     Y79.3521      R0.9000    
   X459.8282     Y79.5658      R0.9000    
   X459.8584     Y79.7952      R0.9000    
   X459.8282     Y80.0245      R0.9000    
   X459.7396     Y80.2383      R0.9000    
   X459.5988     Y80.4218      R0.9000    
   X459.4153     Y80.5626      R0.9000    
   X459.2015     Y80.6512      R0.9000    
   X458.9722     Y80.6814      R0.9000    
   X458.7428     Y80.6512      R0.9000    
   X458.5291     Y80.5626      R0.9000    
   X458.3455     Y80.4218      R0.9000    
   X458.2047     Y80.2383      R0.9000    
   X458.1162     Y80.0245      R0.9000    
   X458.0860     Y79.7952      R0.9000    
   X458.1162     Y79.5658      R0.9000    
   X458.2047     Y79.3521      R0.9000    
   X458.3455     Y79.1686      R0.9000    
   X458.5291     Y79.0277      R0.9000    
   X458.7428     Y78.9392      R0.9000    
   X458.9722     Y78.9090      R0.9000    
(Pass: 2)
G1   Z1.200      F200 
G17 G2   X459.2015     Y78.9392      R0.9000     F300 
   X459.4153     Y79.0277      R0.9000    
   X459.5988     Y79.1686      R0.9000    
   X459.7396     Y79.3521      R0.9000    
   X459.8282     Y79.5658      R0.9000    
   X459.8584     Y79.7952      R0.9000    
   X459.8282     Y80.0245      R0.9000    
   X459.7396     Y80.2383      R0.9000    
   X459.5988     Y80.4218      R0.9000    
   X459.4153     Y80.5626      R0.9000    
   X459.2015     Y80.6512      R0.9000    
   X458.9722     Y80.6814      R0.9000    
   X458.7428     Y80.6512      R0.9000    
   X458.5291     Y80.5626      R0.9000    
   X458.3455     Y80.4218      R0.9000    
   X458.2047     Y80.2383      R0.9000    
   X458.1162     Y80.0245      R0.9000    
   X458.0860     Y79.7952      R0.9000    
   X458.1162     Y79.5658      R0.9000    
   X458.2047     Y79.3521      R0.9000    
   X458.3455     Y79.1686      R0.9000    
   X458.5291     Y79.0277      R0.9000    
   X458.7428     Y78.9392      R0.9000    
   X458.9722     Y78.9090      R0.9000    
(Pass: 3)
G1   Z0.200      F200 
G17 G2   X459.2015     Y78.9392      R0.9000     F300 
   X459.4153     Y79.0277      R0.9000    
   X459.5988     Y79.1686      R0.9000    
   X459.7396     Y79.3521      R0.9000    
   X459.8282     Y79.5658      R0.9000    
   X459.8584     Y79.7952      R0.9000    
   X459.8282     Y80.0245      R0.9000    
   X459.7396     Y80.2383      R0.9000    
   X459.5988     Y80.4218      R0.9000    
   X459.4153     Y80.5626      R0.9000    
   X459.2015     Y80.6512      R0.9000    
   X458.9722     Y80.6814      R0.9000    
   X458.7428     Y80.6512      R0.9000    
   X458.5291     Y80.5626      R0.9000    
   X458.3455     Y80.4218      R0.9000    
   X458.2047     Y80.2383      R0.9000    
   X458.1162     Y80.0245      R0.9000    
   X458.0860     Y79.7952      R0.9000    
   X458.1162     Y79.5658      R0.9000    
   X458.2047     Y79.3521      R0.9000    
   X458.3455     Y79.1686      R0.9000    
   X458.5291     Y79.0277      R0.9000    
   X458.7428     Y78.9392      R0.9000    
   X458.9722     Y78.9090      R0.9000    
(Pass: 4)
G1   Z-0.800     F200 
G17 G2   X459.2015     Y78.9392      R0.9000     F300 
   X459.4153     Y79.0277      R0.9000    
   X459.5988     Y79.1686      R0.9000    
   X459.7396     Y79.3521      R0.9000    
   X459.8282     Y79.5658      R0.9000    
   X459.8584     Y79.7952      R0.9000    
   X459.8282     Y80.0245      R0.9000    
   X459.7396     Y80.2383      R0.9000    
   X459.5988     Y80.4218      R0.9000    
   X459.4153     Y80.5626      R0.9000    
   X459.2015     Y80.6512      R0.9000    
   X458.9722     Y80.6814      R0.9000    
   X458.7428     Y80.6512      R0.9000    
   X458.5291     Y80.5626      R0.9000    
   X458.3455     Y80.4218      R0.9000    
   X458.2047     Y80.2383      R0.9000    
   X458.1162     Y80.0245      R0.9000    
   X458.0860     Y79.7952      R0.9000    
   X458.1162     Y79.5658      R0.9000    
   X458.2047     Y79.3521      R0.9000    
   X458.3455     Y79.1686      R0.9000    
   X458.5291     Y79.0277      R0.9000    
   X458.7428     Y78.9392      R0.9000    
   X458.9722     Y78.9090      R0.9000    
G0   Z18.200    
(Pass: 1)
   X466.945      Y79.795    
G1   Z2.200      F200 
G17 G2   X467.0114     Y79.2893      R1.9685     F300 
   X467.2067     Y78.8178      R1.9685    
   X467.5173     Y78.4130      R1.9685    
   X467.9222     Y78.1024      R1.9685    
   X468.3936     Y77.9071      R1.9685    
   X468.8995     Y77.8405      R1.9685    
   X469.4054     Y77.9071      R1.9685    
   X469.8769     Y78.1024      R1.9685    
   X470.2817     Y78.4130      R1.9685    
   X470.5923     Y78.8178      R1.9685    
   X470.7876     Y79.2893      R1.9685    
   X470.8542     Y79.7952      R1.9685    
   X470.7876     Y80.3011      R1.9685    
   X470.5923     Y80.7725      R1.9685    
   X470.2817     Y81.1774      R1.9685    
   X469.8769     Y81.4880      R1.9685    
   X469.4054     Y81.6833      R1.9685    
   X468.8995     Y81.7499      R1.9685    
   X468.3936     Y81.6833      R1.9685    
   X467.9222     Y81.4880      R1.9685    
   X467.5173     Y81.1774      R1.9685    
   X467.2067     Y80.7725      R1.9685    
   X467.0114     Y80.3011      R1.9685    
   X466.9448     Y79.7952      R1.9685    
(Pass: 2)
G1   Z1.200      F200 
G17 G2   X467.0114     Y79.2893      R1.9685     F300 
   X467.2067     Y78.8178      R1.9685    
   X467.5173     Y78.4130      R1.9685    
   X467.9222     Y78.1024      R1.9685    
   X468.3936     Y77.9071      R1.9685    
   X468.8995     Y77.8405      R1.9685    
   X469.4054     Y77.9071      R1.9685    
   X469.8769     Y78.1024      R1.9685    
   X470.2817     Y78.4130      R1.9685    
   X470.5923     Y78.8178      R1.9685    
   X470.7876     Y79.2893      R1.9685    
   X470.8542     Y79.7952      R1.9685    
   X470.7876     Y80.3011      R1.9685    
   X470.5923     Y80.7725      R1.9685    
   X470.2817     Y81.1774      R1.9685    
   X469.8769     Y81.4880      R1.9685    
   X469.4054     Y81.6833      R1.9685    
   X468.8995     Y81.7499      R1.9685    
   X468.3936     Y81.6833      R1.9685    
   X467.9222     Y81.4880      R1.9685    
   X467.5173     Y81.1774      R1.9685    
   X467.2067     Y80.7725      R1.9685    
   X467.0114     Y80.3011      R1.9685    
   X466.9448     Y79.7952      R1.9685    
(Pass: 3)
G1   Z0.200      F200 
G17 G2   X467.0114     Y79.2893      R1.9685     F300 
   X467.2067     Y78.8178      R1.9685    
   X467.5173     Y78.4130      R1.9685    
   X467.9222     Y78.1024      R1.9685    
   X468.3936     Y77.9071      R1.9685    
   X468.8995     Y77.8405      R1.9685    
   X469.4054     Y77.9071      R1.9685    
   X469.8769     Y78.1024      R1.9685    
   X470.2817     Y78.4130      R1.9685    
   X470.5923     Y78.8178      R1.9685    
   X470.7876     Y79.2893      R1.9685    
   X470.8542     Y79.7952      R1.9685    
   X470.7876     Y80.3011      R1.9685    
   X470.5923     Y80.7725      R1.9685    
   X470.2817     Y81.1774      R1.9685    
   X469.8769     Y81.4880      R1.9685    
   X469.4054     Y81.6833      R1.9685    
   X468.8995     Y81.7499      R1.9685    
   X468.3936     Y81.6833      R1.9685    
   X467.9222     Y81.4880      R1.9685    
   X467.5173     Y81.1774      R1.9685    
   X467.2067     Y80.7725      R1.9685    
   X467.0114     Y80.3011      R1.9685    
   X466.9448     Y79.7952      R1.9685    
(Pass: 4)
G1   Z-0.800     F200 
G17 G2   X467.0114     Y79.2893      R1.9685     F300 
   X467.2067     Y78.8178      R1.9685    
   X467.5173     Y78.4130      R1.9685    
   X467.9222     Y78.1024      R1.9685    
   X468.3936     Y77.9071      R1.9685    
   X468.8995     Y77.8405      R1.9685    
   X469.4054     Y77.9071      R1.9685    
   X469.8769     Y78.1024      R1.9685    
   X470.2817     Y78.4130      R1.9685    
   X470.5923     Y78.8178      R1.9685    
   X470.7876     Y79.2893      R1.9685    
   X470.8542     Y79.7952      R1.9685    
   X470.7876     Y80.3011      R1.9685    
   X470.5923     Y80.7725      R1.9685    
   X470.2817     Y81.1774      R1.9685    
   X469.8769     Y81.4880      R1.9685    
   X469.4054     Y81.6833      R1.9685    
   X468.8995     Y81.7499      R1.9685    
   X468.3936     Y81.6833      R1.9685    
   X467.9222     Y81.4880      R1.9685    
   X467.5173     Y81.1774      R1.9685    
   X467.2067     Y80.7725      R1.9685    
   X467.0114     Y80.3011      R1.9685    
   X466.9448     Y79.7952      R1.9685    
G0   Z18.200    
(Pass: 1)
   X466.972      Y99.919    
G1   Z2.200      F200 
G17 G2   X467.2013     Y99.9495      R0.9000     F300 
   X467.4150     Y100.0380     R0.9000    
   X467.5986     Y100.1789     R0.9000    
   X467.7394     Y100.3624     R0.9000    
   X467.8279     Y100.5761     R0.9000    
   X467.8581     Y100.8055     R0.9000    
   X467.8279     Y101.0349     R0.9000    
   X467.7394     Y101.2486     R0.9000    
   X467.5986     Y101.4321     R0.9000    
   X467.4150     Y101.5730     R0.9000    
   X467.2013     Y101.6615     R0.9000    
   X466.9719     Y101.6917     R0.9000    
   X466.7426     Y101.6615     R0.9000    
   X466.5288     Y101.5730     R0.9000    
   X466.3453     Y101.4321     R0.9000    
   X466.2045     Y101.2486     R0.9000    
   X466.1159     Y101.0349     R0.9000    
   X466.0857     Y100.8055     R0.9000    
   X466.1159     Y100.5761     R0.9000    
   X466.2045     Y100.3624     R0.9000    
   X466.3453     Y100.1789     R0.9000    
   X466.5288     Y100.0380     R0.9000    
   X466.7426     Y99.9495      R0.9000    
   X466.9719     Y99.9193      R0.9000    
(Pass: 2)
G1   Z1.200      F200 
G17 G2   X467.2013     Y99.9495      R0.9000     F300 
   X467.4150     Y100.0380     R0.9000    
   X467.5986     Y100.1789     R0.9000    
   X467.7394     Y100.3624     R0.9000    
   X467.8279     Y100.5761     R0.9000    
   X467.8581     Y100.8055     R0.9000    
   X467.8279     Y101.0349     R0.9000    
   X467.7394     Y101.2486     R0.9000    
   X467.5986     Y101.4321     R0.9000    
   X467.4150     Y101.5730     R0.9000    
   X467.2013     Y101.6615     R0.9000    
   X466.9719     Y101.6917     R0.9000    
   X466.7426     Y101.6615     R0.9000    
   X466.5288     Y101.5730     R0.9000    
   X466.3453     Y101.4321     R0.9000    
   X466.2045     Y101.2486     R0.9000    
   X466.1159     Y101.0349     R0.9000    
   X466.0857     Y100.8055     R0.9000    
   X466.1159     Y100.5761     R0.9000    
   X466.2045     Y100.3624     R0.9000    
   X466.3453     Y100.1789     R0.9000    
   X466.5288     Y100.0380     R0.9000    
   X466.7426     Y99.9495      R0.9000    
   X466.9719     Y99.9193      R0.9000    
(Pass: 3)
G1   Z0.200      F200 
G17 G2   X467.2013     Y99.9495      R0.9000     F300 
   X467.4150     Y100.0380     R0.9000    
   X467.5986     Y100.1789     R0.9000    
   X467.7394     Y100.3624     R0.9000    
   X467.8279     Y100.5761     R0.9000    
   X467.8581     Y100.8055     R0.9000    
   X467.8279     Y101.0349     R0.9000    
   X467.7394     Y101.2486     R0.9000    
   X467.5986     Y101.4321     R0.9000    
   X467.4150     Y101.5730     R0.9000    
   X467.2013     Y101.6615     R0.9000    
   X466.9719     Y101.6917     R0.9000    
   X466.7426     Y101.6615     R0.9000    
   X466.5288     Y101.5730     R0.9000    
   X466.3453     Y101.4321     R0.9000    
   X466.2045     Y101.2486     R0.9000    
   X466.1159     Y101.0349     R0.9000    
   X466.0857     Y100.8055     R0.9000    
   X466.1159     Y100.5761     R0.9000    
   X466.2045     Y100.3624     R0.9000    
   X466.3453     Y100.1789     R0.9000    
   X466.5288     Y100.0380     R0.9000    
   X466.7426     Y99.9495      R0.9000    
   X466.9719     Y99.9193      R0.9000    
(Pass: 4)
G1   Z-0.800     F200 
G17 G2   X467.2013     Y99.9495      R0.9000     F300 
   X467.4150     Y100.0380     R0.9000    
   X467.5986     Y100.1789     R0.9000    
   X467.7394     Y100.3624     R0.9000    
   X467.8279     Y100.5761     R0.9000    
   X467.8581     Y100.8055     R0.9000    
   X467.8279     Y101.0349     R0.9000    
   X467.7394     Y101.2486     R0.9000    
   X467.5986     Y101.4321     R0.9000    
   X467.4150     Y101.5730     R0.9000    
   X467.2013     Y101.6615     R0.9000    
   X466.9719     Y101.6917     R0.9000    
   X466.7426     Y101.6615     R0.9000    
   X466.5288     Y101.5730     R0.9000    
   X466.3453     Y101.4321     R0.9000    
   X466.2045     Y101.2486     R0.9000    
   X466.1159     Y101.0349     R0.9000    
   X466.0857     Y100.8055     R0.9000    
   X466.1159     Y100.5761     R0.9000    
   X466.2045     Y100.3624     R0.9000    
   X466.3453     Y100.1789     R0.9000    
   X466.5288     Y100.0380     R0.9000    
   X466.7426     Y99.9495      R0.9000    
   X466.9719     Y99.9193      R0.9000    
G0   Z18.200    
(Pass: 1)
   X442.828      Y100.576   
G1   Z2.200      F200 
G17 G2   X442.8581     Y100.8055     R0.9000     F300 
   X442.8279     Y101.0349     R0.9000    
   X442.7394     Y101.2486     R0.9000    
   X442.5986     Y101.4321     R0.9000    
   X442.4150     Y101.5730     R0.9000    
   X442.2013     Y101.6615     R0.9000    
   X441.9719     Y101.6917     R0.9000    
   X441.7426     Y101.6615     R0.9000    
   X441.5288     Y101.5730     R0.9000    
   X441.3453     Y101.4321     R0.9000    
   X441.2045     Y101.2486     R0.9000    
   X441.1159     Y101.0349     R0.9000    
   X441.0857     Y100.8055     R0.9000    
   X441.1159     Y100.5761     R0.9000    
   X441.2045     Y100.3624     R0.9000    
   X441.3453     Y100.1789     R0.9000    
   X441.5288     Y100.0380     R0.9000    
   X441.7426     Y99.9495      R0.9000    
   X441.9719     Y99.9193      R0.9000    
   X442.2013     Y99.9495      R0.9000    
   X442.4150     Y100.0380     R0.9000    
   X442.5986     Y100.1789     R0.9000    
   X442.7394     Y100.3624     R0.9000    
   X442.8279     Y100.5761     R0.9000    
(Pass: 2)
G1   Z1.200      F200 
G17 G2   X442.8581     Y100.8055     R0.9000     F300 
   X442.8279     Y101.0349     R0.9000    
   X442.7394     Y101.2486     R0.9000    
   X442.5986     Y101.4321     R0.9000    
   X442.4150     Y101.5730     R0.9000    
   X442.2013     Y101.6615     R0.9000    
   X441.9719     Y101.6917     R0.9000    
   X441.7426     Y101.6615     R0.9000    
   X441.5288     Y101.5730     R0.9000    
   X441.3453     Y101.4321     R0.9000    
   X441.2045     Y101.2486     R0.9000    
   X441.1159     Y101.0349     R0.9000    
   X441.0857     Y100.8055     R0.9000    
   X441.1159     Y100.5761     R0.9000    
   X441.2045     Y100.3624     R0.9000    
   X441.3453     Y100.1789     R0.9000    
   X441.5288     Y100.0380     R0.9000    
   X441.7426     Y99.9495      R0.9000    
   X441.9719     Y99.9193      R0.9000    
   X442.2013     Y99.9495      R0.9000    
   X442.4150     Y100.0380     R0.9000    
   X442.5986     Y100.1789     R0.9000    
   X442.7394     Y100.3624     R0.9000    
   X442.8279     Y100.5761     R0.9000    
(Pass: 3)
G1   Z0.200      F200 
G17 G2   X442.8581     Y100.8055     R0.9000     F300 
   X442.8279     Y101.0349     R0.9000    
   X442.7394     Y101.2486     R0.9000    
   X442.5986     Y101.4321     R0.9000    
   X442.4150     Y101.5730     R0.9000    
   X442.2013     Y101.6615     R0.9000    
   X441.9719     Y101.6917     R0.9000    
   X441.7426     Y101.6615     R0.9000    
   X441.5288     Y101.5730     R0.9000    
   X441.3453     Y101.4321     R0.9000    
   X441.2045     Y101.2486     R0.9000    
   X441.1159     Y101.0349     R0.9000    
   X441.0857     Y100.8055     R0.9000    
   X441.1159     Y100.5761     R0.9000    
   X441.2045     Y100.3624     R0.9000    
   X441.3453     Y100.1789     R0.9000    
   X441.5288     Y100.0380     R0.9000    
   X441.7426     Y99.9495      R0.9000    
   X441.9719     Y99.9193      R0.9000    
   X442.2013     Y99.9495      R0.9000    
   X442.4150     Y100.0380     R0.9000    
   X442.5986     Y100.1789     R0.9000    
   X442.7394     Y100.3624     R0.9000    
   X442.8279     Y100.5761     R0.9000    
(Pass: 4)
G1   Z-0.800     F200 
G17 G2   X442.8581     Y100.8055     R0.9000     F300 
   X442.8279     Y101.0349     R0.9000    
   X442.7394     Y101.2486     R0.9000    
   X442.5986     Y101.4321     R0.9000    
   X442.4150     Y101.5730     R0.9000    
   X442.2013     Y101.6615     R0.9000    
   X441.9719     Y101.6917     R0.9000    
   X441.7426     Y101.6615     R0.9000    
   X441.5288     Y101.5730     R0.9000    
   X441.3453     Y101.4321     R0.9000    
   X441.2045     Y101.2486     R0.9000    
   X441.1159     Y101.0349     R0.9000    
   X441.0857     Y100.8055     R0.9000    
   X441.1159     Y100.5761     R0.9000    
   X441.2045     Y100.3624     R0.9000    
   X441.3453     Y100.1789     R0.9000    
   X441.5288     Y100.0380     R0.9000    
   X441.7426     Y99.9495      R0.9000    
   X441.9719     Y99.9193      R0.9000    
   X442.2013     Y99.9495      R0.9000    
   X442.4150     Y100.0380     R0.9000    
   X442.5986     Y100.1789     R0.9000    
   X442.7394     Y100.3624     R0.9000    
   X442.8279     Y100.5761     R0.9000    
G0   Z18.200    
(Pass: 1)
   X488.694      Y60.422    
G1   Z2.200      F200 
G17 G2   X488.5536     Y60.2383      R0.9000     F300 
   X488.4651     Y60.0245      R0.9000    
   X488.4349     Y59.7952      R0.9000    
   X488.4651     Y59.5658      R0.9000    
   X488.5536     Y59.3521      R0.9000    
   X488.6944     Y59.1686      R0.9000    
   X488.8780     Y59.0277      R0.9000    
   X489.0917     Y58.9392      R0.9000    
   X489.3211     Y58.9090      R0.9000    
   X489.5504     Y58.9392      R0.9000    
   X489.7642     Y59.0277      R0.9000    
   X489.9477     Y59.1686      R0.9000    
   X490.0885     Y59.3521      R0.9000    
   X490.1771     Y59.5658      R0.9000    
   X490.2073     Y59.7952      R0.9000    
   X490.1771     Y60.0245      R0.9000    
   X490.0885     Y60.2383      R0.9000    
   X489.9477     Y60.4218      R0.9000    
   X489.7642     Y60.5626      R0.9000    
   X489.5504     Y60.6512      R0.9000    
   X489.3211     Y60.6814      R0.9000    
   X489.0917     Y60.6512      R0.9000    
   X488.8780     Y60.5626      R0.9000    
   X488.6944     Y60.4218      R0.9000    
(Pass: 2)
G1   Z1.200      F200 
G17 G2   X488.5536     Y60.2383      R0.9000     F300 
   X488.4651     Y60.0245      R0.9000    
   X488.4349     Y59.7952      R0.9000    
   X488.4651     Y59.5658      R0.9000    
   X488.5536     Y59.3521      R0.9000    
   X488.6944     Y59.1686      R0.9000    
   X488.8780     Y59.0277      R0.9000    
   X489.0917     Y58.9392      R0.9000    
   X489.3211     Y58.9090      R0.9000    
   X489.5504     Y58.9392      R0.9000    
   X489.7642     Y59.0277      R0.9000    
   X489.9477     Y59.1686      R0.9000    
   X490.0885     Y59.3521      R0.9000    
   X490.1771     Y59.5658      R0.9000    
   X490.2073     Y59.7952      R0.9000    
   X490.1771     Y60.0245      R0.9000    
   X490.0885     Y60.2383      R0.9000    
   X489.9477     Y60.4218      R0.9000    
   X489.7642     Y60.5626      R0.9000    
   X489.5504     Y60.6512      R0.9000    
   X489.3211     Y60.6814      R0.9000    
   X489.0917     Y60.6512      R0.9000    
   X488.8780     Y60.5626      R0.9000    
   X488.6944     Y60.4218      R0.9000    
(Pass: 3)
G1   Z0.200      F200 
G17 G2   X488.5536     Y60.2383      R0.9000     F300 
   X488.4651     Y60.0245      R0.9000    
   X488.4349     Y59.7952      R0.9000    
   X488.4651     Y59.5658      R0.9000    
   X488.5536     Y59.3521      R0.9000    
   X488.6944     Y59.1686      R0.9000    
   X488.8780     Y59.0277      R0.9000    
   X489.0917     Y58.9392      R0.9000    
   X489.3211     Y58.9090      R0.9000    
   X489.5504     Y58.9392      R0.9000    
   X489.7642     Y59.0277      R0.9000    
   X489.9477     Y59.1686      R0.9000    
   X490.0885     Y59.3521      R0.9000    
   X490.1771     Y59.5658      R0.9000    
   X490.2073     Y59.7952      R0.9000    
   X490.1771     Y60.0245      R0.9000    
   X490.0885     Y60.2383      R0.9000    
   X489.9477     Y60.4218      R0.9000    
   X489.7642     Y60.5626      R0.9000    
   X489.5504     Y60.6512      R0.9000    
   X489.3211     Y60.6814      R0.9000    
   X489.0917     Y60.6512      R0.9000    
   X488.8780     Y60.5626      R0.9000    
   X488.6944     Y60.4218      R0.9000    
(Pass: 4)
G1   Z-0.800     F200 
G17 G2   X488.5536     Y60.2383      R0.9000     F300 
   X488.4651     Y60.0245      R0.9000    
   X488.4349     Y59.7952      R0.9000    
   X488.4651     Y59.5658      R0.9000    
   X488.5536     Y59.3521      R0.9000    
   X488.6944     Y59.1686      R0.9000    
   X488.8780     Y59.0277      R0.9000    
   X489.0917     Y58.9392      R0.9000    
   X489.3211     Y58.9090      R0.9000    
   X489.5504     Y58.9392      R0.9000    
   X489.7642     Y59.0277      R0.9000    
   X489.9477     Y59.1686      R0.9000    
   X490.0885     Y59.3521      R0.9000    
   X490.1771     Y59.5658      R0.9000    
   X490.2073     Y59.7952      R0.9000    
   X490.1771     Y60.0245      R0.9000    
   X490.0885     Y60.2383      R0.9000    
   X489.9477     Y60.4218      R0.9000    
   X489.7642     Y60.5626      R0.9000    
   X489.5504     Y60.6512      R0.9000    
   X489.3211     Y60.6814      R0.9000    
   X489.0917     Y60.6512      R0.9000    
   X488.8780     Y60.5626      R0.9000    
   X488.6944     Y60.4218      R0.9000    
G0   Z18.200    
(Pass: 1)
   X508.435      Y59.795    
G1   Z2.200      F200 
G17 G2   X508.4651     Y59.5658      R0.9000     F300 
   X508.5536     Y59.3521      R0.9000    
   X508.6944     Y59.1686      R0.9000    
   X508.8780     Y59.0277      R0.9000    
   X509.0917     Y58.9392      R0.9000    
   X509.3211     Y58.9090      R0.9000    
   X509.5504     Y58.9392      R0.9000    
   X509.7642     Y59.0277      R0.9000    
   X509.9477     Y59.1686      R0.9000    
   X510.0885     Y59.3521      R0.9000    
   X510.1771     Y59.5658      R0.9000    
   X510.2073     Y59.7952      R0.9000    
   X510.1771     Y60.0245      R0.9000    
   X510.0885     Y60.2383      R0.9000    
   X509.9477     Y60.4218      R0.9000    
   X509.7642     Y60.5626      R0.9000    
   X509.5504     Y60.6512      R0.9000    
   X509.3211     Y60.6814      R0.9000    
   X509.0917     Y60.6512      R0.9000    
   X508.8780     Y60.5626      R0.9000    
   X508.6944     Y60.4218      R0.9000    
   X508.5536     Y60.2383      R0.9000    
   X508.4651     Y60.0245      R0.9000    
   X508.4349     Y59.7952      R0.9000    
(Pass: 2)
G1   Z1.200      F200 
G17 G2   X508.4651     Y59.5658      R0.9000     F300 
   X508.5536     Y59.3521      R0.9000    
   X508.6944     Y59.1686      R0.9000    
   X508.8780     Y59.0277      R0.9000    
   X509.0917     Y58.9392      R0.9000    
   X509.3211     Y58.9090      R0.9000    
   X509.5504     Y58.9392      R0.9000    
   X509.7642     Y59.0277      R0.9000    
   X509.9477     Y59.1686      R0.9000    
   X510.0885     Y59.3521      R0.9000    
   X510.1771     Y59.5658      R0.9000    
   X510.2073     Y59.7952      R0.9000    
   X510.1771     Y60.0245      R0.9000    
   X510.0885     Y60.2383      R0.9000    
   X509.9477     Y60.4218      R0.9000    
   X509.7642     Y60.5626      R0.9000    
   X509.5504     Y60.6512      R0.9000    
   X509.3211     Y60.6814      R0.9000    
   X509.0917     Y60.6512      R0.9000    
   X508.8780     Y60.5626      R0.9000    
   X508.6944     Y60.4218      R0.9000    
   X508.5536     Y60.2383      R0.9000    
   X508.4651     Y60.0245      R0.9000    
   X508.4349     Y59.7952      R0.9000    
(Pass: 3)
G1   Z0.200      F200 
G17 G2   X508.4651     Y59.5658      R0.9000     F300 
   X508.5536     Y59.3521      R0.9000    
   X508.6944     Y59.1686      R0.9000    
   X508.8780     Y59.0277      R0.9000    
   X509.0917     Y58.9392      R0.9000    
   X509.3211     Y58.9090      R0.9000    
   X509.5504     Y58.9392      R0.9000    
   X509.7642     Y59.0277      R0.9000    
   X509.9477     Y59.1686      R0.9000    
   X510.0885     Y59.3521      R0.9000    
   X510.1771     Y59.5658      R0.9000    
   X510.2073     Y59.7952      R0.9000    
   X510.1771     Y60.0245      R0.9000    
   X510.0885     Y60.2383      R0.9000    
   X509.9477     Y60.4218      R0.9000    
   X509.7642     Y60.5626      R0.9000    
   X509.5504     Y60.6512      R0.9000    
   X509.3211     Y60.6814      R0.9000    
   X509.0917     Y60.6512      R0.9000    
   X508.8780     Y60.5626      R0.9000    
   X508.6944     Y60.4218      R0.9000    
   X508.5536     Y60.2383      R0.9000    
   X508.4651     Y60.0245      R0.9000    
   X508.4349     Y59.7952      R0.9000    
(Pass: 4)
G1   Z-0.800     F200 
G17 G2   X508.4651     Y59.5658      R0.9000     F300 
   X508.5536     Y59.3521      R0.9000    
   X508.6944     Y59.1686      R0.9000    
   X508.8780     Y59.0277      R0.9000    
   X509.0917     Y58.9392      R0.9000    
   X509.3211     Y58.9090      R0.9000    
   X509.5504     Y58.9392      R0.9000    
   X509.7642     Y59.0277      R0.9000    
   X509.9477     Y59.1686      R0.9000    
   X510.0885     Y59.3521      R0.9000    
   X510.1771     Y59.5658      R0.9000    
   X510.2073     Y59.7952      R0.9000    
   X510.1771     Y60.0245      R0.9000    
   X510.0885     Y60.2383      R0.9000    
   X509.9477     Y60.4218      R0.9000    
   X509.7642     Y60.5626      R0.9000    
   X509.5504     Y60.6512      R0.9000    
   X509.3211     Y60.6814      R0.9000    
   X509.0917     Y60.6512      R0.9000    
   X508.8780     Y60.5626      R0.9000    
   X508.6944     Y60.4218      R0.9000    
   X508.5536     Y60.2383      R0.9000    
   X508.4651     Y60.0245      R0.9000    
   X508.4349     Y59.7952      R0.9000    
G0   Z18.200    
(Pass: 1)
   X528.544      Y69.566    
G1   Z2.200      F200 
G17 G2   X528.6321     Y69.3521      R0.9000     F300 
   X528.7729     Y69.1686      R0.9000    
   X528.9564     Y69.0277      R0.9000    
   X529.1702     Y68.9392      R0.9000    
   X529.3995     Y68.9090      R0.9000    
   X529.6289     Y68.9392      R0.9000    
   X529.8426     Y69.0277      R0.9000    
   X530.0262     Y69.1686      R0.9000    
   X530.1670     Y69.3521      R0.9000    
   X530.2555     Y69.5658      R0.9000    
   X530.2857     Y69.7952      R0.9000    
   X530.2555     Y70.0245      R0.9000    
   X530.1670     Y70.2383      R0.9000    
   X530.0262     Y70.4218      R0.9000    
   X529.8426     Y70.5626      R0.9000    
   X529.6289     Y70.6512      R0.9000    
   X529.3995     Y70.6814      R0.9000    
   X529.1702     Y70.6512      R0.9000    
   X528.9564     Y70.5626      R0.9000    
   X528.7729     Y70.4218      R0.9000    
   X528.6321     Y70.2383      R0.9000    
   X528.5435     Y70.0245      R0.9000    
   X528.5133     Y69.7952      R0.9000    
   X528.5435     Y69.5658      R0.9000    
(Pass: 2)
G1   Z1.200      F200 
G17 G2   X528.6321     Y69.3521      R0.9000     F300 
   X528.7729     Y69.1686      R0.9000    
   X528.9564     Y69.0277      R0.9000    
   X529.1702     Y68.9392      R0.9000    
   X529.3995     Y68.9090      R0.9000    
   X529.6289     Y68.9392      R0.9000    
   X529.8426     Y69.0277      R0.9000    
   X530.0262     Y69.1686      R0.9000    
   X530.1670     Y69.3521      R0.9000    
   X530.2555     Y69.5658      R0.9000    
   X530.2857     Y69.7952      R0.9000    
   X530.2555     Y70.0245      R0.9000    
   X530.1670     Y70.2383      R0.9000    
   X530.0262     Y70.4218      R0.9000    
   X529.8426     Y70.5626      R0.9000    
   X529.6289     Y70.6512      R0.9000    
   X529.3995     Y70.6814      R0.9000    
   X529.1702     Y70.6512      R0.9000    
   X528.9564     Y70.5626      R0.9000    
   X528.7729     Y70.4218      R0.9000    
   X528.6321     Y70.2383      R0.9000    
   X528.5435     Y70.0245      R0.9000    
   X528.5133     Y69.7952      R0.9000    
   X528.5435     Y69.5658      R0.9000    
(Pass: 3)
G1   Z0.200      F200 
G17 G2   X528.6321     Y69.3521      R0.9000     F300 
   X528.7729     Y69.1686      R0.9000    
   X528.9564     Y69.0277      R0.9000    
   X529.1702     Y68.9392      R0.9000    
   X529.3995     Y68.9090      R0.9000    
   X529.6289     Y68.9392      R0.9000    
   X529.8426     Y69.0277      R0.9000    
   X530.0262     Y69.1686      R0.9000    
   X530.1670     Y69.3521      R0.9000    
   X530.2555     Y69.5658      R0.9000    
   X530.2857     Y69.7952      R0.9000    
   X530.2555     Y70.0245      R0.9000    
   X530.1670     Y70.2383      R0.9000    
   X530.0262     Y70.4218      R0.9000    
   X529.8426     Y70.5626      R0.9000    
   X529.6289     Y70.6512      R0.9000    
   X529.3995     Y70.6814      R0.9000    
   X529.1702     Y70.6512      R0.9000    
   X528.9564     Y70.5626      R0.9000    
   X528.7729     Y70.4218      R0.9000    
   X528.6321     Y70.2383      R0.9000    
   X528.5435     Y70.0245      R0.9000    
   X528.5133     Y69.7952      R0.9000    
   X528.5435     Y69.5658      R0.9000    
(Pass: 4)
G1   Z-0.800     F200 
G17 G2   X528.6321     Y69.3521      R0.9000     F300 
   X528.7729     Y69.1686      R0.9000    
   X528.9564     Y69.0277      R0.9000    
   X529.1702     Y68.9392      R0.9000    
   X529.3995     Y68.9090      R0.9000    
   X529.6289     Y68.9392      R0.9000    
   X529.8426     Y69.0277      R0.9000    
   X530.0262     Y69.1686      R0.9000    
   X530.1670     Y69.3521      R0.9000    
   X530.2555     Y69.5658      R0.9000    
   X530.2857     Y69.7952      R0.9000    
   X530.2555     Y70.0245      R0.9000    
   X530.1670     Y70.2383      R0.9000    
   X530.0262     Y70.4218      R0.9000    
   X529.8426     Y70.5626      R0.9000    
   X529.6289     Y70.6512      R0.9000    
   X529.3995     Y70.6814      R0.9000    
   X529.1702     Y70.6512      R0.9000    
   X528.9564     Y70.5626      R0.9000    
   X528.7729     Y70.4218      R0.9000    
   X528.6321     Y70.2383      R0.9000    
   X528.5435     Y70.0245      R0.9000    
   X528.5133     Y69.7952      R0.9000    
   X528.5435     Y69.5658      R0.9000    
G0   Z18.200    
(Pass: 1)
   X538.513      Y69.795    
G1   Z2.200      F200 
G17 G2   X538.5435     Y69.5658      R0.9000     F300 
   X538.6321     Y69.3521      R0.9000    
   X538.7729     Y69.1686      R0.9000    
   X538.9564     Y69.0277      R0.9000    
   X539.1702     Y68.9392      R0.9000    
   X539.3995     Y68.9090      R0.9000    
   X539.6289     Y68.9392      R0.9000    
   X539.8426     Y69.0277      R0.9000    
   X540.0262     Y69.1686      R0.9000    
   X540.1670     Y69.3521      R0.9000    
   X540.2555     Y69.5658      R0.9000    
   X540.2857     Y69.7952      R0.9000    
   X540.2555     Y70.0245      R0.9000    
   X540.1670     Y70.2383      R0.9000    
   X540.0262     Y70.4218      R0.9000    
   X539.8426     Y70.5626      R0.9000    
   X539.6289     Y70.6512      R0.9000    
   X539.3995     Y70.6814      R0.9000    
   X539.1702     Y70.6512      R0.9000    
   X538.9564     Y70.5626      R0.9000    
   X538.7729     Y70.4218      R0.9000    
   X538.6321     Y70.2383      R0.9000    
   X538.5435     Y70.0245      R0.9000    
   X538.5133     Y69.7952      R0.9000    
(Pass: 2)
G1   Z1.200      F200 
G17 G2   X538.5435     Y69.5658      R0.9000     F300 
   X538.6321     Y69.3521      R0.9000    
   X538.7729     Y69.1686      R0.9000    
   X538.9564     Y69.0277      R0.9000    
   X539.1702     Y68.9392      R0.9000    
   X539.3995     Y68.9090      R0.9000    
   X539.6289     Y68.9392      R0.9000    
   X539.8426     Y69.0277      R0.9000    
   X540.0262     Y69.1686      R0.9000    
   X540.1670     Y69.3521      R0.9000    
   X540.2555     Y69.5658      R0.9000    
   X540.2857     Y69.7952      R0.9000    
   X540.2555     Y70.0245      R0.9000    
   X540.1670     Y70.2383      R0.9000    
   X540.0262     Y70.4218      R0.9000    
   X539.8426     Y70.5626      R0.9000    
   X539.6289     Y70.6512      R0.9000    
   X539.3995     Y70.6814      R0.9000    
   X539.1702     Y70.6512      R0.9000    
   X538.9564     Y70.5626      R0.9000    
   X538.7729     Y70.4218      R0.9000    
   X538.6321     Y70.2383      R0.9000    
   X538.5435     Y70.0245      R0.9000    
   X538.5133     Y69.7952      R0.9000    
(Pass: 3)
G1   Z0.200      F200 
G17 G2   X538.5435     Y69.5658      R0.9000     F300 
   X538.6321     Y69.3521      R0.9000    
   X538.7729     Y69.1686      R0.9000    
   X538.9564     Y69.0277      R0.9000    
   X539.1702     Y68.9392      R0.9000    
   X539.3995     Y68.9090      R0.9000    
   X539.6289     Y68.9392      R0.9000    
   X539.8426     Y69.0277      R0.9000    
   X540.0262     Y69.1686      R0.9000    
   X540.1670     Y69.3521      R0.9000    
   X540.2555     Y69.5658      R0.9000    
   X540.2857     Y69.7952      R0.9000    
   X540.2555     Y70.0245      R0.9000    
   X540.1670     Y70.2383      R0.9000    
   X540.0262     Y70.4218      R0.9000    
   X539.8426     Y70.5626      R0.9000    
   X539.6289     Y70.6512      R0.9000    
   X539.3995     Y70.6814      R0.9000    
   X539.1702     Y70.6512      R0.9000    
   X538.9564     Y70.5626      R0.9000    
   X538.7729     Y70.4218      R0.9000    
   X538.6321     Y70.2383      R0.9000    
   X538.5435     Y70.0245      R0.9000    
   X538.5133     Y69.7952      R0.9000    
(Pass: 4)
G1   Z-0.800     F200 
G17 G2   X538.5435     Y69.5658      R0.9000     F300 
   X538.6321     Y69.3521      R0.9000    
   X538.7729     Y69.1686      R0.9000    
   X538.9564     Y69.0277      R0.9000    
   X539.1702     Y68.9392      R0.9000    
   X539.3995     Y68.9090      R0.9000    
   X539.6289     Y68.9392      R0.9000    
   X539.8426     Y69.0277      R0.9000    
   X540.0262     Y69.1686      R0.9000    
   X540.1670     Y69.3521      R0.9000    
   X540.2555     Y69.5658      R0.9000    
   X540.2857     Y69.7952      R0.9000    
   X540.2555     Y70.0245      R0.9000    
   X540.1670     Y70.2383      R0.9000    
   X540.0262     Y70.4218      R0.9000    
   X539.8426     Y70.5626      R0.9000    
   X539.6289     Y70.6512      R0.9000    
   X539.3995     Y70.6814      R0.9000    
   X539.1702     Y70.6512      R0.9000    
   X538.9564     Y70.5626      R0.9000    
   X538.7729     Y70.4218      R0.9000    
   X538.6321     Y70.2383      R0.9000    
   X538.5435     Y70.0245      R0.9000    
   X538.5133     Y69.7952      R0.9000    
G0   Z18.200    
(Pass: 1)
   X539.400      Y77.840    
G1   Z2.200      F200 
G17 G2   X539.9054     Y77.9071      R1.9685     F300 
   X540.3769     Y78.1024      R1.9685    
   X540.7817     Y78.4130      R1.9685    
   X541.0923     Y78.8178      R1.9685    
   X541.2876     Y79.2893      R1.9685    
   X541.3542     Y79.7952      R1.9685    
   X541.2876     Y80.3011      R1.9685    
   X541.0923     Y80.7725      R1.9685    
   X540.7817     Y81.1774      R1.9685    
   X540.3769     Y81.4880      R1.9685    
   X539.9054     Y81.6833      R1.9685    
   X539.3995     Y81.7499      R1.9685    
   X538.8936     Y81.6833      R1.9685    
   X538.4222     Y81.4880      R1.9685    
   X538.0173     Y81.1774      R1.9685    
   X537.7067     Y80.7725      R1.9685    
   X537.5114     Y80.3011      R1.9685    
   X537.4448     Y79.7952      R1.9685    
   X537.5114     Y79.2893      R1.9685    
   X537.7067     Y78.8178      R1.9685    
   X538.0173     Y78.4130      R1.9685    
   X538.4222     Y78.1024      R1.9685    
   X538.8936     Y77.9071      R1.9685    
   X539.3995     Y77.8405      R1.9685    
(Pass: 2)
G1   Z1.200      F200 
G17 G2   X539.9054     Y77.9071      R1.9685     F300 
   X540.3769     Y78.1024      R1.9685    
   X540.7817     Y78.4130      R1.9685    
   X541.0923     Y78.8178      R1.9685    
   X541.2876     Y79.2893      R1.9685    
   X541.3542     Y79.7952      R1.9685    
   X541.2876     Y80.3011      R1.9685    
   X541.0923     Y80.7725      R1.9685    
   X540.7817     Y81.1774      R1.9685    
   X540.3769     Y81.4880      R1.9685    
   X539.9054     Y81.6833      R1.9685    
   X539.3995     Y81.7499      R1.9685    
   X538.8936     Y81.6833      R1.9685    
   X538.4222     Y81.4880      R1.9685    
   X538.0173     Y81.1774      R1.9685    
   X537.7067     Y80.7725      R1.9685    
   X537.5114     Y80.3011      R1.9685    
   X537.4448     Y79.7952      R1.9685    
   X537.5114     Y79.2893      R1.9685    
   X537.7067     Y78.8178      R1.9685    
   X538.0173     Y78.4130      R1.9685    
   X538.4222     Y78.1024      R1.9685    
   X538.8936     Y77.9071      R1.9685    
   X539.3995     Y77.8405      R1.9685    
(Pass: 3)
G1   Z0.200      F200 
G17 G2   X539.9054     Y77.9071      R1.9685     F300 
   X540.3769     Y78.1024      R1.9685    
   X540.7817     Y78.4130      R1.9685    
   X541.0923     Y78.8178      R1.9685    
   X541.2876     Y79.2893      R1.9685    
   X541.3542     Y79.7952      R1.9685    
   X541.2876     Y80.3011      R1.9685    
   X541.0923     Y80.7725      R1.9685    
   X540.7817     Y81.1774      R1.9685    
   X540.3769     Y81.4880      R1.9685    
   X539.9054     Y81.6833      R1.9685    
   X539.3995     Y81.7499      R1.9685    
   X538.8936     Y81.6833      R1.9685    
   X538.4222     Y81.4880      R1.9685    
   X538.0173     Y81.1774      R1.9685    
   X537.7067     Y80.7725      R1.9685    
   X537.5114     Y80.3011      R1.9685    
   X537.4448     Y79.7952      R1.9685    
   X537.5114     Y79.2893      R1.9685    
   X537.7067     Y78.8178      R1.9685    
   X538.0173     Y78.4130      R1.9685    
   X538.4222     Y78.1024      R1.9685    
   X538.8936     Y77.9071      R1.9685    
   X539.3995     Y77.8405      R1.9685    
(Pass: 4)
G1   Z-0.800     F200 
G17 G2   X539.9054     Y77.9071      R1.9685     F300 
   X540.3769     Y78.1024      R1.9685    
   X540.7817     Y78.4130      R1.9685    
   X541.0923     Y78.8178      R1.9685    
   X541.2876     Y79.2893      R1.9685    
   X541.3542     Y79.7952      R1.9685    
   X541.2876     Y80.3011      R1.9685    
   X541.0923     Y80.7725      R1.9685    
   X540.7817     Y81.1774      R1.9685    
   X540.3769     Y81.4880      R1.9685    
   X539.9054     Y81.6833      R1.9685    
   X539.3995     Y81.7499      R1.9685    
   X538.8936     Y81.6833      R1.9685    
   X538.4222     Y81.4880      R1.9685    
   X538.0173     Y81.1774      R1.9685    
   X537.7067     Y80.7725      R1.9685    
   X537.5114     Y80.3011      R1.9685    
   X537.4448     Y79.7952      R1.9685    
   X537.5114     Y79.2893      R1.9685    
   X537.7067     Y78.8178      R1.9685    
   X538.0173     Y78.4130      R1.9685    
   X538.4222     Y78.1024      R1.9685    
   X538.8936     Y77.9071      R1.9685    
   X539.3995     Y77.8405      R1.9685    
G0   Z18.200    
(Pass: 1)
   X530.242      Y79.566    
G1   Z2.200      F200 
G17 G2   X530.2727     Y79.7952      R0.9000     F300 
   X530.2425     Y80.0245      R0.9000    
   X530.1540     Y80.2383      R0.9000    
   X530.0131     Y80.4218      R0.9000    
   X529.8296     Y80.5626      R0.9000    
   X529.6159     Y80.6512      R0.9000    
   X529.3865     Y80.6814      R0.9000    
   X529.1571     Y80.6512      R0.9000    
   X528.9434     Y80.5626      R0.9000    
   X528.7599     Y80.4218      R0.9000    
   X528.6190     Y80.2383      R0.9000    
   X528.5305     Y80.0245      R0.9000    
   X528.5003     Y79.7952      R0.9000    
   X528.5305     Y79.5658      R0.9000    
   X528.6190     Y79.3521      R0.9000    
   X528.7599     Y79.1686      R0.9000    
   X528.9434     Y79.0277      R0.9000    
   X529.1571     Y78.9392      R0.9000    
   X529.3865     Y78.9090      R0.9000    
   X529.6159     Y78.9392      R0.9000    
   X529.8296     Y79.0277      R0.9000    
   X530.0131     Y79.1686      R0.9000    
   X530.1540     Y79.3521      R0.9000    
   X530.2425     Y79.5658      R0.9000    
(Pass: 2)
G1   Z1.200      F200 
G17 G2   X530.2727     Y79.7952      R0.9000     F300 
   X530.2425     Y80.0245      R0.9000    
   X530.1540     Y80.2383      R0.9000    
   X530.0131     Y80.4218      R0.9000    
   X529.8296     Y80.5626      R0.9000    
   X529.6159     Y80.6512      R0.9000    
   X529.3865     Y80.6814      R0.9000    
   X529.1571     Y80.6512      R0.9000    
   X528.9434     Y80.5626      R0.9000    
   X528.7599     Y80.4218      R0.9000    
   X528.6190     Y80.2383      R0.9000    
   X528.5305     Y80.0245      R0.9000    
   X528.5003     Y79.7952      R0.9000    
   X528.5305     Y79.5658      R0.9000    
   X528.6190     Y79.3521      R0.9000    
   X528.7599     Y79.1686      R0.9000    
   X528.9434     Y79.0277      R0.9000    
   X529.1571     Y78.9392      R0.9000    
   X529.3865     Y78.9090      R0.9000    
   X529.6159     Y78.9392      R0.9000    
   X529.8296     Y79.0277      R0.9000    
   X530.0131     Y79.1686      R0.9000    
   X530.1540     Y79.3521      R0.9000    
   X530.2425     Y79.5658      R0.9000    
(Pass: 3)
G1   Z0.200      F200 
G17 G2   X530.2727     Y79.7952      R0.9000     F300 
   X530.2425     Y80.0245      R0.9000    
   X530.1540     Y80.2383      R0.9000    
   X530.0131     Y80.4218      R0.9000    
   X529.8296     Y80.5626      R0.9000    
   X529.6159     Y80.6512      R0.9000    
   X529.3865     Y80.6814      R0.9000    
   X529.1571     Y80.6512      R0.9000    
   X528.9434     Y80.5626      R0.9000    
   X528.7599     Y80.4218      R0.9000    
   X528.6190     Y80.2383      R0.9000    
   X528.5305     Y80.0245      R0.9000    
   X528.5003     Y79.7952      R0.9000    
   X528.5305     Y79.5658      R0.9000    
   X528.6190     Y79.3521      R0.9000    
   X528.7599     Y79.1686      R0.9000    
   X528.9434     Y79.0277      R0.9000    
   X529.1571     Y78.9392      R0.9000    
   X529.3865     Y78.9090      R0.9000    
   X529.6159     Y78.9392      R0.9000    
   X529.8296     Y79.0277      R0.9000    
   X530.0131     Y79.1686      R0.9000    
   X530.1540     Y79.3521      R0.9000    
   X530.2425     Y79.5658      R0.9000    
(Pass: 4)
G1   Z-0.800     F200 
G17 G2   X530.2727     Y79.7952      R0.9000     F300 
   X530.2425     Y80.0245      R0.9000    
   X530.1540     Y80.2383      R0.9000    
   X530.0131     Y80.4218      R0.9000    
   X529.8296     Y80.5626      R0.9000    
   X529.6159     Y80.6512      R0.9000    
   X529.3865     Y80.6814      R0.9000    
   X529.1571     Y80.6512      R0.9000    
   X528.9434     Y80.5626      R0.9000    
   X528.7599     Y80.4218      R0.9000    
   X528.6190     Y80.2383      R0.9000    
   X528.5305     Y80.0245      R0.9000    
   X528.5003     Y79.7952      R0.9000    
   X528.5305     Y79.5658      R0.9000    
   X528.6190     Y79.3521      R0.9000    
   X528.7599     Y79.1686      R0.9000    
   X528.9434     Y79.0277      R0.9000    
   X529.1571     Y78.9392      R0.9000    
   X529.3865     Y78.9090      R0.9000    
   X529.6159     Y78.9392      R0.9000    
   X529.8296     Y79.0277      R0.9000    
   X530.0131     Y79.1686      R0.9000    
   X530.1540     Y79.3521      R0.9000    
   X530.2425     Y79.5658      R0.9000    
G0   Z18.200    
(Pass: 1)
   X531.383      Y99.949    
G1   Z2.200      F200 
G17 G2   X531.6119     Y99.9193      R0.9000     F300 
   X531.8413     Y99.9495      R0.9000    
   X532.0550     Y100.0380     R0.9000    
   X532.2386     Y100.1789     R0.9000    
   X532.3794     Y100.3624     R0.9000    
   X532.4679     Y100.5761     R0.9000    
   X532.4981     Y100.8055     R0.9000    
   X532.4679     Y101.0349     R0.9000    
   X532.3794     Y101.2486     R0.9000    
   X532.2386     Y101.4321     R0.9000    
   X532.0550     Y101.5730     R0.9000    
   X531.8413     Y101.6615     R0.9000    
   X531.6119     Y101.6917     R0.9000    
   X531.3826     Y101.6615     R0.9000    
   X531.1688     Y101.5730     R0.9000    
   X530.9853     Y101.4321     R0.9000    
   X530.8445     Y101.2486     R0.9000    
   X530.7559     Y101.0349     R0.9000    
   X530.7257     Y100.8055     R0.9000    
   X530.7559     Y100.5761     R0.9000    
   X530.8445     Y100.3624     R0.9000    
   X530.9853     Y100.1789     R0.9000    
   X531.1688     Y100.0380     R0.9000    
   X531.3826     Y99.9495      R0.9000    
(Pass: 2)
G1   Z1.200      F200 
G17 G2   X531.6119     Y99.9193      R0.9000     F300 
   X531.8413     Y99.9495      R0.9000    
   X532.0550     Y100.0380     R0.9000    
   X532.2386     Y100.1789     R0.9000    
   X532.3794     Y100.3624     R0.9000    
   X532.4679     Y100.5761     R0.9000    
   X532.4981     Y100.8055     R0.9000    
   X532.4679     Y101.0349     R0.9000    
   X532.3794     Y101.2486     R0.9000    
   X532.2386     Y101.4321     R0.9000    
   X532.0550     Y101.5730     R0.9000    
   X531.8413     Y101.6615     R0.9000    
   X531.6119     Y101.6917     R0.9000    
   X531.3826     Y101.6615     R0.9000    
   X531.1688     Y101.5730     R0.9000    
   X530.9853     Y101.4321     R0.9000    
   X530.8445     Y101.2486     R0.9000    
   X530.7559     Y101.0349     R0.9000    
   X530.7257     Y100.8055     R0.9000    
   X530.7559     Y100.5761     R0.9000    
   X530.8445     Y100.3624     R0.9000    
   X530.9853     Y100.1789     R0.9000    
   X531.1688     Y100.0380     R0.9000    
   X531.3826     Y99.9495      R0.9000    
(Pass: 3)
G1   Z0.200      F200 
G17 G2   X531.6119     Y99.9193      R0.9000     F300 
   X531.8413     Y99.9495      R0.9000    
   X532.0550     Y100.0380     R0.9000    
   X532.2386     Y100.1789     R0.9000    
   X532.3794     Y100.3624     R0.9000    
   X532.4679     Y100.5761     R0.9000    
   X532.4981     Y100.8055     R0.9000    
   X532.4679     Y101.0349     R0.9000    
   X532.3794     Y101.2486     R0.9000    
   X532.2386     Y101.4321     R0.9000    
   X532.0550     Y101.5730     R0.9000    
   X531.8413     Y101.6615     R0.9000    
   X531.6119     Y101.6917     R0.9000    
   X531.3826     Y101.6615     R0.9000    
   X531.1688     Y101.5730     R0.9000    
   X530.9853     Y101.4321     R0.9000    
   X530.8445     Y101.2486     R0.9000    
   X530.7559     Y101.0349     R0.9000    
   X530.7257     Y100.8055     R0.9000    
   X530.7559     Y100.5761     R0.9000    
   X530.8445     Y100.3624     R0.9000    
   X530.9853     Y100.1789     R0.9000    
   X531.1688     Y100.0380     R0.9000    
   X531.3826     Y99.9495      R0.9000    
(Pass: 4)
G1   Z-0.800     F200 
G17 G2   X531.6119     Y99.9193      R0.9000     F300 
   X531.8413     Y99.9495      R0.9000    
   X532.0550     Y100.0380     R0.9000    
   X532.2386     Y100.1789     R0.9000    
   X532.3794     Y100.3624     R0.9000    
   X532.4679     Y100.5761     R0.9000    
   X532.4981     Y100.8055     R0.9000    
   X532.4679     Y101.0349     R0.9000    
   X532.3794     Y101.2486     R0.9000    
   X532.2386     Y101.4321     R0.9000    
   X532.0550     Y101.5730     R0.9000    
   X531.8413     Y101.6615     R0.9000    
   X531.6119     Y101.6917     R0.9000    
   X531.3826     Y101.6615     R0.9000    
   X531.1688     Y101.5730     R0.9000    
   X530.9853     Y101.4321     R0.9000    
   X530.8445     Y101.2486     R0.9000    
   X530.7559     Y101.0349     R0.9000    
   X530.7257     Y100.8055     R0.9000    
   X530.7559     Y100.5761     R0.9000    
   X530.8445     Y100.3624     R0.9000    
   X530.9853     Y100.1789     R0.9000    
   X531.1688     Y100.0380     R0.9000    
   X531.3826     Y99.9495      R0.9000    
G0   Z18.200    
(Pass: 1)
   X555.725      Y100.805   
G1   Z2.200      F200 
G17 G2   X555.7556     Y100.5761     R0.9000     F300 
   X555.8441     Y100.3624     R0.9000    
   X555.9849     Y100.1789     R0.9000    
   X556.1685     Y100.0380     R0.9000    
   X556.3822     Y99.9495      R0.9000    
   X556.6116     Y99.9193      R0.9000    
   X556.8409     Y99.9495      R0.9000    
   X557.0547     Y100.0380     R0.9000    
   X557.2382     Y100.1789     R0.9000    
   X557.3790     Y100.3624     R0.9000    
   X557.4676     Y100.5761     R0.9000    
   X557.4978     Y100.8055     R0.9000    
   X557.4676     Y101.0349     R0.9000    
   X557.3790     Y101.2486     R0.9000    
   X557.2382     Y101.4321     R0.9000    
   X557.0547     Y101.5730     R0.9000    
   X556.8409     Y101.6615     R0.9000    
   X556.6116     Y101.6917     R0.9000    
   X556.3822     Y101.6615     R0.9000    
   X556.1685     Y101.5730     R0.9000    
   X555.9849     Y101.4321     R0.9000    
   X555.8441     Y101.2486     R0.9000    
   X555.7556     Y101.0349     R0.9000    
   X555.7254     Y100.8055     R0.9000    
(Pass: 2)
G1   Z1.200      F200 
G17 G2   X555.7556     Y100.5761     R0.9000     F300 
   X555.8441     Y100.3624     R0.9000    
   X555.9849     Y100.1789     R0.9000    
   X556.1685     Y100.0380     R0.9000    
   X556.3822     Y99.9495      R0.9000    
   X556.6116     Y99.9193      R0.9000    
   X556.8409     Y99.9495      R0.9000    
   X557.0547     Y100.0380     R0.9000    
   X557.2382     Y100.1789     R0.9000    
   X557.3790     Y100.3624     R0.9000    
   X557.4676     Y100.5761     R0.9000    
   X557.4978     Y100.8055     R0.9000    
   X557.4676     Y101.0349     R0.9000    
   X557.3790     Y101.2486     R0.9000    
   X557.2382     Y101.4321     R0.9000    
   X557.0547     Y101.5730     R0.9000    
   X556.8409     Y101.6615     R0.9000    
   X556.6116     Y101.6917     R0.9000    
   X556.3822     Y101.6615     R0.9000    
   X556.1685     Y101.5730     R0.9000    
   X555.9849     Y101.4321     R0.9000    
   X555.8441     Y101.2486     R0.9000    
   X555.7556     Y101.0349     R0.9000    
   X555.7254     Y100.8055     R0.9000    
(Pass: 3)
G1   Z0.200      F200 
G17 G2   X555.7556     Y100.5761     R0.9000     F300 
   X555.8441     Y100.3624     R0.9000    
   X555.9849     Y100.1789     R0.9000    
   X556.1685     Y100.0380     R0.9000    
   X556.3822     Y99.9495      R0.9000    
   X556.6116     Y99.9193      R0.9000    
   X556.8409     Y99.9495      R0.9000    
   X557.0547     Y100.0380     R0.9000    
   X557.2382     Y100.1789     R0.9000    
   X557.3790     Y100.3624     R0.9000    
   X557.4676     Y100.5761     R0.9000    
   X557.4978     Y100.8055     R0.9000    
   X557.4676     Y101.0349     R0.9000    
   X557.3790     Y101.2486     R0.9000    
   X557.2382     Y101.4321     R0.9000    
   X557.0547     Y101.5730     R0.9000    
   X556.8409     Y101.6615     R0.9000    
   X556.6116     Y101.6917     R0.9000    
   X556.3822     Y101.6615     R0.9000    
   X556.1685     Y101.5730     R0.9000    
   X555.9849     Y101.4321     R0.9000    
   X555.8441     Y101.2486     R0.9000    
   X555.7556     Y101.0349     R0.9000    
   X555.7254     Y100.8055     R0.9000    
(Pass: 4)
G1   Z-0.800     F200 
G17 G2   X555.7556     Y100.5761     R0.9000     F300 
   X555.8441     Y100.3624     R0.9000    
   X555.9849     Y100.1789     R0.9000    
   X556.1685     Y100.0380     R0.9000    
   X556.3822     Y99.9495      R0.9000    
   X556.6116     Y99.9193      R0.9000    
   X556.8409     Y99.9495      R0.9000    
   X557.0547     Y100.0380     R0.9000    
   X557.2382     Y100.1789     R0.9000    
   X557.3790     Y100.3624     R0.9000    
   X557.4676     Y100.5761     R0.9000    
   X557.4978     Y100.8055     R0.9000    
   X557.4676     Y101.0349     R0.9000    
   X557.3790     Y101.2486     R0.9000    
   X557.2382     Y101.4321     R0.9000    
   X557.0547     Y101.5730     R0.9000    
   X556.8409     Y101.6615     R0.9000    
   X556.6116     Y101.6917     R0.9000    
   X556.3822     Y101.6615     R0.9000    
   X556.1685     Y101.5730     R0.9000    
   X555.9849     Y101.4321     R0.9000    
   X555.8441     Y101.2486     R0.9000    
   X555.7556     Y101.0349     R0.9000    
   X555.7254     Y100.8055     R0.9000    
G0   Z18.200    
(Pass: 1)
   X539.905      Y51.683    
G1   Z2.200      F200 
G17 G2   X539.3995     Y51.7499      R1.9685     F300 
   X538.8936     Y51.6833      R1.9685    
   X538.4222     Y51.4880      R1.9685    
   X538.0173     Y51.1774      R1.9685    
   X537.7067     Y50.7725      R1.9685    
   X537.5114     Y50.3011      R1.9685    
   X537.4448     Y49.7952      R1.9685    
   X537.5114     Y49.2893      R1.9685    
   X537.7067     Y48.8178      R1.9685    
   X538.0173     Y48.4130      R1.9685    
   X538.4222     Y48.1024      R1.9685    
   X538.8936     Y47.9071      R1.9685    
   X539.3995     Y47.8405      R1.9685    
   X539.9054     Y47.9071      R1.9685    
   X540.3769     Y48.1024      R1.9685    
   X540.7817     Y48.4130      R1.9685    
   X541.0923     Y48.8178      R1.9685    
   X541.2876     Y49.2893      R1.9685    
   X541.3542     Y49.7952      R1.9685    
   X541.2876     Y50.3011      R1.9685    
   X541.0923     Y50.7725      R1.9685    
   X540.7817     Y51.1774      R1.9685    
   X540.3769     Y51.4880      R1.9685    
   X539.9054     Y51.6833      R1.9685    
(Pass: 2)
G1   Z1.200      F200 
G17 G2   X539.3995     Y51.7499      R1.9685     F300 
   X538.8936     Y51.6833      R1.9685    
   X538.4222     Y51.4880      R1.9685    
   X538.0173     Y51.1774      R1.9685    
   X537.7067     Y50.7725      R1.9685    
   X537.5114     Y50.3011      R1.9685    
   X537.4448     Y49.7952      R1.9685    
   X537.5114     Y49.2893      R1.9685    
   X537.7067     Y48.8178      R1.9685    
   X538.0173     Y48.4130      R1.9685    
   X538.4222     Y48.1024      R1.9685    
   X538.8936     Y47.9071      R1.9685    
   X539.3995     Y47.8405      R1.9685    
   X539.9054     Y47.9071      R1.9685    
   X540.3769     Y48.1024      R1.9685    
   X540.7817     Y48.4130      R1.9685    
   X541.0923     Y48.8178      R1.9685    
   X541.2876     Y49.2893      R1.9685    
   X541.3542     Y49.7952      R1.9685    
   X541.2876     Y50.3011      R1.9685    
   X541.0923     Y50.7725      R1.9685    
   X540.7817     Y51.1774      R1.9685    
   X540.3769     Y51.4880      R1.9685    
   X539.9054     Y51.6833      R1.9685    
(Pass: 3)
G1   Z0.200      F200 
G17 G2   X539.3995     Y51.7499      R1.9685     F300 
   X538.8936     Y51.6833      R1.9685    
   X538.4222     Y51.4880      R1.9685    
   X538.0173     Y51.1774      R1.9685    
   X537.7067     Y50.7725      R1.9685    
   X537.5114     Y50.3011      R1.9685    
   X537.4448     Y49.7952      R1.9685    
   X537.5114     Y49.2893      R1.9685    
   X537.7067     Y48.8178      R1.9685    
   X538.0173     Y48.4130      R1.9685    
   X538.4222     Y48.1024      R1.9685    
   X538.8936     Y47.9071      R1.9685    
   X539.3995     Y47.8405      R1.9685    
   X539.9054     Y47.9071      R1.9685    
   X540.3769     Y48.1024      R1.9685    
   X540.7817     Y48.4130      R1.9685    
   X541.0923     Y48.8178      R1.9685    
   X541.2876     Y49.2893      R1.9685    
   X541.3542     Y49.7952      R1.9685    
   X541.2876     Y50.3011      R1.9685    
   X541.0923     Y50.7725      R1.9685    
   X540.7817     Y51.1774      R1.9685    
   X540.3769     Y51.4880      R1.9685    
   X539.9054     Y51.6833      R1.9685    
(Pass: 4)
G1   Z-0.800     F200 
G17 G2   X539.3995     Y51.7499      R1.9685     F300 
   X538.8936     Y51.6833      R1.9685    
   X538.4222     Y51.4880      R1.9685    
   X538.0173     Y51.1774      R1.9685    
   X537.7067     Y50.7725      R1.9685    
   X537.5114     Y50.3011      R1.9685    
   X537.4448     Y49.7952      R1.9685    
   X537.5114     Y49.2893      R1.9685    
   X537.7067     Y48.8178      R1.9685    
   X538.0173     Y48.4130      R1.9685    
   X538.4222     Y48.1024      R1.9685    
   X538.8936     Y47.9071      R1.9685    
   X539.3995     Y47.8405      R1.9685    
   X539.9054     Y47.9071      R1.9685    
   X540.3769     Y48.1024      R1.9685    
   X540.7817     Y48.4130      R1.9685    
   X541.0923     Y48.8178      R1.9685    
   X541.2876     Y49.2893      R1.9685    
   X541.3542     Y49.7952      R1.9685    
   X541.2876     Y50.3011      R1.9685    
   X541.0923     Y50.7725      R1.9685    
   X540.7817     Y51.1774      R1.9685    
   X540.3769     Y51.4880      R1.9685    
   X539.9054     Y51.6833      R1.9685    
G0   Z18.200    
(Pass: 1)
   X530.273      Y49.795    
G1   Z2.200      F200 
G17 G2   X530.2425     Y50.0245      R0.9000     F300 
   X530.1540     Y50.2383      R0.9000    
   X530.0131     Y50.4218      R0.9000    
   X529.8296     Y50.5626      R0.9000    
   X529.6159     Y50.6512      R0.9000    
   X529.3865     Y50.6814      R0.9000    
   X529.1571     Y50.6512      R0.9000    
   X528.9434     Y50.5626      R0.9000    
   X528.7599     Y50.4218      R0.9000    
   X528.6190     Y50.2383      R0.9000    
   X528.5305     Y50.0245      R0.9000    
   X528.5003     Y49.7952      R0.9000    
   X528.5305     Y49.5658      R0.9000    
   X528.6190     Y49.3521      R0.9000    
   X528.7599     Y49.1686      R0.9000    
   X528.9434     Y49.0277      R0.9000    
   X529.1571     Y48.9392      R0.9000    
   X529.3865     Y48.9090      R0.9000    
   X529.6159     Y48.9392      R0.9000    
   X529.8296     Y49.0277      R0.9000    
   X530.0131     Y49.1686      R0.9000    
   X530.1540     Y49.3521      R0.9000    
   X530.2425     Y49.5658      R0.9000    
   X530.2727     Y49.7952      R0.9000    
(Pass: 2)
G1   Z1.200      F200 
G17 G2   X530.2425     Y50.0245      R0.9000     F300 
   X530.1540     Y50.2383      R0.9000    
   X530.0131     Y50.4218      R0.9000    
   X529.8296     Y50.5626      R0.9000    
   X529.6159     Y50.6512      R0.9000    
   X529.3865     Y50.6814      R0.9000    
   X529.1571     Y50.6512      R0.9000    
   X528.9434     Y50.5626      R0.9000    
   X528.7599     Y50.4218      R0.9000    
   X528.6190     Y50.2383      R0.9000    
   X528.5305     Y50.0245      R0.9000    
   X528.5003     Y49.7952      R0.9000    
   X528.5305     Y49.5658      R0.9000    
   X528.6190     Y49.3521      R0.9000    
   X528.7599     Y49.1686      R0.9000    
   X528.9434     Y49.0277      R0.9000    
   X529.1571     Y48.9392      R0.9000    
   X529.3865     Y48.9090      R0.9000    
   X529.6159     Y48.9392      R0.9000    
   X529.8296     Y49.0277      R0.9000    
   X530.0131     Y49.1686      R0.9000    
   X530.1540     Y49.3521      R0.9000    
   X530.2425     Y49.5658      R0.9000    
   X530.2727     Y49.7952      R0.9000    
(Pass: 3)
G1   Z0.200      F200 
G17 G2   X530.2425     Y50.0245      R0.9000     F300 
   X530.1540     Y50.2383      R0.9000    
   X530.0131     Y50.4218      R0.9000    
   X529.8296     Y50.5626      R0.9000    
   X529.6159     Y50.6512      R0.9000    
   X529.3865     Y50.6814      R0.9000    
   X529.1571     Y50.6512      R0.9000    
   X528.9434     Y50.5626      R0.9000    
   X528.7599     Y50.4218      R0.9000    
   X528.6190     Y50.2383      R0.9000    
   X528.5305     Y50.0245      R0.9000    
   X528.5003     Y49.7952      R0.9000    
   X528.5305     Y49.5658      R0.9000    
   X528.6190     Y49.3521      R0.9000    
   X528.7599     Y49.1686      R0.9000    
   X528.9434     Y49.0277      R0.9000    
   X529.1571     Y48.9392      R0.9000    
   X529.3865     Y48.9090      R0.9000    
   X529.6159     Y48.9392      R0.9000    
   X529.8296     Y49.0277      R0.9000    
   X530.0131     Y49.1686      R0.9000    
   X530.1540     Y49.3521      R0.9000    
   X530.2425     Y49.5658      R0.9000    
   X530.2727     Y49.7952      R0.9000    
(Pass: 4)
G1   Z-0.800     F200 
G17 G2   X530.2425     Y50.0245      R0.9000     F300 
   X530.1540     Y50.2383      R0.9000    
   X530.0131     Y50.4218      R0.9000    
   X529.8296     Y50.5626      R0.9000    
   X529.6159     Y50.6512      R0.9000    
   X529.3865     Y50.6814      R0.9000    
   X529.1571     Y50.6512      R0.9000    
   X528.9434     Y50.5626      R0.9000    
   X528.7599     Y50.4218      R0.9000    
   X528.6190     Y50.2383      R0.9000    
   X528.5305     Y50.0245      R0.9000    
