%
(Generated by SketchUcam {1.2})
(File: Router Plates.skp)
(Bit diameter: 3.2mm)
(Feed rate: 400.0mm/min)
(Plunge Feed rate: 100.0mm/min)
(Material Thickness: 3.2mm)
(Material length: 304.0mm X width: 608.0mm)
(Overhead Gantry: true)
(Retract feed rate NOT limited to plunge feed rate)
(Multipass enabled, Depth = 1.0mm)
(Optimization is ON)
(Z ZERO IS TABLETOP)
(www.PhlatBoyz.com)
G90 G21 G49 
M3 S15000
G0   Z18.200    
(Pass: 1)
   X446.738      Y15.795    
G1   Z2.200      F100 
G17 G2   X446.8048     Y15.2894      R1.9685     F400 
   X447.0001     Y14.8180      R1.9685    
   X447.3107     Y14.4131      R1.9685    
   X447.7155     Y14.1025      R1.9685    
   X448.1870     Y13.9072      R1.9685    
   X448.6929     Y13.8406      R1.9685    
   X449.1988     Y13.9072      R1.9685    
   X449.6702     Y14.1025      R1.9685    
   X450.0751     Y14.4131      R1.9685    
   X450.3857     Y14.8180      R1.9685    
   X450.5810     Y15.2894      R1.9685    
   X450.6476     Y15.7953      R1.9685    
   X450.5810     Y16.3012      R1.9685    
   X450.3857     Y16.7727      R1.9685    
   X450.0751     Y17.1775      R1.9685    
   X449.6702     Y17.4881      R1.9685    
   X449.1988     Y17.6834      R1.9685    
   X448.6929     Y17.7500      R1.9685    
   X448.1870     Y17.6834      R1.9685    
   X447.7155     Y17.4881      R1.9685    
   X447.3107     Y17.1775      R1.9685    
   X447.0001     Y16.7727      R1.9685    
   X446.8048     Y16.3012      R1.9685    
   X446.7382     Y15.7953      R1.9685    
(Pass: 2)
G1   Z1.200      F100 
G17 G2   X446.8048     Y15.2894      R1.9685     F400 
   X447.0001     Y14.8180      R1.9685    
   X447.3107     Y14.4131      R1.9685    
   X447.7155     Y14.1025      R1.9685    
   X448.1870     Y13.9072      R1.9685    
   X448.6929     Y13.8406      R1.9685    
   X449.1988     Y13.9072      R1.9685    
   X449.6702     Y14.1025      R1.9685    
   X450.0751     Y14.4131      R1.9685    
   X450.3857     Y14.8180      R1.9685    
   X450.5810     Y15.2894      R1.9685    
   X450.6476     Y15.7953      R1.9685    
   X450.5810     Y16.3012      R1.9685    
   X450.3857     Y16.7727      R1.9685    
   X450.0751     Y17.1775      R1.9685    
   X449.6702     Y17.4881      R1.9685    
   X449.1988     Y17.6834      R1.9685    
   X448.6929     Y17.7500      R1.9685    
   X448.1870     Y17.6834      R1.9685    
   X447.7155     Y17.4881      R1.9685    
   X447.3107     Y17.1775      R1.9685    
   X447.0001     Y16.7727      R1.9685    
   X446.8048     Y16.3012      R1.9685    
   X446.7382     Y15.7953      R1.9685    
(Pass: 3)
G1   Z0.200      F100 
G17 G2   X446.8048     Y15.2894      R1.9685     F400 
   X447.0001     Y14.8180      R1.9685    
   X447.3107     Y14.4131      R1.9685    
   X447.7155     Y14.1025      R1.9685    
   X448.1870     Y13.9072      R1.9685    
   X448.6929     Y13.8406      R1.9685    
   X449.1988     Y13.9072      R1.9685    
   X449.6702     Y14.1025      R1.9685    
   X450.0751     Y14.4131      R1.9685    
   X450.3857     Y14.8180      R1.9685    
   X450.5810     Y15.2894      R1.9685    
   X450.6476     Y15.7953      R1.9685    
   X450.5810     Y16.3012      R1.9685    
   X450.3857     Y16.7727      R1.9685    
   X450.0751     Y17.1775      R1.9685    
   X449.6702     Y17.4881      R1.9685    
   X449.1988     Y17.6834      R1.9685    
   X448.6929     Y17.7500      R1.9685    
   X448.1870     Y17.6834      R1.9685    
   X447.7155     Y17.4881      R1.9685    
   X447.3107     Y17.1775      R1.9685    
   X447.0001     Y16.7727      R1.9685    
   X446.8048     Y16.3012      R1.9685    
   X446.7382     Y15.7953      R1.9685    
(Pass: 4)
G1   Z-0.320     F100 
G17 G2   X446.8048     Y15.2894      R1.9685     F400 
   X447.0001     Y14.8180      R1.9685    
   X447.3107     Y14.4131      R1.9685    
   X447.7155     Y14.1025      R1.9685    
   X448.1870     Y13.9072      R1.9685    
   X448.6929     Y13.8406      R1.9685    
   X449.1988     Y13.9072      R1.9685    
   X449.6702     Y14.1025      R1.9685    
   X450.0751     Y14.4131      R1.9685    
   X450.3857     Y14.8180      R1.9685    
   X450.5810     Y15.2894      R1.9685    
   X450.6476     Y15.7953      R1.9685    
   X450.5810     Y16.3012      R1.9685    
   X450.3857     Y16.7727      R1.9685    
   X450.0751     Y17.1775      R1.9685    
   X449.6702     Y17.4881      R1.9685    
   X449.1988     Y17.6834      R1.9685    
   X448.6929     Y17.7500      R1.9685    
   X448.1870     Y17.6834      R1.9685    
   X447.7155     Y17.4881      R1.9685    
   X447.3107     Y17.1775      R1.9685    
   X447.0001     Y16.7727      R1.9685    
   X446.8048     Y16.3012      R1.9685    
   X446.7382     Y15.7953      R1.9685    
G0   Z18.200    
(Pass: 1)
   X464.807      Y14.285    
G1   Z2.200      F100 
G17 G2   X464.8371     Y14.0556      R0.9000     F400 
   X464.9257     Y13.8419      R0.9000    
   X465.0665     Y13.6584      R0.9000    
   X465.2500     Y13.5175      R0.9000    
   X465.4638     Y13.4290      R0.9000    
   X465.6931     Y13.3988      R0.9000    
   X465.9225     Y13.4290      R0.9000    
   X466.1362     Y13.5175      R0.9000    
   X466.3198     Y13.6584      R0.9000    
   X466.4606     Y13.8419      R0.9000    
   X466.5491     Y14.0556      R0.9000    
   X466.5793     Y14.2850      R0.9000    
   X466.5491     Y14.5144      R0.9000    
   X466.4606     Y14.7281      R0.9000    
   X466.3198     Y14.9116      R0.9000    
   X466.1362     Y15.0525      R0.9000    
   X465.9225     Y15.1410      R0.9000    
   X465.6931     Y15.1712      R0.9000    
   X465.4638     Y15.1410      R0.9000    
   X465.2500     Y15.0525      R0.9000    
   X465.0665     Y14.9116      R0.9000    
   X464.9257     Y14.7281      R0.9000    
   X464.8371     Y14.5144      R0.9000    
   X464.8069     Y14.2850      R0.9000    
(Pass: 2)
G1   Z1.200      F100 
G17 G2   X464.8371     Y14.0556      R0.9000     F400 
   X464.9257     Y13.8419      R0.9000    
   X465.0665     Y13.6584      R0.9000    
   X465.2500     Y13.5175      R0.9000    
   X465.4638     Y13.4290      R0.9000    
   X465.6931     Y13.3988      R0.9000    
   X465.9225     Y13.4290      R0.9000    
   X466.1362     Y13.5175      R0.9000    
   X466.3198     Y13.6584      R0.9000    
   X466.4606     Y13.8419      R0.9000    
   X466.5491     Y14.0556      R0.9000    
   X466.5793     Y14.2850      R0.9000    
   X466.5491     Y14.5144      R0.9000    
   X466.4606     Y14.7281      R0.9000    
   X466.3198     Y14.9116      R0.9000    
   X466.1362     Y15.0525      R0.9000    
   X465.9225     Y15.1410      R0.9000    
   X465.6931     Y15.1712      R0.9000    
   X465.4638     Y15.1410      R0.9000    
   X465.2500     Y15.0525      R0.9000    
   X465.0665     Y14.9116      R0.9000    
   X464.9257     Y14.7281      R0.9000    
   X464.8371     Y14.5144      R0.9000    
   X464.8069     Y14.2850      R0.9000    
(Pass: 3)
G1   Z0.200      F100 
G17 G2   X464.8371     Y14.0556      R0.9000     F400 
   X464.9257     Y13.8419      R0.9000    
   X465.0665     Y13.6584      R0.9000    
   X465.2500     Y13.5175      R0.9000    
   X465.4638     Y13.4290      R0.9000    
   X465.6931     Y13.3988      R0.9000    
   X465.9225     Y13.4290      R0.9000    
   X466.1362     Y13.5175      R0.9000    
   X466.3198     Y13.6584      R0.9000    
   X466.4606     Y13.8419      R0.9000    
   X466.5491     Y14.0556      R0.9000    
   X466.5793     Y14.2850      R0.9000    
   X466.5491     Y14.5144      R0.9000    
   X466.4606     Y14.7281      R0.9000    
   X466.3198     Y14.9116      R0.9000    
   X466.1362     Y15.0525      R0.9000    
   X465.9225     Y15.1410      R0.9000    
   X465.6931     Y15.1712      R0.9000    
   X465.4638     Y15.1410      R0.9000    
   X465.2500     Y15.0525      R0.9000    
   X465.0665     Y14.9116      R0.9000    
   X464.9257     Y14.7281      R0.9000    
   X464.8371     Y14.5144      R0.9000    
   X464.8069     Y14.2850      R0.9000    
(Pass: 4)
G1   Z-0.320     F100 
G17 G2   X464.8371     Y14.0556      R0.9000     F400 
   X464.9257     Y13.8419      R0.9000    
   X465.0665     Y13.6584      R0.9000    
   X465.2500     Y13.5175      R0.9000    
   X465.4638     Y13.4290      R0.9000    
   X465.6931     Y13.3988      R0.9000    
   X465.9225     Y13.4290      R0.9000    
   X466.1362     Y13.5175      R0.9000    
   X466.3198     Y13.6584      R0.9000    
   X466.4606     Y13.8419      R0.9000    
   X466.5491     Y14.0556      R0.9000    
   X466.5793     Y14.2850      R0.9000    
   X466.5491     Y14.5144      R0.9000    
   X466.4606     Y14.7281      R0.9000    
   X466.3198     Y14.9116      R0.9000    
   X466.1362     Y15.0525      R0.9000    
   X465.9225     Y15.1410      R0.9000    
   X465.6931     Y15.1712      R0.9000    
   X465.4638     Y15.1410      R0.9000    
   X465.2500     Y15.0525      R0.9000    
   X465.0665     Y14.9116      R0.9000    
   X464.9257     Y14.7281      R0.9000    
   X464.8371     Y14.5144      R0.9000    
   X464.8069     Y14.2850      R0.9000    
G0   Z18.200    
(Pass: 1)
   X473.666   
G1   Z2.200      F100 
G17 G2   X473.7324     Y13.7791      R1.9685     F400 
   X473.9277     Y13.3077      R1.9685    
   X474.2383     Y12.9028      R1.9685    
   X474.6431     Y12.5922      R1.9685    
   X475.1146     Y12.3969      R1.9685    
   X475.6205     Y12.3303      R1.9685    
   X476.1264     Y12.3969      R1.9685    
   X476.5978     Y12.5922      R1.9685    
   X477.0027     Y12.9028      R1.9685    
   X477.3133     Y13.3077      R1.9685    
   X477.5086     Y13.7791      R1.9685    
   X477.5752     Y14.2850      R1.9685    
   X477.5086     Y14.7909      R1.9685    
   X477.3133     Y15.2623      R1.9685    
   X477.0027     Y15.6672      R1.9685    
   X476.5978     Y15.9778      R1.9685    
   X476.1264     Y16.1731      R1.9685    
   X475.6205     Y16.2397      R1.9685    
   X475.1146     Y16.1731      R1.9685    
   X474.6431     Y15.9778      R1.9685    
   X474.2383     Y15.6672      R1.9685    
   X473.9277     Y15.2623      R1.9685    
   X473.7324     Y14.7909      R1.9685    
   X473.6658     Y14.2850      R1.9685    
(Pass: 2)
G1   Z1.200      F100 
G17 G2   X473.7324     Y13.7791      R1.9685     F400 
   X473.9277     Y13.3077      R1.9685    
   X474.2383     Y12.9028      R1.9685    
   X474.6431     Y12.5922      R1.9685    
   X475.1146     Y12.3969      R1.9685    
   X475.6205     Y12.3303      R1.9685    
   X476.1264     Y12.3969      R1.9685    
   X476.5978     Y12.5922      R1.9685    
   X477.0027     Y12.9028      R1.9685    
   X477.3133     Y13.3077      R1.9685    
   X477.5086     Y13.7791      R1.9685    
   X477.5752     Y14.2850      R1.9685    
   X477.5086     Y14.7909      R1.9685    
   X477.3133     Y15.2623      R1.9685    
   X477.0027     Y15.6672      R1.9685    
   X476.5978     Y15.9778      R1.9685    
   X476.1264     Y16.1731      R1.9685    
   X475.6205     Y16.2397      R1.9685    
   X475.1146     Y16.1731      R1.9685    
   X474.6431     Y15.9778      R1.9685    
   X474.2383     Y15.6672      R1.9685    
   X473.9277     Y15.2623      R1.9685    
   X473.7324     Y14.7909      R1.9685    
   X473.6658     Y14.2850      R1.9685    
(Pass: 3)
G1   Z0.200      F100 
G17 G2   X473.7324     Y13.7791      R1.9685     F400 
   X473.9277     Y13.3077      R1.9685    
   X474.2383     Y12.9028      R1.9685    
   X474.6431     Y12.5922      R1.9685    
   X475.1146     Y12.3969      R1.9685    
   X475.6205     Y12.3303      R1.9685    
   X476.1264     Y12.3969      R1.9685    
   X476.5978     Y12.5922      R1.9685    
   X477.0027     Y12.9028      R1.9685    
   X477.3133     Y13.3077      R1.9685    
   X477.5086     Y13.7791      R1.9685    
   X477.5752     Y14.2850      R1.9685    
   X477.5086     Y14.7909      R1.9685    
   X477.3133     Y15.2623      R1.9685    
   X477.0027     Y15.6672      R1.9685    
   X476.5978     Y15.9778      R1.9685    
   X476.1264     Y16.1731      R1.9685    
   X475.6205     Y16.2397      R1.9685    
   X475.1146     Y16.1731      R1.9685    
   X474.6431     Y15.9778      R1.9685    
   X474.2383     Y15.6672      R1.9685    
   X473.9277     Y15.2623      R1.9685    
   X473.7324     Y14.7909      R1.9685    
   X473.6658     Y14.2850      R1.9685    
(Pass: 4)
G1   Z-0.320     F100 
G17 G2   X473.7324     Y13.7791      R1.9685     F400 
   X473.9277     Y13.3077      R1.9685    
   X474.2383     Y12.9028      R1.9685    
   X474.6431     Y12.5922      R1.9685    
   X475.1146     Y12.3969      R1.9685    
   X475.6205     Y12.3303      R1.9685    
   X476.1264     Y12.3969      R1.9685    
   X476.5978     Y12.5922      R1.9685    
   X477.0027     Y12.9028      R1.9685    
   X477.3133     Y13.3077      R1.9685    
   X477.5086     Y13.7791      R1.9685    
   X477.5752     Y14.2850      R1.9685    
   X477.5086     Y14.7909      R1.9685    
   X477.3133     Y15.2623      R1.9685    
   X477.0027     Y15.6672      R1.9685    
   X476.5978     Y15.9778      R1.9685    
   X476.1264     Y16.1731      R1.9685    
   X475.6205     Y16.2397      R1.9685    
   X475.1146     Y16.1731      R1.9685    
   X474.6431     Y15.9778      R1.9685    
   X474.2383     Y15.6672      R1.9685    
   X473.9277     Y15.2623      R1.9685    
   X473.7324     Y14.7909      R1.9685    
   X473.6658     Y14.2850      R1.9685    
G0   Z18.200    
(Pass: 1)
   X475.391      Y23.429    
G1   Z2.200      F100 
G17 G2   X475.6205     Y23.3988      R0.9000     F400 
   X475.8498     Y23.4290      R0.9000    
   X476.0636     Y23.5175      R0.9000    
   X476.2471     Y23.6584      R0.9000    
   X476.3880     Y23.8419      R0.9000    
   X476.4765     Y24.0556      R0.9000    
   X476.5067     Y24.2850      R0.9000    
   X476.4765     Y24.5144      R0.9000    
   X476.3880     Y24.7281      R0.9000    
   X476.2471     Y24.9116      R0.9000    
   X476.0636     Y25.0525      R0.9000    
   X475.8498     Y25.1410      R0.9000    
   X475.6205     Y25.1712      R0.9000    
   X475.3911     Y25.1410      R0.9000    
   X475.1774     Y25.0525      R0.9000    
   X474.9939     Y24.9116      R0.9000    
   X474.8530     Y24.7281      R0.9000    
   X474.7645     Y24.5144      R0.9000    
   X474.7343     Y24.2850      R0.9000    
   X474.7645     Y24.0556      R0.9000    
   X474.8530     Y23.8419      R0.9000    
   X474.9939     Y23.6584      R0.9000    
   X475.1774     Y23.5175      R0.9000    
   X475.3911     Y23.4290      R0.9000    
(Pass: 2)
G1   Z1.200      F100 
G17 G2   X475.6205     Y23.3988      R0.9000     F400 
   X475.8498     Y23.4290      R0.9000    
   X476.0636     Y23.5175      R0.9000    
   X476.2471     Y23.6584      R0.9000    
   X476.3880     Y23.8419      R0.9000    
   X476.4765     Y24.0556      R0.9000    
   X476.5067     Y24.2850      R0.9000    
   X476.4765     Y24.5144      R0.9000    
   X476.3880     Y24.7281      R0.9000    
   X476.2471     Y24.9116      R0.9000    
   X476.0636     Y25.0525      R0.9000    
   X475.8498     Y25.1410      R0.9000    
   X475.6205     Y25.1712      R0.9000    
   X475.3911     Y25.1410      R0.9000    
   X475.1774     Y25.0525      R0.9000    
   X474.9939     Y24.9116      R0.9000    
   X474.8530     Y24.7281      R0.9000    
   X474.7645     Y24.5144      R0.9000    
   X474.7343     Y24.2850      R0.9000    
   X474.7645     Y24.0556      R0.9000    
   X474.8530     Y23.8419      R0.9000    
   X474.9939     Y23.6584      R0.9000    
   X475.1774     Y23.5175      R0.9000    
   X475.3911     Y23.4290      R0.9000    
(Pass: 3)
G1   Z0.200      F100 
G17 G2   X475.6205     Y23.3988      R0.9000     F400 
   X475.8498     Y23.4290      R0.9000    
   X476.0636     Y23.5175      R0.9000    
   X476.2471     Y23.6584      R0.9000    
   X476.3880     Y23.8419      R0.9000    
   X476.4765     Y24.0556      R0.9000    
   X476.5067     Y24.2850      R0.9000    
   X476.4765     Y24.5144      R0.9000    
   X476.3880     Y24.7281      R0.9000    
   X476.2471     Y24.9116      R0.9000    
   X476.0636     Y25.0525      R0.9000    
   X475.8498     Y25.1410      R0.9000    
   X475.6205     Y25.1712      R0.9000    
   X475.3911     Y25.1410      R0.9000    
   X475.1774     Y25.0525      R0.9000    
   X474.9939     Y24.9116      R0.9000    
   X474.8530     Y24.7281      R0.9000    
   X474.7645     Y24.5144      R0.9000    
   X474.7343     Y24.2850      R0.9000    
   X474.7645     Y24.0556      R0.9000    
   X474.8530     Y23.8419      R0.9000    
   X474.9939     Y23.6584      R0.9000    
   X475.1774     Y23.5175      R0.9000    
   X475.3911     Y23.4290      R0.9000    
(Pass: 4)
G1   Z-0.320     F100 
G17 G2   X475.6205     Y23.3988      R0.9000     F400 
   X475.8498     Y23.4290      R0.9000    
   X476.0636     Y23.5175      R0.9000    
   X476.2471     Y23.6584      R0.9000    
   X476.3880     Y23.8419      R0.9000    
   X476.4765     Y24.0556      R0.9000    
   X476.5067     Y24.2850      R0.9000    
   X476.4765     Y24.5144      R0.9000    
   X476.3880     Y24.7281      R0.9000    
   X476.2471     Y24.9116      R0.9000    
   X476.0636     Y25.0525      R0.9000    
   X475.8498     Y25.1410      R0.9000    
   X475.6205     Y25.1712      R0.9000    
   X475.3911     Y25.1410      R0.9000    
   X475.1774     Y25.0525      R0.9000    
   X474.9939     Y24.9116      R0.9000    
   X474.8530     Y24.7281      R0.9000    
   X474.7645     Y24.5144      R0.9000    
   X474.7343     Y24.2850      R0.9000    
   X474.7645     Y24.0556      R0.9000    
   X474.8530     Y23.8419      R0.9000    
   X474.9939     Y23.6584      R0.9000    
   X475.1774     Y23.5175      R0.9000    
   X475.3911     Y23.4290      R0.9000    
G0   Z18.200    
(Pass: 1)
   X466.562      Y24.056    
G1   Z2.200      F100 
G17 G2   X466.5923     Y24.2850      R0.9000     F400 
   X466.5621     Y24.5144      R0.9000    
   X466.4736     Y24.7281      R0.9000    
   X466.3328     Y24.9116      R0.9000    
   X466.1492     Y25.0525      R0.9000    
   X465.9355     Y25.1410      R0.9000    
   X465.7061     Y25.1712      R0.9000    
   X465.4768     Y25.1410      R0.9000    
   X465.2630     Y25.0525      R0.9000    
   X465.0795     Y24.9116      R0.9000    
   X464.9387     Y24.7281      R0.9000    
   X464.8501     Y24.5144      R0.9000    
   X464.8200     Y24.2850      R0.9000    
   X464.8501     Y24.0556      R0.9000    
   X464.9387     Y23.8419      R0.9000    
   X465.0795     Y23.6584      R0.9000    
   X465.2630     Y23.5175      R0.9000    
   X465.4768     Y23.4290      R0.9000    
   X465.7061     Y23.3988      R0.9000    
   X465.9355     Y23.4290      R0.9000    
   X466.1492     Y23.5175      R0.9000    
   X466.3328     Y23.6584      R0.9000    
   X466.4736     Y23.8419      R0.9000    
   X466.5621     Y24.0556      R0.9000    
(Pass: 2)
G1   Z1.200      F100 
G17 G2   X466.5923     Y24.2850      R0.9000     F400 
   X466.5621     Y24.5144      R0.9000    
   X466.4736     Y24.7281      R0.9000    
   X466.3328     Y24.9116      R0.9000    
   X466.1492     Y25.0525      R0.9000    
   X465.9355     Y25.1410      R0.9000    
   X465.7061     Y25.1712      R0.9000    
   X465.4768     Y25.1410      R0.9000    
   X465.2630     Y25.0525      R0.9000    
   X465.0795     Y24.9116      R0.9000    
   X464.9387     Y24.7281      R0.9000    
   X464.8501     Y24.5144      R0.9000    
   X464.8200     Y24.2850      R0.9000    
   X464.8501     Y24.0556      R0.9000    
   X464.9387     Y23.8419      R0.9000    
   X465.0795     Y23.6584      R0.9000    
   X465.2630     Y23.5175      R0.9000    
   X465.4768     Y23.4290      R0.9000    
   X465.7061     Y23.3988      R0.9000    
   X465.9355     Y23.4290      R0.9000    
   X466.1492     Y23.5175      R0.9000    
   X466.3328     Y23.6584      R0.9000    
   X466.4736     Y23.8419      R0.9000    
   X466.5621     Y24.0556      R0.9000    
(Pass: 3)
G1   Z0.200      F100 
G17 G2   X466.5923     Y24.2850      R0.9000     F400 
   X466.5621     Y24.5144      R0.9000    
   X466.4736     Y24.7281      R0.9000    
   X466.3328     Y24.9116      R0.9000    
   X466.1492     Y25.0525      R0.9000    
   X465.9355     Y25.1410      R0.9000    
   X465.7061     Y25.1712      R0.9000    
   X465.4768     Y25.1410      R0.9000    
   X465.2630     Y25.0525      R0.9000    
   X465.0795     Y24.9116      R0.9000    
   X464.9387     Y24.7281      R0.9000    
   X464.8501     Y24.5144      R0.9000    
   X464.8200     Y24.2850      R0.9000    
   X464.8501     Y24.0556      R0.9000    
   X464.9387     Y23.8419      R0.9000    
   X465.0795     Y23.6584      R0.9000    
   X465.2630     Y23.5175      R0.9000    
   X465.4768     Y23.4290      R0.9000    
   X465.7061     Y23.3988      R0.9000    
   X465.9355     Y23.4290      R0.9000    
   X466.1492     Y23.5175      R0.9000    
   X466.3328     Y23.6584      R0.9000    
   X466.4736     Y23.8419      R0.9000    
   X466.5621     Y24.0556      R0.9000    
(Pass: 4)
G1   Z-0.320     F100 
G17 G2   X466.5923     Y24.2850      R0.9000     F400 
   X466.5621     Y24.5144      R0.9000    
   X466.4736     Y24.7281      R0.9000    
   X466.3328     Y24.9116      R0.9000    
   X466.1492     Y25.0525      R0.9000    
   X465.9355     Y25.1410      R0.9000    
   X465.7061     Y25.1712      R0.9000    
   X465.4768     Y25.1410      R0.9000    
   X465.2630     Y25.0525      R0.9000    
   X465.0795     Y24.9116      R0.9000    
   X464.9387     Y24.7281      R0.9000    
   X464.8501     Y24.5144      R0.9000    
   X464.8200     Y24.2850      R0.9000    
   X464.8501     Y24.0556      R0.9000    
   X464.9387     Y23.8419      R0.9000    
   X465.0795     Y23.6584      R0.9000    
   X465.2630     Y23.5175      R0.9000    
   X465.4768     Y23.4290      R0.9000    
   X465.7061     Y23.3988      R0.9000    
   X465.9355     Y23.4290      R0.9000    
   X466.1492     Y23.5175      R0.9000    
   X466.3328     Y23.6584      R0.9000    
   X466.4736     Y23.8419      R0.9000    
   X466.5621     Y24.0556      R0.9000    
G0   Z18.200    
(Pass: 1)
   X465.693      Y44.039    
G1   Z2.200      F100 
G17 G2   X465.9225     Y44.0690      R0.9000     F400 
   X466.1362     Y44.1575      R0.9000    
   X466.3198     Y44.2984      R0.9000    
   X466.4606     Y44.4819      R0.9000    
   X466.5491     Y44.6956      R0.9000    
   X466.5793     Y44.9250      R0.9000    
   X466.5491     Y45.1544      R0.9000    
   X466.4606     Y45.3681      R0.9000    
   X466.3198     Y45.5516      R0.9000    
   X466.1362     Y45.6925      R0.9000    
   X465.9225     Y45.7810      R0.9000    
   X465.6931     Y45.8112      R0.9000    
   X465.4638     Y45.7810      R0.9000    
   X465.2500     Y45.6925      R0.9000    
   X465.0665     Y45.5516      R0.9000    
   X464.9257     Y45.3681      R0.9000    
   X464.8371     Y45.1544      R0.9000    
   X464.8069     Y44.9250      R0.9000    
   X464.8371     Y44.6956      R0.9000    
   X464.9257     Y44.4819      R0.9000    
   X465.0665     Y44.2984      R0.9000    
   X465.2500     Y44.1575      R0.9000    
   X465.4638     Y44.0690      R0.9000    
   X465.6931     Y44.0388      R0.9000    
(Pass: 2)
G1   Z1.200      F100 
G17 G2   X465.9225     Y44.0690      R0.9000     F400 
   X466.1362     Y44.1575      R0.9000    
   X466.3198     Y44.2984      R0.9000    
   X466.4606     Y44.4819      R0.9000    
   X466.5491     Y44.6956      R0.9000    
   X466.5793     Y44.9250      R0.9000    
   X466.5491     Y45.1544      R0.9000    
   X466.4606     Y45.3681      R0.9000    
   X466.3198     Y45.5516      R0.9000    
   X466.1362     Y45.6925      R0.9000    
   X465.9225     Y45.7810      R0.9000    
   X465.6931     Y45.8112      R0.9000    
   X465.4638     Y45.7810      R0.9000    
   X465.2500     Y45.6925      R0.9000    
   X465.0665     Y45.5516      R0.9000    
   X464.9257     Y45.3681      R0.9000    
   X464.8371     Y45.1544      R0.9000    
   X464.8069     Y44.9250      R0.9000    
   X464.8371     Y44.6956      R0.9000    
   X464.9257     Y44.4819      R0.9000    
   X465.0665     Y44.2984      R0.9000    
   X465.2500     Y44.1575      R0.9000    
   X465.4638     Y44.0690      R0.9000    
   X465.6931     Y44.0388      R0.9000    
(Pass: 3)
G1   Z0.200      F100 
G17 G2   X465.9225     Y44.0690      R0.9000     F400 
   X466.1362     Y44.1575      R0.9000    
   X466.3198     Y44.2984      R0.9000    
   X466.4606     Y44.4819      R0.9000    
   X466.5491     Y44.6956      R0.9000    
   X466.5793     Y44.9250      R0.9000    
   X466.5491     Y45.1544      R0.9000    
   X466.4606     Y45.3681      R0.9000    
   X466.3198     Y45.5516      R0.9000    
   X466.1362     Y45.6925      R0.9000    
   X465.9225     Y45.7810      R0.9000    
   X465.6931     Y45.8112      R0.9000    
   X465.4638     Y45.7810      R0.9000    
   X465.2500     Y45.6925      R0.9000    
   X465.0665     Y45.5516      R0.9000    
   X464.9257     Y45.3681      R0.9000    
   X464.8371     Y45.1544      R0.9000    
   X464.8069     Y44.9250      R0.9000    
   X464.8371     Y44.6956      R0.9000    
   X464.9257     Y44.4819      R0.9000    
   X465.0665     Y44.2984      R0.9000    
   X465.2500     Y44.1575      R0.9000    
   X465.4638     Y44.0690      R0.9000    
   X465.6931     Y44.0388      R0.9000    
(Pass: 4)
G1   Z-0.320     F100 
G17 G2   X465.9225     Y44.0690      R0.9000     F400 
   X466.1362     Y44.1575      R0.9000    
   X466.3198     Y44.2984      R0.9000    
   X466.4606     Y44.4819      R0.9000    
   X466.5491     Y44.6956      R0.9000    
   X466.5793     Y44.9250      R0.9000    
   X466.5491     Y45.1544      R0.9000    
   X466.4606     Y45.3681      R0.9000    
   X466.3198     Y45.5516      R0.9000    
   X466.1362     Y45.6925      R0.9000    
   X465.9225     Y45.7810      R0.9000    
   X465.6931     Y45.8112      R0.9000    
   X465.4638     Y45.7810      R0.9000    
   X465.2500     Y45.6925      R0.9000    
   X465.0665     Y45.5516      R0.9000    
   X464.9257     Y45.3681      R0.9000    
   X464.8371     Y45.1544      R0.9000    
   X464.8069     Y44.9250      R0.9000    
   X464.8371     Y44.6956      R0.9000    
   X464.9257     Y44.4819      R0.9000    
   X465.0665     Y44.2984      R0.9000    
   X465.2500     Y44.1575      R0.9000    
   X465.4638     Y44.0690      R0.9000    
   X465.6931     Y44.0388      R0.9000    
G0   Z18.200    
(Pass: 1)
   X473.666      Y44.925    
G1   Z2.200      F100 
G17 G2   X473.7324     Y44.4191      R1.9685     F400 
   X473.9277     Y43.9477      R1.9685    
   X474.2383     Y43.5428      R1.9685    
   X474.6431     Y43.2322      R1.9685    
   X475.1146     Y43.0369      R1.9685    
   X475.6205     Y42.9703      R1.9685    
   X476.1264     Y43.0369      R1.9685    
   X476.5978     Y43.2322      R1.9685    
   X477.0027     Y43.5428      R1.9685    
   X477.3133     Y43.9477      R1.9685    
   X477.5086     Y44.4191      R1.9685    
   X477.5752     Y44.9250      R1.9685    
   X477.5086     Y45.4309      R1.9685    
   X477.3133     Y45.9023      R1.9685    
   X477.0027     Y46.3072      R1.9685    
   X476.5978     Y46.6178      R1.9685    
   X476.1264     Y46.8131      R1.9685    
   X475.6205     Y46.8797      R1.9685    
   X475.1146     Y46.8131      R1.9685    
   X474.6431     Y46.6178      R1.9685    
   X474.2383     Y46.3072      R1.9685    
   X473.9277     Y45.9023      R1.9685    
   X473.7324     Y45.4309      R1.9685    
   X473.6658     Y44.9250      R1.9685    
(Pass: 2)
G1   Z1.200      F100 
G17 G2   X473.7324     Y44.4191      R1.9685     F400 
   X473.9277     Y43.9477      R1.9685    
   X474.2383     Y43.5428      R1.9685    
   X474.6431     Y43.2322      R1.9685    
   X475.1146     Y43.0369      R1.9685    
   X475.6205     Y42.9703      R1.9685    
   X476.1264     Y43.0369      R1.9685    
   X476.5978     Y43.2322      R1.9685    
   X477.0027     Y43.5428      R1.9685    
   X477.3133     Y43.9477      R1.9685    
   X477.5086     Y44.4191      R1.9685    
   X477.5752     Y44.9250      R1.9685    
   X477.5086     Y45.4309      R1.9685    
   X477.3133     Y45.9023      R1.9685    
   X477.0027     Y46.3072      R1.9685    
   X476.5978     Y46.6178      R1.9685    
   X476.1264     Y46.8131      R1.9685    
   X475.6205     Y46.8797      R1.9685    
   X475.1146     Y46.8131      R1.9685    
   X474.6431     Y46.6178      R1.9685    
   X474.2383     Y46.3072      R1.9685    
   X473.9277     Y45.9023      R1.9685    
   X473.7324     Y45.4309      R1.9685    
   X473.6658     Y44.9250      R1.9685    
(Pass: 3)
G1   Z0.200      F100 
G17 G2   X473.7324     Y44.4191      R1.9685     F400 
   X473.9277     Y43.9477      R1.9685    
   X474.2383     Y43.5428      R1.9685    
   X474.6431     Y43.2322      R1.9685    
   X475.1146     Y43.0369      R1.9685    
   X475.6205     Y42.9703      R1.9685    
   X476.1264     Y43.0369      R1.9685    
   X476.5978     Y43.2322      R1.9685    
   X477.0027     Y43.5428      R1.9685    
   X477.3133     Y43.9477      R1.9685    
   X477.5086     Y44.4191      R1.9685    
   X477.5752     Y44.9250      R1.9685    
   X477.5086     Y45.4309      R1.9685    
   X477.3133     Y45.9023      R1.9685    
   X477.0027     Y46.3072      R1.9685    
   X476.5978     Y46.6178      R1.9685    
   X476.1264     Y46.8131      R1.9685    
   X475.6205     Y46.8797      R1.9685    
   X475.1146     Y46.8131      R1.9685    
   X474.6431     Y46.6178      R1.9685    
   X474.2383     Y46.3072      R1.9685    
   X473.9277     Y45.9023      R1.9685    
   X473.7324     Y45.4309      R1.9685    
   X473.6658     Y44.9250      R1.9685    
(Pass: 4)
G1   Z-0.320     F100 
G17 G2   X473.7324     Y44.4191      R1.9685     F400 
   X473.9277     Y43.9477      R1.9685    
   X474.2383     Y43.5428      R1.9685    
   X474.6431     Y43.2322      R1.9685    
   X475.1146     Y43.0369      R1.9685    
   X475.6205     Y42.9703      R1.9685    
   X476.1264     Y43.0369      R1.9685    
   X476.5978     Y43.2322      R1.9685    
   X477.0027     Y43.5428      R1.9685    
   X477.3133     Y43.9477      R1.9685    
   X477.5086     Y44.4191      R1.9685    
   X477.5752     Y44.9250      R1.9685    
   X477.5086     Y45.4309      R1.9685    
   X477.3133     Y45.9023      R1.9685    
   X477.0027     Y46.3072      R1.9685    
   X476.5978     Y46.6178      R1.9685    
   X476.1264     Y46.8131      R1.9685    
   X475.6205     Y46.8797      R1.9685    
   X475.1146     Y46.8131      R1.9685    
   X474.6431     Y46.6178      R1.9685    
   X474.2383     Y46.3072      R1.9685    
   X473.9277     Y45.9023      R1.9685    
   X473.7324     Y45.4309      R1.9685    
   X473.6658     Y44.9250      R1.9685    
G0   Z18.200    
(Pass: 1)
   X475.391      Y64.069    
G1   Z2.200      F100 
G17 G2   X475.6205     Y64.0388      R0.9000     F400 
   X475.8498     Y64.0690      R0.9000    
   X476.0636     Y64.1575      R0.9000    
   X476.2471     Y64.2984      R0.9000    
   X476.3880     Y64.4819      R0.9000    
   X476.4765     Y64.6956      R0.9000    
   X476.5067     Y64.9250      R0.9000    
   X476.4765     Y65.1544      R0.9000    
   X476.3880     Y65.3681      R0.9000    
   X476.2471     Y65.5516      R0.9000    
   X476.0636     Y65.6925      R0.9000    
   X475.8498     Y65.7810      R0.9000    
   X475.6205     Y65.8112      R0.9000    
   X475.3911     Y65.7810      R0.9000    
   X475.1774     Y65.6925      R0.9000    
   X474.9939     Y65.5516      R0.9000    
   X474.8530     Y65.3681      R0.9000    
   X474.7645     Y65.1544      R0.9000    
   X474.7343     Y64.9250      R0.9000    
   X474.7645     Y64.6956      R0.9000    
   X474.8530     Y64.4819      R0.9000    
   X474.9939     Y64.2984      R0.9000    
   X475.1774     Y64.1575      R0.9000    
   X475.3911     Y64.0690      R0.9000    
(Pass: 2)
G1   Z1.200      F100 
G17 G2   X475.6205     Y64.0388      R0.9000     F400 
   X475.8498     Y64.0690      R0.9000    
   X476.0636     Y64.1575      R0.9000    
   X476.2471     Y64.2984      R0.9000    
   X476.3880     Y64.4819      R0.9000    
   X476.4765     Y64.6956      R0.9000    
   X476.5067     Y64.9250      R0.9000    
   X476.4765     Y65.1544      R0.9000    
   X476.3880     Y65.3681      R0.9000    
   X476.2471     Y65.5516      R0.9000    
   X476.0636     Y65.6925      R0.9000    
   X475.8498     Y65.7810      R0.9000    
   X475.6205     Y65.8112      R0.9000    
   X475.3911     Y65.7810      R0.9000    
   X475.1774     Y65.6925      R0.9000    
   X474.9939     Y65.5516      R0.9000    
   X474.8530     Y65.3681      R0.9000    
   X474.7645     Y65.1544      R0.9000    
   X474.7343     Y64.9250      R0.9000    
   X474.7645     Y64.6956      R0.9000    
   X474.8530     Y64.4819      R0.9000    
   X474.9939     Y64.2984      R0.9000    
   X475.1774     Y64.1575      R0.9000    
   X475.3911     Y64.0690      R0.9000    
(Pass: 3)
G1   Z0.200      F100 
G17 G2   X475.6205     Y64.0388      R0.9000     F400 
   X475.8498     Y64.0690      R0.9000    
   X476.0636     Y64.1575      R0.9000    
   X476.2471     Y64.2984      R0.9000    
   X476.3880     Y64.4819      R0.9000    
   X476.4765     Y64.6956      R0.9000    
   X476.5067     Y64.9250      R0.9000    
   X476.4765     Y65.1544      R0.9000    
   X476.3880     Y65.3681      R0.9000    
   X476.2471     Y65.5516      R0.9000    
   X476.0636     Y65.6925      R0.9000    
   X475.8498     Y65.7810      R0.9000    
   X475.6205     Y65.8112      R0.9000    
   X475.3911     Y65.7810      R0.9000    
   X475.1774     Y65.6925      R0.9000    
   X474.9939     Y65.5516      R0.9000    
   X474.8530     Y65.3681      R0.9000    
   X474.7645     Y65.1544      R0.9000    
   X474.7343     Y64.9250      R0.9000    
   X474.7645     Y64.6956      R0.9000    
   X474.8530     Y64.4819      R0.9000    
   X474.9939     Y64.2984      R0.9000    
   X475.1774     Y64.1575      R0.9000    
   X475.3911     Y64.0690      R0.9000    
(Pass: 4)
G1   Z-0.320     F100 
G17 G2   X475.6205     Y64.0388      R0.9000     F400 
   X475.8498     Y64.0690      R0.9000    
   X476.0636     Y64.1575      R0.9000    
   X476.2471     Y64.2984      R0.9000    
   X476.3880     Y64.4819      R0.9000    
   X476.4765     Y64.6956      R0.9000    
   X476.5067     Y64.9250      R0.9000    
   X476.4765     Y65.1544      R0.9000    
   X476.3880     Y65.3681      R0.9000    
   X476.2471     Y65.5516      R0.9000    
   X476.0636     Y65.6925      R0.9000    
   X475.8498     Y65.7810      R0.9000    
   X475.6205     Y65.8112      R0.9000    
   X475.3911     Y65.7810      R0.9000    
   X475.1774     Y65.6925      R0.9000    
   X474.9939     Y65.5516      R0.9000    
   X474.8530     Y65.3681      R0.9000    
   X474.7645     Y65.1544      R0.9000    
   X474.7343     Y64.9250      R0.9000    
   X474.7645     Y64.6956      R0.9000    
   X474.8530     Y64.4819      R0.9000    
   X474.9939     Y64.2984      R0.9000    
   X475.1774     Y64.1575      R0.9000    
   X475.3911     Y64.0690      R0.9000    
G0   Z18.200    
(Pass: 1)
   X466.562      Y64.696    
G1   Z2.200      F100 
G17 G2   X466.5923     Y64.9250      R0.9000     F400 
   X466.5621     Y65.1544      R0.9000    
   X466.4736     Y65.3681      R0.9000    
   X466.3328     Y65.5516      R0.9000    
   X466.1492     Y65.6925      R0.9000    
   X465.9355     Y65.7810      R0.9000    
   X465.7061     Y65.8112      R0.9000    
   X465.4768     Y65.7810      R0.9000    
   X465.2630     Y65.6925      R0.9000    
   X465.0795     Y65.5516      R0.9000    
   X464.9387     Y65.3681      R0.9000    
   X464.8501     Y65.1544      R0.9000    
   X464.8200     Y64.9250      R0.9000    
   X464.8501     Y64.6956      R0.9000    
   X464.9387     Y64.4819      R0.9000    
   X465.0795     Y64.2984      R0.9000    
   X465.2630     Y64.1575      R0.9000    
   X465.4768     Y64.0690      R0.9000    
   X465.7061     Y64.0388      R0.9000    
   X465.9355     Y64.0690      R0.9000    
   X466.1492     Y64.1575      R0.9000    
   X466.3328     Y64.2984      R0.9000    
   X466.4736     Y64.4819      R0.9000    
   X466.5621     Y64.6956      R0.9000    
(Pass: 2)
G1   Z1.200      F100 
G17 G2   X466.5923     Y64.9250      R0.9000     F400 
   X466.5621     Y65.1544      R0.9000    
   X466.4736     Y65.3681      R0.9000    
   X466.3328     Y65.5516      R0.9000    
   X466.1492     Y65.6925      R0.9000    
   X465.9355     Y65.7810      R0.9000    
   X465.7061     Y65.8112      R0.9000    
   X465.4768     Y65.7810      R0.9000    
   X465.2630     Y65.6925      R0.9000    
   X465.0795     Y65.5516      R0.9000    
   X464.9387     Y65.3681      R0.9000    
   X464.8501     Y65.1544      R0.9000    
   X464.8200     Y64.9250      R0.9000    
   X464.8501     Y64.6956      R0.9000    
   X464.9387     Y64.4819      R0.9000    
   X465.0795     Y64.2984      R0.9000    
   X465.2630     Y64.1575      R0.9000    
   X465.4768     Y64.0690      R0.9000    
   X465.7061     Y64.0388      R0.9000    
   X465.9355     Y64.0690      R0.9000    
   X466.1492     Y64.1575      R0.9000    
   X466.3328     Y64.2984      R0.9000    
   X466.4736     Y64.4819      R0.9000    
   X466.5621     Y64.6956      R0.9000    
(Pass: 3)
G1   Z0.200      F100 
G17 G2   X466.5923     Y64.9250      R0.9000     F400 
   X466.5621     Y65.1544      R0.9000    
   X466.4736     Y65.3681      R0.9000    
   X466.3328     Y65.5516      R0.9000    
   X466.1492     Y65.6925      R0.9000    
   X465.9355     Y65.7810      R0.9000    
   X465.7061     Y65.8112      R0.9000    
   X465.4768     Y65.7810      R0.9000    
   X465.2630     Y65.6925      R0.9000    
   X465.0795     Y65.5516      R0.9000    
   X464.9387     Y65.3681      R0.9000    
   X464.8501     Y65.1544      R0.9000    
   X464.8200     Y64.9250      R0.9000    
   X464.8501     Y64.6956      R0.9000    
   X464.9387     Y64.4819      R0.9000    
   X465.0795     Y64.2984      R0.9000    
   X465.2630     Y64.1575      R0.9000    
   X465.4768     Y64.0690      R0.9000    
   X465.7061     Y64.0388      R0.9000    
   X465.9355     Y64.0690      R0.9000    
   X466.1492     Y64.1575      R0.9000    
   X466.3328     Y64.2984      R0.9000    
   X466.4736     Y64.4819      R0.9000    
   X466.5621     Y64.6956      R0.9000    
(Pass: 4)
G1   Z-0.320     F100 
G17 G2   X466.5923     Y64.9250      R0.9000     F400 
   X466.5621     Y65.1544      R0.9000    
   X466.4736     Y65.3681      R0.9000    
   X466.3328     Y65.5516      R0.9000    
   X466.1492     Y65.6925      R0.9000    
   X465.9355     Y65.7810      R0.9000    
   X465.7061     Y65.8112      R0.9000    
   X465.4768     Y65.7810      R0.9000    
   X465.2630     Y65.6925      R0.9000    
   X465.0795     Y65.5516      R0.9000    
   X464.9387     Y65.3681      R0.9000    
   X464.8501     Y65.1544      R0.9000    
   X464.8200     Y64.9250      R0.9000    
   X464.8501     Y64.6956      R0.9000    
   X464.9387     Y64.4819      R0.9000    
   X465.0795     Y64.2984      R0.9000    
   X465.2630     Y64.1575      R0.9000    
   X465.4768     Y64.0690      R0.9000    
   X465.7061     Y64.0388      R0.9000    
   X465.9355     Y64.0690      R0.9000    
   X466.1492     Y64.1575      R0.9000    
   X466.3328     Y64.2984      R0.9000    
   X466.4736     Y64.4819      R0.9000    
   X466.5621     Y64.6956      R0.9000    
G0   Z18.200    
(Pass: 1)
   X465.693      Y74.039    
G1   Z2.200      F100 
G17 G2   X465.9225     Y74.0690      R0.9000     F400 
   X466.1362     Y74.1575      R0.9000    
   X466.3198     Y74.2984      R0.9000    
   X466.4606     Y74.4819      R0.9000    
   X466.5491     Y74.6956      R0.9000    
   X466.5793     Y74.9250      R0.9000    
   X466.5491     Y75.1544      R0.9000    
   X466.4606     Y75.3681      R0.9000    
   X466.3198     Y75.5516      R0.9000    
   X466.1362     Y75.6925      R0.9000    
   X465.9225     Y75.7810      R0.9000    
   X465.6931     Y75.8112      R0.9000    
   X465.4638     Y75.7810      R0.9000    
   X465.2500     Y75.6925      R0.9000    
   X465.0665     Y75.5516      R0.9000    
   X464.9257     Y75.3681      R0.9000    
   X464.8371     Y75.1544      R0.9000    
   X464.8069     Y74.9250      R0.9000    
   X464.8371     Y74.6956      R0.9000    
   X464.9257     Y74.4819      R0.9000    
   X465.0665     Y74.2984      R0.9000    
   X465.2500     Y74.1575      R0.9000    
   X465.4638     Y74.0690      R0.9000    
   X465.6931     Y74.0388      R0.9000    
(Pass: 2)
G1   Z1.200      F100 
G17 G2   X465.9225     Y74.0690      R0.9000     F400 
   X466.1362     Y74.1575      R0.9000    
   X466.3198     Y74.2984      R0.9000    
   X466.4606     Y74.4819      R0.9000    
   X466.5491     Y74.6956      R0.9000    
   X466.5793     Y74.9250      R0.9000    
   X466.5491     Y75.1544      R0.9000    
   X466.4606     Y75.3681      R0.9000    
   X466.3198     Y75.5516      R0.9000    
   X466.1362     Y75.6925      R0.9000    
   X465.9225     Y75.7810      R0.9000    
   X465.6931     Y75.8112      R0.9000    
   X465.4638     Y75.7810      R0.9000    
   X465.2500     Y75.6925      R0.9000    
   X465.0665     Y75.5516      R0.9000    
   X464.9257     Y75.3681      R0.9000    
   X464.8371     Y75.1544      R0.9000    
   X464.8069     Y74.9250      R0.9000    
   X464.8371     Y74.6956      R0.9000    
   X464.9257     Y74.4819      R0.9000    
   X465.0665     Y74.2984      R0.9000    
   X465.2500     Y74.1575      R0.9000    
   X465.4638     Y74.0690      R0.9000    
   X465.6931     Y74.0388      R0.9000    
(Pass: 3)
G1   Z0.200      F100 
G17 G2   X465.9225     Y74.0690      R0.9000     F400 
   X466.1362     Y74.1575      R0.9000    
   X466.3198     Y74.2984      R0.9000    
   X466.4606     Y74.4819      R0.9000    
   X466.5491     Y74.6956      R0.9000    
   X466.5793     Y74.9250      R0.9000    
   X466.5491     Y75.1544      R0.9000    
   X466.4606     Y75.3681      R0.9000    
   X466.3198     Y75.5516      R0.9000    
   X466.1362     Y75.6925      R0.9000    
   X465.9225     Y75.7810      R0.9000    
   X465.6931     Y75.8112      R0.9000    
   X465.4638     Y75.7810      R0.9000    
   X465.2500     Y75.6925      R0.9000    
   X465.0665     Y75.5516      R0.9000    
   X464.9257     Y75.3681      R0.9000    
   X464.8371     Y75.1544      R0.9000    
   X464.8069     Y74.9250      R0.9000    
   X464.8371     Y74.6956      R0.9000    
   X464.9257     Y74.4819      R0.9000    
   X465.0665     Y74.2984      R0.9000    
   X465.2500     Y74.1575      R0.9000    
   X465.4638     Y74.0690      R0.9000    
   X465.6931     Y74.0388      R0.9000    
(Pass: 4)
G1   Z-0.320     F100 
G17 G2   X465.9225     Y74.0690      R0.9000     F400 
   X466.1362     Y74.1575      R0.9000    
   X466.3198     Y74.2984      R0.9000    
   X466.4606     Y74.4819      R0.9000    
   X466.5491     Y74.6956      R0.9000    
   X466.5793     Y74.9250      R0.9000    
   X466.5491     Y75.1544      R0.9000    
   X466.4606     Y75.3681      R0.9000    
   X466.3198     Y75.5516      R0.9000    
   X466.1362     Y75.6925      R0.9000    
   X465.9225     Y75.7810      R0.9000    
   X465.6931     Y75.8112      R0.9000    
   X465.4638     Y75.7810      R0.9000    
   X465.2500     Y75.6925      R0.9000    
   X465.0665     Y75.5516      R0.9000    
   X464.9257     Y75.3681      R0.9000    
   X464.8371     Y75.1544      R0.9000    
   X464.8069     Y74.9250      R0.9000    
   X464.8371     Y74.6956      R0.9000    
   X464.9257     Y74.4819      R0.9000    
   X465.0665     Y74.2984      R0.9000    
   X465.2500     Y74.1575      R0.9000    
   X465.4638     Y74.0690      R0.9000    
   X465.6931     Y74.0388      R0.9000    
G0   Z18.200    
(Pass: 1)
   X473.666      Y74.925    
G1   Z2.200      F100 
G17 G2   X473.7324     Y74.4191      R1.9685     F400 
   X473.9277     Y73.9477      R1.9685    
   X474.2383     Y73.5428      R1.9685    
   X474.6431     Y73.2322      R1.9685    
   X475.1146     Y73.0369      R1.9685    
   X475.6205     Y72.9703      R1.9685    
   X476.1264     Y73.0369      R1.9685    
   X476.5978     Y73.2322      R1.9685    
   X477.0027     Y73.5428      R1.9685    
   X477.3133     Y73.9477      R1.9685    
   X477.5086     Y74.4191      R1.9685    
   X477.5752     Y74.9250      R1.9685    
   X477.5086     Y75.4309      R1.9685    
   X477.3133     Y75.9023      R1.9685    
   X477.0027     Y76.3072      R1.9685    
   X476.5978     Y76.6178      R1.9685    
   X476.1264     Y76.8131      R1.9685    
   X475.6205     Y76.8797      R1.9685    
   X475.1146     Y76.8131      R1.9685    
   X474.6431     Y76.6178      R1.9685    
   X474.2383     Y76.3072      R1.9685    
   X473.9277     Y75.9023      R1.9685    
   X473.7324     Y75.4309      R1.9685    
   X473.6658     Y74.9250      R1.9685    
(Pass: 2)
G1   Z1.200      F100 
G17 G2   X473.7324     Y74.4191      R1.9685     F400 
   X473.9277     Y73.9477      R1.9685    
   X474.2383     Y73.5428      R1.9685    
   X474.6431     Y73.2322      R1.9685    
   X475.1146     Y73.0369      R1.9685    
   X475.6205     Y72.9703      R1.9685    
   X476.1264     Y73.0369      R1.9685    
   X476.5978     Y73.2322      R1.9685    
   X477.0027     Y73.5428      R1.9685    
   X477.3133     Y73.9477      R1.9685    
   X477.5086     Y74.4191      R1.9685    
   X477.5752     Y74.9250      R1.9685    
   X477.5086     Y75.4309      R1.9685    
   X477.3133     Y75.9023      R1.9685    
   X477.0027     Y76.3072      R1.9685    
   X476.5978     Y76.6178      R1.9685    
   X476.1264     Y76.8131      R1.9685    
   X475.6205     Y76.8797      R1.9685    
   X475.1146     Y76.8131      R1.9685    
   X474.6431     Y76.6178      R1.9685    
   X474.2383     Y76.3072      R1.9685    
   X473.9277     Y75.9023      R1.9685    
   X473.7324     Y75.4309      R1.9685    
   X473.6658     Y74.9250      R1.9685    
(Pass: 3)
G1   Z0.200      F100 
G17 G2   X473.7324     Y74.4191      R1.9685     F400 
   X473.9277     Y73.9477      R1.9685    
   X474.2383     Y73.5428      R1.9685    
   X474.6431     Y73.2322      R1.9685    
   X475.1146     Y73.0369      R1.9685    
   X475.6205     Y72.9703      R1.9685    
   X476.1264     Y73.0369      R1.9685    
   X476.5978     Y73.2322      R1.9685    
   X477.0027     Y73.5428      R1.9685    
   X477.3133     Y73.9477      R1.9685    
   X477.5086     Y74.4191      R1.9685    
   X477.5752     Y74.9250      R1.9685    
   X477.5086     Y75.4309      R1.9685    
   X477.3133     Y75.9023      R1.9685    
   X477.0027     Y76.3072      R1.9685    
   X476.5978     Y76.6178      R1.9685    
   X476.1264     Y76.8131      R1.9685    
   X475.6205     Y76.8797      R1.9685    
   X475.1146     Y76.8131      R1.9685    
   X474.6431     Y76.6178      R1.9685    
   X474.2383     Y76.3072      R1.9685    
   X473.9277     Y75.9023      R1.9685    
   X473.7324     Y75.4309      R1.9685    
   X473.6658     Y74.9250      R1.9685    
(Pass: 4)
G1   Z-0.320     F100 
G17 G2   X473.7324     Y74.4191      R1.9685     F400 
   X473.9277     Y73.9477      R1.9685    
   X474.2383     Y73.5428      R1.9685    
   X474.6431     Y73.2322      R1.9685    
   X475.1146     Y73.0369      R1.9685    
   X475.6205     Y72.9703      R1.9685    
   X476.1264     Y73.0369      R1.9685    
   X476.5978     Y73.2322      R1.9685    
   X477.0027     Y73.5428      R1.9685    
   X477.3133     Y73.9477      R1.9685    
   X477.5086     Y74.4191      R1.9685    
   X477.5752     Y74.9250      R1.9685    
   X477.5086     Y75.4309      R1.9685    
   X477.3133     Y75.9023      R1.9685    
   X477.0027     Y76.3072      R1.9685    
   X476.5978     Y76.6178      R1.9685    
   X476.1264     Y76.8131      R1.9685    
   X475.6205     Y76.8797      R1.9685    
   X475.1146     Y76.8131      R1.9685    
   X474.6431     Y76.6178      R1.9685    
   X474.2383     Y76.3072      R1.9685    
   X473.9277     Y75.9023      R1.9685    
   X473.7324     Y75.4309      R1.9685    
   X473.6658     Y74.9250      R1.9685    
G0   Z18.200    
(Pass: 1)
   X473.693      Y95.049    
G1   Z2.200      F100 
G17 G2   X473.9222     Y95.0793      R0.9000     F400 
   X474.1360     Y95.1678      R0.9000    
   X474.3195     Y95.3087      R0.9000    
   X474.4604     Y95.4922      R0.9000    
   X474.5489     Y95.7059      R0.9000    
   X474.5791     Y95.9353      R0.9000    
   X474.5489     Y96.1647      R0.9000    
   X474.4604     Y96.3784      R0.9000    
   X474.3195     Y96.5619      R0.9000    
   X474.1360     Y96.7028      R0.9000    
   X473.9222     Y96.7913      R0.9000    
   X473.6929     Y96.8215      R0.9000    
   X473.4635     Y96.7913      R0.9000    
   X473.2498     Y96.7028      R0.9000    
   X473.0663     Y96.5619      R0.9000    
   X472.9254     Y96.3784      R0.9000    
   X472.8369     Y96.1647      R0.9000    
   X472.8067     Y95.9353      R0.9000    
   X472.8369     Y95.7059      R0.9000    
   X472.9254     Y95.4922      R0.9000    
   X473.0663     Y95.3087      R0.9000    
   X473.2498     Y95.1678      R0.9000    
   X473.4635     Y95.0793      R0.9000    
   X473.6929     Y95.0491      R0.9000    
(Pass: 2)
G1   Z1.200      F100 
G17 G2   X473.9222     Y95.0793      R0.9000     F400 
   X474.1360     Y95.1678      R0.9000    
   X474.3195     Y95.3087      R0.9000    
   X474.4604     Y95.4922      R0.9000    
   X474.5489     Y95.7059      R0.9000    
   X474.5791     Y95.9353      R0.9000    
   X474.5489     Y96.1647      R0.9000    
   X474.4604     Y96.3784      R0.9000    
   X474.3195     Y96.5619      R0.9000    
   X474.1360     Y96.7028      R0.9000    
   X473.9222     Y96.7913      R0.9000    
   X473.6929     Y96.8215      R0.9000    
   X473.4635     Y96.7913      R0.9000    
   X473.2498     Y96.7028      R0.9000    
   X473.0663     Y96.5619      R0.9000    
   X472.9254     Y96.3784      R0.9000    
   X472.8369     Y96.1647      R0.9000    
   X472.8067     Y95.9353      R0.9000    
   X472.8369     Y95.7059      R0.9000    
   X472.9254     Y95.4922      R0.9000    
   X473.0663     Y95.3087      R0.9000    
   X473.2498     Y95.1678      R0.9000    
   X473.4635     Y95.0793      R0.9000    
   X473.6929     Y95.0491      R0.9000    
(Pass: 3)
G1   Z0.200      F100 
G17 G2   X473.9222     Y95.0793      R0.9000     F400 
   X474.1360     Y95.1678      R0.9000    
   X474.3195     Y95.3087      R0.9000    
   X474.4604     Y95.4922      R0.9000    
   X474.5489     Y95.7059      R0.9000    
   X474.5791     Y95.9353      R0.9000    
   X474.5489     Y96.1647      R0.9000    
   X474.4604     Y96.3784      R0.9000    
   X474.3195     Y96.5619      R0.9000    
   X474.1360     Y96.7028      R0.9000    
   X473.9222     Y96.7913      R0.9000    
   X473.6929     Y96.8215      R0.9000    
   X473.4635     Y96.7913      R0.9000    
   X473.2498     Y96.7028      R0.9000    
   X473.0663     Y96.5619      R0.9000    
   X472.9254     Y96.3784      R0.9000    
   X472.8369     Y96.1647      R0.9000    
   X472.8067     Y95.9353      R0.9000    
   X472.8369     Y95.7059      R0.9000    
   X472.9254     Y95.4922      R0.9000    
   X473.0663     Y95.3087      R0.9000    
   X473.2498     Y95.1678      R0.9000    
   X473.4635     Y95.0793      R0.9000    
   X473.6929     Y95.0491      R0.9000    
(Pass: 4)
G1   Z-0.320     F100 
G17 G2   X473.9222     Y95.0793      R0.9000     F400 
   X474.1360     Y95.1678      R0.9000    
   X474.3195     Y95.3087      R0.9000    
   X474.4604     Y95.4922      R0.9000    
   X474.5489     Y95.7059      R0.9000    
   X474.5791     Y95.9353      R0.9000    
   X474.5489     Y96.1647      R0.9000    
   X474.4604     Y96.3784      R0.9000    
   X474.3195     Y96.5619      R0.9000    
   X474.1360     Y96.7028      R0.9000    
   X473.9222     Y96.7913      R0.9000    
   X473.6929     Y96.8215      R0.9000    
   X473.4635     Y96.7913      R0.9000    
   X473.2498     Y96.7028      R0.9000    
   X473.0663     Y96.5619      R0.9000    
   X472.9254     Y96.3784      R0.9000    
   X472.8369     Y96.1647      R0.9000    
   X472.8067     Y95.9353      R0.9000    
   X472.8369     Y95.7059      R0.9000    
   X472.9254     Y95.4922      R0.9000    
   X473.0663     Y95.3087      R0.9000    
   X473.2498     Y95.1678      R0.9000    
   X473.4635     Y95.0793      R0.9000    
   X473.6929     Y95.0491      R0.9000    
G0   Z18.200    
(Pass: 1)
   X449.549      Y95.706    
G1   Z2.200      F100 
G17 G2   X449.5791     Y95.9353      R0.9000     F400 
   X449.5489     Y96.1647      R0.9000    
   X449.4604     Y96.3784      R0.9000    
   X449.3195     Y96.5619      R0.9000    
   X449.1360     Y96.7028      R0.9000    
   X448.9222     Y96.7913      R0.9000    
   X448.6929     Y96.8215      R0.9000    
   X448.4635     Y96.7913      R0.9000    
   X448.2498     Y96.7028      R0.9000    
   X448.0663     Y96.5619      R0.9000    
   X447.9254     Y96.3784      R0.9000    
   X447.8369     Y96.1647      R0.9000    
   X447.8067     Y95.9353      R0.9000    
   X447.8369     Y95.7059      R0.9000    
   X447.9254     Y95.4922      R0.9000    
   X448.0663     Y95.3087      R0.9000    
   X448.2498     Y95.1678      R0.9000    
   X448.4635     Y95.0793      R0.9000    
   X448.6929     Y95.0491      R0.9000    
   X448.9222     Y95.0793      R0.9000    
   X449.1360     Y95.1678      R0.9000    
   X449.3195     Y95.3087      R0.9000    
   X449.4604     Y95.4922      R0.9000    
   X449.5489     Y95.7059      R0.9000    
(Pass: 2)
G1   Z1.200      F100 
G17 G2   X449.5791     Y95.9353      R0.9000     F400 
   X449.5489     Y96.1647      R0.9000    
   X449.4604     Y96.3784      R0.9000    
   X449.3195     Y96.5619      R0.9000    
   X449.1360     Y96.7028      R0.9000    
   X448.9222     Y96.7913      R0.9000    
   X448.6929     Y96.8215      R0.9000    
   X448.4635     Y96.7913      R0.9000    
   X448.2498     Y96.7028      R0.9000    
   X448.0663     Y96.5619      R0.9000    
   X447.9254     Y96.3784      R0.9000    
   X447.8369     Y96.1647      R0.9000    
   X447.8067     Y95.9353      R0.9000    
   X447.8369     Y95.7059      R0.9000    
   X447.9254     Y95.4922      R0.9000    
   X448.0663     Y95.3087      R0.9000    
   X448.2498     Y95.1678      R0.9000    
   X448.4635     Y95.0793      R0.9000    
   X448.6929     Y95.0491      R0.9000    
   X448.9222     Y95.0793      R0.9000    
   X449.1360     Y95.1678      R0.9000    
   X449.3195     Y95.3087      R0.9000    
   X449.4604     Y95.4922      R0.9000    
   X449.5489     Y95.7059      R0.9000    
(Pass: 3)
G1   Z0.200      F100 
G17 G2   X449.5791     Y95.9353      R0.9000     F400 
   X449.5489     Y96.1647      R0.9000    
   X449.4604     Y96.3784      R0.9000    
   X449.3195     Y96.5619      R0.9000    
   X449.1360     Y96.7028      R0.9000    
   X448.9222     Y96.7913      R0.9000    
   X448.6929     Y96.8215      R0.9000    
   X448.4635     Y96.7913      R0.9000    
   X448.2498     Y96.7028      R0.9000    
   X448.0663     Y96.5619      R0.9000    
   X447.9254     Y96.3784      R0.9000    
   X447.8369     Y96.1647      R0.9000    
   X447.8067     Y95.9353      R0.9000    
   X447.8369     Y95.7059      R0.9000    
   X447.9254     Y95.4922      R0.9000    
   X448.0663     Y95.3087      R0.9000    
   X448.2498     Y95.1678      R0.9000    
   X448.4635     Y95.0793      R0.9000    
   X448.6929     Y95.0491      R0.9000    
   X448.9222     Y95.0793      R0.9000    
   X449.1360     Y95.1678      R0.9000    
   X449.3195     Y95.3087      R0.9000    
   X449.4604     Y95.4922      R0.9000    
   X449.5489     Y95.7059      R0.9000    
(Pass: 4)
G1   Z-0.320     F100 
G17 G2   X449.5791     Y95.9353      R0.9000     F400 
   X449.5489     Y96.1647      R0.9000    
   X449.4604     Y96.3784      R0.9000    
   X449.3195     Y96.5619      R0.9000    
   X449.1360     Y96.7028      R0.9000    
   X448.9222     Y96.7913      R0.9000    
   X448.6929     Y96.8215      R0.9000    
   X448.4635     Y96.7913      R0.9000    
   X448.2498     Y96.7028      R0.9000    
   X448.0663     Y96.5619      R0.9000    
   X447.9254     Y96.3784      R0.9000    
   X447.8369     Y96.1647      R0.9000    
   X447.8067     Y95.9353      R0.9000    
   X447.8369     Y95.7059      R0.9000    
   X447.9254     Y95.4922      R0.9000    
   X448.0663     Y95.3087      R0.9000    
   X448.2498     Y95.1678      R0.9000    
   X448.4635     Y95.0793      R0.9000    
   X448.6929     Y95.0491      R0.9000    
   X448.9222     Y95.0793      R0.9000    
   X449.1360     Y95.1678      R0.9000    
   X449.3195     Y95.3087      R0.9000    
   X449.4604     Y95.4922      R0.9000    
   X449.5489     Y95.7059      R0.9000    
G0   Z18.200    
(Pass: 1)
   X495.415      Y55.552    
G1   Z2.200      F100 
G17 G2   X495.2746     Y55.3681      R0.9000     F400 
   X495.1860     Y55.1544      R0.9000    
   X495.1558     Y54.9250      R0.9000    
   X495.1860     Y54.6956      R0.9000    
   X495.2746     Y54.4819      R0.9000    
   X495.4154     Y54.2984      R0.9000    
   X495.5989     Y54.1575      R0.9000    
   X495.8127     Y54.0690      R0.9000    
   X496.0420     Y54.0388      R0.9000    
   X496.2714     Y54.0690      R0.9000    
   X496.4851     Y54.1575      R0.9000    
   X496.6687     Y54.2984      R0.9000    
   X496.8095     Y54.4819      R0.9000    
   X496.8980     Y54.6956      R0.9000    
   X496.9282     Y54.9250      R0.9000    
   X496.8980     Y55.1544      R0.9000    
   X496.8095     Y55.3681      R0.9000    
   X496.6687     Y55.5516      R0.9000    
   X496.4851     Y55.6925      R0.9000    
   X496.2714     Y55.7810      R0.9000    
   X496.0420     Y55.8112      R0.9000    
   X495.8127     Y55.7810      R0.9000    
   X495.5989     Y55.6925      R0.9000    
   X495.4154     Y55.5516      R0.9000    
(Pass: 2)
G1   Z1.200      F100 
G17 G2   X495.2746     Y55.3681      R0.9000     F400 
   X495.1860     Y55.1544      R0.9000    
   X495.1558     Y54.9250      R0.9000    
   X495.1860     Y54.6956      R0.9000    
   X495.2746     Y54.4819      R0.9000    
   X495.4154     Y54.2984      R0.9000    
   X495.5989     Y54.1575      R0.9000    
   X495.8127     Y54.0690      R0.9000    
   X496.0420     Y54.0388      R0.9000    
   X496.2714     Y54.0690      R0.9000    
   X496.4851     Y54.1575      R0.9000    
   X496.6687     Y54.2984      R0.9000    
   X496.8095     Y54.4819      R0.9000    
   X496.8980     Y54.6956      R0.9000    
   X496.9282     Y54.9250      R0.9000    
   X496.8980     Y55.1544      R0.9000    
   X496.8095     Y55.3681      R0.9000    
   X496.6687     Y55.5516      R0.9000    
   X496.4851     Y55.6925      R0.9000    
   X496.2714     Y55.7810      R0.9000    
   X496.0420     Y55.8112      R0.9000    
   X495.8127     Y55.7810      R0.9000    
   X495.5989     Y55.6925      R0.9000    
   X495.4154     Y55.5516      R0.9000    
(Pass: 3)
G1   Z0.200      F100 
G17 G2   X495.2746     Y55.3681      R0.9000     F400 
   X495.1860     Y55.1544      R0.9000    
   X495.1558     Y54.9250      R0.9000    
   X495.1860     Y54.6956      R0.9000    
   X495.2746     Y54.4819      R0.9000    
   X495.4154     Y54.2984      R0.9000    
   X495.5989     Y54.1575      R0.9000    
   X495.8127     Y54.0690      R0.9000    
   X496.0420     Y54.0388      R0.9000    
   X496.2714     Y54.0690      R0.9000    
   X496.4851     Y54.1575      R0.9000    
   X496.6687     Y54.2984      R0.9000    
   X496.8095     Y54.4819      R0.9000    
   X496.8980     Y54.6956      R0.9000    
   X496.9282     Y54.9250      R0.9000    
   X496.8980     Y55.1544      R0.9000    
   X496.8095     Y55.3681      R0.9000    
   X496.6687     Y55.5516      R0.9000    
   X496.4851     Y55.6925      R0.9000    
   X496.2714     Y55.7810      R0.9000    
   X496.0420     Y55.8112      R0.9000    
   X495.8127     Y55.7810      R0.9000    
   X495.5989     Y55.6925      R0.9000    
   X495.4154     Y55.5516      R0.9000    
(Pass: 4)
G1   Z-0.320     F100 
G17 G2   X495.2746     Y55.3681      R0.9000     F400 
   X495.1860     Y55.1544      R0.9000    
   X495.1558     Y54.9250      R0.9000    
   X495.1860     Y54.6956      R0.9000    
   X495.2746     Y54.4819      R0.9000    
   X495.4154     Y54.2984      R0.9000    
   X495.5989     Y54.1575      R0.9000    
   X495.8127     Y54.0690      R0.9000    
   X496.0420     Y54.0388      R0.9000    
   X496.2714     Y54.0690      R0.9000    
   X496.4851     Y54.1575      R0.9000    
   X496.6687     Y54.2984      R0.9000    
   X496.8095     Y54.4819      R0.9000    
   X496.8980     Y54.6956      R0.9000    
   X496.9282     Y54.9250      R0.9000    
   X496.8980     Y55.1544      R0.9000    
   X496.8095     Y55.3681      R0.9000    
   X496.6687     Y55.5516      R0.9000    
   X496.4851     Y55.6925      R0.9000    
   X496.2714     Y55.7810      R0.9000    
   X496.0420     Y55.8112      R0.9000    
   X495.8127     Y55.7810      R0.9000    
   X495.5989     Y55.6925      R0.9000    
   X495.4154     Y55.5516      R0.9000    
G0   Z18.200    
(Pass: 1)
   X515.156      Y54.925    
G1   Z2.200      F100 
G17 G2   X515.1860     Y54.6956      R0.9000     F400 
   X515.2746     Y54.4819      R0.9000    
   X515.4154     Y54.2984      R0.9000    
   X515.5989     Y54.1575      R0.9000    
   X515.8127     Y54.0690      R0.9000    
   X516.0420     Y54.0388      R0.9000    
   X516.2714     Y54.0690      R0.9000    
   X516.4851     Y54.1575      R0.9000    
   X516.6687     Y54.2984      R0.9000    
   X516.8095     Y54.4819      R0.9000    
   X516.8980     Y54.6956      R0.9000    
   X516.9282     Y54.9250      R0.9000    
   X516.8980     Y55.1544      R0.9000    
   X516.8095     Y55.3681      R0.9000    
   X516.6687     Y55.5516      R0.9000    
   X516.4851     Y55.6925      R0.9000    
   X516.2714     Y55.7810      R0.9000    
   X516.0420     Y55.8112      R0.9000    
   X515.8127     Y55.7810      R0.9000    
   X515.5989     Y55.6925      R0.9000    
   X515.4154     Y55.5516      R0.9000    
   X515.2746     Y55.3681      R0.9000    
   X515.1860     Y55.1544      R0.9000    
   X515.1558     Y54.9250      R0.9000    
(Pass: 2)
G1   Z1.200      F100 
G17 G2   X515.1860     Y54.6956      R0.9000     F400 
   X515.2746     Y54.4819      R0.9000    
   X515.4154     Y54.2984      R0.9000    
   X515.5989     Y54.1575      R0.9000    
   X515.8127     Y54.0690      R0.9000    
   X516.0420     Y54.0388      R0.9000    
   X516.2714     Y54.0690      R0.9000    
   X516.4851     Y54.1575      R0.9000    
   X516.6687     Y54.2984      R0.9000    
   X516.8095     Y54.4819      R0.9000    
   X516.8980     Y54.6956      R0.9000    
   X516.9282     Y54.9250      R0.9000    
   X516.8980     Y55.1544      R0.9000    
   X516.8095     Y55.3681      R0.9000    
   X516.6687     Y55.5516      R0.9000    
   X516.4851     Y55.6925      R0.9000    
   X516.2714     Y55.7810      R0.9000    
   X516.0420     Y55.8112      R0.9000    
   X515.8127     Y55.7810      R0.9000    
   X515.5989     Y55.6925      R0.9000    
   X515.4154     Y55.5516      R0.9000    
   X515.2746     Y55.3681      R0.9000    
   X515.1860     Y55.1544      R0.9000    
   X515.1558     Y54.9250      R0.9000    
(Pass: 3)
G1   Z0.200      F100 
G17 G2   X515.1860     Y54.6956      R0.9000     F400 
   X515.2746     Y54.4819      R0.9000    
   X515.4154     Y54.2984      R0.9000    
   X515.5989     Y54.1575      R0.9000    
   X515.8127     Y54.0690      R0.9000    
   X516.0420     Y54.0388      R0.9000    
   X516.2714     Y54.0690      R0.9000    
   X516.4851     Y54.1575      R0.9000    
   X516.6687     Y54.2984      R0.9000    
   X516.8095     Y54.4819      R0.9000    
   X516.8980     Y54.6956      R0.9000    
   X516.9282     Y54.9250      R0.9000    
   X516.8980     Y55.1544      R0.9000    
   X516.8095     Y55.3681      R0.9000    
   X516.6687     Y55.5516      R0.9000    
   X516.4851     Y55.6925      R0.9000    
   X516.2714     Y55.7810      R0.9000    
   X516.0420     Y55.8112      R0.9000    
   X515.8127     Y55.7810      R0.9000    
   X515.5989     Y55.6925      R0.9000    
   X515.4154     Y55.5516      R0.9000    
   X515.2746     Y55.3681      R0.9000    
   X515.1860     Y55.1544      R0.9000    
   X515.1558     Y54.9250      R0.9000    
(Pass: 4)
G1   Z-0.320     F100 
G17 G2   X515.1860     Y54.6956      R0.9000     F400 
   X515.2746     Y54.4819      R0.9000    
   X515.4154     Y54.2984      R0.9000    
   X515.5989     Y54.1575      R0.9000    
   X515.8127     Y54.0690      R0.9000    
   X516.0420     Y54.0388      R0.9000    
   X516.2714     Y54.0690      R0.9000    
   X516.4851     Y54.1575      R0.9000    
   X516.6687     Y54.2984      R0.9000    
   X516.8095     Y54.4819      R0.9000    
   X516.8980     Y54.6956      R0.9000    
   X516.9282     Y54.9250      R0.9000    
   X516.8980     Y55.1544      R0.9000    
   X516.8095     Y55.3681      R0.9000    
   X516.6687     Y55.5516      R0.9000    
   X516.4851     Y55.6925      R0.9000    
   X516.2714     Y55.7810      R0.9000    
   X516.0420     Y55.8112      R0.9000    
   X515.8127     Y55.7810      R0.9000    
   X515.5989     Y55.6925      R0.9000    
   X515.4154     Y55.5516      R0.9000    
   X515.2746     Y55.3681      R0.9000    
   X515.1860     Y55.1544      R0.9000    
   X515.1558     Y54.9250      R0.9000    
G0   Z18.200    
(Pass: 1)
   X535.264      Y64.696    
G1   Z2.200      F100 
G17 G2   X535.3530     Y64.4819      R0.9000     F400 
   X535.4939     Y64.2984      R0.9000    
   X535.6774     Y64.1575      R0.9000    
   X535.8911     Y64.0690      R0.9000    
   X536.1205     Y64.0388      R0.9000    
   X536.3498     Y64.0690      R0.9000    
   X536.5636     Y64.1575      R0.9000    
   X536.7471     Y64.2984      R0.9000    
   X536.8880     Y64.4819      R0.9000    
   X536.9765     Y64.6956      R0.9000    
   X537.0067     Y64.9250      R0.9000    
   X536.9765     Y65.1544      R0.9000    
   X536.8880     Y65.3681      R0.9000    
   X536.7471     Y65.5516      R0.9000    
   X536.5636     Y65.6925      R0.9000    
   X536.3498     Y65.7810      R0.9000    
   X536.1205     Y65.8112      R0.9000    
   X535.8911     Y65.7810      R0.9000    
   X535.6774     Y65.6925      R0.9000    
   X535.4939     Y65.5516      R0.9000    
   X535.3530     Y65.3681      R0.9000    
   X535.2645     Y65.1544      R0.9000    
   X535.2343     Y64.9250      R0.9000    
   X535.2645     Y64.6956      R0.9000    
(Pass: 2)
G1   Z1.200      F100 
G17 G2   X535.3530     Y64.4819      R0.9000     F400 
   X535.4939     Y64.2984      R0.9000    
   X535.6774     Y64.1575      R0.9000    
   X535.8911     Y64.0690      R0.9000    
   X536.1205     Y64.0388      R0.9000    
   X536.3498     Y64.0690      R0.9000    
   X536.5636     Y64.1575      R0.9000    
   X536.7471     Y64.2984      R0.9000    
   X536.8880     Y64.4819      R0.9000    
   X536.9765     Y64.6956      R0.9000    
   X537.0067     Y64.9250      R0.9000    
   X536.9765     Y65.1544      R0.9000    
   X536.8880     Y65.3681      R0.9000    
   X536.7471     Y65.5516      R0.9000    
   X536.5636     Y65.6925      R0.9000    
   X536.3498     Y65.7810      R0.9000    
   X536.1205     Y65.8112      R0.9000    
   X535.8911     Y65.7810      R0.9000    
   X535.6774     Y65.6925      R0.9000    
   X535.4939     Y65.5516      R0.9000    
   X535.3530     Y65.3681      R0.9000    
   X535.2645     Y65.1544      R0.9000    
   X535.2343     Y64.9250      R0.9000    
   X535.2645     Y64.6956      R0.9000    
(Pass: 3)
G1   Z0.200      F100 
G17 G2   X535.3530     Y64.4819      R0.9000     F400 
   X535.4939     Y64.2984      R0.9000    
   X535.6774     Y64.1575      R0.9000    
   X535.8911     Y64.0690      R0.9000    
   X536.1205     Y64.0388      R0.9000    
   X536.3498     Y64.0690      R0.9000    
   X536.5636     Y64.1575      R0.9000    
   X536.7471     Y64.2984      R0.9000    
   X536.8880     Y64.4819      R0.9000    
   X536.9765     Y64.6956      R0.9000    
   X537.0067     Y64.9250      R0.9000    
   X536.9765     Y65.1544      R0.9000    
   X536.8880     Y65.3681      R0.9000    
   X536.7471     Y65.5516      R0.9000    
   X536.5636     Y65.6925      R0.9000    
   X536.3498     Y65.7810      R0.9000    
   X536.1205     Y65.8112      R0.9000    
   X535.8911     Y65.7810      R0.9000    
   X535.6774     Y65.6925      R0.9000    
   X535.4939     Y65.5516      R0.9000    
   X535.3530     Y65.3681      R0.9000    
   X535.2645     Y65.1544      R0.9000    
   X535.2343     Y64.9250      R0.9000    
   X535.2645     Y64.6956      R0.9000    
(Pass: 4)
G1   Z-0.320     F100 
G17 G2   X535.3530     Y64.4819      R0.9000     F400 
   X535.4939     Y64.2984      R0.9000    
   X535.6774     Y64.1575      R0.9000    
   X535.8911     Y64.0690      R0.9000    
   X536.1205     Y64.0388      R0.9000    
   X536.3498     Y64.0690      R0.9000    
   X536.5636     Y64.1575      R0.9000    
   X536.7471     Y64.2984      R0.9000    
   X536.8880     Y64.4819      R0.9000    
   X536.9765     Y64.6956      R0.9000    
   X537.0067     Y64.9250      R0.9000    
   X536.9765     Y65.1544      R0.9000    
   X536.8880     Y65.3681      R0.9000    
   X536.7471     Y65.5516      R0.9000    
   X536.5636     Y65.6925      R0.9000    
   X536.3498     Y65.7810      R0.9000    
   X536.1205     Y65.8112      R0.9000    
   X535.8911     Y65.7810      R0.9000    
   X535.6774     Y65.6925      R0.9000    
   X535.4939     Y65.5516      R0.9000    
   X535.3530     Y65.3681      R0.9000    
   X535.2645     Y65.1544      R0.9000    
   X535.2343     Y64.9250      R0.9000    
   X535.2645     Y64.6956      R0.9000    
G0   Z18.200    
(Pass: 1)
   X545.234      Y64.925    
G1   Z2.200      F100 
G17 G2   X545.2645     Y64.6956      R0.9000     F400 
   X545.3530     Y64.4819      R0.9000    
   X545.4939     Y64.2984      R0.9000    
   X545.6774     Y64.1575      R0.9000    
   X545.8911     Y64.0690      R0.9000    
   X546.1205     Y64.0388      R0.9000    
   X546.3498     Y64.0690      R0.9000    
   X546.5636     Y64.1575      R0.9000    
   X546.7471     Y64.2984      R0.9000    
   X546.8880     Y64.4819      R0.9000    
   X546.9765     Y64.6956      R0.9000    
   X547.0067     Y64.9250      R0.9000    
   X546.9765     Y65.1544      R0.9000    
   X546.8880     Y65.3681      R0.9000    
   X546.7471     Y65.5516      R0.9000    
   X546.5636     Y65.6925      R0.9000    
   X546.3498     Y65.7810      R0.9000    
   X546.1205     Y65.8112      R0.9000    
   X545.8911     Y65.7810      R0.9000    
   X545.6774     Y65.6925      R0.9000    
   X545.4939     Y65.5516      R0.9000    
   X545.3530     Y65.3681      R0.9000    
   X545.2645     Y65.1544      R0.9000    
   X545.2343     Y64.9250      R0.9000    
(Pass: 2)
G1   Z1.200      F100 
G17 G2   X545.2645     Y64.6956      R0.9000     F400 
   X545.3530     Y64.4819      R0.9000    
   X545.4939     Y64.2984      R0.9000    
   X545.6774     Y64.1575      R0.9000    
   X545.8911     Y64.0690      R0.9000    
   X546.1205     Y64.0388      R0.9000    
   X546.3498     Y64.0690      R0.9000    
   X546.5636     Y64.1575      R0.9000    
   X546.7471     Y64.2984      R0.9000    
   X546.8880     Y64.4819      R0.9000    
   X546.9765     Y64.6956      R0.9000    
   X547.0067     Y64.9250      R0.9000    
   X546.9765     Y65.1544      R0.9000    
   X546.8880     Y65.3681      R0.9000    
   X546.7471     Y65.5516      R0.9000    
   X546.5636     Y65.6925      R0.9000    
   X546.3498     Y65.7810      R0.9000    
   X546.1205     Y65.8112      R0.9000    
   X545.8911     Y65.7810      R0.9000    
   X545.6774     Y65.6925      R0.9000    
   X545.4939     Y65.5516      R0.9000    
   X545.3530     Y65.3681      R0.9000    
   X545.2645     Y65.1544      R0.9000    
   X545.2343     Y64.9250      R0.9000    
(Pass: 3)
G1   Z0.200      F100 
G17 G2   X545.2645     Y64.6956      R0.9000     F400 
   X545.3530     Y64.4819      R0.9000    
   X545.4939     Y64.2984      R0.9000    
   X545.6774     Y64.1575      R0.9000    
   X545.8911     Y64.0690      R0.9000    
   X546.1205     Y64.0388      R0.9000    
   X546.3498     Y64.0690      R0.9000    
   X546.5636     Y64.1575      R0.9000    
   X546.7471     Y64.2984      R0.9000    
   X546.8880     Y64.4819      R0.9000    
   X546.9765     Y64.6956      R0.9000    
   X547.0067     Y64.9250      R0.9000    
   X546.9765     Y65.1544      R0.9000    
   X546.8880     Y65.3681      R0.9000    
   X546.7471     Y65.5516      R0.9000    
   X546.5636     Y65.6925      R0.9000    
   X546.3498     Y65.7810      R0.9000    
   X546.1205     Y65.8112      R0.9000    
   X545.8911     Y65.7810      R0.9000    
   X545.6774     Y65.6925      R0.9000    
   X545.4939     Y65.5516      R0.9000    
   X545.3530     Y65.3681      R0.9000    
   X545.2645     Y65.1544      R0.9000    
   X545.2343     Y64.9250      R0.9000    
(Pass: 4)
G1   Z-0.320     F100 
G17 G2   X545.2645     Y64.6956      R0.9000     F400 
   X545.3530     Y64.4819      R0.9000    
   X545.4939     Y64.2984      R0.9000    
   X545.6774     Y64.1575      R0.9000    
   X545.8911     Y64.0690      R0.9000    
   X546.1205     Y64.0388      R0.9000    
   X546.3498     Y64.0690      R0.9000    
   X546.5636     Y64.1575      R0.9000    
   X546.7471     Y64.2984      R0.9000    
   X546.8880     Y64.4819      R0.9000    
   X546.9765     Y64.6956      R0.9000    
   X547.0067     Y64.9250      R0.9000    
   X546.9765     Y65.1544      R0.9000    
   X546.8880     Y65.3681      R0.9000    
   X546.7471     Y65.5516      R0.9000    
   X546.5636     Y65.6925      R0.9000    
   X546.3498     Y65.7810      R0.9000    
   X546.1205     Y65.8112      R0.9000    
   X545.8911     Y65.7810      R0.9000    
   X545.6774     Y65.6925      R0.9000    
   X545.4939     Y65.5516      R0.9000    
   X545.3530     Y65.3681      R0.9000    
   X545.2645     Y65.1544      R0.9000    
   X545.2343     Y64.9250      R0.9000    
G0   Z18.200    
(Pass: 1)
   X546.120      Y72.970    
G1   Z2.200      F100 
G17 G2   X546.6264     Y73.0369      R1.9685     F400 
   X547.0978     Y73.2322      R1.9685    
   X547.5027     Y73.5428      R1.9685    
   X547.8133     Y73.9477      R1.9685    
   X548.0086     Y74.4191      R1.9685    
   X548.0752     Y74.9250      R1.9685    
   X548.0086     Y75.4309      R1.9685    
   X547.8133     Y75.9023      R1.9685    
   X547.5027     Y76.3072      R1.9685    
   X547.0978     Y76.6178      R1.9685    
   X546.6264     Y76.8131      R1.9685    
   X546.1205     Y76.8797      R1.9685    
   X545.6146     Y76.8131      R1.9685    
   X545.1431     Y76.6178      R1.9685    
   X544.7383     Y76.3072      R1.9685    
   X544.4277     Y75.9023      R1.9685    
   X544.2324     Y75.4309      R1.9685    
   X544.1658     Y74.9250      R1.9685    
   X544.2324     Y74.4191      R1.9685    
   X544.4277     Y73.9477      R1.9685    
   X544.7383     Y73.5428      R1.9685    
   X545.1431     Y73.2322      R1.9685    
   X545.6146     Y73.0369      R1.9685    
   X546.1205     Y72.9703      R1.9685    
(Pass: 2)
G1   Z1.200      F100 
G17 G2   X546.6264     Y73.0369      R1.9685     F400 
   X547.0978     Y73.2322      R1.9685    
   X547.5027     Y73.5428      R1.9685    
   X547.8133     Y73.9477      R1.9685    
   X548.0086     Y74.4191      R1.9685    
   X548.0752     Y74.9250      R1.9685    
   X548.0086     Y75.4309      R1.9685    
   X547.8133     Y75.9023      R1.9685    
   X547.5027     Y76.3072      R1.9685    
   X547.0978     Y76.6178      R1.9685    
   X546.6264     Y76.8131      R1.9685    
   X546.1205     Y76.8797      R1.9685    
   X545.6146     Y76.8131      R1.9685    
   X545.1431     Y76.6178      R1.9685    
   X544.7383     Y76.3072      R1.9685    
   X544.4277     Y75.9023      R1.9685    
   X544.2324     Y75.4309      R1.9685    
   X544.1658     Y74.9250      R1.9685    
   X544.2324     Y74.4191      R1.9685    
   X544.4277     Y73.9477      R1.9685    
   X544.7383     Y73.5428      R1.9685    
   X545.1431     Y73.2322      R1.9685    
   X545.6146     Y73.0369      R1.9685    
   X546.1205     Y72.9703      R1.9685    
(Pass: 3)
G1   Z0.200      F100 
G17 G2   X546.6264     Y73.0369      R1.9685     F400 
   X547.0978     Y73.2322      R1.9685    
   X547.5027     Y73.5428      R1.9685    
   X547.8133     Y73.9477      R1.9685    
   X548.0086     Y74.4191      R1.9685    
   X548.0752     Y74.9250      R1.9685    
   X548.0086     Y75.4309      R1.9685    
   X547.8133     Y75.9023      R1.9685    
   X547.5027     Y76.3072      R1.9685    
   X547.0978     Y76.6178      R1.9685    
   X546.6264     Y76.8131      R1.9685    
   X546.1205     Y76.8797      R1.9685    
   X545.6146     Y76.8131      R1.9685    
   X545.1431     Y76.6178      R1.9685    
   X544.7383     Y76.3072      R1.9685    
   X544.4277     Y75.9023      R1.9685    
   X544.2324     Y75.4309      R1.9685    
   X544.1658     Y74.9250      R1.9685    
   X544.2324     Y74.4191      R1.9685    
   X544.4277     Y73.9477      R1.9685    
   X544.7383     Y73.5428      R1.9685    
   X545.1431     Y73.2322      R1.9685    
   X545.6146     Y73.0369      R1.9685    
   X546.1205     Y72.9703      R1.9685    
(Pass: 4)
G1   Z-0.320     F100 
G17 G2   X546.6264     Y73.0369      R1.9685     F400 
   X547.0978     Y73.2322      R1.9685    
   X547.5027     Y73.5428      R1.9685    
   X547.8133     Y73.9477      R1.9685    
   X548.0086     Y74.4191      R1.9685    
   X548.0752     Y74.9250      R1.9685    
   X548.0086     Y75.4309      R1.9685    
   X547.8133     Y75.9023      R1.9685    
   X547.5027     Y76.3072      R1.9685    
   X547.0978     Y76.6178      R1.9685    
   X546.6264     Y76.8131      R1.9685    
   X546.1205     Y76.8797      R1.9685    
   X545.6146     Y76.8131      R1.9685    
   X545.1431     Y76.6178      R1.9685    
   X544.7383     Y76.3072      R1.9685    
   X544.4277     Y75.9023      R1.9685    
   X544.2324     Y75.4309      R1.9685    
   X544.1658     Y74.9250      R1.9685    
   X544.2324     Y74.4191      R1.9685    
   X544.4277     Y73.9477      R1.9685    
   X544.7383     Y73.5428      R1.9685    
   X545.1431     Y73.2322      R1.9685    
   X545.6146     Y73.0369      R1.9685    
   X546.1205     Y72.9703      R1.9685    
G0   Z18.200    
(Pass: 1)
   X536.963      Y74.696    
G1   Z2.200      F100 
G17 G2   X536.9937     Y74.9250      R0.9000     F400 
   X536.9635     Y75.1544      R0.9000    
   X536.8749     Y75.3681      R0.9000    
   X536.7341     Y75.5516      R0.9000    
   X536.5506     Y75.6925      R0.9000    
   X536.3368     Y75.7810      R0.9000    
   X536.1075     Y75.8112      R0.9000    
   X535.8781     Y75.7810      R0.9000    
   X535.6644     Y75.6925      R0.9000    
   X535.4808     Y75.5516      R0.9000    
   X535.3400     Y75.3681      R0.9000    
   X535.2515     Y75.1544      R0.9000    
   X535.2213     Y74.9250      R0.9000    
   X535.2515     Y74.6956      R0.9000    
   X535.3400     Y74.4819      R0.9000    
   X535.4808     Y74.2984      R0.9000    
   X535.6644     Y74.1575      R0.9000    
   X535.8781     Y74.0690      R0.9000    
   X536.1075     Y74.0388      R0.9000    
   X536.3368     Y74.0690      R0.9000    
   X536.5506     Y74.1575      R0.9000    
   X536.7341     Y74.2984      R0.9000    
   X536.8749     Y74.4819      R0.9000    
   X536.9635     Y74.6956      R0.9000    
(Pass: 2)
G1   Z1.200      F100 
G17 G2   X536.9937     Y74.9250      R0.9000     F400 
   X536.9635     Y75.1544      R0.9000    
   X536.8749     Y75.3681      R0.9000    
   X536.7341     Y75.5516      R0.9000    
   X536.5506     Y75.6925      R0.9000    
   X536.3368     Y75.7810      R0.9000    
   X536.1075     Y75.8112      R0.9000    
   X535.8781     Y75.7810      R0.9000    
   X535.6644     Y75.6925      R0.9000    
   X535.4808     Y75.5516      R0.9000    
   X535.3400     Y75.3681      R0.9000    
   X535.2515     Y75.1544      R0.9000    
   X535.2213     Y74.9250      R0.9000    
   X535.2515     Y74.6956      R0.9000    
   X535.3400     Y74.4819      R0.9000    
   X535.4808     Y74.2984      R0.9000    
   X535.6644     Y74.1575      R0.9000    
   X535.8781     Y74.0690      R0.9000    
   X536.1075     Y74.0388      R0.9000    
   X536.3368     Y74.0690      R0.9000    
   X536.5506     Y74.1575      R0.9000    
   X536.7341     Y74.2984      R0.9000    
   X536.8749     Y74.4819      R0.9000    
   X536.9635     Y74.6956      R0.9000    
(Pass: 3)
G1   Z0.200      F100 
G17 G2   X536.9937     Y74.9250      R0.9000     F400 
   X536.9635     Y75.1544      R0.9000    
   X536.8749     Y75.3681      R0.9000    
   X536.7341     Y75.5516      R0.9000    
   X536.5506     Y75.6925      R0.9000    
   X536.3368     Y75.7810      R0.9000    
   X536.1075     Y75.8112      R0.9000    
   X535.8781     Y75.7810      R0.9000    
   X535.6644     Y75.6925      R0.9000    
   X535.4808     Y75.5516      R0.9000    
   X535.3400     Y75.3681      R0.9000    
   X535.2515     Y75.1544      R0.9000    
   X535.2213     Y74.9250      R0.9000    
   X535.2515     Y74.6956      R0.9000    
   X535.3400     Y74.4819      R0.9000    
   X535.4808     Y74.2984      R0.9000    
   X535.6644     Y74.1575      R0.9000    
   X535.8781     Y74.0690      R0.9000    
   X536.1075     Y74.0388      R0.9000    
   X536.3368     Y74.0690      R0.9000    
   X536.5506     Y74.1575      R0.9000    
   X536.7341     Y74.2984      R0.9000    
   X536.8749     Y74.4819      R0.9000    
   X536.9635     Y74.6956      R0.9000    
(Pass: 4)
G1   Z-0.320     F100 
G17 G2   X536.9937     Y74.9250      R0.9000     F400 
   X536.9635     Y75.1544      R0.9000    
   X536.8749     Y75.3681      R0.9000    
   X536.7341     Y75.5516      R0.9000    
   X536.5506     Y75.6925      R0.9000    
   X536.3368     Y75.7810      R0.9000    
   X536.1075     Y75.8112      R0.9000    
   X535.8781     Y75.7810      R0.9000    
   X535.6644     Y75.6925      R0.9000    
   X535.4808     Y75.5516      R0.9000    
   X535.3400     Y75.3681      R0.9000    
   X535.2515     Y75.1544      R0.9000    
   X535.2213     Y74.9250      R0.9000    
   X535.2515     Y74.6956      R0.9000    
   X535.3400     Y74.4819      R0.9000    
   X535.4808     Y74.2984      R0.9000    
   X535.6644     Y74.1575      R0.9000    
   X535.8781     Y74.0690      R0.9000    
   X536.1075     Y74.0388      R0.9000    
   X536.3368     Y74.0690      R0.9000    
   X536.5506     Y74.1575      R0.9000    
   X536.7341     Y74.2984      R0.9000    
   X536.8749     Y74.4819      R0.9000    
   X536.9635     Y74.6956      R0.9000    
G0   Z18.200    
(Pass: 1)
   X538.104      Y95.079    
G1   Z2.200      F100 
G17 G2   X538.3329     Y95.0491      R0.9000     F400 
   X538.5622     Y95.0793      R0.9000    
   X538.7760     Y95.1678      R0.9000    
   X538.9595     Y95.3087      R0.9000    
   X539.1004     Y95.4922      R0.9000    
   X539.1889     Y95.7059      R0.9000    
   X539.2191     Y95.9353      R0.9000    
   X539.1889     Y96.1647      R0.9000    
   X539.1004     Y96.3784      R0.9000    
   X538.9595     Y96.5619      R0.9000    
   X538.7760     Y96.7028      R0.9000    
   X538.5622     Y96.7913      R0.9000    
   X538.3329     Y96.8215      R0.9000    
   X538.1035     Y96.7913      R0.9000    
   X537.8898     Y96.7028      R0.9000    
   X537.7063     Y96.5619      R0.9000    
   X537.5654     Y96.3784      R0.9000    
   X537.4769     Y96.1647      R0.9000    
   X537.4467     Y95.9353      R0.9000    
   X537.4769     Y95.7059      R0.9000    
   X537.5654     Y95.4922      R0.9000    
   X537.7063     Y95.3087      R0.9000    
   X537.8898     Y95.1678      R0.9000    
   X538.1035     Y95.0793      R0.9000    
(Pass: 2)
G1   Z1.200      F100 
G17 G2   X538.3329     Y95.0491      R0.9000     F400 
   X538.5622     Y95.0793      R0.9000    
   X538.7760     Y95.1678      R0.9000    
   X538.9595     Y95.3087      R0.9000    
   X539.1004     Y95.4922      R0.9000    
   X539.1889     Y95.7059      R0.9000    
   X539.2191     Y95.9353      R0.9000    
   X539.1889     Y96.1647      R0.9000    
   X539.1004     Y96.3784      R0.9000    
   X538.9595     Y96.5619      R0.9000    
   X538.7760     Y96.7028      R0.9000    
   X538.5622     Y96.7913      R0.9000    
   X538.3329     Y96.8215      R0.9000    
   X538.1035     Y96.7913      R0.9000    
   X537.8898     Y96.7028      R0.9000    
   X537.7063     Y96.5619      R0.9000    
   X537.5654     Y96.3784      R0.9000    
   X537.4769     Y96.1647      R0.9000    
   X537.4467     Y95.9353      R0.9000    
   X537.4769     Y95.7059      R0.9000    
   X537.5654     Y95.4922      R0.9000    
   X537.7063     Y95.3087      R0.9000    
   X537.8898     Y95.1678      R0.9000    
   X538.1035     Y95.0793      R0.9000    
(Pass: 3)
G1   Z0.200      F100 
G17 G2   X538.3329     Y95.0491      R0.9000     F400 
   X538.5622     Y95.0793      R0.9000    
   X538.7760     Y95.1678      R0.9000    
   X538.9595     Y95.3087      R0.9000    
   X539.1004     Y95.4922      R0.9000    
   X539.1889     Y95.7059      R0.9000    
   X539.2191     Y95.9353      R0.9000    
   X539.1889     Y96.1647      R0.9000    
   X539.1004     Y96.3784      R0.9000    
   X538.9595     Y96.5619      R0.9000    
   X538.7760     Y96.7028      R0.9000    
   X538.5622     Y96.7913      R0.9000    
   X538.3329     Y96.8215      R0.9000    
   X538.1035     Y96.7913      R0.9000    
   X537.8898     Y96.7028      R0.9000    
   X537.7063     Y96.5619      R0.9000    
   X537.5654     Y96.3784      R0.9000    
   X537.4769     Y96.1647      R0.9000    
   X537.4467     Y95.9353      R0.9000    
   X537.4769     Y95.7059      R0.9000    
   X537.5654     Y95.4922      R0.9000    
   X537.7063     Y95.3087      R0.9000    
   X537.8898     Y95.1678      R0.9000    
   X538.1035     Y95.0793      R0.9000    
(Pass: 4)
G1   Z-0.320     F100 
G17 G2   X538.3329     Y95.0491      R0.9000     F400 
   X538.5622     Y95.0793      R0.9000    
   X538.7760     Y95.1678      R0.9000    
   X538.9595     Y95.3087      R0.9000    
   X539.1004     Y95.4922      R0.9000    
   X539.1889     Y95.7059      R0.9000    
   X539.2191     Y95.9353      R0.9000    
   X539.1889     Y96.1647      R0.9000    
   X539.1004     Y96.3784      R0.9000    
   X538.9595     Y96.5619      R0.9000    
   X538.7760     Y96.7028      R0.9000    
   X538.5622     Y96.7913      R0.9000    
   X538.3329     Y96.8215      R0.9000    
   X538.1035     Y96.7913      R0.9000    
   X537.8898     Y96.7028      R0.9000    
   X537.7063     Y96.5619      R0.9000    
   X537.5654     Y96.3784      R0.9000    
   X537.4769     Y96.1647      R0.9000    
   X537.4467     Y95.9353      R0.9000    
   X537.4769     Y95.7059      R0.9000    
   X537.5654     Y95.4922      R0.9000    
   X537.7063     Y95.3087      R0.9000    
   X537.8898     Y95.1678      R0.9000    
   X538.1035     Y95.0793      R0.9000    
G0   Z18.200    
(Pass: 1)
   X562.446      Y95.935    
G1   Z2.200      F100 
G17 G2   X562.4765     Y95.7059      R0.9000     F400 
   X562.5651     Y95.4922      R0.9000    
   X562.7059     Y95.3087      R0.9000    
   X562.8894     Y95.1678      R0.9000    
   X563.1032     Y95.0793      R0.9000    
   X563.3325     Y95.0491      R0.9000    
   X563.5619     Y95.0793      R0.9000    
   X563.7756     Y95.1678      R0.9000    
   X563.9592     Y95.3087      R0.9000    
   X564.1000     Y95.4922      R0.9000    
   X564.1885     Y95.7059      R0.9000    
   X564.2187     Y95.9353      R0.9000    
   X564.1885     Y96.1647      R0.9000    
   X564.1000     Y96.3784      R0.9000    
   X563.9592     Y96.5619      R0.9000    
   X563.7756     Y96.7028      R0.9000    
   X563.5619     Y96.7913      R0.9000    
   X563.3325     Y96.8215      R0.9000    
   X563.1032     Y96.7913      R0.9000    
   X562.8894     Y96.7028      R0.9000    
   X562.7059     Y96.5619      R0.9000    
   X562.5651     Y96.3784      R0.9000    
   X562.4765     Y96.1647      R0.9000    
   X562.4463     Y95.9353      R0.9000    
(Pass: 2)
G1   Z1.200      F100 
G17 G2   X562.4765     Y95.7059      R0.9000     F400 
   X562.5651     Y95.4922      R0.9000    
   X562.7059     Y95.3087      R0.9000    
   X562.8894     Y95.1678      R0.9000    
   X563.1032     Y95.0793      R0.9000    
   X563.3325     Y95.0491      R0.9000    
   X563.5619     Y95.0793      R0.9000    
   X563.7756     Y95.1678      R0.9000    
   X563.9592     Y95.3087      R0.9000    
   X564.1000     Y95.4922      R0.9000    
   X564.1885     Y95.7059      R0.9000    
   X564.2187     Y95.9353      R0.9000    
   X564.1885     Y96.1647      R0.9000    
   X564.1000     Y96.3784      R0.9000    
   X563.9592     Y96.5619      R0.9000    
   X563.7756     Y96.7028      R0.9000    
   X563.5619     Y96.7913      R0.9000    
   X563.3325     Y96.8215      R0.9000    
   X563.1032     Y96.7913      R0.9000    
   X562.8894     Y96.7028      R0.9000    
   X562.7059     Y96.5619      R0.9000    
   X562.5651     Y96.3784      R0.9000    
   X562.4765     Y96.1647      R0.9000    
   X562.4463     Y95.9353      R0.9000    
(Pass: 3)
G1   Z0.200      F100 
G17 G2   X562.4765     Y95.7059      R0.9000     F400 
   X562.5651     Y95.4922      R0.9000    
   X562.7059     Y95.3087      R0.9000    
   X562.8894     Y95.1678      R0.9000    
   X563.1032     Y95.0793      R0.9000    
   X563.3325     Y95.0491      R0.9000    
   X563.5619     Y95.0793      R0.9000    
   X563.7756     Y95.1678      R0.9000    
   X563.9592     Y95.3087      R0.9000    
   X564.1000     Y95.4922      R0.9000    
   X564.1885     Y95.7059      R0.9000    
   X564.2187     Y95.9353      R0.9000    
   X564.1885     Y96.1647      R0.9000    
   X564.1000     Y96.3784      R0.9000    
   X563.9592     Y96.5619      R0.9000    
   X563.7756     Y96.7028      R0.9000    
   X563.5619     Y96.7913      R0.9000    
   X563.3325     Y96.8215      R0.9000    
   X563.1032     Y96.7913      R0.9000    
   X562.8894     Y96.7028      R0.9000    
   X562.7059     Y96.5619      R0.9000    
   X562.5651     Y96.3784      R0.9000    
   X562.4765     Y96.1647      R0.9000    
   X562.4463     Y95.9353      R0.9000    
(Pass: 4)
G1   Z-0.320     F100 
G17 G2   X562.4765     Y95.7059      R0.9000     F400 
   X562.5651     Y95.4922      R0.9000    
   X562.7059     Y95.3087      R0.9000    
   X562.8894     Y95.1678      R0.9000    
   X563.1032     Y95.0793      R0.9000    
   X563.3325     Y95.0491      R0.9000    
   X563.5619     Y95.0793      R0.9000    
   X563.7756     Y95.1678      R0.9000    
   X563.9592     Y95.3087      R0.9000    
   X564.1000     Y95.4922      R0.9000    
   X564.1885     Y95.7059      R0.9000    
   X564.2187     Y95.9353      R0.9000    
   X564.1885     Y96.1647      R0.9000    
   X564.1000     Y96.3784      R0.9000    
   X563.9592     Y96.5619      R0.9000    
   X563.7756     Y96.7028      R0.9000    
   X563.5619     Y96.7913      R0.9000    
   X563.3325     Y96.8215      R0.9000    
   X563.1032     Y96.7913      R0.9000    
   X562.8894     Y96.7028      R0.9000    
   X562.7059     Y96.5619      R0.9000    
   X562.5651     Y96.3784      R0.9000    
   X562.4765     Y96.1647      R0.9000    
   X562.4463     Y95.9353      R0.9000    
G0   Z18.200    
(Pass: 1)
   X546.626      Y46.813    
G1   Z2.200      F100 
G17 G2   X546.1205     Y46.8797      R1.9685     F400 
   X545.6146     Y46.8131      R1.9685    
   X545.1431     Y46.6178      R1.9685    
   X544.7383     Y46.3072      R1.9685    
   X544.4277     Y45.9023      R1.9685    
   X544.2324     Y45.4309      R1.9685    
   X544.1658     Y44.9250      R1.9685    
   X544.2324     Y44.4191      R1.9685    
   X544.4277     Y43.9477      R1.9685    
   X544.7383     Y43.5428      R1.9685    
   X545.1431     Y43.2322      R1.9685    
   X545.6146     Y43.0369      R1.9685    
   X546.1205     Y42.9703      R1.9685    
   X546.6264     Y43.0369      R1.9685    
   X547.0978     Y43.2322      R1.9685    
   X547.5027     Y43.5428      R1.9685    
   X547.8133     Y43.9477      R1.9685    
   X548.0086     Y44.4191      R1.9685    
   X548.0752     Y44.9250      R1.9685    
   X548.0086     Y45.4309      R1.9685    
   X547.8133     Y45.9023      R1.9685    
   X547.5027     Y46.3072      R1.9685    
   X547.0978     Y46.6178      R1.9685    
   X546.6264     Y46.8131      R1.9685    
(Pass: 2)
G1   Z1.200      F100 
G17 G2   X546.1205     Y46.8797      R1.9685     F400 
   X545.6146     Y46.8131      R1.9685    
   X545.1431     Y46.6178      R1.9685    
   X544.7383     Y46.3072      R1.9685    
   X544.4277     Y45.9023      R1.9685    
   X544.2324     Y45.4309      R1.9685    
   X544.1658     Y44.9250      R1.9685    
   X544.2324     Y44.4191      R1.9685    
   X544.4277     Y43.9477      R1.9685    
   X544.7383     Y43.5428      R1.9685    
   X545.1431     Y43.2322      R1.9685    
   X545.6146     Y43.0369      R1.9685    
   X546.1205     Y42.9703      R1.9685    
   X546.6264     Y43.0369      R1.9685    
   X547.0978     Y43.2322      R1.9685    
   X547.5027     Y43.5428      R1.9685    
   X547.8133     Y43.9477      R1.9685    
   X548.0086     Y44.4191      R1.9685    
   X548.0752     Y44.9250      R1.9685    
   X548.0086     Y45.4309      R1.9685    
   X547.8133     Y45.9023      R1.9685    
   X547.5027     Y46.3072      R1.9685    
   X547.0978     Y46.6178      R1.9685    
   X546.6264     Y46.8131      R1.9685    
(Pass: 3)
G1   Z0.200      F100 
G17 G2   X546.1205     Y46.8797      R1.9685     F400 
   X545.6146     Y46.8131      R1.9685    
   X545.1431     Y46.6178      R1.9685    
   X544.7383     Y46.3072      R1.9685    
   X544.4277     Y45.9023      R1.9685    
   X544.2324     Y45.4309      R1.9685    
   X544.1658     Y44.9250      R1.9685    
   X544.2324     Y44.4191      R1.9685    
   X544.4277     Y43.9477      R1.9685    
   X544.7383     Y43.5428      R1.9685    
   X545.1431     Y43.2322      R1.9685    
   X545.6146     Y43.0369      R1.9685    
   X546.1205     Y42.9703      R1.9685    
   X546.6264     Y43.0369      R1.9685    
   X547.0978     Y43.2322      R1.9685    
   X547.5027     Y43.5428      R1.9685    
   X547.8133     Y43.9477      R1.9685    
   X548.0086     Y44.4191      R1.9685    
   X548.0752     Y44.9250      R1.9685    
   X548.0086     Y45.4309      R1.9685    
   X547.8133     Y45.9023      R1.9685    
   X547.5027     Y46.3072      R1.9685    
   X547.0978     Y46.6178      R1.9685    
   X546.6264     Y46.8131      R1.9685    
(Pass: 4)
G1   Z-0.320     F100 
G17 G2   X546.1205     Y46.8797      R1.9685     F400 
   X545.6146     Y46.8131      R1.9685    
   X545.1431     Y46.6178      R1.9685    
   X544.7383     Y46.3072      R1.9685    
   X544.4277     Y45.9023      R1.9685    
   X544.2324     Y45.4309      R1.9685    
   X544.1658     Y44.9250      R1.9685    
   X544.2324     Y44.4191      R1.9685    
   X544.4277     Y43.9477      R1.9685    
   X544.7383     Y43.5428      R1.9685    
   X545.1431     Y43.2322      R1.9685    
   X545.6146     Y43.0369      R1.9685    
   X546.1205     Y42.9703      R1.9685    
   X546.6264     Y43.0369      R1.9685    
   X547.0978     Y43.2322      R1.9685    
   X547.5027     Y43.5428      R1.9685    
   X547.8133     Y43.9477      R1.9685    
   X548.0086     Y44.4191      R1.9685    
   X548.0752     Y44.9250      R1.9685    
   X548.0086     Y45.4309      R1.9685    
   X547.8133     Y45.9023      R1.9685    
   X547.5027     Y46.3072      R1.9685    
   X547.0978     Y46.6178      R1.9685    
   X546.6264     Y46.8131      R1.9685    
G0   Z18.200    
(Pass: 1)
   X536.994      Y44.925    
G1   Z2.200      F100 
G17 G2   X536.9635     Y45.1544      R0.9000     F400 
   X536.8749     Y45.3681      R0.9000    
   X536.7341     Y45.5516      R0.9000    
   X536.5506     Y45.6925      R0.9000    
   X536.3368     Y45.7810      R0.9000    
   X536.1075     Y45.8112      R0.9000    
   X535.8781     Y45.7810      R0.9000    
   X535.6644     Y45.6925      R0.9000    
   X535.4808     Y45.5516      R0.9000    
   X535.3400     Y45.3681      R0.9000    
   X535.2515     Y45.1544      R0.9000    
   X535.2213     Y44.9250      R0.9000    
   X535.2515     Y44.6956      R0.9000    
   X535.3400     Y44.4819      R0.9000    
   X535.4808     Y44.2984      R0.9000    
   X535.6644     Y44.1575      R0.9000    
   X535.8781     Y44.0690      R0.9000    
   X536.1075     Y44.0388      R0.9000    
   X536.3368     Y44.0690      R0.9000    
   X536.5506     Y44.1575      R0.9000    
   X536.7341     Y44.2984      R0.9000    
   X536.8749     Y44.4819      R0.9000    
   X536.9635     Y44.6956      R0.9000    
   X536.9937     Y44.9250      R0.9000    
(Pass: 2)
G1   Z1.200      F100 
G17 G2   X536.9635     Y45.1544      R0.9000     F400 
   X536.8749     Y45.3681      R0.9000    
   X536.7341     Y45.5516      R0.9000    
   X536.5506     Y45.6925      R0.9000    
   X536.3368     Y45.7810      R0.9000    
   X536.1075     Y45.8112      R0.9000    
   X535.8781     Y45.7810      R0.9000    
   X535.6644     Y45.6925      R0.9000    
   X535.4808     Y45.5516      R0.9000    
   X535.3400     Y45.3681      R0.9000    
   X535.2515     Y45.1544      R0.9000    
   X535.2213     Y44.9250      R0.9000    
   X535.2515     Y44.6956      R0.9000    
   X535.3400     Y44.4819      R0.9000    
   X535.4808     Y44.2984      R0.9000    
   X535.6644     Y44.1575      R0.9000    
   X535.8781     Y44.0690      R0.9000    
   X536.1075     Y44.0388      R0.9000    
   X536.3368     Y44.0690      R0.9000    
   X536.5506     Y44.1575      R0.9000    
   X536.7341     Y44.2984      R0.9000    
   X536.8749     Y44.4819      R0.9000    
   X536.9635     Y44.6956      R0.9000    
   X536.9937     Y44.9250      R0.9000    
(Pass: 3)
G1   Z0.200      F100 
G17 G2   X536.9635     Y45.1544      R0.9000     F400 
   X536.8749     Y45.3681      R0.9000    
   X536.7341     Y45.5516      R0.9000    
   X536.5506     Y45.6925      R0.9000    
   X536.3368     Y45.7810      R0.9000    
   X536.1075     Y45.8112      R0.9000    
   X535.8781     Y45.7810      R0.9000    
   X535.6644     Y45.6925      R0.9000    
   X535.4808     Y45.5516      R0.9000    
   X535.3400     Y45.3681      R0.9000    
   X535.2515     Y45.1544      R0.9000    
   X535.2213     Y44.9250      R0.9000    
   X535.2515     Y44.6956      R0.9000    
   X535.3400     Y44.4819      R0.9000    
   X535.4808     Y44.2984      R0.9000    
   X535.6644     Y44.1575      R0.9000    
   X535.8781     Y44.0690      R0.9000    
   X536.1075     Y44.0388      R0.9000    
   X536.3368     Y44.0690      R0.9000    
   X536.5506     Y44.1575      R0.9000    
   X536.7341     Y44.2984      R0.9000    
   X536.8749     Y44.4819      R0.9000    
   X536.9635     Y44.6956      R0.9000    
   X536.9937     Y44.9250      R0.9000    
(Pass: 4)
G1   Z-0.320     F100 
G17 G2   X536.9635     Y45.1544      R0.9000     F400 
   X536.8749     Y45.3681      R0.9000    
   X536.7341     Y45.5516      R0.9000    
   X536.5506     Y45.6925      R0.9000    
   X536.3368     Y45.7810      R0.9000    
   X536.1075     Y45.8112      R0.9000    
   X535.8781     Y45.7810      R0.9000    
   X535.6644     Y45.6925      R0.9000    
   X535.4808     Y45.5516      R0.9000    
   X535.3400     Y45.3681      R0.9000    
   X535.2515     Y45.1544      R0.9000    
