%
(Generated by SketchUcam {1.2})
(File: Router Plates.skp)
(Bit diameter: 3.1mm)
(Feed rate: 400.0mm/min)
(Plunge Feed rate: 200.0mm/min)
(Material Thickness: 3.2mm)
(Material length: 304.0mm X width: 608.0mm)
(Overhead Gantry: true)
(Retract feed rate NOT limited to plunge feed rate)
(Multipass enabled, Depth = 0.5mm)
(Optimization is ON)
(Z ZERO IS TABLETOP)
(www.PhlatBoyz.com)
G90 G21 G49 
M3 S15000
G0   Z18.200    
(Pass: 1)
   X440.017      Y20.665    
G1   Z2.700      F200 
G17 G2   X440.0838     Y20.1596      R1.9685     F400 
   X440.2791     Y19.6881      R1.9685    
   X440.5897     Y19.2833      R1.9685    
   X440.9946     Y18.9727      R1.9685    
   X441.4660     Y18.7774      R1.9685    
   X441.9719     Y18.7108      R1.9685    
   X442.4778     Y18.7774      R1.9685    
   X442.9493     Y18.9727      R1.9685    
   X443.3541     Y19.2833      R1.9685    
   X443.6647     Y19.6881      R1.9685    
   X443.8600     Y20.1596      R1.9685    
   X443.9266     Y20.6655      R1.9685    
   X443.8600     Y21.1714      R1.9685    
   X443.6647     Y21.6428      R1.9685    
   X443.3541     Y22.0477      R1.9685    
   X442.9493     Y22.3583      R1.9685    
   X442.4778     Y22.5536      R1.9685    
   X441.9719     Y22.6202      R1.9685    
   X441.4660     Y22.5536      R1.9685    
   X440.9946     Y22.3583      R1.9685    
   X440.5897     Y22.0477      R1.9685    
   X440.2791     Y21.6428      R1.9685    
   X440.0838     Y21.1714      R1.9685    
   X440.0172     Y20.6655      R1.9685    
(Pass: 2)
G1   Z2.200      F200 
G17 G2   X440.0838     Y20.1596      R1.9685     F400 
   X440.2791     Y19.6881      R1.9685    
   X440.5897     Y19.2833      R1.9685    
   X440.9946     Y18.9727      R1.9685    
   X441.4660     Y18.7774      R1.9685    
   X441.9719     Y18.7108      R1.9685    
   X442.4778     Y18.7774      R1.9685    
   X442.9493     Y18.9727      R1.9685    
   X443.3541     Y19.2833      R1.9685    
   X443.6647     Y19.6881      R1.9685    
   X443.8600     Y20.1596      R1.9685    
   X443.9266     Y20.6655      R1.9685    
   X443.8600     Y21.1714      R1.9685    
   X443.6647     Y21.6428      R1.9685    
   X443.3541     Y22.0477      R1.9685    
   X442.9493     Y22.3583      R1.9685    
   X442.4778     Y22.5536      R1.9685    
   X441.9719     Y22.6202      R1.9685    
   X441.4660     Y22.5536      R1.9685    
   X440.9946     Y22.3583      R1.9685    
   X440.5897     Y22.0477      R1.9685    
   X440.2791     Y21.6428      R1.9685    
   X440.0838     Y21.1714      R1.9685    
   X440.0172     Y20.6655      R1.9685    
(Pass: 3)
G1   Z1.700      F200 
G17 G2   X440.0838     Y20.1596      R1.9685     F400 
   X440.2791     Y19.6881      R1.9685    
   X440.5897     Y19.2833      R1.9685    
   X440.9946     Y18.9727      R1.9685    
   X441.4660     Y18.7774      R1.9685    
   X441.9719     Y18.7108      R1.9685    
   X442.4778     Y18.7774      R1.9685    
   X442.9493     Y18.9727      R1.9685    
   X443.3541     Y19.2833      R1.9685    
   X443.6647     Y19.6881      R1.9685    
   X443.8600     Y20.1596      R1.9685    
   X443.9266     Y20.6655      R1.9685    
   X443.8600     Y21.1714      R1.9685    
   X443.6647     Y21.6428      R1.9685    
   X443.3541     Y22.0477      R1.9685    
   X442.9493     Y22.3583      R1.9685    
   X442.4778     Y22.5536      R1.9685    
   X441.9719     Y22.6202      R1.9685    
   X441.4660     Y22.5536      R1.9685    
   X440.9946     Y22.3583      R1.9685    
   X440.5897     Y22.0477      R1.9685    
   X440.2791     Y21.6428      R1.9685    
   X440.0838     Y21.1714      R1.9685    
   X440.0172     Y20.6655      R1.9685    
(Pass: 4)
G1   Z1.200      F200 
G17 G2   X440.0838     Y20.1596      R1.9685     F400 
   X440.2791     Y19.6881      R1.9685    
   X440.5897     Y19.2833      R1.9685    
   X440.9946     Y18.9727      R1.9685    
   X441.4660     Y18.7774      R1.9685    
   X441.9719     Y18.7108      R1.9685    
   X442.4778     Y18.7774      R1.9685    
   X442.9493     Y18.9727      R1.9685    
   X443.3541     Y19.2833      R1.9685    
   X443.6647     Y19.6881      R1.9685    
   X443.8600     Y20.1596      R1.9685    
   X443.9266     Y20.6655      R1.9685    
   X443.8600     Y21.1714      R1.9685    
   X443.6647     Y21.6428      R1.9685    
   X443.3541     Y22.0477      R1.9685    
   X442.9493     Y22.3583      R1.9685    
   X442.4778     Y22.5536      R1.9685    
   X441.9719     Y22.6202      R1.9685    
   X441.4660     Y22.5536      R1.9685    
   X440.9946     Y22.3583      R1.9685    
   X440.5897     Y22.0477      R1.9685    
   X440.2791     Y21.6428      R1.9685    
   X440.0838     Y21.1714      R1.9685    
   X440.0172     Y20.6655      R1.9685    
(Pass: 5)
G1   Z0.700      F200 
G17 G2   X440.0838     Y20.1596      R1.9685     F400 
   X440.2791     Y19.6881      R1.9685    
   X440.5897     Y19.2833      R1.9685    
   X440.9946     Y18.9727      R1.9685    
   X441.4660     Y18.7774      R1.9685    
   X441.9719     Y18.7108      R1.9685    
   X442.4778     Y18.7774      R1.9685    
   X442.9493     Y18.9727      R1.9685    
   X443.3541     Y19.2833      R1.9685    
   X443.6647     Y19.6881      R1.9685    
   X443.8600     Y20.1596      R1.9685    
   X443.9266     Y20.6655      R1.9685    
   X443.8600     Y21.1714      R1.9685    
   X443.6647     Y21.6428      R1.9685    
   X443.3541     Y22.0477      R1.9685    
   X442.9493     Y22.3583      R1.9685    
   X442.4778     Y22.5536      R1.9685    
   X441.9719     Y22.6202      R1.9685    
   X441.4660     Y22.5536      R1.9685    
   X440.9946     Y22.3583      R1.9685    
   X440.5897     Y22.0477      R1.9685    
   X440.2791     Y21.6428      R1.9685    
   X440.0838     Y21.1714      R1.9685    
   X440.0172     Y20.6655      R1.9685    
(Pass: 6)
G1   Z0.200      F200 
G17 G2   X440.0838     Y20.1596      R1.9685     F400 
   X440.2791     Y19.6881      R1.9685    
   X440.5897     Y19.2833      R1.9685    
   X440.9946     Y18.9727      R1.9685    
   X441.4660     Y18.7774      R1.9685    
   X441.9719     Y18.7108      R1.9685    
   X442.4778     Y18.7774      R1.9685    
   X442.9493     Y18.9727      R1.9685    
   X443.3541     Y19.2833      R1.9685    
   X443.6647     Y19.6881      R1.9685    
   X443.8600     Y20.1596      R1.9685    
   X443.9266     Y20.6655      R1.9685    
   X443.8600     Y21.1714      R1.9685    
   X443.6647     Y21.6428      R1.9685    
   X443.3541     Y22.0477      R1.9685    
   X442.9493     Y22.3583      R1.9685    
   X442.4778     Y22.5536      R1.9685    
   X441.9719     Y22.6202      R1.9685    
   X441.4660     Y22.5536      R1.9685    
   X440.9946     Y22.3583      R1.9685    
   X440.5897     Y22.0477      R1.9685    
   X440.2791     Y21.6428      R1.9685    
   X440.0838     Y21.1714      R1.9685    
   X440.0172     Y20.6655      R1.9685    
(Pass: 7)
G1   Z-0.300     F200 
G17 G2   X440.0838     Y20.1596      R1.9685     F400 
   X440.2791     Y19.6881      R1.9685    
   X440.5897     Y19.2833      R1.9685    
   X440.9946     Y18.9727      R1.9685    
   X441.4660     Y18.7774      R1.9685    
   X441.9719     Y18.7108      R1.9685    
   X442.4778     Y18.7774      R1.9685    
   X442.9493     Y18.9727      R1.9685    
   X443.3541     Y19.2833      R1.9685    
   X443.6647     Y19.6881      R1.9685    
   X443.8600     Y20.1596      R1.9685    
   X443.9266     Y20.6655      R1.9685    
   X443.8600     Y21.1714      R1.9685    
   X443.6647     Y21.6428      R1.9685    
   X443.3541     Y22.0477      R1.9685    
   X442.9493     Y22.3583      R1.9685    
   X442.4778     Y22.5536      R1.9685    
   X441.9719     Y22.6202      R1.9685    
   X441.4660     Y22.5536      R1.9685    
   X440.9946     Y22.3583      R1.9685    
   X440.5897     Y22.0477      R1.9685    
   X440.2791     Y21.6428      R1.9685    
   X440.0838     Y21.1714      R1.9685    
   X440.0172     Y20.6655      R1.9685    
(Pass: 8)
G1   Z-0.480     F200 
G17 G2   X440.0838     Y20.1596      R1.9685     F400 
   X440.2791     Y19.6881      R1.9685    
   X440.5897     Y19.2833      R1.9685    
   X440.9946     Y18.9727      R1.9685    
   X441.4660     Y18.7774      R1.9685    
   X441.9719     Y18.7108      R1.9685    
   X442.4778     Y18.7774      R1.9685    
   X442.9493     Y18.9727      R1.9685    
   X443.3541     Y19.2833      R1.9685    
   X443.6647     Y19.6881      R1.9685    
   X443.8600     Y20.1596      R1.9685    
   X443.9266     Y20.6655      R1.9685    
   X443.8600     Y21.1714      R1.9685    
   X443.6647     Y21.6428      R1.9685    
   X443.3541     Y22.0477      R1.9685    
   X442.9493     Y22.3583      R1.9685    
   X442.4778     Y22.5536      R1.9685    
   X441.9719     Y22.6202      R1.9685    
   X441.4660     Y22.5536      R1.9685    
   X440.9946     Y22.3583      R1.9685    
   X440.5897     Y22.0477      R1.9685    
   X440.2791     Y21.6428      R1.9685    
   X440.0838     Y21.1714      R1.9685    
   X440.0172     Y20.6655      R1.9685    
(BREAK pass 8)
G0   Z18.200    
(Pass: 1)
   X466.945      Y19.155    
G1   Z2.700      F200 
G17 G2   X467.0114     Y18.6493      R1.9685     F400 
   X467.2067     Y18.1778      R1.9685    
   X467.5173     Y17.7730      R1.9685    
   X467.9222     Y17.4624      R1.9685    
   X468.3936     Y17.2671      R1.9685    
   X468.8995     Y17.2005      R1.9685    
   X469.4054     Y17.2671      R1.9685    
   X469.8769     Y17.4624      R1.9685    
   X470.2817     Y17.7730      R1.9685    
   X470.5923     Y18.1778      R1.9685    
   X470.7876     Y18.6493      R1.9685    
   X470.8542     Y19.1552      R1.9685    
   X470.7876     Y19.6611      R1.9685    
   X470.5923     Y20.1325      R1.9685    
   X470.2817     Y20.5374      R1.9685    
   X469.8769     Y20.8480      R1.9685    
   X469.4054     Y21.0433      R1.9685    
   X468.8995     Y21.1099      R1.9685    
   X468.3936     Y21.0433      R1.9685    
   X467.9222     Y20.8480      R1.9685    
   X467.5173     Y20.5374      R1.9685    
   X467.2067     Y20.1325      R1.9685    
   X467.0114     Y19.6611      R1.9685    
   X466.9448     Y19.1552      R1.9685    
(Pass: 2)
G1   Z2.200      F200 
G17 G2   X467.0114     Y18.6493      R1.9685     F400 
   X467.2067     Y18.1778      R1.9685    
   X467.5173     Y17.7730      R1.9685    
   X467.9222     Y17.4624      R1.9685    
   X468.3936     Y17.2671      R1.9685    
   X468.8995     Y17.2005      R1.9685    
   X469.4054     Y17.2671      R1.9685    
   X469.8769     Y17.4624      R1.9685    
   X470.2817     Y17.7730      R1.9685    
   X470.5923     Y18.1778      R1.9685    
   X470.7876     Y18.6493      R1.9685    
   X470.8542     Y19.1552      R1.9685    
   X470.7876     Y19.6611      R1.9685    
   X470.5923     Y20.1325      R1.9685    
   X470.2817     Y20.5374      R1.9685    
   X469.8769     Y20.8480      R1.9685    
   X469.4054     Y21.0433      R1.9685    
   X468.8995     Y21.1099      R1.9685    
   X468.3936     Y21.0433      R1.9685    
   X467.9222     Y20.8480      R1.9685    
   X467.5173     Y20.5374      R1.9685    
   X467.2067     Y20.1325      R1.9685    
   X467.0114     Y19.6611      R1.9685    
   X466.9448     Y19.1552      R1.9685    
(Pass: 3)
G1   Z1.700      F200 
G17 G2   X467.0114     Y18.6493      R1.9685     F400 
   X467.2067     Y18.1778      R1.9685    
   X467.5173     Y17.7730      R1.9685    
   X467.9222     Y17.4624      R1.9685    
   X468.3936     Y17.2671      R1.9685    
   X468.8995     Y17.2005      R1.9685    
   X469.4054     Y17.2671      R1.9685    
   X469.8769     Y17.4624      R1.9685    
   X470.2817     Y17.7730      R1.9685    
   X470.5923     Y18.1778      R1.9685    
   X470.7876     Y18.6493      R1.9685    
   X470.8542     Y19.1552      R1.9685    
   X470.7876     Y19.6611      R1.9685    
   X470.5923     Y20.1325      R1.9685    
   X470.2817     Y20.5374      R1.9685    
   X469.8769     Y20.8480      R1.9685    
   X469.4054     Y21.0433      R1.9685    
   X468.8995     Y21.1099      R1.9685    
   X468.3936     Y21.0433      R1.9685    
   X467.9222     Y20.8480      R1.9685    
   X467.5173     Y20.5374      R1.9685    
   X467.2067     Y20.1325      R1.9685    
   X467.0114     Y19.6611      R1.9685    
   X466.9448     Y19.1552      R1.9685    
(Pass: 4)
G1   Z1.200      F200 
G17 G2   X467.0114     Y18.6493      R1.9685     F400 
   X467.2067     Y18.1778      R1.9685    
   X467.5173     Y17.7730      R1.9685    
   X467.9222     Y17.4624      R1.9685    
   X468.3936     Y17.2671      R1.9685    
   X468.8995     Y17.2005      R1.9685    
   X469.4054     Y17.2671      R1.9685    
   X469.8769     Y17.4624      R1.9685    
   X470.2817     Y17.7730      R1.9685    
   X470.5923     Y18.1778      R1.9685    
   X470.7876     Y18.6493      R1.9685    
   X470.8542     Y19.1552      R1.9685    
   X470.7876     Y19.6611      R1.9685    
   X470.5923     Y20.1325      R1.9685    
   X470.2817     Y20.5374      R1.9685    
   X469.8769     Y20.8480      R1.9685    
   X469.4054     Y21.0433      R1.9685    
   X468.8995     Y21.1099      R1.9685    
   X468.3936     Y21.0433      R1.9685    
   X467.9222     Y20.8480      R1.9685    
   X467.5173     Y20.5374      R1.9685    
   X467.2067     Y20.1325      R1.9685    
   X467.0114     Y19.6611      R1.9685    
   X466.9448     Y19.1552      R1.9685    
(Pass: 5)
G1   Z0.700      F200 
G17 G2   X467.0114     Y18.6493      R1.9685     F400 
   X467.2067     Y18.1778      R1.9685    
   X467.5173     Y17.7730      R1.9685    
   X467.9222     Y17.4624      R1.9685    
   X468.3936     Y17.2671      R1.9685    
   X468.8995     Y17.2005      R1.9685    
   X469.4054     Y17.2671      R1.9685    
   X469.8769     Y17.4624      R1.9685    
   X470.2817     Y17.7730      R1.9685    
   X470.5923     Y18.1778      R1.9685    
   X470.7876     Y18.6493      R1.9685    
   X470.8542     Y19.1552      R1.9685    
   X470.7876     Y19.6611      R1.9685    
   X470.5923     Y20.1325      R1.9685    
   X470.2817     Y20.5374      R1.9685    
   X469.8769     Y20.8480      R1.9685    
   X469.4054     Y21.0433      R1.9685    
   X468.8995     Y21.1099      R1.9685    
   X468.3936     Y21.0433      R1.9685    
   X467.9222     Y20.8480      R1.9685    
   X467.5173     Y20.5374      R1.9685    
   X467.2067     Y20.1325      R1.9685    
   X467.0114     Y19.6611      R1.9685    
   X466.9448     Y19.1552      R1.9685    
(Pass: 6)
G1   Z0.200      F200 
G17 G2   X467.0114     Y18.6493      R1.9685     F400 
   X467.2067     Y18.1778      R1.9685    
   X467.5173     Y17.7730      R1.9685    
   X467.9222     Y17.4624      R1.9685    
   X468.3936     Y17.2671      R1.9685    
   X468.8995     Y17.2005      R1.9685    
   X469.4054     Y17.2671      R1.9685    
   X469.8769     Y17.4624      R1.9685    
   X470.2817     Y17.7730      R1.9685    
   X470.5923     Y18.1778      R1.9685    
   X470.7876     Y18.6493      R1.9685    
   X470.8542     Y19.1552      R1.9685    
   X470.7876     Y19.6611      R1.9685    
   X470.5923     Y20.1325      R1.9685    
   X470.2817     Y20.5374      R1.9685    
   X469.8769     Y20.8480      R1.9685    
   X469.4054     Y21.0433      R1.9685    
   X468.8995     Y21.1099      R1.9685    
   X468.3936     Y21.0433      R1.9685    
   X467.9222     Y20.8480      R1.9685    
   X467.5173     Y20.5374      R1.9685    
   X467.2067     Y20.1325      R1.9685    
   X467.0114     Y19.6611      R1.9685    
   X466.9448     Y19.1552      R1.9685    
(Pass: 7)
G1   Z-0.300     F200 
G17 G2   X467.0114     Y18.6493      R1.9685     F400 
   X467.2067     Y18.1778      R1.9685    
   X467.5173     Y17.7730      R1.9685    
   X467.9222     Y17.4624      R1.9685    
   X468.3936     Y17.2671      R1.9685    
   X468.8995     Y17.2005      R1.9685    
   X469.4054     Y17.2671      R1.9685    
   X469.8769     Y17.4624      R1.9685    
   X470.2817     Y17.7730      R1.9685    
   X470.5923     Y18.1778      R1.9685    
   X470.7876     Y18.6493      R1.9685    
   X470.8542     Y19.1552      R1.9685    
   X470.7876     Y19.6611      R1.9685    
   X470.5923     Y20.1325      R1.9685    
   X470.2817     Y20.5374      R1.9685    
   X469.8769     Y20.8480      R1.9685    
   X469.4054     Y21.0433      R1.9685    
   X468.8995     Y21.1099      R1.9685    
   X468.3936     Y21.0433      R1.9685    
   X467.9222     Y20.8480      R1.9685    
   X467.5173     Y20.5374      R1.9685    
   X467.2067     Y20.1325      R1.9685    
   X467.0114     Y19.6611      R1.9685    
   X466.9448     Y19.1552      R1.9685    
(Pass: 8)
G1   Z-0.480     F200 
G17 G2   X467.0114     Y18.6493      R1.9685     F400 
   X467.2067     Y18.1778      R1.9685    
   X467.5173     Y17.7730      R1.9685    
   X467.9222     Y17.4624      R1.9685    
   X468.3936     Y17.2671      R1.9685    
   X468.8995     Y17.2005      R1.9685    
   X469.4054     Y17.2671      R1.9685    
   X469.8769     Y17.4624      R1.9685    
   X470.2817     Y17.7730      R1.9685    
   X470.5923     Y18.1778      R1.9685    
   X470.7876     Y18.6493      R1.9685    
   X470.8542     Y19.1552      R1.9685    
   X470.7876     Y19.6611      R1.9685    
   X470.5923     Y20.1325      R1.9685    
   X470.2817     Y20.5374      R1.9685    
   X469.8769     Y20.8480      R1.9685    
   X469.4054     Y21.0433      R1.9685    
   X468.8995     Y21.1099      R1.9685    
   X468.3936     Y21.0433      R1.9685    
   X467.9222     Y20.8480      R1.9685    
   X467.5173     Y20.5374      R1.9685    
   X467.2067     Y20.1325      R1.9685    
   X467.0114     Y19.6611      R1.9685    
   X466.9448     Y19.1552      R1.9685    
(BREAK pass 8)
G0   Z18.200    
(Pass: 1)
   X468.670      Y28.299    
G1   Z2.700      F200 
G17 G2   X468.8995     Y28.2690      R0.9000     F400 
   X469.1289     Y28.2992      R0.9000    
   X469.3426     Y28.3877      R0.9000    
   X469.5262     Y28.5286      R0.9000    
   X469.6670     Y28.7121      R0.9000    
   X469.7555     Y28.9258      R0.9000    
   X469.7857     Y29.1552      R0.9000    
   X469.7555     Y29.3845      R0.9000    
   X469.6670     Y29.5983      R0.9000    
   X469.5262     Y29.7818      R0.9000    
   X469.3426     Y29.9227      R0.9000    
   X469.1289     Y30.0112      R0.9000    
   X468.8995     Y30.0414      R0.9000    
   X468.6702     Y30.0112      R0.9000    
   X468.4564     Y29.9227      R0.9000    
   X468.2729     Y29.7818      R0.9000    
   X468.1321     Y29.5983      R0.9000    
   X468.0435     Y29.3845      R0.9000    
   X468.0133     Y29.1552      R0.9000    
   X468.0435     Y28.9258      R0.9000    
   X468.1321     Y28.7121      R0.9000    
   X468.2729     Y28.5286      R0.9000    
   X468.4564     Y28.3877      R0.9000    
   X468.6702     Y28.2992      R0.9000    
(Pass: 2)
G1   Z2.200      F200 
G17 G2   X468.8995     Y28.2690      R0.9000     F400 
   X469.1289     Y28.2992      R0.9000    
   X469.3426     Y28.3877      R0.9000    
   X469.5262     Y28.5286      R0.9000    
   X469.6670     Y28.7121      R0.9000    
   X469.7555     Y28.9258      R0.9000    
   X469.7857     Y29.1552      R0.9000    
   X469.7555     Y29.3845      R0.9000    
   X469.6670     Y29.5983      R0.9000    
   X469.5262     Y29.7818      R0.9000    
   X469.3426     Y29.9227      R0.9000    
   X469.1289     Y30.0112      R0.9000    
   X468.8995     Y30.0414      R0.9000    
   X468.6702     Y30.0112      R0.9000    
   X468.4564     Y29.9227      R0.9000    
   X468.2729     Y29.7818      R0.9000    
   X468.1321     Y29.5983      R0.9000    
   X468.0435     Y29.3845      R0.9000    
   X468.0133     Y29.1552      R0.9000    
   X468.0435     Y28.9258      R0.9000    
   X468.1321     Y28.7121      R0.9000    
   X468.2729     Y28.5286      R0.9000    
   X468.4564     Y28.3877      R0.9000    
   X468.6702     Y28.2992      R0.9000    
(Pass: 3)
G1   Z1.700      F200 
G17 G2   X468.8995     Y28.2690      R0.9000     F400 
   X469.1289     Y28.2992      R0.9000    
   X469.3426     Y28.3877      R0.9000    
   X469.5262     Y28.5286      R0.9000    
   X469.6670     Y28.7121      R0.9000    
   X469.7555     Y28.9258      R0.9000    
   X469.7857     Y29.1552      R0.9000    
   X469.7555     Y29.3845      R0.9000    
   X469.6670     Y29.5983      R0.9000    
   X469.5262     Y29.7818      R0.9000    
   X469.3426     Y29.9227      R0.9000    
   X469.1289     Y30.0112      R0.9000    
   X468.8995     Y30.0414      R0.9000    
   X468.6702     Y30.0112      R0.9000    
   X468.4564     Y29.9227      R0.9000    
   X468.2729     Y29.7818      R0.9000    
   X468.1321     Y29.5983      R0.9000    
   X468.0435     Y29.3845      R0.9000    
   X468.0133     Y29.1552      R0.9000    
   X468.0435     Y28.9258      R0.9000    
   X468.1321     Y28.7121      R0.9000    
   X468.2729     Y28.5286      R0.9000    
   X468.4564     Y28.3877      R0.9000    
   X468.6702     Y28.2992      R0.9000    
(Pass: 4)
G1   Z1.200      F200 
G17 G2   X468.8995     Y28.2690      R0.9000     F400 
   X469.1289     Y28.2992      R0.9000    
   X469.3426     Y28.3877      R0.9000    
   X469.5262     Y28.5286      R0.9000    
   X469.6670     Y28.7121      R0.9000    
   X469.7555     Y28.9258      R0.9000    
   X469.7857     Y29.1552      R0.9000    
   X469.7555     Y29.3845      R0.9000    
   X469.6670     Y29.5983      R0.9000    
   X469.5262     Y29.7818      R0.9000    
   X469.3426     Y29.9227      R0.9000    
   X469.1289     Y30.0112      R0.9000    
   X468.8995     Y30.0414      R0.9000    
   X468.6702     Y30.0112      R0.9000    
   X468.4564     Y29.9227      R0.9000    
   X468.2729     Y29.7818      R0.9000    
   X468.1321     Y29.5983      R0.9000    
   X468.0435     Y29.3845      R0.9000    
   X468.0133     Y29.1552      R0.9000    
   X468.0435     Y28.9258      R0.9000    
   X468.1321     Y28.7121      R0.9000    
   X468.2729     Y28.5286      R0.9000    
   X468.4564     Y28.3877      R0.9000    
   X468.6702     Y28.2992      R0.9000    
(Pass: 5)
G1   Z0.700      F200 
G17 G2   X468.8995     Y28.2690      R0.9000     F400 
   X469.1289     Y28.2992      R0.9000    
   X469.3426     Y28.3877      R0.9000    
   X469.5262     Y28.5286      R0.9000    
   X469.6670     Y28.7121      R0.9000    
   X469.7555     Y28.9258      R0.9000    
   X469.7857     Y29.1552      R0.9000    
   X469.7555     Y29.3845      R0.9000    
   X469.6670     Y29.5983      R0.9000    
   X469.5262     Y29.7818      R0.9000    
   X469.3426     Y29.9227      R0.9000    
   X469.1289     Y30.0112      R0.9000    
   X468.8995     Y30.0414      R0.9000    
   X468.6702     Y30.0112      R0.9000    
   X468.4564     Y29.9227      R0.9000    
   X468.2729     Y29.7818      R0.9000    
   X468.1321     Y29.5983      R0.9000    
   X468.0435     Y29.3845      R0.9000    
   X468.0133     Y29.1552      R0.9000    
   X468.0435     Y28.9258      R0.9000    
   X468.1321     Y28.7121      R0.9000    
   X468.2729     Y28.5286      R0.9000    
   X468.4564     Y28.3877      R0.9000    
   X468.6702     Y28.2992      R0.9000    
(Pass: 6)
G1   Z0.200      F200 
G17 G2   X468.8995     Y28.2690      R0.9000     F400 
   X469.1289     Y28.2992      R0.9000    
   X469.3426     Y28.3877      R0.9000    
   X469.5262     Y28.5286      R0.9000    
   X469.6670     Y28.7121      R0.9000    
   X469.7555     Y28.9258      R0.9000    
   X469.7857     Y29.1552      R0.9000    
   X469.7555     Y29.3845      R0.9000    
   X469.6670     Y29.5983      R0.9000    
   X469.5262     Y29.7818      R0.9000    
   X469.3426     Y29.9227      R0.9000    
   X469.1289     Y30.0112      R0.9000    
   X468.8995     Y30.0414      R0.9000    
   X468.6702     Y30.0112      R0.9000    
   X468.4564     Y29.9227      R0.9000    
   X468.2729     Y29.7818      R0.9000    
   X468.1321     Y29.5983      R0.9000    
   X468.0435     Y29.3845      R0.9000    
   X468.0133     Y29.1552      R0.9000    
   X468.0435     Y28.9258      R0.9000    
   X468.1321     Y28.7121      R0.9000    
   X468.2729     Y28.5286      R0.9000    
   X468.4564     Y28.3877      R0.9000    
   X468.6702     Y28.2992      R0.9000    
(Pass: 7)
G1   Z-0.300     F200 
G17 G2   X468.8995     Y28.2690      R0.9000     F400 
   X469.1289     Y28.2992      R0.9000    
   X469.3426     Y28.3877      R0.9000    
   X469.5262     Y28.5286      R0.9000    
   X469.6670     Y28.7121      R0.9000    
   X469.7555     Y28.9258      R0.9000    
   X469.7857     Y29.1552      R0.9000    
   X469.7555     Y29.3845      R0.9000    
   X469.6670     Y29.5983      R0.9000    
   X469.5262     Y29.7818      R0.9000    
   X469.3426     Y29.9227      R0.9000    
   X469.1289     Y30.0112      R0.9000    
   X468.8995     Y30.0414      R0.9000    
   X468.6702     Y30.0112      R0.9000    
   X468.4564     Y29.9227      R0.9000    
   X468.2729     Y29.7818      R0.9000    
   X468.1321     Y29.5983      R0.9000    
   X468.0435     Y29.3845      R0.9000    
   X468.0133     Y29.1552      R0.9000    
   X468.0435     Y28.9258      R0.9000    
   X468.1321     Y28.7121      R0.9000    
   X468.2729     Y28.5286      R0.9000    
   X468.4564     Y28.3877      R0.9000    
   X468.6702     Y28.2992      R0.9000    
(Pass: 8)
G1   Z-0.480     F200 
G17 G2   X468.8995     Y28.2690      R0.9000     F400 
   X469.1289     Y28.2992      R0.9000    
   X469.3426     Y28.3877      R0.9000    
   X469.5262     Y28.5286      R0.9000    
   X469.6670     Y28.7121      R0.9000    
   X469.7555     Y28.9258      R0.9000    
   X469.7857     Y29.1552      R0.9000    
   X469.7555     Y29.3845      R0.9000    
   X469.6670     Y29.5983      R0.9000    
   X469.5262     Y29.7818      R0.9000    
   X469.3426     Y29.9227      R0.9000    
   X469.1289     Y30.0112      R0.9000    
   X468.8995     Y30.0414      R0.9000    
   X468.6702     Y30.0112      R0.9000    
   X468.4564     Y29.9227      R0.9000    
   X468.2729     Y29.7818      R0.9000    
   X468.1321     Y29.5983      R0.9000    
   X468.0435     Y29.3845      R0.9000    
   X468.0133     Y29.1552      R0.9000    
   X468.0435     Y28.9258      R0.9000    
   X468.1321     Y28.7121      R0.9000    
   X468.2729     Y28.5286      R0.9000    
   X468.4564     Y28.3877      R0.9000    
   X468.6702     Y28.2992      R0.9000    
(BREAK pass 8)
G0   Z18.200    
(Pass: 1)
   X468.900      Y47.840    
G1   Z2.700      F200 
G17 G2   X469.4054     Y47.9071      R1.9685     F400 
   X469.8769     Y48.1024      R1.9685    
   X470.2817     Y48.4130      R1.9685    
   X470.5923     Y48.8178      R1.9685    
   X470.7876     Y49.2893      R1.9685    
   X470.8542     Y49.7952      R1.9685    
   X470.7876     Y50.3011      R1.9685    
   X470.5923     Y50.7725      R1.9685    
   X470.2817     Y51.1774      R1.9685    
   X469.8769     Y51.4880      R1.9685    
   X469.4054     Y51.6833      R1.9685    
   X468.8995     Y51.7499      R1.9685    
   X468.3936     Y51.6833      R1.9685    
   X467.9222     Y51.4880      R1.9685    
   X467.5173     Y51.1774      R1.9685    
   X467.2067     Y50.7725      R1.9685    
   X467.0114     Y50.3011      R1.9685    
   X466.9448     Y49.7952      R1.9685    
   X467.0114     Y49.2893      R1.9685    
   X467.2067     Y48.8178      R1.9685    
   X467.5173     Y48.4130      R1.9685    
   X467.9222     Y48.1024      R1.9685    
   X468.3936     Y47.9071      R1.9685    
   X468.8995     Y47.8405      R1.9685    
(Pass: 2)
G1   Z2.200      F200 
G17 G2   X469.4054     Y47.9071      R1.9685     F400 
   X469.8769     Y48.1024      R1.9685    
   X470.2817     Y48.4130      R1.9685    
   X470.5923     Y48.8178      R1.9685    
   X470.7876     Y49.2893      R1.9685    
   X470.8542     Y49.7952      R1.9685    
   X470.7876     Y50.3011      R1.9685    
   X470.5923     Y50.7725      R1.9685    
   X470.2817     Y51.1774      R1.9685    
   X469.8769     Y51.4880      R1.9685    
   X469.4054     Y51.6833      R1.9685    
   X468.8995     Y51.7499      R1.9685    
   X468.3936     Y51.6833      R1.9685    
   X467.9222     Y51.4880      R1.9685    
   X467.5173     Y51.1774      R1.9685    
   X467.2067     Y50.7725      R1.9685    
   X467.0114     Y50.3011      R1.9685    
   X466.9448     Y49.7952      R1.9685    
   X467.0114     Y49.2893      R1.9685    
   X467.2067     Y48.8178      R1.9685    
   X467.5173     Y48.4130      R1.9685    
   X467.9222     Y48.1024      R1.9685    
   X468.3936     Y47.9071      R1.9685    
   X468.8995     Y47.8405      R1.9685    
(Pass: 3)
G1   Z1.700      F200 
G17 G2   X469.4054     Y47.9071      R1.9685     F400 
   X469.8769     Y48.1024      R1.9685    
   X470.2817     Y48.4130      R1.9685    
   X470.5923     Y48.8178      R1.9685    
   X470.7876     Y49.2893      R1.9685    
   X470.8542     Y49.7952      R1.9685    
   X470.7876     Y50.3011      R1.9685    
   X470.5923     Y50.7725      R1.9685    
   X470.2817     Y51.1774      R1.9685    
   X469.8769     Y51.4880      R1.9685    
   X469.4054     Y51.6833      R1.9685    
   X468.8995     Y51.7499      R1.9685    
   X468.3936     Y51.6833      R1.9685    
   X467.9222     Y51.4880      R1.9685    
   X467.5173     Y51.1774      R1.9685    
   X467.2067     Y50.7725      R1.9685    
   X467.0114     Y50.3011      R1.9685    
   X466.9448     Y49.7952      R1.9685    
   X467.0114     Y49.2893      R1.9685    
   X467.2067     Y48.8178      R1.9685    
   X467.5173     Y48.4130      R1.9685    
   X467.9222     Y48.1024      R1.9685    
   X468.3936     Y47.9071      R1.9685    
   X468.8995     Y47.8405      R1.9685    
(Pass: 4)
G1   Z1.200      F200 
G17 G2   X469.4054     Y47.9071      R1.9685     F400 
   X469.8769     Y48.1024      R1.9685    
   X470.2817     Y48.4130      R1.9685    
   X470.5923     Y48.8178      R1.9685    
   X470.7876     Y49.2893      R1.9685    
   X470.8542     Y49.7952      R1.9685    
   X470.7876     Y50.3011      R1.9685    
   X470.5923     Y50.7725      R1.9685    
   X470.2817     Y51.1774      R1.9685    
   X469.8769     Y51.4880      R1.9685    
   X469.4054     Y51.6833      R1.9685    
   X468.8995     Y51.7499      R1.9685    
   X468.3936     Y51.6833      R1.9685    
   X467.9222     Y51.4880      R1.9685    
   X467.5173     Y51.1774      R1.9685    
   X467.2067     Y50.7725      R1.9685    
   X467.0114     Y50.3011      R1.9685    
   X466.9448     Y49.7952      R1.9685    
   X467.0114     Y49.2893      R1.9685    
   X467.2067     Y48.8178      R1.9685    
   X467.5173     Y48.4130      R1.9685    
   X467.9222     Y48.1024      R1.9685    
   X468.3936     Y47.9071      R1.9685    
   X468.8995     Y47.8405      R1.9685    
(Pass: 5)
G1   Z0.700      F200 
G17 G2   X469.4054     Y47.9071      R1.9685     F400 
   X469.8769     Y48.1024      R1.9685    
   X470.2817     Y48.4130      R1.9685    
   X470.5923     Y48.8178      R1.9685    
   X470.7876     Y49.2893      R1.9685    
   X470.8542     Y49.7952      R1.9685    
   X470.7876     Y50.3011      R1.9685    
   X470.5923     Y50.7725      R1.9685    
   X470.2817     Y51.1774      R1.9685    
   X469.8769     Y51.4880      R1.9685    
   X469.4054     Y51.6833      R1.9685    
   X468.8995     Y51.7499      R1.9685    
   X468.3936     Y51.6833      R1.9685    
   X467.9222     Y51.4880      R1.9685    
   X467.5173     Y51.1774      R1.9685    
   X467.2067     Y50.7725      R1.9685    
   X467.0114     Y50.3011      R1.9685    
   X466.9448     Y49.7952      R1.9685    
   X467.0114     Y49.2893      R1.9685    
   X467.2067     Y48.8178      R1.9685    
   X467.5173     Y48.4130      R1.9685    
   X467.9222     Y48.1024      R1.9685    
   X468.3936     Y47.9071      R1.9685    
   X468.8995     Y47.8405      R1.9685    
(Pass: 6)
G1   Z0.200      F200 
G17 G2   X469.4054     Y47.9071      R1.9685     F400 
   X469.8769     Y48.1024      R1.9685    
   X470.2817     Y48.4130      R1.9685    
   X470.5923     Y48.8178      R1.9685    
   X470.7876     Y49.2893      R1.9685    
   X470.8542     Y49.7952      R1.9685    
   X470.7876     Y50.3011      R1.9685    
   X470.5923     Y50.7725      R1.9685    
   X470.2817     Y51.1774      R1.9685    
   X469.8769     Y51.4880      R1.9685    
   X469.4054     Y51.6833      R1.9685    
   X468.8995     Y51.7499      R1.9685    
   X468.3936     Y51.6833      R1.9685    
   X467.9222     Y51.4880      R1.9685    
   X467.5173     Y51.1774      R1.9685    
   X467.2067     Y50.7725      R1.9685    
   X467.0114     Y50.3011      R1.9685    
   X466.9448     Y49.7952      R1.9685    
   X467.0114     Y49.2893      R1.9685    
   X467.2067     Y48.8178      R1.9685    
   X467.5173     Y48.4130      R1.9685    
   X467.9222     Y48.1024      R1.9685    
   X468.3936     Y47.9071      R1.9685    
   X468.8995     Y47.8405      R1.9685    
(Pass: 7)
G1   Z-0.300     F200 
G17 G2   X469.4054     Y47.9071      R1.9685     F400 
   X469.8769     Y48.1024      R1.9685    
   X470.2817     Y48.4130      R1.9685    
   X470.5923     Y48.8178      R1.9685    
   X470.7876     Y49.2893      R1.9685    
   X470.8542     Y49.7952      R1.9685    
   X470.7876     Y50.3011      R1.9685    
   X470.5923     Y50.7725      R1.9685    
   X470.2817     Y51.1774      R1.9685    
   X469.8769     Y51.4880      R1.9685    
   X469.4054     Y51.6833      R1.9685    
   X468.8995     Y51.7499      R1.9685    
   X468.3936     Y51.6833      R1.9685    
   X467.9222     Y51.4880      R1.9685    
   X467.5173     Y51.1774      R1.9685    
   X467.2067     Y50.7725      R1.9685    
   X467.0114     Y50.3011      R1.9685    
   X466.9448     Y49.7952      R1.9685    
   X467.0114     Y49.2893      R1.9685    
   X467.2067     Y48.8178      R1.9685    
   X467.5173     Y48.4130      R1.9685    
   X467.9222     Y48.1024      R1.9685    
   X468.3936     Y47.9071      R1.9685    
   X468.8995     Y47.8405      R1.9685    
(Pass: 8)
G1   Z-0.480     F200 
G17 G2   X469.4054     Y47.9071      R1.9685     F400 
   X469.8769     Y48.1024      R1.9685    
   X470.2817     Y48.4130      R1.9685    
   X470.5923     Y48.8178      R1.9685    
   X470.7876     Y49.2893      R1.9685    
   X470.8542     Y49.7952      R1.9685    
   X470.7876     Y50.3011      R1.9685    
   X470.5923     Y50.7725      R1.9685    
   X470.2817     Y51.1774      R1.9685    
   X469.8769     Y51.4880      R1.9685    
   X469.4054     Y51.6833      R1.9685    
   X468.8995     Y51.7499      R1.9685    
   X468.3936     Y51.6833      R1.9685    
   X467.9222     Y51.4880      R1.9685    
   X467.5173     Y51.1774      R1.9685    
   X467.2067     Y50.7725      R1.9685    
   X467.0114     Y50.3011      R1.9685    
   X466.9448     Y49.7952      R1.9685    
   X467.0114     Y49.2893      R1.9685    
   X467.2067     Y48.8178      R1.9685    
   X467.5173     Y48.4130      R1.9685    
   X467.9222     Y48.1024      R1.9685    
   X468.3936     Y47.9071      R1.9685    
   X468.8995     Y47.8405      R1.9685    
(BREAK pass 8)
G0   Z18.200    
(Pass: 1)
   Y68.909    
G1   Z2.700      F200 
G17 G2   X469.1289     Y68.9392      R0.9000     F400 
   X469.3426     Y69.0277      R0.9000    
   X469.5262     Y69.1686      R0.9000    
   X469.6670     Y69.3521      R0.9000    
   X469.7555     Y69.5658      R0.9000    
   X469.7857     Y69.7952      R0.9000    
   X469.7555     Y70.0245      R0.9000    
   X469.6670     Y70.2383      R0.9000    
   X469.5262     Y70.4218      R0.9000    
   X469.3426     Y70.5626      R0.9000    
   X469.1289     Y70.6512      R0.9000    
   X468.8995     Y70.6814      R0.9000    
   X468.6702     Y70.6512      R0.9000    
   X468.4564     Y70.5626      R0.9000    
   X468.2729     Y70.4218      R0.9000    
   X468.1321     Y70.2383      R0.9000    
   X468.0435     Y70.0245      R0.9000    
   X468.0133     Y69.7952      R0.9000    
   X468.0435     Y69.5658      R0.9000    
   X468.1321     Y69.3521      R0.9000    
   X468.2729     Y69.1686      R0.9000    
   X468.4564     Y69.0277      R0.9000    
   X468.6702     Y68.9392      R0.9000    
   X468.8995     Y68.9090      R0.9000    
(Pass: 2)
G1   Z2.200      F200 
G17 G2   X469.1289     Y68.9392      R0.9000     F400 
   X469.3426     Y69.0277      R0.9000    
   X469.5262     Y69.1686      R0.9000    
   X469.6670     Y69.3521      R0.9000    
   X469.7555     Y69.5658      R0.9000    
   X469.7857     Y69.7952      R0.9000    
   X469.7555     Y70.0245      R0.9000    
   X469.6670     Y70.2383      R0.9000    
   X469.5262     Y70.4218      R0.9000    
   X469.3426     Y70.5626      R0.9000    
   X469.1289     Y70.6512      R0.9000    
   X468.8995     Y70.6814      R0.9000    
   X468.6702     Y70.6512      R0.9000    
   X468.4564     Y70.5626      R0.9000    
   X468.2729     Y70.4218      R0.9000    
   X468.1321     Y70.2383      R0.9000    
   X468.0435     Y70.0245      R0.9000    
   X468.0133     Y69.7952      R0.9000    
   X468.0435     Y69.5658      R0.9000    
   X468.1321     Y69.3521      R0.9000    
   X468.2729     Y69.1686      R0.9000    
   X468.4564     Y69.0277      R0.9000    
   X468.6702     Y68.9392      R0.9000    
   X468.8995     Y68.9090      R0.9000    
(Pass: 3)
G1   Z1.700      F200 
G17 G2   X469.1289     Y68.9392      R0.9000     F400 
   X469.3426     Y69.0277      R0.9000    
   X469.5262     Y69.1686      R0.9000    
   X469.6670     Y69.3521      R0.9000    
   X469.7555     Y69.5658      R0.9000    
   X469.7857     Y69.7952      R0.9000    
   X469.7555     Y70.0245      R0.9000    
   X469.6670     Y70.2383      R0.9000    
   X469.5262     Y70.4218      R0.9000    
   X469.3426     Y70.5626      R0.9000    
   X469.1289     Y70.6512      R0.9000    
   X468.8995     Y70.6814      R0.9000    
   X468.6702     Y70.6512      R0.9000    
   X468.4564     Y70.5626      R0.9000    
   X468.2729     Y70.4218      R0.9000    
   X468.1321     Y70.2383      R0.9000    
   X468.0435     Y70.0245      R0.9000    
   X468.0133     Y69.7952      R0.9000    
   X468.0435     Y69.5658      R0.9000    
   X468.1321     Y69.3521      R0.9000    
   X468.2729     Y69.1686      R0.9000    
   X468.4564     Y69.0277      R0.9000    
   X468.6702     Y68.9392      R0.9000    
   X468.8995     Y68.9090      R0.9000    
(Pass: 4)
G1   Z1.200      F200 
G17 G2   X469.1289     Y68.9392      R0.9000     F400 
   X469.3426     Y69.0277      R0.9000    
   X469.5262     Y69.1686      R0.9000    
   X469.6670     Y69.3521      R0.9000    
   X469.7555     Y69.5658      R0.9000    
   X469.7857     Y69.7952      R0.9000    
   X469.7555     Y70.0245      R0.9000    
   X469.6670     Y70.2383      R0.9000    
   X469.5262     Y70.4218      R0.9000    
   X469.3426     Y70.5626      R0.9000    
   X469.1289     Y70.6512      R0.9000    
   X468.8995     Y70.6814      R0.9000    
   X468.6702     Y70.6512      R0.9000    
   X468.4564     Y70.5626      R0.9000    
   X468.2729     Y70.4218      R0.9000    
   X468.1321     Y70.2383      R0.9000    
   X468.0435     Y70.0245      R0.9000    
   X468.0133     Y69.7952      R0.9000    
   X468.0435     Y69.5658      R0.9000    
   X468.1321     Y69.3521      R0.9000    
   X468.2729     Y69.1686      R0.9000    
   X468.4564     Y69.0277      R0.9000    
   X468.6702     Y68.9392      R0.9000    
   X468.8995     Y68.9090      R0.9000    
(Pass: 5)
G1   Z0.700      F200 
G17 G2   X469.1289     Y68.9392      R0.9000     F400 
   X469.3426     Y69.0277      R0.9000    
   X469.5262     Y69.1686      R0.9000    
   X469.6670     Y69.3521      R0.9000    
   X469.7555     Y69.5658      R0.9000    
   X469.7857     Y69.7952      R0.9000    
   X469.7555     Y70.0245      R0.9000    
   X469.6670     Y70.2383      R0.9000    
   X469.5262     Y70.4218      R0.9000    
   X469.3426     Y70.5626      R0.9000    
   X469.1289     Y70.6512      R0.9000    
   X468.8995     Y70.6814      R0.9000    
   X468.6702     Y70.6512      R0.9000    
   X468.4564     Y70.5626      R0.9000    
   X468.2729     Y70.4218      R0.9000    
   X468.1321     Y70.2383      R0.9000    
   X468.0435     Y70.0245      R0.9000    
   X468.0133     Y69.7952      R0.9000    
   X468.0435     Y69.5658      R0.9000    
   X468.1321     Y69.3521      R0.9000    
   X468.2729     Y69.1686      R0.9000    
   X468.4564     Y69.0277      R0.9000    
   X468.6702     Y68.9392      R0.9000    
   X468.8995     Y68.9090      R0.9000    
(Pass: 6)
G1   Z0.200      F200 
G17 G2   X469.1289     Y68.9392      R0.9000     F400 
   X469.3426     Y69.0277      R0.9000    
   X469.5262     Y69.1686      R0.9000    
   X469.6670     Y69.3521      R0.9000    
   X469.7555     Y69.5658      R0.9000    
   X469.7857     Y69.7952      R0.9000    
   X469.7555     Y70.0245      R0.9000    
   X469.6670     Y70.2383      R0.9000    
   X469.5262     Y70.4218      R0.9000    
   X469.3426     Y70.5626      R0.9000    
   X469.1289     Y70.6512      R0.9000    
   X468.8995     Y70.6814      R0.9000    
   X468.6702     Y70.6512      R0.9000    
   X468.4564     Y70.5626      R0.9000    
   X468.2729     Y70.4218      R0.9000    
   X468.1321     Y70.2383      R0.9000    
   X468.0435     Y70.0245      R0.9000    
   X468.0133     Y69.7952      R0.9000    
   X468.0435     Y69.5658      R0.9000    
   X468.1321     Y69.3521      R0.9000    
   X468.2729     Y69.1686      R0.9000    
   X468.4564     Y69.0277      R0.9000    
   X468.6702     Y68.9392      R0.9000    
   X468.8995     Y68.9090      R0.9000    
(Pass: 7)
G1   Z-0.300     F200 
G17 G2   X469.1289     Y68.9392      R0.9000     F400 
   X469.3426     Y69.0277      R0.9000    
   X469.5262     Y69.1686      R0.9000    
   X469.6670     Y69.3521      R0.9000    
   X469.7555     Y69.5658      R0.9000    
   X469.7857     Y69.7952      R0.9000    
   X469.7555     Y70.0245      R0.9000    
   X469.6670     Y70.2383      R0.9000    
   X469.5262     Y70.4218      R0.9000    
   X469.3426     Y70.5626      R0.9000    
   X469.1289     Y70.6512      R0.9000    
   X468.8995     Y70.6814      R0.9000    
   X468.6702     Y70.6512      R0.9000    
   X468.4564     Y70.5626      R0.9000    
   X468.2729     Y70.4218      R0.9000    
   X468.1321     Y70.2383      R0.9000    
   X468.0435     Y70.0245      R0.9000    
   X468.0133     Y69.7952      R0.9000    
   X468.0435     Y69.5658      R0.9000    
   X468.1321     Y69.3521      R0.9000    
   X468.2729     Y69.1686      R0.9000    
   X468.4564     Y69.0277      R0.9000    
   X468.6702     Y68.9392      R0.9000    
   X468.8995     Y68.9090      R0.9000    
(Pass: 8)
G1   Z-0.480     F200 
G17 G2   X469.1289     Y68.9392      R0.9000     F400 
   X469.3426     Y69.0277      R0.9000    
   X469.5262     Y69.1686      R0.9000    
   X469.6670     Y69.3521      R0.9000    
   X469.7555     Y69.5658      R0.9000    
   X469.7857     Y69.7952      R0.9000    
   X469.7555     Y70.0245      R0.9000    
   X469.6670     Y70.2383      R0.9000    
   X469.5262     Y70.4218      R0.9000    
   X469.3426     Y70.5626      R0.9000    
   X469.1289     Y70.6512      R0.9000    
   X468.8995     Y70.6814      R0.9000    
   X468.6702     Y70.6512      R0.9000    
   X468.4564     Y70.5626      R0.9000    
   X468.2729     Y70.4218      R0.9000    
   X468.1321     Y70.2383      R0.9000    
   X468.0435     Y70.0245      R0.9000    
   X468.0133     Y69.7952      R0.9000    
   X468.0435     Y69.5658      R0.9000    
   X468.1321     Y69.3521      R0.9000    
   X468.2729     Y69.1686      R0.9000    
   X468.4564     Y69.0277      R0.9000    
   X468.6702     Y68.9392      R0.9000    
   X468.8995     Y68.9090      R0.9000    
(BREAK pass 8)
G0   Z18.200    
(Pass: 1)
   Y77.840    
G1   Z2.700      F200 
G17 G2   X469.4054     Y77.9071      R1.9685     F400 
   X469.8769     Y78.1024      R1.9685    
   X470.2817     Y78.4130      R1.9685    
   X470.5923     Y78.8178      R1.9685    
   X470.7876     Y79.2893      R1.9685    
   X470.8542     Y79.7952      R1.9685    
   X470.7876     Y80.3011      R1.9685    
   X470.5923     Y80.7725      R1.9685    
   X470.2817     Y81.1774      R1.9685    
   X469.8769     Y81.4880      R1.9685    
   X469.4054     Y81.6833      R1.9685    
   X468.8995     Y81.7499      R1.9685    
   X468.3936     Y81.6833      R1.9685    
   X467.9222     Y81.4880      R1.9685    
   X467.5173     Y81.1774      R1.9685    
   X467.2067     Y80.7725      R1.9685    
   X467.0114     Y80.3011      R1.9685    
   X466.9448     Y79.7952      R1.9685    
   X467.0114     Y79.2893      R1.9685    
   X467.2067     Y78.8178      R1.9685    
   X467.5173     Y78.4130      R1.9685    
   X467.9222     Y78.1024      R1.9685    
   X468.3936     Y77.9071      R1.9685    
   X468.8995     Y77.8405      R1.9685    
(Pass: 2)
G1   Z2.200      F200 
G17 G2   X469.4054     Y77.9071      R1.9685     F400 
   X469.8769     Y78.1024      R1.9685    
   X470.2817     Y78.4130      R1.9685    
   X470.5923     Y78.8178      R1.9685    
   X470.7876     Y79.2893      R1.9685    
   X470.8542     Y79.7952      R1.9685    
   X470.7876     Y80.3011      R1.9685    
   X470.5923     Y80.7725      R1.9685    
   X470.2817     Y81.1774      R1.9685    
   X469.8769     Y81.4880      R1.9685    
   X469.4054     Y81.6833      R1.9685    
   X468.8995     Y81.7499      R1.9685    
   X468.3936     Y81.6833      R1.9685    
   X467.9222     Y81.4880      R1.9685    
   X467.5173     Y81.1774      R1.9685    
   X467.2067     Y80.7725      R1.9685    
   X467.0114     Y80.3011      R1.9685    
   X466.9448     Y79.7952      R1.9685    
   X467.0114     Y79.2893      R1.9685    
   X467.2067     Y78.8178      R1.9685    
   X467.5173     Y78.4130      R1.9685    
   X467.9222     Y78.1024      R1.9685    
   X468.3936     Y77.9071      R1.9685    
   X468.8995     Y77.8405      R1.9685    
(Pass: 3)
G1   Z1.700      F200 
G17 G2   X469.4054     Y77.9071      R1.9685     F400 
   X469.8769     Y78.1024      R1.9685    
   X470.2817     Y78.4130      R1.9685    
   X470.5923     Y78.8178      R1.9685    
   X470.7876     Y79.2893      R1.9685    
   X470.8542     Y79.7952      R1.9685    
   X470.7876     Y80.3011      R1.9685    
   X470.5923     Y80.7725      R1.9685    
   X470.2817     Y81.1774      R1.9685    
   X469.8769     Y81.4880      R1.9685    
   X469.4054     Y81.6833      R1.9685    
   X468.8995     Y81.7499      R1.9685    
   X468.3936     Y81.6833      R1.9685    
   X467.9222     Y81.4880      R1.9685    
   X467.5173     Y81.1774      R1.9685    
   X467.2067     Y80.7725      R1.9685    
   X467.0114     Y80.3011      R1.9685    
   X466.9448     Y79.7952      R1.9685    
   X467.0114     Y79.2893      R1.9685    
   X467.2067     Y78.8178      R1.9685    
   X467.5173     Y78.4130      R1.9685    
   X467.9222     Y78.1024      R1.9685    
   X468.3936     Y77.9071      R1.9685    
   X468.8995     Y77.8405      R1.9685    
(Pass: 4)
G1   Z1.200      F200 
G17 G2   X469.4054     Y77.9071      R1.9685     F400 
   X469.8769     Y78.1024      R1.9685    
   X470.2817     Y78.4130      R1.9685    
   X470.5923     Y78.8178      R1.9685    
   X470.7876     Y79.2893      R1.9685    
   X470.8542     Y79.7952      R1.9685    
   X470.7876     Y80.3011      R1.9685    
   X470.5923     Y80.7725      R1.9685    
   X470.2817     Y81.1774      R1.9685    
   X469.8769     Y81.4880      R1.9685    
   X469.4054     Y81.6833      R1.9685    
   X468.8995     Y81.7499      R1.9685    
   X468.3936     Y81.6833      R1.9685    
   X467.9222     Y81.4880      R1.9685    
   X467.5173     Y81.1774      R1.9685    
   X467.2067     Y80.7725      R1.9685    
   X467.0114     Y80.3011      R1.9685    
   X466.9448     Y79.7952      R1.9685    
   X467.0114     Y79.2893      R1.9685    
   X467.2067     Y78.8178      R1.9685    
   X467.5173     Y78.4130      R1.9685    
   X467.9222     Y78.1024      R1.9685    
   X468.3936     Y77.9071      R1.9685    
   X468.8995     Y77.8405      R1.9685    
(Pass: 5)
G1   Z0.700      F200 
G17 G2   X469.4054     Y77.9071      R1.9685     F400 
   X469.8769     Y78.1024      R1.9685    
   X470.2817     Y78.4130      R1.9685    
   X470.5923     Y78.8178      R1.9685    
   X470.7876     Y79.2893      R1.9685    
   X470.8542     Y79.7952      R1.9685    
   X470.7876     Y80.3011      R1.9685    
   X470.5923     Y80.7725      R1.9685    
   X470.2817     Y81.1774      R1.9685    
   X469.8769     Y81.4880      R1.9685    
   X469.4054     Y81.6833      R1.9685    
   X468.8995     Y81.7499      R1.9685    
   X468.3936     Y81.6833      R1.9685    
   X467.9222     Y81.4880      R1.9685    
   X467.5173     Y81.1774      R1.9685    
   X467.2067     Y80.7725      R1.9685    
   X467.0114     Y80.3011      R1.9685    
   X466.9448     Y79.7952      R1.9685    
   X467.0114     Y79.2893      R1.9685    
   X467.2067     Y78.8178      R1.9685    
   X467.5173     Y78.4130      R1.9685    
   X467.9222     Y78.1024      R1.9685    
   X468.3936     Y77.9071      R1.9685    
   X468.8995     Y77.8405      R1.9685    
(Pass: 6)
G1   Z0.200      F200 
G17 G2   X469.4054     Y77.9071      R1.9685     F400 
   X469.8769     Y78.1024      R1.9685    
   X470.2817     Y78.4130      R1.9685    
   X470.5923     Y78.8178      R1.9685    
   X470.7876     Y79.2893      R1.9685    
   X470.8542     Y79.7952      R1.9685    
   X470.7876     Y80.3011      R1.9685    
   X470.5923     Y80.7725      R1.9685    
   X470.2817     Y81.1774      R1.9685    
   X469.8769     Y81.4880      R1.9685    
   X469.4054     Y81.6833      R1.9685    
   X468.8995     Y81.7499      R1.9685    
   X468.3936     Y81.6833      R1.9685    
   X467.9222     Y81.4880      R1.9685    
   X467.5173     Y81.1774      R1.9685    
   X467.2067     Y80.7725      R1.9685    
   X467.0114     Y80.3011      R1.9685    
   X466.9448     Y79.7952      R1.9685    
   X467.0114     Y79.2893      R1.9685    
   X467.2067     Y78.8178      R1.9685    
   X467.5173     Y78.4130      R1.9685    
   X467.9222     Y78.1024      R1.9685    
   X468.3936     Y77.9071      R1.9685    
   X468.8995     Y77.8405      R1.9685    
(Pass: 7)
G1   Z-0.300     F200 
G17 G2   X469.4054     Y77.9071      R1.9685     F400 
   X469.8769     Y78.1024      R1.9685    
   X470.2817     Y78.4130      R1.9685    
   X470.5923     Y78.8178      R1.9685    
   X470.7876     Y79.2893      R1.9685    
   X470.8542     Y79.7952      R1.9685    
   X470.7876     Y80.3011      R1.9685    
   X470.5923     Y80.7725      R1.9685    
   X470.2817     Y81.1774      R1.9685    
   X469.8769     Y81.4880      R1.9685    
   X469.4054     Y81.6833      R1.9685    
   X468.8995     Y81.7499      R1.9685    
   X468.3936     Y81.6833      R1.9685    
   X467.9222     Y81.4880      R1.9685    
   X467.5173     Y81.1774      R1.9685    
   X467.2067     Y80.7725      R1.9685    
   X467.0114     Y80.3011      R1.9685    
   X466.9448     Y79.7952      R1.9685    
   X467.0114     Y79.2893      R1.9685    
   X467.2067     Y78.8178      R1.9685    
   X467.5173     Y78.4130      R1.9685    
   X467.9222     Y78.1024      R1.9685    
   X468.3936     Y77.9071      R1.9685    
   X468.8995     Y77.8405      R1.9685    
(Pass: 8)
G1   Z-0.480     F200 
G17 G2   X469.4054     Y77.9071      R1.9685     F400 
   X469.8769     Y78.1024      R1.9685    
   X470.2817     Y78.4130      R1.9685    
   X470.5923     Y78.8178      R1.9685    
   X470.7876     Y79.2893      R1.9685    
   X470.8542     Y79.7952      R1.9685    
   X470.7876     Y80.3011      R1.9685    
   X470.5923     Y80.7725      R1.9685    
   X470.2817     Y81.1774      R1.9685    
   X469.8769     Y81.4880      R1.9685    
   X469.4054     Y81.6833      R1.9685    
   X468.8995     Y81.7499      R1.9685    
   X468.3936     Y81.6833      R1.9685    
   X467.9222     Y81.4880      R1.9685    
   X467.5173     Y81.1774      R1.9685    
   X467.2067     Y80.7725      R1.9685    
   X467.0114     Y80.3011      R1.9685    
   X466.9448     Y79.7952      R1.9685    
   X467.0114     Y79.2893      R1.9685    
   X467.2067     Y78.8178      R1.9685    
   X467.5173     Y78.4130      R1.9685    
   X467.9222     Y78.1024      R1.9685    
   X468.3936     Y77.9071      R1.9685    
   X468.8995     Y77.8405      R1.9685    
(BREAK pass 8)
G0   Z18.200    
(Pass: 1)
   X488.337      Y85.752    
G1   Z2.700      F200 
G17 G2   X488.4258     Y85.5386      R0.9000     F400 
   X488.5667     Y85.3551      R0.9000    
   X488.7502     Y85.2142      R0.9000    
   X488.9639     Y85.1257      R0.9000    
   X489.1933     Y85.0955      R0.9000    
   X489.4227     Y85.1257      R0.9000    
   X489.6364     Y85.2142      R0.9000    
   X489.8199     Y85.3551      R0.9000    
   X489.9608     Y85.5386      R0.9000    
   X490.0493     Y85.7523      R0.9000    
   X490.0795     Y85.9817      R0.9000    
   X490.0493     Y86.2111      R0.9000    
   X489.9608     Y86.4248      R0.9000    
   X489.8199     Y86.6083      R0.9000    
   X489.6364     Y86.7492      R0.9000    
   X489.4227     Y86.8377      R0.9000    
   X489.1933     Y86.8679      R0.9000    
   X488.9639     Y86.8377      R0.9000    
   X488.7502     Y86.7492      R0.9000    
   X488.5667     Y86.6083      R0.9000    
   X488.4258     Y86.4248      R0.9000    
   X488.3373     Y86.2111      R0.9000    
   X488.3071     Y85.9817      R0.9000    
   X488.3373     Y85.7523      R0.9000    
(Pass: 2)
G1   Z2.200      F200 
G17 G2   X488.4258     Y85.5386      R0.9000     F400 
   X488.5667     Y85.3551      R0.9000    
   X488.7502     Y85.2142      R0.9000    
   X488.9639     Y85.1257      R0.9000    
   X489.1933     Y85.0955      R0.9000    
   X489.4227     Y85.1257      R0.9000    
   X489.6364     Y85.2142      R0.9000    
   X489.8199     Y85.3551      R0.9000    
   X489.9608     Y85.5386      R0.9000    
   X490.0493     Y85.7523      R0.9000    
   X490.0795     Y85.9817      R0.9000    
   X490.0493     Y86.2111      R0.9000    
   X489.9608     Y86.4248      R0.9000    
   X489.8199     Y86.6083      R0.9000    
   X489.6364     Y86.7492      R0.9000    
   X489.4227     Y86.8377      R0.9000    
   X489.1933     Y86.8679      R0.9000    
   X488.9639     Y86.8377      R0.9000    
   X488.7502     Y86.7492      R0.9000    
   X488.5667     Y86.6083      R0.9000    
   X488.4258     Y86.4248      R0.9000    
   X488.3373     Y86.2111      R0.9000    
   X488.3071     Y85.9817      R0.9000    
   X488.3373     Y85.7523      R0.9000    
(Pass: 3)
G1   Z1.700      F200 
G17 G2   X488.4258     Y85.5386      R0.9000     F400 
   X488.5667     Y85.3551      R0.9000    
   X488.7502     Y85.2142      R0.9000    
   X488.9639     Y85.1257      R0.9000    
   X489.1933     Y85.0955      R0.9000    
   X489.4227     Y85.1257      R0.9000    
   X489.6364     Y85.2142      R0.9000    
   X489.8199     Y85.3551      R0.9000    
   X489.9608     Y85.5386      R0.9000    
   X490.0493     Y85.7523      R0.9000    
   X490.0795     Y85.9817      R0.9000    
   X490.0493     Y86.2111      R0.9000    
   X489.9608     Y86.4248      R0.9000    
   X489.8199     Y86.6083      R0.9000    
   X489.6364     Y86.7492      R0.9000    
   X489.4227     Y86.8377      R0.9000    
   X489.1933     Y86.8679      R0.9000    
   X488.9639     Y86.8377      R0.9000    
   X488.7502     Y86.7492      R0.9000    
   X488.5667     Y86.6083      R0.9000    
   X488.4258     Y86.4248      R0.9000    
   X488.3373     Y86.2111      R0.9000    
   X488.3071     Y85.9817      R0.9000    
   X488.3373     Y85.7523      R0.9000    
(Pass: 4)
G1   Z1.200      F200 
G17 G2   X488.4258     Y85.5386      R0.9000     F400 
   X488.5667     Y85.3551      R0.9000    
   X488.7502     Y85.2142      R0.9000    
   X488.9639     Y85.1257      R0.9000    
   X489.1933     Y85.0955      R0.9000    
   X489.4227     Y85.1257      R0.9000    
   X489.6364     Y85.2142      R0.9000    
   X489.8199     Y85.3551      R0.9000    
   X489.9608     Y85.5386      R0.9000    
   X490.0493     Y85.7523      R0.9000    
   X490.0795     Y85.9817      R0.9000    
   X490.0493     Y86.2111      R0.9000    
   X489.9608     Y86.4248      R0.9000    
   X489.8199     Y86.6083      R0.9000    
   X489.6364     Y86.7492      R0.9000    
   X489.4227     Y86.8377      R0.9000    
   X489.1933     Y86.8679      R0.9000    
   X488.9639     Y86.8377      R0.9000    
   X488.7502     Y86.7492      R0.9000    
   X488.5667     Y86.6083      R0.9000    
   X488.4258     Y86.4248      R0.9000    
   X488.3373     Y86.2111      R0.9000    
   X488.3071     Y85.9817      R0.9000    
   X488.3373     Y85.7523      R0.9000    
(Pass: 5)
G1   Z0.700      F200 
G17 G2   X488.4258     Y85.5386      R0.9000     F400 
   X488.5667     Y85.3551      R0.9000    
   X488.7502     Y85.2142      R0.9000    
   X488.9639     Y85.1257      R0.9000    
   X489.1933     Y85.0955      R0.9000    
   X489.4227     Y85.1257      R0.9000    
   X489.6364     Y85.2142      R0.9000    
   X489.8199     Y85.3551      R0.9000    
   X489.9608     Y85.5386      R0.9000    
   X490.0493     Y85.7523      R0.9000    
   X490.0795     Y85.9817      R0.9000    
   X490.0493     Y86.2111      R0.9000    
   X489.9608     Y86.4248      R0.9000    
   X489.8199     Y86.6083      R0.9000    
   X489.6364     Y86.7492      R0.9000    
   X489.4227     Y86.8377      R0.9000    
   X489.1933     Y86.8679      R0.9000    
   X488.9639     Y86.8377      R0.9000    
   X488.7502     Y86.7492      R0.9000    
   X488.5667     Y86.6083      R0.9000    
   X488.4258     Y86.4248      R0.9000    
   X488.3373     Y86.2111      R0.9000    
   X488.3071     Y85.9817      R0.9000    
   X488.3373     Y85.7523      R0.9000    
(Pass: 6)
G1   Z0.200      F200 
G17 G2   X488.4258     Y85.5386      R0.9000     F400 
   X488.5667     Y85.3551      R0.9000    
   X488.7502     Y85.2142      R0.9000    
   X488.9639     Y85.1257      R0.9000    
   X489.1933     Y85.0955      R0.9000    
   X489.4227     Y85.1257      R0.9000    
   X489.6364     Y85.2142      R0.9000    
   X489.8199     Y85.3551      R0.9000    
   X489.9608     Y85.5386      R0.9000    
   X490.0493     Y85.7523      R0.9000    
   X490.0795     Y85.9817      R0.9000    
   X490.0493     Y86.2111      R0.9000    
   X489.9608     Y86.4248      R0.9000    
   X489.8199     Y86.6083      R0.9000    
   X489.6364     Y86.7492      R0.9000    
   X489.4227     Y86.8377      R0.9000    
   X489.1933     Y86.8679      R0.9000    
   X488.9639     Y86.8377      R0.9000    
   X488.7502     Y86.7492      R0.9000    
   X488.5667     Y86.6083      R0.9000    
   X488.4258     Y86.4248      R0.9000    
   X488.3373     Y86.2111      R0.9000    
   X488.3071     Y85.9817      R0.9000    
   X488.3373     Y85.7523      R0.9000    
(Pass: 7)
G1   Z-0.300     F200 
G17 G2   X488.4258     Y85.5386      R0.9000     F400 
   X488.5667     Y85.3551      R0.9000    
   X488.7502     Y85.2142      R0.9000    
   X488.9639     Y85.1257      R0.9000    
   X489.1933     Y85.0955      R0.9000    
   X489.4227     Y85.1257      R0.9000    
   X489.6364     Y85.2142      R0.9000    
   X489.8199     Y85.3551      R0.9000    
   X489.9608     Y85.5386      R0.9000    
   X490.0493     Y85.7523      R0.9000    
   X490.0795     Y85.9817      R0.9000    
   X490.0493     Y86.2111      R0.9000    
   X489.9608     Y86.4248      R0.9000    
   X489.8199     Y86.6083      R0.9000    
   X489.6364     Y86.7492      R0.9000    
   X489.4227     Y86.8377      R0.9000    
   X489.1933     Y86.8679      R0.9000    
   X488.9639     Y86.8377      R0.9000    
   X488.7502     Y86.7492      R0.9000    
   X488.5667     Y86.6083      R0.9000    
   X488.4258     Y86.4248      R0.9000    
   X488.3373     Y86.2111      R0.9000    
   X488.3071     Y85.9817      R0.9000    
   X488.3373     Y85.7523      R0.9000    
(Pass: 8)
G1   Z-0.480     F200 
G17 G2   X488.4258     Y85.5386      R0.9000     F400 
   X488.5667     Y85.3551      R0.9000    
   X488.7502     Y85.2142      R0.9000    
   X488.9639     Y85.1257      R0.9000    
   X489.1933     Y85.0955      R0.9000    
   X489.4227     Y85.1257      R0.9000    
   X489.6364     Y85.2142      R0.9000    
   X489.8199     Y85.3551      R0.9000    
   X489.9608     Y85.5386      R0.9000    
   X490.0493     Y85.7523      R0.9000    
   X490.0795     Y85.9817      R0.9000    
   X490.0493     Y86.2111      R0.9000    
   X489.9608     Y86.4248      R0.9000    
   X489.8199     Y86.6083      R0.9000    
   X489.6364     Y86.7492      R0.9000    
   X489.4227     Y86.8377      R0.9000    
   X489.1933     Y86.8679      R0.9000    
   X488.9639     Y86.8377      R0.9000    
   X488.7502     Y86.7492      R0.9000    
   X488.5667     Y86.6083      R0.9000    
   X488.4258     Y86.4248      R0.9000    
   X488.3373     Y86.2111      R0.9000    
   X488.3071     Y85.9817      R0.9000    
   X488.3373     Y85.7523      R0.9000    
(BREAK pass 8)
G0   Z18.200    
(Pass: 1)
   X508.307      Y85.982    
G1   Z2.700      F200 
G17 G2   X508.3373     Y85.7523      R0.9000     F400 
   X508.4258     Y85.5386      R0.9000    
   X508.5667     Y85.3551      R0.9000    
   X508.7502     Y85.2142      R0.9000    
   X508.9639     Y85.1257      R0.9000    
   X509.1933     Y85.0955      R0.9000    
   X509.4227     Y85.1257      R0.9000    
   X509.6364     Y85.2142      R0.9000    
   X509.8199     Y85.3551      R0.9000    
   X509.9608     Y85.5386      R0.9000    
   X510.0493     Y85.7523      R0.9000    
   X510.0795     Y85.9817      R0.9000    
   X510.0493     Y86.2111      R0.9000    
   X509.9608     Y86.4248      R0.9000    
   X509.8199     Y86.6083      R0.9000    
   X509.6364     Y86.7492      R0.9000    
   X509.4227     Y86.8377      R0.9000    
   X509.1933     Y86.8679      R0.9000    
   X508.9639     Y86.8377      R0.9000    
   X508.7502     Y86.7492      R0.9000    
   X508.5667     Y86.6083      R0.9000    
   X508.4258     Y86.4248      R0.9000    
   X508.3373     Y86.2111      R0.9000    
   X508.3071     Y85.9817      R0.9000    
(Pass: 2)
G1   Z2.200      F200 
G17 G2   X508.3373     Y85.7523      R0.9000     F400 
   X508.4258     Y85.5386      R0.9000    
   X508.5667     Y85.3551      R0.9000    
   X508.7502     Y85.2142      R0.9000    
   X508.9639     Y85.1257      R0.9000    
   X509.1933     Y85.0955      R0.9000    
   X509.4227     Y85.1257      R0.9000    
   X509.6364     Y85.2142      R0.9000    
   X509.8199     Y85.3551      R0.9000    
   X509.9608     Y85.5386      R0.9000    
   X510.0493     Y85.7523      R0.9000    
   X510.0795     Y85.9817      R0.9000    
   X510.0493     Y86.2111      R0.9000    
   X509.9608     Y86.4248      R0.9000    
   X509.8199     Y86.6083      R0.9000    
   X509.6364     Y86.7492      R0.9000    
   X509.4227     Y86.8377      R0.9000    
   X509.1933     Y86.8679      R0.9000    
   X508.9639     Y86.8377      R0.9000    
   X508.7502     Y86.7492      R0.9000    
   X508.5667     Y86.6083      R0.9000    
   X508.4258     Y86.4248      R0.9000    
   X508.3373     Y86.2111      R0.9000    
   X508.3071     Y85.9817      R0.9000    
(Pass: 3)
G1   Z1.700      F200 
G17 G2   X508.3373     Y85.7523      R0.9000     F400 
   X508.4258     Y85.5386      R0.9000    
   X508.5667     Y85.3551      R0.9000    
   X508.7502     Y85.2142      R0.9000    
   X508.9639     Y85.1257      R0.9000    
   X509.1933     Y85.0955      R0.9000    
   X509.4227     Y85.1257      R0.9000    
   X509.6364     Y85.2142      R0.9000    
   X509.8199     Y85.3551      R0.9000    
   X509.9608     Y85.5386      R0.9000    
   X510.0493     Y85.7523      R0.9000    
   X510.0795     Y85.9817      R0.9000    
   X510.0493     Y86.2111      R0.9000    
   X509.9608     Y86.4248      R0.9000    
   X509.8199     Y86.6083      R0.9000    
   X509.6364     Y86.7492      R0.9000    
   X509.4227     Y86.8377      R0.9000    
   X509.1933     Y86.8679      R0.9000    
   X508.9639     Y86.8377      R0.9000    
   X508.7502     Y86.7492      R0.9000    
   X508.5667     Y86.6083      R0.9000    
   X508.4258     Y86.4248      R0.9000    
   X508.3373     Y86.2111      R0.9000    
   X508.3071     Y85.9817      R0.9000    
(Pass: 4)
G1   Z1.200      F200 
G17 G2   X508.3373     Y85.7523      R0.9000     F400 
   X508.4258     Y85.5386      R0.9000    
   X508.5667     Y85.3551      R0.9000    
   X508.7502     Y85.2142      R0.9000    
   X508.9639     Y85.1257      R0.9000    
   X509.1933     Y85.0955      R0.9000    
   X509.4227     Y85.1257      R0.9000    
   X509.6364     Y85.2142      R0.9000    
   X509.8199     Y85.3551      R0.9000    
   X509.9608     Y85.5386      R0.9000    
   X510.0493     Y85.7523      R0.9000    
   X510.0795     Y85.9817      R0.9000    
   X510.0493     Y86.2111      R0.9000    
   X509.9608     Y86.4248      R0.9000    
   X509.8199     Y86.6083      R0.9000    
   X509.6364     Y86.7492      R0.9000    
   X509.4227     Y86.8377      R0.9000    
   X509.1933     Y86.8679      R0.9000    
   X508.9639     Y86.8377      R0.9000    
   X508.7502     Y86.7492      R0.9000    
   X508.5667     Y86.6083      R0.9000    
   X508.4258     Y86.4248      R0.9000    
   X508.3373     Y86.2111      R0.9000    
   X508.3071     Y85.9817      R0.9000    
(Pass: 5)
G1   Z0.700      F200 
G17 G2   X508.3373     Y85.7523      R0.9000     F400 
   X508.4258     Y85.5386      R0.9000    
   X508.5667     Y85.3551      R0.9000    
   X508.7502     Y85.2142      R0.9000    
   X508.9639     Y85.1257      R0.9000    
   X509.1933     Y85.0955      R0.9000    
   X509.4227     Y85.1257      R0.9000    
   X509.6364     Y85.2142      R0.9000    
   X509.8199     Y85.3551      R0.9000    
   X509.9608     Y85.5386      R0.9000    
   X510.0493     Y85.7523      R0.9000    
   X510.0795     Y85.9817      R0.9000    
   X510.0493     Y86.2111      R0.9000    
   X509.9608     Y86.4248      R0.9000    
   X509.8199     Y86.6083      R0.9000    
   X509.6364     Y86.7492      R0.9000    
   X509.4227     Y86.8377      R0.9000    
   X509.1933     Y86.8679      R0.9000    
   X508.9639     Y86.8377      R0.9000    
   X508.7502     Y86.7492      R0.9000    
   X508.5667     Y86.6083      R0.9000    
   X508.4258     Y86.4248      R0.9000    
   X508.3373     Y86.2111      R0.9000    
   X508.3071     Y85.9817      R0.9000    
(Pass: 6)
G1   Z0.200      F200 
G17 G2   X508.3373     Y85.7523      R0.9000     F400 
   X508.4258     Y85.5386      R0.9000    
   X508.5667     Y85.3551      R0.9000    
   X508.7502     Y85.2142      R0.9000    
   X508.9639     Y85.1257      R0.9000    
   X509.1933     Y85.0955      R0.9000    
   X509.4227     Y85.1257      R0.9000    
   X509.6364     Y85.2142      R0.9000    
   X509.8199     Y85.3551      R0.9000    
   X509.9608     Y85.5386      R0.9000    
   X510.0493     Y85.7523      R0.9000    
   X510.0795     Y85.9817      R0.9000    
   X510.0493     Y86.2111      R0.9000    
   X509.9608     Y86.4248      R0.9000    
   X509.8199     Y86.6083      R0.9000    
   X509.6364     Y86.7492      R0.9000    
   X509.4227     Y86.8377      R0.9000    
   X509.1933     Y86.8679      R0.9000    
   X508.9639     Y86.8377      R0.9000    
   X508.7502     Y86.7492      R0.9000    
   X508.5667     Y86.6083      R0.9000    
   X508.4258     Y86.4248      R0.9000    
   X508.3373     Y86.2111      R0.9000    
   X508.3071     Y85.9817      R0.9000    
(Pass: 7)
G1   Z-0.300     F200 
G17 G2   X508.3373     Y85.7523      R0.9000     F400 
   X508.4258     Y85.5386      R0.9000    
   X508.5667     Y85.3551      R0.9000    
   X508.7502     Y85.2142      R0.9000    
   X508.9639     Y85.1257      R0.9000    
   X509.1933     Y85.0955      R0.9000    
   X509.4227     Y85.1257      R0.9000    
   X509.6364     Y85.2142      R0.9000    
   X509.8199     Y85.3551      R0.9000    
   X509.9608     Y85.5386      R0.9000    
   X510.0493     Y85.7523      R0.9000    
   X510.0795     Y85.9817      R0.9000    
   X510.0493     Y86.2111      R0.9000    
   X509.9608     Y86.4248      R0.9000    
   X509.8199     Y86.6083      R0.9000    
   X509.6364     Y86.7492      R0.9000    
   X509.4227     Y86.8377      R0.9000    
   X509.1933     Y86.8679      R0.9000    
   X508.9639     Y86.8377      R0.9000    
   X508.7502     Y86.7492      R0.9000    
   X508.5667     Y86.6083      R0.9000    
   X508.4258     Y86.4248      R0.9000    
   X508.3373     Y86.2111      R0.9000    
   X508.3071     Y85.9817      R0.9000    
(Pass: 8)
G1   Z-0.480     F200 
G17 G2   X508.3373     Y85.7523      R0.9000     F400 
   X508.4258     Y85.5386      R0.9000    
   X508.5667     Y85.3551      R0.9000    
   X508.7502     Y85.2142      R0.9000    
   X508.9639     Y85.1257      R0.9000    
   X509.1933     Y85.0955      R0.9000    
   X509.4227     Y85.1257      R0.9000    
   X509.6364     Y85.2142      R0.9000    
   X509.8199     Y85.3551      R0.9000    
   X509.9608     Y85.5386      R0.9000    
   X510.0493     Y85.7523      R0.9000    
   X510.0795     Y85.9817      R0.9000    
   X510.0493     Y86.2111      R0.9000    
   X509.9608     Y86.4248      R0.9000    
   X509.8199     Y86.6083      R0.9000    
   X509.6364     Y86.7492      R0.9000    
   X509.4227     Y86.8377      R0.9000    
   X509.1933     Y86.8679      R0.9000    
   X508.9639     Y86.8377      R0.9000    
   X508.7502     Y86.7492      R0.9000    
   X508.5667     Y86.6083      R0.9000    
   X508.4258     Y86.4248      R0.9000    
   X508.3373     Y86.2111      R0.9000    
   X508.3071     Y85.9817      R0.9000    
(BREAK pass 8)
G0   Z18.200    
(Pass: 1)
   X528.531      Y80.025    
G1   Z2.700      F200 
G17 G2   X528.5003     Y79.7952      R0.9000     F400 
   X528.5305     Y79.5658      R0.9000    
   X528.6190     Y79.3521      R0.9000    
   X528.7599     Y79.1686      R0.9000    
   X528.9434     Y79.0277      R0.9000    
   X529.1571     Y78.9392      R0.9000    
   X529.3865     Y78.9090      R0.9000    
   X529.6159     Y78.9392      R0.9000    
   X529.8296     Y79.0277      R0.9000    
   X530.0131     Y79.1686      R0.9000    
   X530.1540     Y79.3521      R0.9000    
   X530.2425     Y79.5658      R0.9000    
   X530.2727     Y79.7952      R0.9000    
   X530.2425     Y80.0245      R0.9000    
   X530.1540     Y80.2383      R0.9000    
   X530.0131     Y80.4218      R0.9000    
   X529.8296     Y80.5626      R0.9000    
   X529.6159     Y80.6512      R0.9000    
   X529.3865     Y80.6814      R0.9000    
   X529.1571     Y80.6512      R0.9000    
   X528.9434     Y80.5626      R0.9000    
   X528.7599     Y80.4218      R0.9000    
   X528.6190     Y80.2383      R0.9000    
   X528.5305     Y80.0245      R0.9000    
(Pass: 2)
G1   Z2.200      F200 
G17 G2   X528.5003     Y79.7952      R0.9000     F400 
   X528.5305     Y79.5658      R0.9000    
   X528.6190     Y79.3521      R0.9000    
   X528.7599     Y79.1686      R0.9000    
   X528.9434     Y79.0277      R0.9000    
   X529.1571     Y78.9392      R0.9000    
   X529.3865     Y78.9090      R0.9000    
   X529.6159     Y78.9392      R0.9000    
   X529.8296     Y79.0277      R0.9000    
   X530.0131     Y79.1686      R0.9000    
   X530.1540     Y79.3521      R0.9000    
   X530.2425     Y79.5658      R0.9000    
   X530.2727     Y79.7952      R0.9000    
   X530.2425     Y80.0245      R0.9000    
   X530.1540     Y80.2383      R0.9000    
   X530.0131     Y80.4218      R0.9000    
   X529.8296     Y80.5626      R0.9000    
   X529.6159     Y80.6512      R0.9000    
   X529.3865     Y80.6814      R0.9000    
   X529.1571     Y80.6512      R0.9000    
   X528.9434     Y80.5626      R0.9000    
   X528.7599     Y80.4218      R0.9000    
   X528.6190     Y80.2383      R0.9000    
   X528.5305     Y80.0245      R0.9000    
(Pass: 3)
G1   Z1.700      F200 
G17 G2   X528.5003     Y79.7952      R0.9000     F400 
   X528.5305     Y79.5658      R0.9000    
   X528.6190     Y79.3521      R0.9000    
   X528.7599     Y79.1686      R0.9000    
   X528.9434     Y79.0277      R0.9000    
   X529.1571     Y78.9392      R0.9000    
   X529.3865     Y78.9090      R0.9000    
   X529.6159     Y78.9392      R0.9000    
   X529.8296     Y79.0277      R0.9000    
   X530.0131     Y79.1686      R0.9000    
   X530.1540     Y79.3521      R0.9000    
   X530.2425     Y79.5658      R0.9000    
   X530.2727     Y79.7952      R0.9000    
   X530.2425     Y80.0245      R0.9000    
   X530.1540     Y80.2383      R0.9000    
   X530.0131     Y80.4218      R0.9000    
   X529.8296     Y80.5626      R0.9000    
   X529.6159     Y80.6512      R0.9000    
   X529.3865     Y80.6814      R0.9000    
   X529.1571     Y80.6512      R0.9000    
   X528.9434     Y80.5626      R0.9000    
   X528.7599     Y80.4218      R0.9000    
   X528.6190     Y80.2383      R0.9000    
   X528.5305     Y80.0245      R0.9000    
(Pass: 4)
G1   Z1.200      F200 
G17 G2   X528.5003     Y79.7952      R0.9000     F400 
   X528.5305     Y79.5658      R0.9000    
   X528.6190     Y79.3521      R0.9000    
   X528.7599     Y79.1686      R0.9000    
   X528.9434     Y79.0277      R0.9000    
   X529.1571     Y78.9392      R0.9000    
   X529.3865     Y78.9090      R0.9000    
   X529.6159     Y78.9392      R0.9000    
   X529.8296     Y79.0277      R0.9000    
   X530.0131     Y79.1686      R0.9000    
   X530.1540     Y79.3521      R0.9000    
   X530.2425     Y79.5658      R0.9000    
   X530.2727     Y79.7952      R0.9000    
   X530.2425     Y80.0245      R0.9000    
   X530.1540     Y80.2383      R0.9000    
   X530.0131     Y80.4218      R0.9000    
   X529.8296     Y80.5626      R0.9000    
   X529.6159     Y80.6512      R0.9000    
   X529.3865     Y80.6814      R0.9000    
   X529.1571     Y80.6512      R0.9000    
   X528.9434     Y80.5626      R0.9000    
   X528.7599     Y80.4218      R0.9000    
   X528.6190     Y80.2383      R0.9000    
   X528.5305     Y80.0245      R0.9000    
(Pass: 5)
G1   Z0.700      F200 
G17 G2   X528.5003     Y79.7952      R0.9000     F400 
   X528.5305     Y79.5658      R0.9000    
   X528.6190     Y79.3521      R0.9000    
   X528.7599     Y79.1686      R0.9000    
   X528.9434     Y79.0277      R0.9000    
   X529.1571     Y78.9392      R0.9000    
   X529.3865     Y78.9090      R0.9000    
   X529.6159     Y78.9392      R0.9000    
   X529.8296     Y79.0277      R0.9000    
   X530.0131     Y79.1686      R0.9000    
   X530.1540     Y79.3521      R0.9000    
   X530.2425     Y79.5658      R0.9000    
   X530.2727     Y79.7952      R0.9000    
   X530.2425     Y80.0245      R0.9000    
   X530.1540     Y80.2383      R0.9000    
   X530.0131     Y80.4218      R0.9000    
   X529.8296     Y80.5626      R0.9000    
   X529.6159     Y80.6512      R0.9000    
   X529.3865     Y80.6814      R0.9000    
   X529.1571     Y80.6512      R0.9000    
   X528.9434     Y80.5626      R0.9000    
   X528.7599     Y80.4218      R0.9000    
   X528.6190     Y80.2383      R0.9000    
   X528.5305     Y80.0245      R0.9000    
(Pass: 6)
G1   Z0.200      F200 
G17 G2   X528.5003     Y79.7952      R0.9000     F400 
   X528.5305     Y79.5658      R0.9000    
   X528.6190     Y79.3521      R0.9000    
   X528.7599     Y79.1686      R0.9000    
   X528.9434     Y79.0277      R0.9000    
   X529.1571     Y78.9392      R0.9000    
   X529.3865     Y78.9090      R0.9000    
   X529.6159     Y78.9392      R0.9000    
   X529.8296     Y79.0277      R0.9000    
   X530.0131     Y79.1686      R0.9000    
   X530.1540     Y79.3521      R0.9000    
   X530.2425     Y79.5658      R0.9000    
   X530.2727     Y79.7952      R0.9000    
   X530.2425     Y80.0245      R0.9000    
   X530.1540     Y80.2383      R0.9000    
   X530.0131     Y80.4218      R0.9000    
   X529.8296     Y80.5626      R0.9000    
   X529.6159     Y80.6512      R0.9000    
   X529.3865     Y80.6814      R0.9000    
   X529.1571     Y80.6512      R0.9000    
   X528.9434     Y80.5626      R0.9000    
   X528.7599     Y80.4218      R0.9000    
   X528.6190     Y80.2383      R0.9000    
   X528.5305     Y80.0245      R0.9000    
(Pass: 7)
G1   Z-0.300     F200 
G17 G2   X528.5003     Y79.7952      R0.9000     F400 
   X528.5305     Y79.5658      R0.9000    
   X528.6190     Y79.3521      R0.9000    
   X528.7599     Y79.1686      R0.9000    
   X528.9434     Y79.0277      R0.9000    
   X529.1571     Y78.9392      R0.9000    
   X529.3865     Y78.9090      R0.9000    
   X529.6159     Y78.9392      R0.9000    
   X529.8296     Y79.0277      R0.9000    
   X530.0131     Y79.1686      R0.9000    
   X530.1540     Y79.3521      R0.9000    
   X530.2425     Y79.5658      R0.9000    
   X530.2727     Y79.7952      R0.9000    
   X530.2425     Y80.0245      R0.9000    
   X530.1540     Y80.2383      R0.9000    
   X530.0131     Y80.4218      R0.9000    
   X529.8296     Y80.5626      R0.9000    
   X529.6159     Y80.6512      R0.9000    
   X529.3865     Y80.6814      R0.9000    
   X529.1571     Y80.6512      R0.9000    
   X528.9434     Y80.5626      R0.9000    
   X528.7599     Y80.4218      R0.9000    
   X528.6190     Y80.2383      R0.9000    
   X528.5305     Y80.0245      R0.9000    
(Pass: 8)
G1   Z-0.480     F200 
G17 G2   X528.5003     Y79.7952      R0.9000     F400 
   X528.5305     Y79.5658      R0.9000    
   X528.6190     Y79.3521      R0.9000    
   X528.7599     Y79.1686      R0.9000    
   X528.9434     Y79.0277      R0.9000    
   X529.1571     Y78.9392      R0.9000    
   X529.3865     Y78.9090      R0.9000    
   X529.6159     Y78.9392      R0.9000    
   X529.8296     Y79.0277      R0.9000    
   X530.0131     Y79.1686      R0.9000    
   X530.1540     Y79.3521      R0.9000    
   X530.2425     Y79.5658      R0.9000    
   X530.2727     Y79.7952      R0.9000    
   X530.2425     Y80.0245      R0.9000    
   X530.1540     Y80.2383      R0.9000    
   X530.0131     Y80.4218      R0.9000    
   X529.8296     Y80.5626      R0.9000    
   X529.6159     Y80.6512      R0.9000    
   X529.3865     Y80.6814      R0.9000    
   X529.1571     Y80.6512      R0.9000    
   X528.9434     Y80.5626      R0.9000    
   X528.7599     Y80.4218      R0.9000    
   X528.6190     Y80.2383      R0.9000    
   X528.5305     Y80.0245      R0.9000    
(BREAK pass 8)
G0   Z18.200    
(Pass: 1)
   X529.400      Y70.681    
G1   Z2.700      F200 
G17 G2   X529.1702     Y70.6512      R0.9000     F400 
   X528.9564     Y70.5626      R0.9000    
   X528.7729     Y70.4218      R0.9000    
   X528.6321     Y70.2383      R0.9000    
   X528.5435     Y70.0245      R0.9000    
   X528.5133     Y69.7952      R0.9000    
   X528.5435     Y69.5658      R0.9000    
   X528.6321     Y69.3521      R0.9000    
   X528.7729     Y69.1686      R0.9000    
   X528.9564     Y69.0277      R0.9000    
   X529.1702     Y68.9392      R0.9000    
   X529.3995     Y68.9090      R0.9000    
   X529.6289     Y68.9392      R0.9000    
   X529.8426     Y69.0277      R0.9000    
   X530.0262     Y69.1686      R0.9000    
   X530.1670     Y69.3521      R0.9000    
   X530.2555     Y69.5658      R0.9000    
   X530.2857     Y69.7952      R0.9000    
   X530.2555     Y70.0245      R0.9000    
   X530.1670     Y70.2383      R0.9000    
   X530.0262     Y70.4218      R0.9000    
   X529.8426     Y70.5626      R0.9000    
   X529.6289     Y70.6512      R0.9000    
   X529.3995     Y70.6814      R0.9000    
(Pass: 2)
G1   Z2.200      F200 
G17 G2   X529.1702     Y70.6512      R0.9000     F400 
   X528.9564     Y70.5626      R0.9000    
   X528.7729     Y70.4218      R0.9000    
   X528.6321     Y70.2383      R0.9000    
   X528.5435     Y70.0245      R0.9000    
   X528.5133     Y69.7952      R0.9000    
   X528.5435     Y69.5658      R0.9000    
   X528.6321     Y69.3521      R0.9000    
   X528.7729     Y69.1686      R0.9000    
   X528.9564     Y69.0277      R0.9000    
   X529.1702     Y68.9392      R0.9000    
   X529.3995     Y68.9090      R0.9000    
   X529.6289     Y68.9392      R0.9000    
   X529.8426     Y69.0277      R0.9000    
   X530.0262     Y69.1686      R0.9000    
   X530.1670     Y69.3521      R0.9000    
   X530.2555     Y69.5658      R0.9000    
   X530.2857     Y69.7952      R0.9000    
   X530.2555     Y70.0245      R0.9000    
   X530.1670     Y70.2383      R0.9000    
   X530.0262     Y70.4218      R0.9000    
   X529.8426     Y70.5626      R0.9000    
   X529.6289     Y70.6512      R0.9000    
   X529.3995     Y70.6814      R0.9000    
(Pass: 3)
G1   Z1.700      F200 
G17 G2   X529.1702     Y70.6512      R0.9000     F400 
   X528.9564     Y70.5626      R0.9000    
   X528.7729     Y70.4218      R0.9000    
   X528.6321     Y70.2383      R0.9000    
   X528.5435     Y70.0245      R0.9000    
   X528.5133     Y69.7952      R0.9000    
   X528.5435     Y69.5658      R0.9000    
   X528.6321     Y69.3521      R0.9000    
   X528.7729     Y69.1686      R0.9000    
   X528.9564     Y69.0277      R0.9000    
   X529.1702     Y68.9392      R0.9000    
   X529.3995     Y68.9090      R0.9000    
   X529.6289     Y68.9392      R0.9000    
   X529.8426     Y69.0277      R0.9000    
   X530.0262     Y69.1686      R0.9000    
   X530.1670     Y69.3521      R0.9000    
   X530.2555     Y69.5658      R0.9000    
   X530.2857     Y69.7952      R0.9000    
   X530.2555     Y70.0245      R0.9000    
   X530.1670     Y70.2383      R0.9000    
   X530.0262     Y70.4218      R0.9000    
   X529.8426     Y70.5626      R0.9000    
   X529.6289     Y70.6512      R0.9000    
   X529.3995     Y70.6814      R0.9000    
(Pass: 4)
G1   Z1.200      F200 
G17 G2   X529.1702     Y70.6512      R0.9000     F400 
   X528.9564     Y70.5626      R0.9000    
   X528.7729     Y70.4218      R0.9000    
   X528.6321     Y70.2383      R0.9000    
   X528.5435     Y70.0245      R0.9000    
   X528.5133     Y69.7952      R0.9000    
   X528.5435     Y69.5658      R0.9000    
   X528.6321     Y69.3521      R0.9000    
   X528.7729     Y69.1686      R0.9000    
   X528.9564     Y69.0277      R0.9000    
   X529.1702     Y68.9392      R0.9000    
   X529.3995     Y68.9090      R0.9000    
   X529.6289     Y68.9392      R0.9000    
   X529.8426     Y69.0277      R0.9000    
   X530.0262     Y69.1686      R0.9000    
   X530.1670     Y69.3521      R0.9000    
   X530.2555     Y69.5658      R0.9000    
   X530.2857     Y69.7952      R0.9000    
   X530.2555     Y70.0245      R0.9000    
   X530.1670     Y70.2383      R0.9000    
   X530.0262     Y70.4218      R0.9000    
   X529.8426     Y70.5626      R0.9000    
   X529.6289     Y70.6512      R0.9000    
   X529.3995     Y70.6814      R0.9000    
(Pass: 5)
G1   Z0.700      F200 
G17 G2   X529.1702     Y70.6512      R0.9000     F400 
   X528.9564     Y70.5626      R0.9000    
   X528.7729     Y70.4218      R0.9000    
   X528.6321     Y70.2383      R0.9000    
   X528.5435     Y70.0245      R0.9000    
   X528.5133     Y69.7952      R0.9000    
   X528.5435     Y69.5658      R0.9000    
   X528.6321     Y69.3521      R0.9000    
   X528.7729     Y69.1686      R0.9000    
   X528.9564     Y69.0277      R0.9000    
   X529.1702     Y68.9392      R0.9000    
   X529.3995     Y68.9090      R0.9000    
   X529.6289     Y68.9392      R0.9000    
   X529.8426     Y69.0277      R0.9000    
   X530.0262     Y69.1686      R0.9000    
   X530.1670     Y69.3521      R0.9000    
   X530.2555     Y69.5658      R0.9000    
   X530.2857     Y69.7952      R0.9000    
   X530.2555     Y70.0245      R0.9000    
   X530.1670     Y70.2383      R0.9000    
   X530.0262     Y70.4218      R0.9000    
   X529.8426     Y70.5626      R0.9000    
   X529.6289     Y70.6512      R0.9000    
   X529.3995     Y70.6814      R0.9000    
(Pass: 6)
G1   Z0.200      F200 
G17 G2   X529.1702     Y70.6512      R0.9000     F400 
   X528.9564     Y70.5626      R0.9000    
   X528.7729     Y70.4218      R0.9000    
   X528.6321     Y70.2383      R0.9000    
   X528.5435     Y70.0245      R0.9000    
   X528.5133     Y69.7952      R0.9000    
   X528.5435     Y69.5658      R0.9000    
   X528.6321     Y69.3521      R0.9000    
   X528.7729     Y69.1686      R0.9000    
   X528.9564     Y69.0277      R0.9000    
   X529.1702     Y68.9392      R0.9000    
   X529.3995     Y68.9090      R0.9000    
   X529.6289     Y68.9392      R0.9000    
   X529.8426     Y69.0277      R0.9000    
   X530.0262     Y69.1686      R0.9000    
   X530.1670     Y69.3521      R0.9000    
   X530.2555     Y69.5658      R0.9000    
   X530.2857     Y69.7952      R0.9000    
   X530.2555     Y70.0245      R0.9000    
   X530.1670     Y70.2383      R0.9000    
   X530.0262     Y70.4218      R0.9000    
   X529.8426     Y70.5626      R0.9000    
   X529.6289     Y70.6512      R0.9000    
   X529.3995     Y70.6814      R0.9000    
(Pass: 7)
G1   Z-0.300     F200 
G17 G2   X529.1702     Y70.6512      R0.9000     F400 
   X528.9564     Y70.5626      R0.9000    
   X528.7729     Y70.4218      R0.9000    
   X528.6321     Y70.2383      R0.9000    
   X528.5435     Y70.0245      R0.9000    
   X528.5133     Y69.7952      R0.9000    
   X528.5435     Y69.5658      R0.9000    
   X528.6321     Y69.3521      R0.9000    
   X528.7729     Y69.1686      R0.9000    
   X528.9564     Y69.0277      R0.9000    
   X529.1702     Y68.9392      R0.9000    
   X529.3995     Y68.9090      R0.9000    
   X529.6289     Y68.9392      R0.9000    
   X529.8426     Y69.0277      R0.9000    
   X530.0262     Y69.1686      R0.9000    
   X530.1670     Y69.3521      R0.9000    
   X530.2555     Y69.5658      R0.9000    
   X530.2857     Y69.7952      R0.9000    
   X530.2555     Y70.0245      R0.9000    
   X530.1670     Y70.2383      R0.9000    
   X530.0262     Y70.4218      R0.9000    
   X529.8426     Y70.5626      R0.9000    
   X529.6289     Y70.6512      R0.9000    
   X529.3995     Y70.6814      R0.9000    
(Pass: 8)
G1   Z-0.480     F200 
G17 G2   X529.1702     Y70.6512      R0.9000     F400 
   X528.9564     Y70.5626      R0.9000    
   X528.7729     Y70.4218      R0.9000    
   X528.6321     Y70.2383      R0.9000    
   X528.5435     Y70.0245      R0.9000    
   X528.5133     Y69.7952      R0.9000    
   X528.5435     Y69.5658      R0.9000    
   X528.6321     Y69.3521      R0.9000    
   X528.7729     Y69.1686      R0.9000    
   X528.9564     Y69.0277      R0.9000    
   X529.1702     Y68.9392      R0.9000    
   X529.3995     Y68.9090      R0.9000    
   X529.6289     Y68.9392      R0.9000    
   X529.8426     Y69.0277      R0.9000    
   X530.0262     Y69.1686      R0.9000    
   X530.1670     Y69.3521      R0.9000    
   X530.2555     Y69.5658      R0.9000    
   X530.2857     Y69.7952      R0.9000    
   X530.2555     Y70.0245      R0.9000    
   X530.1670     Y70.2383      R0.9000    
   X530.0262     Y70.4218      R0.9000    
   X529.8426     Y70.5626      R0.9000    
   X529.6289     Y70.6512      R0.9000    
   X529.3995     Y70.6814      R0.9000    
(BREAK pass 8)
G0   Z18.200    
(Pass: 1)
   Y50.681    
G1   Z2.700      F200 
G17 G2   X529.1571     Y50.6512      R0.9000     F400 
   X528.9434     Y50.5626      R0.9000    
   X528.7599     Y50.4218      R0.9000    
   X528.6190     Y50.2383      R0.9000    
   X528.5305     Y50.0245      R0.9000    
   X528.5003     Y49.7952      R0.9000    
   X528.5305     Y49.5658      R0.9000    
   X528.6190     Y49.3521      R0.9000    
   X528.7599     Y49.1686      R0.9000    
   X528.9434     Y49.0277      R0.9000    
   X529.1571     Y48.9392      R0.9000    
   X529.3865     Y48.9090      R0.9000    
   X529.6159     Y48.9392      R0.9000    
   X529.8296     Y49.0277      R0.9000    
   X530.0131     Y49.1686      R0.9000    
   X530.1540     Y49.3521      R0.9000    
   X530.2425     Y49.5658      R0.9000    
   X530.2727     Y49.7952      R0.9000    
   X530.2425     Y50.0245      R0.9000    
   X530.1540     Y50.2383      R0.9000    
   X530.0131     Y50.4218      R0.9000    
   X529.8296     Y50.5626      R0.9000    
   X529.6159     Y50.6512      R0.9000    
   X529.3865     Y50.6814      R0.9000    
(Pass: 2)
G1   Z2.200      F200 
G17 G2   X529.1571     Y50.6512      R0.9000     F400 
   X528.9434     Y50.5626      R0.9000    
   X528.7599     Y50.4218      R0.9000    
   X528.6190     Y50.2383      R0.9000    
   X528.5305     Y50.0245      R0.9000    
   X528.5003     Y49.7952      R0.9000    
   X528.5305     Y49.5658      R0.9000    
   X528.6190     Y49.3521      R0.9000    
   X528.7599     Y49.1686      R0.9000    
   X528.9434     Y49.0277      R0.9000    
   X529.1571     Y48.9392      R0.9000    
   X529.3865     Y48.9090      R0.9000    
   X529.6159     Y48.9392      R0.9000    
   X529.8296     Y49.0277      R0.9000    
   X530.0131     Y49.1686      R0.9000    
   X530.1540     Y49.3521      R0.9000    
   X530.2425     Y49.5658      R0.9000    
   X530.2727     Y49.7952      R0.9000    
   X530.2425     Y50.0245      R0.9000    
   X530.1540     Y50.2383      R0.9000    
   X530.0131     Y50.4218      R0.9000    
   X529.8296     Y50.5626      R0.9000    
   X529.6159     Y50.6512      R0.9000    
   X529.3865     Y50.6814      R0.9000    
(Pass: 3)
G1   Z1.700      F200 
G17 G2   X529.1571     Y50.6512      R0.9000     F400 
   X528.9434     Y50.5626      R0.9000    
   X528.7599     Y50.4218      R0.9000    
   X528.6190     Y50.2383      R0.9000    
   X528.5305     Y50.0245      R0.9000    
   X528.5003     Y49.7952      R0.9000    
   X528.5305     Y49.5658      R0.9000    
   X528.6190     Y49.3521      R0.9000    
   X528.7599     Y49.1686      R0.9000    
   X528.9434     Y49.0277      R0.9000    
   X529.1571     Y48.9392      R0.9000    
   X529.3865     Y48.9090      R0.9000    
   X529.6159     Y48.9392      R0.9000    
   X529.8296     Y49.0277      R0.9000    
   X530.0131     Y49.1686      R0.9000    
   X530.1540     Y49.3521      R0.9000    
   X530.2425     Y49.5658      R0.9000    
   X530.2727     Y49.7952      R0.9000    
   X530.2425     Y50.0245      R0.9000    
   X530.1540     Y50.2383      R0.9000    
   X530.0131     Y50.4218      R0.9000    
   X529.8296     Y50.5626      R0.9000    
   X529.6159     Y50.6512      R0.9000    
   X529.3865     Y50.6814      R0.9000    
(Pass: 4)
G1   Z1.200      F200 
G17 G2   X529.1571     Y50.6512      R0.9000     F400 
   X528.9434     Y50.5626      R0.9000    
   X528.7599     Y50.4218      R0.9000    
   X528.6190     Y50.2383      R0.9000    
   X528.5305     Y50.0245      R0.9000    
   X528.5003     Y49.7952      R0.9000    
   X528.5305     Y49.5658      R0.9000    
   X528.6190     Y49.3521      R0.9000    
   X528.7599     Y49.1686      R0.9000    
   X528.9434     Y49.0277      R0.9000    
   X529.1571     Y48.9392      R0.9000    
   X529.3865     Y48.9090      R0.9000    
   X529.6159     Y48.9392      R0.9000    
   X529.8296     Y49.0277      R0.9000    
   X530.0131     Y49.1686      R0.9000    
   X530.1540     Y49.3521      R0.9000    
   X530.2425     Y49.5658      R0.9000    
   X530.2727     Y49.7952      R0.9000    
   X530.2425     Y50.0245      R0.9000    
   X530.1540     Y50.2383      R0.9000    
   X530.0131     Y50.4218      R0.9000    
   X529.8296     Y50.5626      R0.9000    
   X529.6159     Y50.6512      R0.9000    
   X529.3865     Y50.6814      R0.9000    
(Pass: 5)
G1   Z0.700      F200 
G17 G2   X529.1571     Y50.6512      R0.9000     F400 
   X528.9434     Y50.5626      R0.9000    
   X528.7599     Y50.4218      R0.9000    
   X528.6190     Y50.2383      R0.9000    
   X528.5305     Y50.0245      R0.9000    
   X528.5003     Y49.7952      R0.9000    
   X528.5305     Y49.5658      R0.9000    
   X528.6190     Y49.3521      R0.9000    
   X528.7599     Y49.1686      R0.9000    
   X528.9434     Y49.0277      R0.9000    
   X529.1571     Y48.9392      R0.9000    
   X529.3865     Y48.9090      R0.9000    
   X529.6159     Y48.9392      R0.9000    
   X529.8296     Y49.0277      R0.9000    
   X530.0131     Y49.1686      R0.9000    
   X530.1540     Y49.3521      R0.9000    
   X530.2425     Y49.5658      R0.9000    
   X530.2727     Y49.7952      R0.9000    
   X530.2425     Y50.0245      R0.9000    
   X530.1540     Y50.2383      R0.9000    
   X530.0131     Y50.4218      R0.9000    
   X529.8296     Y50.5626      R0.9000    
   X529.6159     Y50.6512      R0.9000    
   X529.3865     Y50.6814      R0.9000    
(Pass: 6)
G1   Z0.200      F200 
G17 G2   X529.1571     Y50.6512      R0.9000     F400 
   X528.9434     Y50.5626      R0.9000    
   X528.7599     Y50.4218      R0.9000    
   X528.6190     Y50.2383      R0.9000    
   X528.5305     Y50.0245      R0.9000    
   X528.5003     Y49.7952      R0.9000    
   X528.5305     Y49.5658      R0.9000    
   X528.6190     Y49.3521      R0.9000    
   X528.7599     Y49.1686      R0.9000    
   X528.9434     Y49.0277      R0.9000    
   X529.1571     Y48.9392      R0.9000    
   X529.3865     Y48.9090      R0.9000    
   X529.6159     Y48.9392      R0.9000    
   X529.8296     Y49.0277      R0.9000    
   X530.0131     Y49.1686      R0.9000    
   X530.1540     Y49.3521      R0.9000    
   X530.2425     Y49.5658      R0.9000    
   X530.2727     Y49.7952      R0.9000    
   X530.2425     Y50.0245      R0.9000    
   X530.1540     Y50.2383      R0.9000    
   X530.0131     Y50.4218      R0.9000    
   X529.8296     Y50.5626      R0.9000    
   X529.6159     Y50.6512      R0.9000    
   X529.3865     Y50.6814      R0.9000    
(Pass: 7)
G1   Z-0.300     F200 
G17 G2   X529.1571     Y50.6512      R0.9000     F400 
   X528.9434     Y50.5626      R0.9000    
   X528.7599     Y50.4218      R0.9000    
   X528.6190     Y50.2383      R0.9000    
   X528.5305     Y50.0245      R0.9000    
   X528.5003     Y49.7952      R0.9000    
   X528.5305     Y49.5658      R0.9000    
   X528.6190     Y49.3521      R0.9000    
   X528.7599     Y49.1686      R0.9000    
   X528.9434     Y49.0277      R0.9000    
   X529.1571     Y48.9392      R0.9000    
   X529.3865     Y48.9090      R0.9000    
   X529.6159     Y48.9392      R0.9000    
   X529.8296     Y49.0277      R0.9000    
   X530.0131     Y49.1686      R0.9000    
   X530.1540     Y49.3521      R0.9000    
   X530.2425     Y49.5658      R0.9000    
   X530.2727     Y49.7952      R0.9000    
   X530.2425     Y50.0245      R0.9000    
   X530.1540     Y50.2383      R0.9000    
   X530.0131     Y50.4218      R0.9000    
   X529.8296     Y50.5626      R0.9000    
   X529.6159     Y50.6512      R0.9000    
   X529.3865     Y50.6814      R0.9000    
(Pass: 8)
G1   Z-0.480     F200 
G17 G2   X529.1571     Y50.6512      R0.9000     F400 
   X528.9434     Y50.5626      R0.9000    
   X528.7599     Y50.4218      R0.9000    
   X528.6190     Y50.2383      R0.9000    
   X528.5305     Y50.0245      R0.9000    
   X528.5003     Y49.7952      R0.9000    
   X528.5305     Y49.5658      R0.9000    
   X528.6190     Y49.3521      R0.9000    
   X528.7599     Y49.1686      R0.9000    
   X528.9434     Y49.0277      R0.9000    
   X529.1571     Y48.9392      R0.9000    
   X529.3865     Y48.9090      R0.9000    
   X529.6159     Y48.9392      R0.9000    
   X529.8296     Y49.0277      R0.9000    
   X530.0131     Y49.1686      R0.9000    
   X530.1540     Y49.3521      R0.9000    
   X530.2425     Y49.5658      R0.9000    
   X530.2727     Y49.7952      R0.9000    
   X530.2425     Y50.0245      R0.9000    
   X530.1540     Y50.2383      R0.9000    
   X530.0131     Y50.4218      R0.9000    
   X529.8296     Y50.5626      R0.9000    
   X529.6159     Y50.6512      R0.9000    
   X529.3865     Y50.6814      R0.9000    
(BREAK pass 8)
G0   Z18.200    
(Pass: 1)
   Y30.041    
G1   Z2.700      F200 
G17 G2   X529.1702     Y30.0112      R0.9000     F400 
   X528.9564     Y29.9227      R0.9000    
   X528.7729     Y29.7818      R0.9000    
   X528.6321     Y29.5983      R0.9000    
   X528.5435     Y29.3845      R0.9000    
   X528.5133     Y29.1552      R0.9000    
   X528.5435     Y28.9258      R0.9000    
   X528.6321     Y28.7121      R0.9000    
   X528.7729     Y28.5286      R0.9000    
   X528.9564     Y28.3877      R0.9000    
   X529.1702     Y28.2992      R0.9000    
   X529.3995     Y28.2690      R0.9000    
   X529.6289     Y28.2992      R0.9000    
   X529.8426     Y28.3877      R0.9000    
   X530.0262     Y28.5286      R0.9000    
   X530.1670     Y28.7121      R0.9000    
   X530.2555     Y28.9258      R0.9000    
   X530.2857     Y29.1552      R0.9000    
   X530.2555     Y29.3845      R0.9000    
   X530.1670     Y29.5983      R0.9000    
   X530.0262     Y29.7818      R0.9000    
   X529.8426     Y29.9227      R0.9000    
   X529.6289     Y30.0112      R0.9000    
   X529.3995     Y30.0414      R0.9000    
(Pass: 2)
G1   Z2.200      F200 
G17 G2   X529.1702     Y30.0112      R0.9000     F400 
   X528.9564     Y29.9227      R0.9000    
   X528.7729     Y29.7818      R0.9000    
   X528.6321     Y29.5983      R0.9000    
   X528.5435     Y29.3845      R0.9000    
   X528.5133     Y29.1552      R0.9000    
   X528.5435     Y28.9258      R0.9000    
   X528.6321     Y28.7121      R0.9000    
   X528.7729     Y28.5286      R0.9000    
   X528.9564     Y28.3877      R0.9000    
   X529.1702     Y28.2992      R0.9000    
   X529.3995     Y28.2690      R0.9000    
   X529.6289     Y28.2992      R0.9000    
   X529.8426     Y28.3877      R0.9000    
   X530.0262     Y28.5286      R0.9000    
   X530.1670     Y28.7121      R0.9000    
   X530.2555     Y28.9258      R0.9000    
   X530.2857     Y29.1552      R0.9000    
   X530.2555     Y29.3845      R0.9000    
   X530.1670     Y29.5983      R0.9000    
   X530.0262     Y29.7818      R0.9000    
   X529.8426     Y29.9227      R0.9000    
   X529.6289     Y30.0112      R0.9000    
   X529.3995     Y30.0414      R0.9000    
(Pass: 3)
G1   Z1.700      F200 
G17 G2   X529.1702     Y30.0112      R0.9000     F400 
   X528.9564     Y29.9227      R0.9000    
   X528.7729     Y29.7818      R0.9000    
   X528.6321     Y29.5983      R0.9000    
   X528.5435     Y29.3845      R0.9000    
   X528.5133     Y29.1552      R0.9000    
   X528.5435     Y28.9258      R0.9000    
   X528.6321     Y28.7121      R0.9000    
   X528.7729     Y28.5286      R0.9000    
   X528.9564     Y28.3877      R0.9000    
   X529.1702     Y28.2992      R0.9000    
   X529.3995     Y28.2690      R0.9000    
   X529.6289     Y28.2992      R0.9000    
   X529.8426     Y28.3877      R0.9000    
   X530.0262     Y28.5286      R0.9000    
   X530.1670     Y28.7121      R0.9000    
   X530.2555     Y28.9258      R0.9000    
   X530.2857     Y29.1552      R0.9000    
   X530.2555     Y29.3845      R0.9000    
   X530.1670     Y29.5983      R0.9000    
   X530.0262     Y29.7818      R0.9000    
   X529.8426     Y29.9227      R0.9000    
   X529.6289     Y30.0112      R0.9000    
   X529.3995     Y30.0414      R0.9000    
(Pass: 4)
G1   Z1.200      F200 
G17 G2   X529.1702     Y30.0112      R0.9000     F400 
   X528.9564     Y29.9227      R0.9000    
   X528.7729     Y29.7818      R0.9000    
   X528.6321     Y29.5983      R0.9000    
   X528.5435     Y29.3845      R0.9000    
   X528.5133     Y29.1552      R0.9000    
   X528.5435     Y28.9258      R0.9000    
   X528.6321     Y28.7121      R0.9000    
   X528.7729     Y28.5286      R0.9000    
   X528.9564     Y28.3877      R0.9000    
   X529.1702     Y28.2992      R0.9000    
   X529.3995     Y28.2690      R0.9000    
   X529.6289     Y28.2992      R0.9000    
   X529.8426     Y28.3877      R0.9000    
   X530.0262     Y28.5286      R0.9000    
   X530.1670     Y28.7121      R0.9000    
   X530.2555     Y28.9258      R0.9000    
   X530.2857     Y29.1552      R0.9000    
   X530.2555     Y29.3845      R0.9000    
   X530.1670     Y29.5983      R0.9000    
