%
(Generated by SketchUcam {1.2})
(File: Router Plates.skp)
(Bit diameter: 3.1mm)
(Feed rate: 400.0mm/min)
(Plunge Feed rate: 200.0mm/min)
(Material Thickness: 2.7mm)
(Material length: 608.0mm X width: 304.0mm)
(Overhead Gantry: true)
(Retract feed rate NOT limited to plunge feed rate)
(Multipass enabled, Depth = 0.5mm)
(Optimization is ON)
(www.PhlatBoyz.com)
G90 G21 G49 
M3 S15000
G0   Z15.000    
(Pass: 1)
   X19.197       Y14.773    
G1   Z-0.500     F200 
   X19.109       Y14.987     F400 
   X19.338       Y14.590    
   X19.197       Y14.773    
   X19.522       Y14.449    
   X19.338       Y14.590    
   X19.735       Y14.360    
   X19.522       Y14.449    
   X19.965       Y14.330    
   X19.735       Y14.360    
   X20.194    
   X19.965       Y14.330    
   X20.408       Y14.449    
   X20.194       Y14.360    
   X20.591       Y14.590    
   X20.408       Y14.449    
   X20.732       Y14.773    
   X20.591       Y14.590    
   X20.821       Y14.987    
   X20.732       Y14.773    
   X20.865       Y15.321    
   X20.821       Y14.987    
   X20.859       Y23.923    
   Y15.321    
   X20.815       Y24.258    
   X20.859       Y23.923    
   X20.726       Y24.471    
   X20.815       Y24.258    
   X20.585       Y24.655    
   X20.726       Y24.471    
   X20.402       Y24.796    
   X20.585       Y24.655    
   X20.188       Y24.884    
   X20.402       Y24.796    
   X19.959       Y24.914    
   X20.188       Y24.884    
   X19.729    
   X19.959       Y24.914    
   X19.516       Y24.796    
   X19.729       Y24.884    
   X19.332       Y24.655    
   X19.516       Y24.796    
   X19.191       Y24.471    
   X19.332       Y24.655    
   X19.103       Y24.258    
   X19.191       Y24.471    
   X19.059       Y23.924    
   X19.103       Y24.258    
   X19.065       Y15.322    
   Y23.924    
   X19.109       Y14.987    
   X19.065       Y15.322    
(Pass: 2)
   X19.197       Y14.773    
   Z-1.000     F200 
   X19.109       Y14.987     F400 
   X19.338       Y14.590    
   X19.197       Y14.773    
   X19.522       Y14.449    
   X19.338       Y14.590    
   X19.735       Y14.360    
   X19.522       Y14.449    
   X19.965       Y14.330    
   X19.735       Y14.360    
   X20.194    
   X19.965       Y14.330    
   X20.408       Y14.449    
   X20.194       Y14.360    
   X20.591       Y14.590    
   X20.408       Y14.449    
   X20.732       Y14.773    
   X20.591       Y14.590    
   X20.821       Y14.987    
   X20.732       Y14.773    
   X20.865       Y15.321    
   X20.821       Y14.987    
   X20.859       Y23.923    
   Y15.321    
   X20.815       Y24.258    
   X20.859       Y23.923    
   X20.726       Y24.471    
   X20.815       Y24.258    
   X20.585       Y24.655    
   X20.726       Y24.471    
   X20.402       Y24.796    
   X20.585       Y24.655    
   X20.188       Y24.884    
   X20.402       Y24.796    
   X19.959       Y24.914    
   X20.188       Y24.884    
   X19.729    
   X19.959       Y24.914    
   X19.516       Y24.796    
   X19.729       Y24.884    
   X19.332       Y24.655    
   X19.516       Y24.796    
   X19.191       Y24.471    
   X19.332       Y24.655    
   X19.103       Y24.258    
   X19.191       Y24.471    
   X19.059       Y23.924    
   X19.103       Y24.258    
   X19.065       Y15.322    
   Y23.924    
   X19.109       Y14.987    
   X19.065       Y15.322    
(Pass: 3)
   X19.197       Y14.773    
   Z-1.500     F200 
   X19.109       Y14.987     F400 
   X19.338       Y14.590    
   X19.197       Y14.773    
   X19.522       Y14.449    
   X19.338       Y14.590    
   X19.735       Y14.360    
   X19.522       Y14.449    
   X19.965       Y14.330    
   X19.735       Y14.360    
   X20.194    
   X19.965       Y14.330    
   X20.408       Y14.449    
   X20.194       Y14.360    
   X20.591       Y14.590    
   X20.408       Y14.449    
   X20.732       Y14.773    
   X20.591       Y14.590    
   X20.821       Y14.987    
   X20.732       Y14.773    
   X20.865       Y15.321    
   X20.821       Y14.987    
   X20.859       Y23.923    
   Y15.321    
   X20.815       Y24.258    
   X20.859       Y23.923    
   X20.726       Y24.471    
   X20.815       Y24.258    
   X20.585       Y24.655    
   X20.726       Y24.471    
   X20.402       Y24.796    
   X20.585       Y24.655    
   X20.188       Y24.884    
   X20.402       Y24.796    
   X19.959       Y24.914    
   X20.188       Y24.884    
   X19.729    
   X19.959       Y24.914    
   X19.516       Y24.796    
   X19.729       Y24.884    
   X19.332       Y24.655    
   X19.516       Y24.796    
   X19.191       Y24.471    
   X19.332       Y24.655    
   X19.103       Y24.258    
   X19.191       Y24.471    
   X19.059       Y23.924    
   X19.103       Y24.258    
   X19.065       Y15.322    
   Y23.924    
   X19.109       Y14.987    
   X19.065       Y15.322    
(Pass: 4)
   X19.197       Y14.773    
   Z-2.000     F200 
   X19.109       Y14.987     F400 
   X19.338       Y14.590    
   X19.197       Y14.773    
   X19.522       Y14.449    
   X19.338       Y14.590    
   X19.735       Y14.360    
   X19.522       Y14.449    
   X19.965       Y14.330    
   X19.735       Y14.360    
   X20.194    
   X19.965       Y14.330    
   X20.408       Y14.449    
   X20.194       Y14.360    
   X20.591       Y14.590    
   X20.408       Y14.449    
   X20.732       Y14.773    
   X20.591       Y14.590    
   X20.821       Y14.987    
   X20.732       Y14.773    
   X20.865       Y15.321    
   X20.821       Y14.987    
   X20.859       Y23.923    
   Y15.321    
   X20.815       Y24.258    
   X20.859       Y23.923    
   X20.726       Y24.471    
   X20.815       Y24.258    
   X20.585       Y24.655    
   X20.726       Y24.471    
   X20.402       Y24.796    
   X20.585       Y24.655    
   X20.188       Y24.884    
   X20.402       Y24.796    
   X19.959       Y24.914    
   X20.188       Y24.884    
   X19.729    
   X19.959       Y24.914    
   X19.516       Y24.796    
   X19.729       Y24.884    
   X19.332       Y24.655    
   X19.516       Y24.796    
   X19.191       Y24.471    
   X19.332       Y24.655    
   X19.103       Y24.258    
   X19.191       Y24.471    
   X19.059       Y23.924    
   X19.103       Y24.258    
   X19.065       Y15.322    
   Y23.924    
   X19.109       Y14.987    
   X19.065       Y15.322    
(Pass: 5)
   X19.197       Y14.773    
   Z-2.500     F200 
   X19.109       Y14.987     F400 
   X19.338       Y14.590    
   X19.197       Y14.773    
   X19.522       Y14.449    
   X19.338       Y14.590    
   X19.735       Y14.360    
   X19.522       Y14.449    
   X19.965       Y14.330    
   X19.735       Y14.360    
   X20.194    
   X19.965       Y14.330    
   X20.408       Y14.449    
   X20.194       Y14.360    
   X20.591       Y14.590    
   X20.408       Y14.449    
   X20.732       Y14.773    
   X20.591       Y14.590    
   X20.821       Y14.987    
   X20.732       Y14.773    
   X20.865       Y15.321    
   X20.821       Y14.987    
   X20.859       Y23.923    
   Y15.321    
   X20.815       Y24.258    
   X20.859       Y23.923    
   X20.726       Y24.471    
   X20.815       Y24.258    
   X20.585       Y24.655    
   X20.726       Y24.471    
   X20.402       Y24.796    
   X20.585       Y24.655    
   X20.188       Y24.884    
   X20.402       Y24.796    
   X19.959       Y24.914    
   X20.188       Y24.884    
   X19.729    
   X19.959       Y24.914    
   X19.516       Y24.796    
   X19.729       Y24.884    
   X19.332       Y24.655    
   X19.516       Y24.796    
   X19.191       Y24.471    
   X19.332       Y24.655    
   X19.103       Y24.258    
   X19.191       Y24.471    
   X19.059       Y23.924    
   X19.103       Y24.258    
   X19.065       Y15.322    
   Y23.924    
   X19.109       Y14.987    
   X19.065       Y15.322    
(Pass: 6)
   X19.197       Y14.773    
   Z-2.700     F200 
   X19.109       Y14.987     F400 
   X19.338       Y14.590    
   X19.197       Y14.773    
   X19.522       Y14.449    
   X19.338       Y14.590    
   X19.735       Y14.360    
   X19.522       Y14.449    
   X19.965       Y14.330    
   X19.735       Y14.360    
   X20.194    
   X19.965       Y14.330    
   X20.408       Y14.449    
   X20.194       Y14.360    
   X20.591       Y14.590    
   X20.408       Y14.449    
   X20.732       Y14.773    
   X20.591       Y14.590    
   X20.821       Y14.987    
   X20.732       Y14.773    
   X20.865       Y15.321    
   X20.821       Y14.987    
   X20.859       Y23.923    
   Y15.321    
   X20.815       Y24.258    
   X20.859       Y23.923    
   X20.726       Y24.471    
   X20.815       Y24.258    
   X20.585       Y24.655    
   X20.726       Y24.471    
   X20.402       Y24.796    
   X20.585       Y24.655    
   X20.188       Y24.884    
   X20.402       Y24.796    
   X19.959       Y24.914    
   X20.188       Y24.884    
   X19.729    
   X19.959       Y24.914    
   X19.516       Y24.796    
   X19.729       Y24.884    
   X19.332       Y24.655    
   X19.516       Y24.796    
   X19.191       Y24.471    
   X19.332       Y24.655    
   X19.103       Y24.258    
   X19.191       Y24.471    
   X19.059       Y23.924    
   X19.103       Y24.258    
   X19.065       Y15.322    
   Y23.924    
   X19.109       Y14.987    
   X19.065       Y15.322    
G0   Z15.000    
(Pass: 1)
   X29.065    
G1   Z-0.500     F200 
   Y23.924     F400 
   X29.109       Y14.987    
   X29.065       Y15.322    
   X29.197       Y14.773    
   X29.109       Y14.987    
   X29.338       Y14.590    
   X29.197       Y14.773    
   X29.522       Y14.449    
   X29.338       Y14.590    
   X29.735       Y14.360    
   X29.522       Y14.449    
   X29.965       Y14.330    
   X29.735       Y14.360    
   X30.194    
   X29.965       Y14.330    
   X30.408       Y14.449    
   X30.194       Y14.360    
   X30.591       Y14.590    
   X30.408       Y14.449    
   X30.732       Y14.773    
   X30.591       Y14.590    
   X30.821       Y14.987    
   X30.732       Y14.773    
   X30.865       Y15.321    
   X30.821       Y14.987    
   X30.859       Y23.923    
   Y15.321    
   X30.815       Y24.258    
   X30.859       Y23.923    
   X30.726       Y24.471    
   X30.815       Y24.258    
   X30.585       Y24.655    
   X30.726       Y24.471    
   X30.402       Y24.796    
   X30.585       Y24.655    
   X30.188       Y24.884    
   X30.402       Y24.796    
   X29.959       Y24.914    
   X30.188       Y24.884    
   X29.729    
   X29.959       Y24.914    
   X29.516       Y24.796    
   X29.729       Y24.884    
   X29.332       Y24.655    
   X29.516       Y24.796    
   X29.191       Y24.471    
   X29.332       Y24.655    
   X29.103       Y24.258    
   X29.191       Y24.471    
   X29.059       Y23.924    
   X29.103       Y24.258    
(Pass: 2)
   X29.065       Y15.322    
   Z-1.000     F200 
   Y23.924     F400 
   X29.109       Y14.987    
   X29.065       Y15.322    
   X29.197       Y14.773    
   X29.109       Y14.987    
   X29.338       Y14.590    
   X29.197       Y14.773    
   X29.522       Y14.449    
   X29.338       Y14.590    
   X29.735       Y14.360    
   X29.522       Y14.449    
   X29.965       Y14.330    
   X29.735       Y14.360    
   X30.194    
   X29.965       Y14.330    
   X30.408       Y14.449    
   X30.194       Y14.360    
   X30.591       Y14.590    
   X30.408       Y14.449    
   X30.732       Y14.773    
   X30.591       Y14.590    
   X30.821       Y14.987    
   X30.732       Y14.773    
   X30.865       Y15.321    
   X30.821       Y14.987    
   X30.859       Y23.923    
   Y15.321    
   X30.815       Y24.258    
   X30.859       Y23.923    
   X30.726       Y24.471    
   X30.815       Y24.258    
   X30.585       Y24.655    
   X30.726       Y24.471    
   X30.402       Y24.796    
   X30.585       Y24.655    
   X30.188       Y24.884    
   X30.402       Y24.796    
   X29.959       Y24.914    
   X30.188       Y24.884    
   X29.729    
   X29.959       Y24.914    
   X29.516       Y24.796    
   X29.729       Y24.884    
   X29.332       Y24.655    
   X29.516       Y24.796    
   X29.191       Y24.471    
   X29.332       Y24.655    
   X29.103       Y24.258    
   X29.191       Y24.471    
   X29.059       Y23.924    
   X29.103       Y24.258    
(Pass: 3)
   X29.065       Y15.322    
   Z-1.500     F200 
   Y23.924     F400 
   X29.109       Y14.987    
   X29.065       Y15.322    
   X29.197       Y14.773    
   X29.109       Y14.987    
   X29.338       Y14.590    
   X29.197       Y14.773    
   X29.522       Y14.449    
   X29.338       Y14.590    
   X29.735       Y14.360    
   X29.522       Y14.449    
   X29.965       Y14.330    
   X29.735       Y14.360    
   X30.194    
   X29.965       Y14.330    
   X30.408       Y14.449    
   X30.194       Y14.360    
   X30.591       Y14.590    
   X30.408       Y14.449    
   X30.732       Y14.773    
   X30.591       Y14.590    
   X30.821       Y14.987    
   X30.732       Y14.773    
   X30.865       Y15.321    
   X30.821       Y14.987    
   X30.859       Y23.923    
   Y15.321    
   X30.815       Y24.258    
   X30.859       Y23.923    
   X30.726       Y24.471    
   X30.815       Y24.258    
   X30.585       Y24.655    
   X30.726       Y24.471    
   X30.402       Y24.796    
   X30.585       Y24.655    
   X30.188       Y24.884    
   X30.402       Y24.796    
   X29.959       Y24.914    
   X30.188       Y24.884    
   X29.729    
   X29.959       Y24.914    
   X29.516       Y24.796    
   X29.729       Y24.884    
   X29.332       Y24.655    
   X29.516       Y24.796    
   X29.191       Y24.471    
   X29.332       Y24.655    
   X29.103       Y24.258    
   X29.191       Y24.471    
   X29.059       Y23.924    
   X29.103       Y24.258    
(Pass: 4)
   X29.065       Y15.322    
   Z-2.000     F200 
   Y23.924     F400 
   X29.109       Y14.987    
   X29.065       Y15.322    
   X29.197       Y14.773    
   X29.109       Y14.987    
   X29.338       Y14.590    
   X29.197       Y14.773    
   X29.522       Y14.449    
   X29.338       Y14.590    
   X29.735       Y14.360    
   X29.522       Y14.449    
   X29.965       Y14.330    
   X29.735       Y14.360    
   X30.194    
   X29.965       Y14.330    
   X30.408       Y14.449    
   X30.194       Y14.360    
   X30.591       Y14.590    
   X30.408       Y14.449    
   X30.732       Y14.773    
   X30.591       Y14.590    
   X30.821       Y14.987    
   X30.732       Y14.773    
   X30.865       Y15.321    
   X30.821       Y14.987    
   X30.859       Y23.923    
   Y15.321    
   X30.815       Y24.258    
   X30.859       Y23.923    
   X30.726       Y24.471    
   X30.815       Y24.258    
   X30.585       Y24.655    
   X30.726       Y24.471    
   X30.402       Y24.796    
   X30.585       Y24.655    
   X30.188       Y24.884    
   X30.402       Y24.796    
   X29.959       Y24.914    
   X30.188       Y24.884    
   X29.729    
   X29.959       Y24.914    
   X29.516       Y24.796    
   X29.729       Y24.884    
   X29.332       Y24.655    
   X29.516       Y24.796    
   X29.191       Y24.471    
   X29.332       Y24.655    
   X29.103       Y24.258    
   X29.191       Y24.471    
   X29.059       Y23.924    
   X29.103       Y24.258    
(Pass: 5)
   X29.065       Y15.322    
   Z-2.500     F200 
   Y23.924     F400 
   X29.109       Y14.987    
   X29.065       Y15.322    
   X29.197       Y14.773    
   X29.109       Y14.987    
   X29.338       Y14.590    
   X29.197       Y14.773    
   X29.522       Y14.449    
   X29.338       Y14.590    
   X29.735       Y14.360    
   X29.522       Y14.449    
   X29.965       Y14.330    
   X29.735       Y14.360    
   X30.194    
   X29.965       Y14.330    
   X30.408       Y14.449    
   X30.194       Y14.360    
   X30.591       Y14.590    
   X30.408       Y14.449    
   X30.732       Y14.773    
   X30.591       Y14.590    
   X30.821       Y14.987    
   X30.732       Y14.773    
   X30.865       Y15.321    
   X30.821       Y14.987    
   X30.859       Y23.923    
   Y15.321    
   X30.815       Y24.258    
   X30.859       Y23.923    
   X30.726       Y24.471    
   X30.815       Y24.258    
   X30.585       Y24.655    
   X30.726       Y24.471    
   X30.402       Y24.796    
   X30.585       Y24.655    
   X30.188       Y24.884    
   X30.402       Y24.796    
   X29.959       Y24.914    
   X30.188       Y24.884    
   X29.729    
   X29.959       Y24.914    
   X29.516       Y24.796    
   X29.729       Y24.884    
   X29.332       Y24.655    
   X29.516       Y24.796    
   X29.191       Y24.471    
   X29.332       Y24.655    
   X29.103       Y24.258    
   X29.191       Y24.471    
   X29.059       Y23.924    
   X29.103       Y24.258    
(Pass: 6)
   X29.065       Y15.322    
   Z-2.700     F200 
   Y23.924     F400 
   X29.109       Y14.987    
   X29.065       Y15.322    
   X29.197       Y14.773    
   X29.109       Y14.987    
   X29.338       Y14.590    
   X29.197       Y14.773    
   X29.522       Y14.449    
   X29.338       Y14.590    
   X29.735       Y14.360    
   X29.522       Y14.449    
   X29.965       Y14.330    
   X29.735       Y14.360    
   X30.194    
   X29.965       Y14.330    
   X30.408       Y14.449    
   X30.194       Y14.360    
   X30.591       Y14.590    
   X30.408       Y14.449    
   X30.732       Y14.773    
   X30.591       Y14.590    
   X30.821       Y14.987    
   X30.732       Y14.773    
   X30.865       Y15.321    
   X30.821       Y14.987    
   X30.859       Y23.923    
   Y15.321    
   X30.815       Y24.258    
   X30.859       Y23.923    
   X30.726       Y24.471    
   X30.815       Y24.258    
   X30.585       Y24.655    
   X30.726       Y24.471    
   X30.402       Y24.796    
   X30.585       Y24.655    
   X30.188       Y24.884    
   X30.402       Y24.796    
   X29.959       Y24.914    
   X30.188       Y24.884    
   X29.729    
   X29.959       Y24.914    
   X29.516       Y24.796    
   X29.729       Y24.884    
   X29.332       Y24.655    
   X29.516       Y24.796    
   X29.191       Y24.471    
   X29.332       Y24.655    
   X29.103       Y24.258    
   X29.191       Y24.471    
   X29.059       Y23.924    
   X29.103       Y24.258    
G0   Z15.000    
(Pass: 1)
   X39.059       Y23.924    
G1   Z-0.500     F200 
   X39.103       Y24.258     F400 
   X39.065       Y15.322    
   Y23.924    
   X39.109       Y14.987    
   X39.065       Y15.322    
   X39.197       Y14.773    
   X39.109       Y14.987    
   X39.338       Y14.590    
   X39.197       Y14.773    
   X39.522       Y14.449    
   X39.338       Y14.590    
   X39.735       Y14.360    
   X39.522       Y14.449    
   X39.965       Y14.330    
   X39.735       Y14.360    
   X40.194    
   X39.965       Y14.330    
   X40.408       Y14.449    
   X40.194       Y14.360    
   X40.591       Y14.590    
   X40.408       Y14.449    
   X40.732       Y14.773    
   X40.591       Y14.590    
   X40.821       Y14.987    
   X40.732       Y14.773    
   X40.865       Y15.321    
   X40.821       Y14.987    
   X40.859       Y23.923    
   Y15.321    
   X40.815       Y24.258    
   X40.859       Y23.923    
   X40.726       Y24.471    
   X40.815       Y24.258    
   X40.585       Y24.655    
   X40.726       Y24.471    
   X40.402       Y24.796    
   X40.585       Y24.655    
   X40.188       Y24.884    
   X40.402       Y24.796    
   X39.959       Y24.914    
   X40.188       Y24.884    
   X39.729    
   X39.959       Y24.914    
   X39.516       Y24.796    
   X39.729       Y24.884    
   X39.332       Y24.655    
   X39.516       Y24.796    
   X39.191       Y24.471    
   X39.332       Y24.655    
   X39.103       Y24.258    
   X39.191       Y24.471    
(Pass: 2)
   X39.059       Y23.924    
   Z-1.000     F200 
   X39.103       Y24.258     F400 
   X39.065       Y15.322    
   Y23.924    
   X39.109       Y14.987    
   X39.065       Y15.322    
   X39.197       Y14.773    
   X39.109       Y14.987    
   X39.338       Y14.590    
   X39.197       Y14.773    
   X39.522       Y14.449    
   X39.338       Y14.590    
   X39.735       Y14.360    
   X39.522       Y14.449    
   X39.965       Y14.330    
   X39.735       Y14.360    
   X40.194    
   X39.965       Y14.330    
   X40.408       Y14.449    
   X40.194       Y14.360    
   X40.591       Y14.590    
   X40.408       Y14.449    
   X40.732       Y14.773    
   X40.591       Y14.590    
   X40.821       Y14.987    
   X40.732       Y14.773    
   X40.865       Y15.321    
   X40.821       Y14.987    
   X40.859       Y23.923    
   Y15.321    
   X40.815       Y24.258    
   X40.859       Y23.923    
   X40.726       Y24.471    
   X40.815       Y24.258    
   X40.585       Y24.655    
   X40.726       Y24.471    
   X40.402       Y24.796    
   X40.585       Y24.655    
   X40.188       Y24.884    
   X40.402       Y24.796    
   X39.959       Y24.914    
   X40.188       Y24.884    
   X39.729    
   X39.959       Y24.914    
   X39.516       Y24.796    
   X39.729       Y24.884    
   X39.332       Y24.655    
   X39.516       Y24.796    
   X39.191       Y24.471    
   X39.332       Y24.655    
   X39.103       Y24.258    
   X39.191       Y24.471    
(Pass: 3)
   X39.059       Y23.924    
   Z-1.500     F200 
   X39.103       Y24.258     F400 
   X39.065       Y15.322    
   Y23.924    
   X39.109       Y14.987    
   X39.065       Y15.322    
   X39.197       Y14.773    
   X39.109       Y14.987    
   X39.338       Y14.590    
   X39.197       Y14.773    
   X39.522       Y14.449    
   X39.338       Y14.590    
   X39.735       Y14.360    
   X39.522       Y14.449    
   X39.965       Y14.330    
   X39.735       Y14.360    
   X40.194    
   X39.965       Y14.330    
   X40.408       Y14.449    
   X40.194       Y14.360    
   X40.591       Y14.590    
   X40.408       Y14.449    
   X40.732       Y14.773    
   X40.591       Y14.590    
   X40.821       Y14.987    
   X40.732       Y14.773    
   X40.865       Y15.321    
   X40.821       Y14.987    
   X40.859       Y23.923    
   Y15.321    
   X40.815       Y24.258    
   X40.859       Y23.923    
   X40.726       Y24.471    
   X40.815       Y24.258    
   X40.585       Y24.655    
   X40.726       Y24.471    
   X40.402       Y24.796    
   X40.585       Y24.655    
   X40.188       Y24.884    
   X40.402       Y24.796    
   X39.959       Y24.914    
   X40.188       Y24.884    
   X39.729    
   X39.959       Y24.914    
   X39.516       Y24.796    
   X39.729       Y24.884    
   X39.332       Y24.655    
   X39.516       Y24.796    
   X39.191       Y24.471    
   X39.332       Y24.655    
   X39.103       Y24.258    
   X39.191       Y24.471    
(Pass: 4)
   X39.059       Y23.924    
   Z-2.000     F200 
   X39.103       Y24.258     F400 
   X39.065       Y15.322    
   Y23.924    
   X39.109       Y14.987    
   X39.065       Y15.322    
   X39.197       Y14.773    
   X39.109       Y14.987    
   X39.338       Y14.590    
   X39.197       Y14.773    
   X39.522       Y14.449    
   X39.338       Y14.590    
   X39.735       Y14.360    
   X39.522       Y14.449    
   X39.965       Y14.330    
   X39.735       Y14.360    
   X40.194    
   X39.965       Y14.330    
   X40.408       Y14.449    
   X40.194       Y14.360    
   X40.591       Y14.590    
   X40.408       Y14.449    
   X40.732       Y14.773    
   X40.591       Y14.590    
   X40.821       Y14.987    
   X40.732       Y14.773    
   X40.865       Y15.321    
   X40.821       Y14.987    
   X40.859       Y23.923    
   Y15.321    
   X40.815       Y24.258    
   X40.859       Y23.923    
   X40.726       Y24.471    
   X40.815       Y24.258    
   X40.585       Y24.655    
   X40.726       Y24.471    
   X40.402       Y24.796    
   X40.585       Y24.655    
   X40.188       Y24.884    
   X40.402       Y24.796    
   X39.959       Y24.914    
   X40.188       Y24.884    
   X39.729    
   X39.959       Y24.914    
   X39.516       Y24.796    
   X39.729       Y24.884    
   X39.332       Y24.655    
   X39.516       Y24.796    
   X39.191       Y24.471    
   X39.332       Y24.655    
   X39.103       Y24.258    
   X39.191       Y24.471    
(Pass: 5)
   X39.059       Y23.924    
   Z-2.500     F200 
   X39.103       Y24.258     F400 
   X39.065       Y15.322    
   Y23.924    
   X39.109       Y14.987    
   X39.065       Y15.322    
   X39.197       Y14.773    
   X39.109       Y14.987    
   X39.338       Y14.590    
   X39.197       Y14.773    
   X39.522       Y14.449    
   X39.338       Y14.590    
   X39.735       Y14.360    
   X39.522       Y14.449    
   X39.965       Y14.330    
   X39.735       Y14.360    
   X40.194    
   X39.965       Y14.330    
   X40.408       Y14.449    
   X40.194       Y14.360    
   X40.591       Y14.590    
   X40.408       Y14.449    
   X40.732       Y14.773    
   X40.591       Y14.590    
   X40.821       Y14.987    
   X40.732       Y14.773    
   X40.865       Y15.321    
   X40.821       Y14.987    
   X40.859       Y23.923    
   Y15.321    
   X40.815       Y24.258    
   X40.859       Y23.923    
   X40.726       Y24.471    
   X40.815       Y24.258    
   X40.585       Y24.655    
   X40.726       Y24.471    
   X40.402       Y24.796    
   X40.585       Y24.655    
   X40.188       Y24.884    
   X40.402       Y24.796    
   X39.959       Y24.914    
   X40.188       Y24.884    
   X39.729    
   X39.959       Y24.914    
   X39.516       Y24.796    
   X39.729       Y24.884    
   X39.332       Y24.655    
   X39.516       Y24.796    
   X39.191       Y24.471    
   X39.332       Y24.655    
   X39.103       Y24.258    
   X39.191       Y24.471    
(Pass: 6)
   X39.059       Y23.924    
   Z-2.700     F200 
   X39.103       Y24.258     F400 
   X39.065       Y15.322    
   Y23.924    
   X39.109       Y14.987    
   X39.065       Y15.322    
   X39.197       Y14.773    
   X39.109       Y14.987    
   X39.338       Y14.590    
   X39.197       Y14.773    
   X39.522       Y14.449    
   X39.338       Y14.590    
   X39.735       Y14.360    
   X39.522       Y14.449    
   X39.965       Y14.330    
   X39.735       Y14.360    
   X40.194    
   X39.965       Y14.330    
   X40.408       Y14.449    
   X40.194       Y14.360    
   X40.591       Y14.590    
   X40.408       Y14.449    
   X40.732       Y14.773    
   X40.591       Y14.590    
   X40.821       Y14.987    
   X40.732       Y14.773    
   X40.865       Y15.321    
   X40.821       Y14.987    
   X40.859       Y23.923    
   Y15.321    
   X40.815       Y24.258    
   X40.859       Y23.923    
   X40.726       Y24.471    
   X40.815       Y24.258    
   X40.585       Y24.655    
   X40.726       Y24.471    
   X40.402       Y24.796    
   X40.585       Y24.655    
   X40.188       Y24.884    
   X40.402       Y24.796    
   X39.959       Y24.914    
   X40.188       Y24.884    
   X39.729    
   X39.959       Y24.914    
   X39.516       Y24.796    
   X39.729       Y24.884    
   X39.332       Y24.655    
   X39.516       Y24.796    
   X39.191       Y24.471    
   X39.332       Y24.655    
   X39.103       Y24.258    
   X39.191       Y24.471    
G0   Z15.000    
(Pass: 1)
   X49.068       Y23.924    
G1   Z-0.500     F200 
   X49.112       Y24.258     F400 
   X49.074       Y15.322    
   Y23.924    
   X49.118       Y14.987    
   X49.074       Y15.322    
   X49.207       Y14.773    
   X49.118       Y14.987    
   X49.348       Y14.590    
   X49.207       Y14.773    
   X49.531       Y14.449    
   X49.348       Y14.590    
   X49.745       Y14.360    
   X49.531       Y14.449    
   X49.974       Y14.330    
   X49.745       Y14.360    
   X50.204    
   X49.974       Y14.330    
   X50.417       Y14.449    
   X50.204       Y14.360    
   X50.601       Y14.590    
   X50.417       Y14.449    
   X50.742       Y14.773    
   X50.601       Y14.590    
   X50.830       Y14.987    
   X50.742       Y14.773    
   X50.874       Y15.321    
   X50.830       Y14.987    
   X50.868       Y23.923    
   Y15.321    
   X50.824       Y24.258    
   X50.868       Y23.923    
   X50.736       Y24.471    
   X50.824       Y24.258    
   X50.595       Y24.655    
   X50.736       Y24.471    
   X50.411       Y24.796    
   X50.595       Y24.655    
   X50.198       Y24.884    
   X50.411       Y24.796    
   X49.968       Y24.915    
   X50.198       Y24.884    
   X49.739    
   X49.968       Y24.915    
   X49.525       Y24.796    
   X49.739       Y24.884    
   X49.342       Y24.655    
   X49.525       Y24.796    
   X49.201       Y24.471    
   X49.342       Y24.655    
   X49.112       Y24.258    
   X49.201       Y24.471    
(Pass: 2)
   X49.068       Y23.924    
   Z-1.000     F200 
   X49.112       Y24.258     F400 
   X49.074       Y15.322    
   Y23.924    
   X49.118       Y14.987    
   X49.074       Y15.322    
   X49.207       Y14.773    
   X49.118       Y14.987    
   X49.348       Y14.590    
   X49.207       Y14.773    
   X49.531       Y14.449    
   X49.348       Y14.590    
   X49.745       Y14.360    
   X49.531       Y14.449    
   X49.974       Y14.330    
   X49.745       Y14.360    
   X50.204    
   X49.974       Y14.330    
   X50.417       Y14.449    
   X50.204       Y14.360    
   X50.601       Y14.590    
   X50.417       Y14.449    
   X50.742       Y14.773    
   X50.601       Y14.590    
   X50.830       Y14.987    
   X50.742       Y14.773    
   X50.874       Y15.321    
   X50.830       Y14.987    
   X50.868       Y23.923    
   Y15.321    
   X50.824       Y24.258    
   X50.868       Y23.923    
   X50.736       Y24.471    
   X50.824       Y24.258    
   X50.595       Y24.655    
   X50.736       Y24.471    
   X50.411       Y24.796    
   X50.595       Y24.655    
   X50.198       Y24.884    
   X50.411       Y24.796    
   X49.968       Y24.915    
   X50.198       Y24.884    
   X49.739    
   X49.968       Y24.915    
   X49.525       Y24.796    
   X49.739       Y24.884    
   X49.342       Y24.655    
   X49.525       Y24.796    
   X49.201       Y24.471    
   X49.342       Y24.655    
   X49.112       Y24.258    
   X49.201       Y24.471    
(Pass: 3)
   X49.068       Y23.924    
   Z-1.500     F200 
   X49.112       Y24.258     F400 
   X49.074       Y15.322    
   Y23.924    
   X49.118       Y14.987    
   X49.074       Y15.322    
   X49.207       Y14.773    
   X49.118       Y14.987    
   X49.348       Y14.590    
   X49.207       Y14.773    
   X49.531       Y14.449    
   X49.348       Y14.590    
   X49.745       Y14.360    
   X49.531       Y14.449    
   X49.974       Y14.330    
   X49.745       Y14.360    
   X50.204    
   X49.974       Y14.330    
   X50.417       Y14.449    
   X50.204       Y14.360    
   X50.601       Y14.590    
   X50.417       Y14.449    
   X50.742       Y14.773    
   X50.601       Y14.590    
   X50.830       Y14.987    
   X50.742       Y14.773    
   X50.874       Y15.321    
   X50.830       Y14.987    
   X50.868       Y23.923    
   Y15.321    
   X50.824       Y24.258    
   X50.868       Y23.923    
   X50.736       Y24.471    
   X50.824       Y24.258    
   X50.595       Y24.655    
   X50.736       Y24.471    
   X50.411       Y24.796    
   X50.595       Y24.655    
   X50.198       Y24.884    
   X50.411       Y24.796    
   X49.968       Y24.915    
   X50.198       Y24.884    
   X49.739    
   X49.968       Y24.915    
   X49.525       Y24.796    
   X49.739       Y24.884    
   X49.342       Y24.655    
   X49.525       Y24.796    
   X49.201       Y24.471    
   X49.342       Y24.655    
   X49.112       Y24.258    
   X49.201       Y24.471    
(Pass: 4)
   X49.068       Y23.924    
   Z-2.000     F200 
   X49.112       Y24.258     F400 
   X49.074       Y15.322    
   Y23.924    
   X49.118       Y14.987    
   X49.074       Y15.322    
   X49.207       Y14.773    
   X49.118       Y14.987    
   X49.348       Y14.590    
   X49.207       Y14.773    
   X49.531       Y14.449    
   X49.348       Y14.590    
   X49.745       Y14.360    
   X49.531       Y14.449    
   X49.974       Y14.330    
   X49.745       Y14.360    
   X50.204    
   X49.974       Y14.330    
   X50.417       Y14.449    
   X50.204       Y14.360    
   X50.601       Y14.590    
   X50.417       Y14.449    
   X50.742       Y14.773    
   X50.601       Y14.590    
   X50.830       Y14.987    
   X50.742       Y14.773    
   X50.874       Y15.321    
   X50.830       Y14.987    
   X50.868       Y23.923    
   Y15.321    
   X50.824       Y24.258    
   X50.868       Y23.923    
   X50.736       Y24.471    
   X50.824       Y24.258    
   X50.595       Y24.655    
   X50.736       Y24.471    
   X50.411       Y24.796    
   X50.595       Y24.655    
   X50.198       Y24.884    
   X50.411       Y24.796    
   X49.968       Y24.915    
   X50.198       Y24.884    
   X49.739    
   X49.968       Y24.915    
   X49.525       Y24.796    
   X49.739       Y24.884    
   X49.342       Y24.655    
   X49.525       Y24.796    
   X49.201       Y24.471    
   X49.342       Y24.655    
   X49.112       Y24.258    
   X49.201       Y24.471    
(Pass: 5)
   X49.068       Y23.924    
   Z-2.500     F200 
   X49.112       Y24.258     F400 
   X49.074       Y15.322    
   Y23.924    
   X49.118       Y14.987    
   X49.074       Y15.322    
   X49.207       Y14.773    
   X49.118       Y14.987    
   X49.348       Y14.590    
   X49.207       Y14.773    
   X49.531       Y14.449    
   X49.348       Y14.590    
   X49.745       Y14.360    
   X49.531       Y14.449    
   X49.974       Y14.330    
   X49.745       Y14.360    
   X50.204    
   X49.974       Y14.330    
   X50.417       Y14.449    
   X50.204       Y14.360    
   X50.601       Y14.590    
   X50.417       Y14.449    
   X50.742       Y14.773    
   X50.601       Y14.590    
   X50.830       Y14.987    
   X50.742       Y14.773    
   X50.874       Y15.321    
   X50.830       Y14.987    
   X50.868       Y23.923    
   Y15.321    
   X50.824       Y24.258    
   X50.868       Y23.923    
   X50.736       Y24.471    
   X50.824       Y24.258    
   X50.595       Y24.655    
   X50.736       Y24.471    
   X50.411       Y24.796    
   X50.595       Y24.655    
   X50.198       Y24.884    
   X50.411       Y24.796    
   X49.968       Y24.915    
   X50.198       Y24.884    
   X49.739    
   X49.968       Y24.915    
   X49.525       Y24.796    
   X49.739       Y24.884    
   X49.342       Y24.655    
   X49.525       Y24.796    
   X49.201       Y24.471    
   X49.342       Y24.655    
   X49.112       Y24.258    
   X49.201       Y24.471    
(Pass: 6)
   X49.068       Y23.924    
   Z-2.700     F200 
   X49.112       Y24.258     F400 
   X49.074       Y15.322    
   Y23.924    
   X49.118       Y14.987    
   X49.074       Y15.322    
   X49.207       Y14.773    
   X49.118       Y14.987    
   X49.348       Y14.590    
   X49.207       Y14.773    
   X49.531       Y14.449    
   X49.348       Y14.590    
   X49.745       Y14.360    
   X49.531       Y14.449    
   X49.974       Y14.330    
   X49.745       Y14.360    
   X50.204    
   X49.974       Y14.330    
   X50.417       Y14.449    
   X50.204       Y14.360    
   X50.601       Y14.590    
   X50.417       Y14.449    
   X50.742       Y14.773    
   X50.601       Y14.590    
   X50.830       Y14.987    
   X50.742       Y14.773    
   X50.874       Y15.321    
   X50.830       Y14.987    
   X50.868       Y23.923    
   Y15.321    
   X50.824       Y24.258    
   X50.868       Y23.923    
   X50.736       Y24.471    
   X50.824       Y24.258    
   X50.595       Y24.655    
   X50.736       Y24.471    
   X50.411       Y24.796    
   X50.595       Y24.655    
   X50.198       Y24.884    
   X50.411       Y24.796    
   X49.968       Y24.915    
   X50.198       Y24.884    
   X49.739    
   X49.968       Y24.915    
   X49.525       Y24.796    
   X49.739       Y24.884    
   X49.342       Y24.655    
   X49.525       Y24.796    
   X49.201       Y24.471    
   X49.342       Y24.655    
   X49.112       Y24.258    
   X49.201       Y24.471    
G0   Z15.000    
(Pass: 1)
   X59.059       Y23.924    
G1   Z-0.500     F200 
   X59.103       Y24.258     F400 
   X59.065       Y15.322    
   Y23.924    
   X59.109       Y14.987    
   X59.065       Y15.322    
   X59.197       Y14.773    
   X59.109       Y14.987    
   X59.338       Y14.590    
   X59.197       Y14.773    
   X59.522       Y14.449    
   X59.338       Y14.590    
   X59.735       Y14.360    
   X59.522       Y14.449    
   X59.965       Y14.330    
   X59.735       Y14.360    
   X60.194    
   X59.965       Y14.330    
   X60.408       Y14.449    
   X60.194       Y14.360    
   X60.591       Y14.590    
   X60.408       Y14.449    
   X60.732       Y14.773    
   X60.591       Y14.590    
   X60.821       Y14.987    
   X60.732       Y14.773    
   X60.865       Y15.321    
   X60.821       Y14.987    
   X60.859       Y23.923    
   Y15.321    
   X60.815       Y24.258    
   X60.859       Y23.923    
   X60.726       Y24.471    
   X60.815       Y24.258    
   X60.585       Y24.655    
   X60.726       Y24.471    
   X60.402       Y24.796    
   X60.585       Y24.655    
   X60.188       Y24.884    
   X60.402       Y24.796    
   X59.959       Y24.914    
   X60.188       Y24.884    
   X59.729    
   X59.959       Y24.914    
   X59.516       Y24.796    
   X59.729       Y24.884    
   X59.332       Y24.655    
   X59.516       Y24.796    
   X59.191       Y24.471    
   X59.332       Y24.655    
   X59.103       Y24.258    
   X59.191       Y24.471    
(Pass: 2)
   X59.059       Y23.924    
   Z-1.000     F200 
   X59.103       Y24.258     F400 
   X59.065       Y15.322    
   Y23.924    
   X59.109       Y14.987    
   X59.065       Y15.322    
   X59.197       Y14.773    
   X59.109       Y14.987    
   X59.338       Y14.590    
   X59.197       Y14.773    
   X59.522       Y14.449    
   X59.338       Y14.590    
   X59.735       Y14.360    
   X59.522       Y14.449    
   X59.965       Y14.330    
   X59.735       Y14.360    
   X60.194    
   X59.965       Y14.330    
   X60.408       Y14.449    
   X60.194       Y14.360    
   X60.591       Y14.590    
   X60.408       Y14.449    
   X60.732       Y14.773    
   X60.591       Y14.590    
   X60.821       Y14.987    
   X60.732       Y14.773    
   X60.865       Y15.321    
   X60.821       Y14.987    
   X60.859       Y23.923    
   Y15.321    
   X60.815       Y24.258    
   X60.859       Y23.923    
   X60.726       Y24.471    
   X60.815       Y24.258    
   X60.585       Y24.655    
   X60.726       Y24.471    
   X60.402       Y24.796    
   X60.585       Y24.655    
   X60.188       Y24.884    
   X60.402       Y24.796    
   X59.959       Y24.914    
   X60.188       Y24.884    
   X59.729    
   X59.959       Y24.914    
   X59.516       Y24.796    
   X59.729       Y24.884    
   X59.332       Y24.655    
   X59.516       Y24.796    
   X59.191       Y24.471    
   X59.332       Y24.655    
   X59.103       Y24.258    
   X59.191       Y24.471    
(Pass: 3)
   X59.059       Y23.924    
   Z-1.500     F200 
   X59.103       Y24.258     F400 
   X59.065       Y15.322    
   Y23.924    
   X59.109       Y14.987    
   X59.065       Y15.322    
   X59.197       Y14.773    
   X59.109       Y14.987    
   X59.338       Y14.590    
   X59.197       Y14.773    
   X59.522       Y14.449    
   X59.338       Y14.590    
   X59.735       Y14.360    
   X59.522       Y14.449    
   X59.965       Y14.330    
   X59.735       Y14.360    
   X60.194    
   X59.965       Y14.330    
   X60.408       Y14.449    
   X60.194       Y14.360    
   X60.591       Y14.590    
   X60.408       Y14.449    
   X60.732       Y14.773    
   X60.591       Y14.590    
   X60.821       Y14.987    
   X60.732       Y14.773    
   X60.865       Y15.321    
   X60.821       Y14.987    
   X60.859       Y23.923    
   Y15.321    
   X60.815       Y24.258    
   X60.859       Y23.923    
   X60.726       Y24.471    
   X60.815       Y24.258    
   X60.585       Y24.655    
   X60.726       Y24.471    
   X60.402       Y24.796    
   X60.585       Y24.655    
   X60.188       Y24.884    
   X60.402       Y24.796    
   X59.959       Y24.914    
   X60.188       Y24.884    
   X59.729    
   X59.959       Y24.914    
   X59.516       Y24.796    
   X59.729       Y24.884    
   X59.332       Y24.655    
   X59.516       Y24.796    
   X59.191       Y24.471    
   X59.332       Y24.655    
   X59.103       Y24.258    
   X59.191       Y24.471    
(Pass: 4)
   X59.059       Y23.924    
   Z-2.000     F200 
   X59.103       Y24.258     F400 
   X59.065       Y15.322    
   Y23.924    
   X59.109       Y14.987    
   X59.065       Y15.322    
   X59.197       Y14.773    
   X59.109       Y14.987    
   X59.338       Y14.590    
   X59.197       Y14.773    
   X59.522       Y14.449    
   X59.338       Y14.590    
   X59.735       Y14.360    
   X59.522       Y14.449    
   X59.965       Y14.330    
   X59.735       Y14.360    
   X60.194    
   X59.965       Y14.330    
   X60.408       Y14.449    
   X60.194       Y14.360    
   X60.591       Y14.590    
   X60.408       Y14.449    
   X60.732       Y14.773    
   X60.591       Y14.590    
   X60.821       Y14.987    
   X60.732       Y14.773    
   X60.865       Y15.321    
   X60.821       Y14.987    
   X60.859       Y23.923    
   Y15.321    
   X60.815       Y24.258    
   X60.859       Y23.923    
   X60.726       Y24.471    
   X60.815       Y24.258    
   X60.585       Y24.655    
   X60.726       Y24.471    
   X60.402       Y24.796    
   X60.585       Y24.655    
   X60.188       Y24.884    
   X60.402       Y24.796    
   X59.959       Y24.914    
   X60.188       Y24.884    
   X59.729    
   X59.959       Y24.914    
   X59.516       Y24.796    
   X59.729       Y24.884    
   X59.332       Y24.655    
   X59.516       Y24.796    
   X59.191       Y24.471    
   X59.332       Y24.655    
   X59.103       Y24.258    
   X59.191       Y24.471    
(Pass: 5)
   X59.059       Y23.924    
   Z-2.500     F200 
   X59.103       Y24.258     F400 
   X59.065       Y15.322    
   Y23.924    
   X59.109       Y14.987    
   X59.065       Y15.322    
   X59.197       Y14.773    
   X59.109       Y14.987    
   X59.338       Y14.590    
   X59.197       Y14.773    
   X59.522       Y14.449    
   X59.338       Y14.590    
   X59.735       Y14.360    
   X59.522       Y14.449    
   X59.965       Y14.330    
   X59.735       Y14.360    
   X60.194    
   X59.965       Y14.330    
   X60.408       Y14.449    
   X60.194       Y14.360    
   X60.591       Y14.590    
   X60.408       Y14.449    
   X60.732       Y14.773    
   X60.591       Y14.590    
   X60.821       Y14.987    
   X60.732       Y14.773    
   X60.865       Y15.321    
   X60.821       Y14.987    
   X60.859       Y23.923    
   Y15.321    
   X60.815       Y24.258    
   X60.859       Y23.923    
   X60.726       Y24.471    
   X60.815       Y24.258    
   X60.585       Y24.655    
   X60.726       Y24.471    
   X60.402       Y24.796    
   X60.585       Y24.655    
   X60.188       Y24.884    
   X60.402       Y24.796    
   X59.959       Y24.914    
   X60.188       Y24.884    
   X59.729    
   X59.959       Y24.914    
   X59.516       Y24.796    
   X59.729       Y24.884    
   X59.332       Y24.655    
   X59.516       Y24.796    
   X59.191       Y24.471    
   X59.332       Y24.655    
   X59.103       Y24.258    
   X59.191       Y24.471    
(Pass: 6)
   X59.059       Y23.924    
   Z-2.700     F200 
   X59.103       Y24.258     F400 
   X59.065       Y15.322    
   Y23.924    
   X59.109       Y14.987    
   X59.065       Y15.322    
   X59.197       Y14.773    
   X59.109       Y14.987    
   X59.338       Y14.590    
   X59.197       Y14.773    
   X59.522       Y14.449    
   X59.338       Y14.590    
   X59.735       Y14.360    
   X59.522       Y14.449    
   X59.965       Y14.330    
   X59.735       Y14.360    
   X60.194    
   X59.965       Y14.330    
   X60.408       Y14.449    
   X60.194       Y14.360    
   X60.591       Y14.590    
   X60.408       Y14.449    
   X60.732       Y14.773    
   X60.591       Y14.590    
   X60.821       Y14.987    
   X60.732       Y14.773    
   X60.865       Y15.321    
   X60.821       Y14.987    
   X60.859       Y23.923    
   Y15.321    
   X60.815       Y24.258    
   X60.859       Y23.923    
   X60.726       Y24.471    
   X60.815       Y24.258    
   X60.585       Y24.655    
   X60.726       Y24.471    
   X60.402       Y24.796    
   X60.585       Y24.655    
   X60.188       Y24.884    
   X60.402       Y24.796    
   X59.959       Y24.914    
   X60.188       Y24.884    
   X59.729    
   X59.959       Y24.914    
   X59.516       Y24.796    
   X59.729       Y24.884    
   X59.332       Y24.655    
   X59.516       Y24.796    
   X59.191       Y24.471    
   X59.332       Y24.655    
   X59.103       Y24.258    
   X59.191       Y24.471    
G0   Z15.000    
(Pass: 1)
   X69.059       Y23.924    
G1   Z-0.500     F200 
   X69.103       Y24.258     F400 
   X69.065       Y15.322    
   Y23.924    
   X69.109       Y14.987    
   X69.065       Y15.322    
   X69.197       Y14.773    
   X69.109       Y14.987    
   X69.338       Y14.590    
   X69.197       Y14.773    
   X69.522       Y14.449    
   X69.338       Y14.590    
   X69.735       Y14.360    
   X69.522       Y14.449    
   X69.965       Y14.330    
   X69.735       Y14.360    
   X70.194    
   X69.965       Y14.330    
   X70.408       Y14.449    
   X70.194       Y14.360    
   X70.591       Y14.590    
   X70.408       Y14.449    
   X70.732       Y14.773    
   X70.591       Y14.590    
   X70.821       Y14.987    
   X70.732       Y14.773    
   X70.865       Y15.321    
   X70.821       Y14.987    
   X70.859       Y23.923    
   Y15.321    
   X70.815       Y24.258    
   X70.859       Y23.923    
   X70.726       Y24.471    
   X70.815       Y24.258    
   X70.585       Y24.655    
   X70.726       Y24.471    
   X70.402       Y24.796    
   X70.585       Y24.655    
   X70.188       Y24.884    
   X70.402       Y24.796    
   X69.959       Y24.915    
   X70.188       Y24.884    
   X69.729    
   X69.959       Y24.915    
   X69.516       Y24.796    
   X69.729       Y24.884    
   X69.332       Y24.655    
   X69.516       Y24.796    
   X69.191       Y24.471    
   X69.332       Y24.655    
   X69.103       Y24.258    
   X69.191       Y24.471    
(Pass: 2)
   X69.059       Y23.924    
   Z-1.000     F200 
   X69.103       Y24.258     F400 
   X69.065       Y15.322    
   Y23.924    
   X69.109       Y14.987    
   X69.065       Y15.322    
   X69.197       Y14.773    
   X69.109       Y14.987    
   X69.338       Y14.590    
   X69.197       Y14.773    
   X69.522       Y14.449    
   X69.338       Y14.590    
   X69.735       Y14.360    
   X69.522       Y14.449    
   X69.965       Y14.330    
   X69.735       Y14.360    
   X70.194    
   X69.965       Y14.330    
   X70.408       Y14.449    
   X70.194       Y14.360    
   X70.591       Y14.590    
   X70.408       Y14.449    
   X70.732       Y14.773    
   X70.591       Y14.590    
   X70.821       Y14.987    
   X70.732       Y14.773    
   X70.865       Y15.321    
   X70.821       Y14.987    
   X70.859       Y23.923    
   Y15.321    
   X70.815       Y24.258    
   X70.859       Y23.923    
   X70.726       Y24.471    
   X70.815       Y24.258    
   X70.585       Y24.655    
   X70.726       Y24.471    
   X70.402       Y24.796    
   X70.585       Y24.655    
   X70.188       Y24.884    
   X70.402       Y24.796    
   X69.959       Y24.915    
   X70.188       Y24.884    
   X69.729    
   X69.959       Y24.915    
   X69.516       Y24.796    
   X69.729       Y24.884    
   X69.332       Y24.655    
   X69.516       Y24.796    
   X69.191       Y24.471    
   X69.332       Y24.655    
   X69.103       Y24.258    
   X69.191       Y24.471    
(Pass: 3)
   X69.059       Y23.924    
   Z-1.500     F200 
   X69.103       Y24.258     F400 
   X69.065       Y15.322    
   Y23.924    
   X69.109       Y14.987    
   X69.065       Y15.322    
   X69.197       Y14.773    
   X69.109       Y14.987    
   X69.338       Y14.590    
   X69.197       Y14.773    
   X69.522       Y14.449    
   X69.338       Y14.590    
   X69.735       Y14.360    
   X69.522       Y14.449    
   X69.965       Y14.330    
   X69.735       Y14.360    
   X70.194    
   X69.965       Y14.330    
   X70.408       Y14.449    
   X70.194       Y14.360    
   X70.591       Y14.590    
   X70.408       Y14.449    
   X70.732       Y14.773    
   X70.591       Y14.590    
   X70.821       Y14.987    
   X70.732       Y14.773    
   X70.865       Y15.321    
   X70.821       Y14.987    
   X70.859       Y23.923    
   Y15.321    
   X70.815       Y24.258    
   X70.859       Y23.923    
   X70.726       Y24.471    
   X70.815       Y24.258    
   X70.585       Y24.655    
   X70.726       Y24.471    
   X70.402       Y24.796    
   X70.585       Y24.655    
   X70.188       Y24.884    
   X70.402       Y24.796    
   X69.959       Y24.915    
   X70.188       Y24.884    
   X69.729    
   X69.959       Y24.915    
   X69.516       Y24.796    
   X69.729       Y24.884    
   X69.332       Y24.655    
   X69.516       Y24.796    
   X69.191       Y24.471    
   X69.332       Y24.655    
   X69.103       Y24.258    
   X69.191       Y24.471    
(Pass: 4)
   X69.059       Y23.924    
   Z-2.000     F200 
   X69.103       Y24.258     F400 
   X69.065       Y15.322    
   Y23.924    
   X69.109       Y14.987    
   X69.065       Y15.322    
   X69.197       Y14.773    
   X69.109       Y14.987    
   X69.338       Y14.590    
   X69.197       Y14.773    
   X69.522       Y14.449    
   X69.338       Y14.590    
   X69.735       Y14.360    
   X69.522       Y14.449    
   X69.965       Y14.330    
   X69.735       Y14.360    
   X70.194    
   X69.965       Y14.330    
   X70.408       Y14.449    
   X70.194       Y14.360    
   X70.591       Y14.590    
   X70.408       Y14.449    
   X70.732       Y14.773    
   X70.591       Y14.590    
   X70.821       Y14.987    
   X70.732       Y14.773    
   X70.865       Y15.321    
   X70.821       Y14.987    
   X70.859       Y23.923    
   Y15.321    
   X70.815       Y24.258    
   X70.859       Y23.923    
   X70.726       Y24.471    
   X70.815       Y24.258    
   X70.585       Y24.655    
   X70.726       Y24.471    
   X70.402       Y24.796    
   X70.585       Y24.655    
   X70.188       Y24.884    
   X70.402       Y24.796    
   X69.959       Y24.915    
   X70.188       Y24.884    
   X69.729    
   X69.959       Y24.915    
   X69.516       Y24.796    
   X69.729       Y24.884    
   X69.332       Y24.655    
   X69.516       Y24.796    
   X69.191       Y24.471    
   X69.332       Y24.655    
   X69.103       Y24.258    
   X69.191       Y24.471    
(Pass: 5)
   X69.059       Y23.924    
   Z-2.500     F200 
   X69.103       Y24.258     F400 
   X69.065       Y15.322    
   Y23.924    
   X69.109       Y14.987    
   X69.065       Y15.322    
   X69.197       Y14.773    
   X69.109       Y14.987    
   X69.338       Y14.590    
   X69.197       Y14.773    
   X69.522       Y14.449    
   X69.338       Y14.590    
   X69.735       Y14.360    
   X69.522       Y14.449    
   X69.965       Y14.330    
   X69.735       Y14.360    
   X70.194    
   X69.965       Y14.330    
   X70.408       Y14.449    
   X70.194       Y14.360    
   X70.591       Y14.590    
   X70.408       Y14.449    
   X70.732       Y14.773    
   X70.591       Y14.590    
   X70.821       Y14.987    
   X70.732       Y14.773    
   X70.865       Y15.321    
   X70.821       Y14.987    
   X70.859       Y23.923    
   Y15.321    
   X70.815       Y24.258    
   X70.859       Y23.923    
   X70.726       Y24.471    
   X70.815       Y24.258    
   X70.585       Y24.655    
   X70.726       Y24.471    
   X70.402       Y24.796    
   X70.585       Y24.655    
   X70.188       Y24.884    
   X70.402       Y24.796    
   X69.959       Y24.915    
   X70.188       Y24.884    
   X69.729    
   X69.959       Y24.915    
   X69.516       Y24.796    
   X69.729       Y24.884    
   X69.332       Y24.655    
   X69.516       Y24.796    
   X69.191       Y24.471    
   X69.332       Y24.655    
   X69.103       Y24.258    
   X69.191       Y24.471    
(Pass: 6)
   X69.059       Y23.924    
   Z-2.700     F200 
   X69.103       Y24.258     F400 
   X69.065       Y15.322    
   Y23.924    
   X69.109       Y14.987    
   X69.065       Y15.322    
   X69.197       Y14.773    
   X69.109       Y14.987    
   X69.338       Y14.590    
   X69.197       Y14.773    
   X69.522       Y14.449    
   X69.338       Y14.590    
   X69.735       Y14.360    
   X69.522       Y14.449    
   X69.965       Y14.330    
   X69.735       Y14.360    
   X70.194    
   X69.965       Y14.330    
   X70.408       Y14.449    
   X70.194       Y14.360    
   X70.591       Y14.590    
   X70.408       Y14.449    
   X70.732       Y14.773    
   X70.591       Y14.590    
   X70.821       Y14.987    
   X70.732       Y14.773    
   X70.865       Y15.321    
   X70.821       Y14.987    
   X70.859       Y23.923    
   Y15.321    
   X70.815       Y24.258    
   X70.859       Y23.923    
   X70.726       Y24.471    
   X70.815       Y24.258    
   X70.585       Y24.655    
   X70.726       Y24.471    
   X70.402       Y24.796    
   X70.585       Y24.655    
   X70.188       Y24.884    
   X70.402       Y24.796    
   X69.959       Y24.915    
   X70.188       Y24.884    
   X69.729    
   X69.959       Y24.915    
   X69.516       Y24.796    
   X69.729       Y24.884    
   X69.332       Y24.655    
   X69.516       Y24.796    
   X69.191       Y24.471    
   X69.332       Y24.655    
   X69.103       Y24.258    
   X69.191       Y24.471    
G0   Z15.000    
(Pass: 1)
   X79.059       Y23.924    
G1   Z-0.500     F200 
   X79.103       Y24.258     F400 
   X79.065       Y15.322    
   Y23.924    
   X79.109       Y14.987    
   X79.065       Y15.322    
   X79.197       Y14.773    
   X79.109       Y14.987    
   X79.338       Y14.590    
   X79.197       Y14.773    
   X79.522       Y14.449    
   X79.338       Y14.590    
   X79.735       Y14.360    
   X79.522       Y14.449    
   X79.965       Y14.330    
   X79.735       Y14.360    
   X80.194    
   X79.965       Y14.330    
   X80.408       Y14.449    
   X80.194       Y14.360    
   X80.591       Y14.590    
   X80.408       Y14.449    
   X80.732       Y14.773    
   X80.591       Y14.590    
   X80.821       Y14.987    
   X80.732       Y14.773    
   X80.865       Y15.321    
   X80.821       Y14.987    
   X80.859       Y23.923    
   Y15.321    
   X80.815       Y24.258    
   X80.859       Y23.923    
   X80.726       Y24.471    
   X80.815       Y24.258    
   X80.585       Y24.655    
   X80.726       Y24.471    
   X80.402       Y24.796    
   X80.585       Y24.655    
   X80.188       Y24.884    
   X80.402       Y24.796    
   X79.959       Y24.915    
   X80.188       Y24.884    
   X79.729    
   X79.959       Y24.915    
   X79.516       Y24.796    
   X79.729       Y24.884    
   X79.332       Y24.655    
   X79.516       Y24.796    
   X79.191       Y24.471    
   X79.332       Y24.655    
   X79.103       Y24.258    
   X79.191       Y24.471    
(Pass: 2)
   X79.059       Y23.924    
   Z-1.000     F200 
   X79.103       Y24.258     F400 
   X79.065       Y15.322    
   Y23.924    
   X79.109       Y14.987    
   X79.065       Y15.322    
   X79.197       Y14.773    
   X79.109       Y14.987    
   X79.338       Y14.590    
   X79.197       Y14.773    
   X79.522       Y14.449    
   X79.338       Y14.590    
   X79.735       Y14.360    
   X79.522       Y14.449    
   X79.965       Y14.330    
   X79.735       Y14.360    
   X80.194    
   X79.965       Y14.330    
   X80.408       Y14.449    
   X80.194       Y14.360    
   X80.591       Y14.590    
   X80.408       Y14.449    
   X80.732       Y14.773    
   X80.591       Y14.590    
   X80.821       Y14.987    
   X80.732       Y14.773    
   X80.865       Y15.321    
   X80.821       Y14.987    
   X80.859       Y23.923    
   Y15.321    
   X80.815       Y24.258    
   X80.859       Y23.923    
   X80.726       Y24.471    
   X80.815       Y24.258    
   X80.585       Y24.655    
   X80.726       Y24.471    
   X80.402       Y24.796    
   X80.585       Y24.655    
   X80.188       Y24.884    
   X80.402       Y24.796    
   X79.959       Y24.915    
   X80.188       Y24.884    
   X79.729    
   X79.959       Y24.915    
   X79.516       Y24.796    
   X79.729       Y24.884    
   X79.332       Y24.655    
   X79.516       Y24.796    
   X79.191       Y24.471    
   X79.332       Y24.655    
   X79.103       Y24.258    
   X79.191       Y24.471    
(Pass: 3)
   X79.059       Y23.924    
   Z-1.500     F200 
   X79.103       Y24.258     F400 
   X79.065       Y15.322    
   Y23.924    
   X79.109       Y14.987    
   X79.065       Y15.322    
   X79.197       Y14.773    
   X79.109       Y14.987    
   X79.338       Y14.590    
   X79.197       Y14.773    
   X79.522       Y14.449    
   X79.338       Y14.590    
   X79.735       Y14.360    
   X79.522       Y14.449    
   X79.965       Y14.330    
   X79.735       Y14.360    
   X80.194    
   X79.965       Y14.330    
   X80.408       Y14.449    
   X80.194       Y14.360    
   X80.591       Y14.590    
   X80.408       Y14.449    
   X80.732       Y14.773    
   X80.591       Y14.590    
   X80.821       Y14.987    
   X80.732       Y14.773    
   X80.865       Y15.321    
   X80.821       Y14.987    
   X80.859       Y23.923    
   Y15.321    
   X80.815       Y24.258    
   X80.859       Y23.923    
   X80.726       Y24.471    
   X80.815       Y24.258    
   X80.585       Y24.655    
   X80.726       Y24.471    
   X80.402       Y24.796    
   X80.585       Y24.655    
   X80.188       Y24.884    
   X80.402       Y24.796    
   X79.959       Y24.915    
   X80.188       Y24.884    
   X79.729    
   X79.959       Y24.915    
   X79.516       Y24.796    
   X79.729       Y24.884    
   X79.332       Y24.655    
   X79.516       Y24.796    
   X79.191       Y24.471    
   X79.332       Y24.655    
   X79.103       Y24.258    
   X79.191       Y24.471    
(Pass: 4)
   X79.059       Y23.924    
   Z-2.000     F200 
   X79.103       Y24.258     F400 
   X79.065       Y15.322    
   Y23.924    
   X79.109       Y14.987    
   X79.065       Y15.322    
   X79.197       Y14.773    
   X79.109       Y14.987    
   X79.338       Y14.590    
   X79.197       Y14.773    
   X79.522       Y14.449    
   X79.338       Y14.590    
   X79.735       Y14.360    
   X79.522       Y14.449    
   X79.965       Y14.330    
   X79.735       Y14.360    
   X80.194    
   X79.965       Y14.330    
   X80.408       Y14.449    
   X80.194       Y14.360    
   X80.591       Y14.590    
   X80.408       Y14.449    
   X80.732       Y14.773    
   X80.591       Y14.590    
   X80.821       Y14.987    
   X80.732       Y14.773    
   X80.865       Y15.321    
   X80.821       Y14.987    
   X80.859       Y23.923    
   Y15.321    
   X80.815       Y24.258    
   X80.859       Y23.923    
   X80.726       Y24.471    
   X80.815       Y24.258    
   X80.585       Y24.655    
   X80.726       Y24.471    
   X80.402       Y24.796    
   X80.585       Y24.655    
   X80.188       Y24.884    
   X80.402       Y24.796    
   X79.959       Y24.915    
   X80.188       Y24.884    
   X79.729    
   X79.959       Y24.915    
   X79.516       Y24.796    
   X79.729       Y24.884    
   X79.332       Y24.655    
   X79.516       Y24.796    
   X79.191       Y24.471    
   X79.332       Y24.655    
   X79.103       Y24.258    
   X79.191       Y24.471    
(Pass: 5)
   X79.059       Y23.924    
   Z-2.500     F200 
   X79.103       Y24.258     F400 
   X79.065       Y15.322    
   Y23.924    
   X79.109       Y14.987    
   X79.065       Y15.322    
   X79.197       Y14.773    
   X79.109       Y14.987    
   X79.338       Y14.590    
   X79.197       Y14.773    
   X79.522       Y14.449    
   X79.338       Y14.590    
   X79.735       Y14.360    
   X79.522       Y14.449    
   X79.965       Y14.330    
   X79.735       Y14.360    
   X80.194    
   X79.965       Y14.330    
   X80.408       Y14.449    
   X80.194       Y14.360    
   X80.591       Y14.590    
   X80.408       Y14.449    
   X80.732       Y14.773    
   X80.591       Y14.590    
   X80.821       Y14.987    
   X80.732       Y14.773    
   X80.865       Y15.321    
   X80.821       Y14.987    
   X80.859       Y23.923    
   Y15.321    
   X80.815       Y24.258    
   X80.859       Y23.923    
   X80.726       Y24.471    
   X80.815       Y24.258    
   X80.585       Y24.655    
   X80.726       Y24.471    
   X80.402       Y24.796    
   X80.585       Y24.655    
   X80.188       Y24.884    
   X80.402       Y24.796    
   X79.959       Y24.915    
   X80.188       Y24.884    
   X79.729    
   X79.959       Y24.915    
   X79.516       Y24.796    
   X79.729       Y24.884    
   X79.332       Y24.655    
   X79.516       Y24.796    
   X79.191       Y24.471    
   X79.332       Y24.655    
   X79.103       Y24.258    
   X79.191       Y24.471    
(Pass: 6)
   X79.059       Y23.924    
   Z-2.700     F200 
   X79.103       Y24.258     F400 
   X79.065       Y15.322    
   Y23.924    
   X79.109       Y14.987    
   X79.065       Y15.322    
   X79.197       Y14.773    
   X79.109       Y14.987    
   X79.338       Y14.590    
   X79.197       Y14.773    
   X79.522       Y14.449    
   X79.338       Y14.590    
   X79.735       Y14.360    
   X79.522       Y14.449    
   X79.965       Y14.330    
   X79.735       Y14.360    
   X80.194    
   X79.965       Y14.330    
   X80.408       Y14.449    
   X80.194       Y14.360    
   X80.591       Y14.590    
   X80.408       Y14.449    
   X80.732       Y14.773    
   X80.591       Y14.590    
   X80.821       Y14.987    
   X80.732       Y14.773    
   X80.865       Y15.321    
   X80.821       Y14.987    
   X80.859       Y23.923    
   Y15.321    
   X80.815       Y24.258    
   X80.859       Y23.923    
   X80.726       Y24.471    
   X80.815       Y24.258    
   X80.585       Y24.655    
   X80.726       Y24.471    
   X80.402       Y24.796    
   X80.585       Y24.655    
   X80.188       Y24.884    
   X80.402       Y24.796    
   X79.959       Y24.915    
   X80.188       Y24.884    
   X79.729    
   X79.959       Y24.915    
   X79.516       Y24.796    
   X79.729       Y24.884    
   X79.332       Y24.655    
   X79.516       Y24.796    
   X79.191       Y24.471    
   X79.332       Y24.655    
   X79.103       Y24.258    
   X79.191       Y24.471    
G0   Z15.000    
(Pass: 1)
   X83.089       Y39.134    
G1   Z-0.500     F200 
   X82.866       Y39.226     F400 
   X83.329       Y39.102    
   X83.089       Y39.134    
   X83.568    
   X83.329       Y39.102    
   X83.792       Y39.226    
   X83.568       Y39.134    
   X83.984       Y39.373    
   X83.792       Y39.226    
   X84.131       Y39.565    
   X83.984       Y39.373    
   X84.223       Y39.789    
   X84.131       Y39.565    
   X84.255       Y40.028    
   X84.223       Y39.789    
   Y40.268    
   X84.255       Y40.028    
   X84.131       Y40.491    
   X84.223       Y40.268    
   X83.984       Y40.683    
   X84.131       Y40.491    
   X83.792       Y40.830    
   X83.984       Y40.683    
   X83.568       Y40.923    
   X83.792       Y40.830    
   X83.329       Y40.954    
   X83.568       Y40.923    
   X83.089    
   X83.329       Y40.954    
   X82.866       Y40.830    
   X83.089       Y40.923    
   X82.674       Y40.683    
   X82.866       Y40.830    
   X82.527       Y40.491    
   X82.674       Y40.683    
   X82.434       Y40.268    
   X82.527       Y40.491    
   X82.403       Y40.028    
   X82.434       Y40.268    
   Y39.789    
   X82.403       Y40.028    
   X82.527       Y39.565    
   X82.434       Y39.789    
   X82.674       Y39.373    
   X82.527       Y39.565    
   X82.866       Y39.226    
   X82.674       Y39.373    
(Pass: 2)
   X83.089       Y39.134    
   Z-1.000     F200 
   X82.866       Y39.226     F400 
   X83.329       Y39.102    
   X83.089       Y39.134    
   X83.568    
   X83.329       Y39.102    
   X83.792       Y39.226    
   X83.568       Y39.134    
   X83.984       Y39.373    
   X83.792       Y39.226    
   X84.131       Y39.565    
   X83.984       Y39.373    
   X84.223       Y39.789    
   X84.131       Y39.565    
   X84.255       Y40.028    
   X84.223       Y39.789    
   Y40.268    
   X84.255       Y40.028    
   X84.131       Y40.491    
   X84.223       Y40.268    
   X83.984       Y40.683    
   X84.131       Y40.491    
   X83.792       Y40.830    
   X83.984       Y40.683    
   X83.568       Y40.923    
   X83.792       Y40.830    
   X83.329       Y40.954    
   X83.568       Y40.923    
   X83.089    
   X83.329       Y40.954    
   X82.866       Y40.830    
   X83.089       Y40.923    
   X82.674       Y40.683    
   X82.866       Y40.830    
   X82.527       Y40.491    
   X82.674       Y40.683    
   X82.434       Y40.268    
   X82.527       Y40.491    
   X82.403       Y40.028    
   X82.434       Y40.268    
   Y39.789    
   X82.403       Y40.028    
   X82.527       Y39.565    
   X82.434       Y39.789    
   X82.674       Y39.373    
   X82.527       Y39.565    
   X82.866       Y39.226    
   X82.674       Y39.373    
(Pass: 3)
   X83.089       Y39.134    
   Z-1.500     F200 
   X82.866       Y39.226     F400 
   X83.329       Y39.102    
   X83.089       Y39.134    
   X83.568    
   X83.329       Y39.102    
   X83.792       Y39.226    
   X83.568       Y39.134    
   X83.984       Y39.373    
   X83.792       Y39.226    
   X84.131       Y39.565    
   X83.984       Y39.373    
   X84.223       Y39.789    
   X84.131       Y39.565    
   X84.255       Y40.028    
   X84.223       Y39.789    
   Y40.268    
   X84.255       Y40.028    
   X84.131       Y40.491    
   X84.223       Y40.268    
   X83.984       Y40.683    
   X84.131       Y40.491    
   X83.792       Y40.830    
   X83.984       Y40.683    
   X83.568       Y40.923    
   X83.792       Y40.830    
   X83.329       Y40.954    
   X83.568       Y40.923    
   X83.089    
   X83.329       Y40.954    
   X82.866       Y40.830    
   X83.089       Y40.923    
   X82.674       Y40.683    
   X82.866       Y40.830    
   X82.527       Y40.491    
   X82.674       Y40.683    
   X82.434       Y40.268    
   X82.527       Y40.491    
   X82.403       Y40.028    
   X82.434       Y40.268    
   Y39.789    
   X82.403       Y40.028    
   X82.527       Y39.565    
   X82.434       Y39.789    
   X82.674       Y39.373    
   X82.527       Y39.565    
   X82.866       Y39.226    
   X82.674       Y39.373    
(Pass: 4)
   X83.089       Y39.134    
   Z-2.000     F200 
   X82.866       Y39.226     F400 
   X83.329       Y39.102    
   X83.089       Y39.134    
   X83.568    
   X83.329       Y39.102    
   X83.792       Y39.226    
   X83.568       Y39.134    
   X83.984       Y39.373    
   X83.792       Y39.226    
   X84.131       Y39.565    
   X83.984       Y39.373    
   X84.223       Y39.789    
   X84.131       Y39.565    
   X84.255       Y40.028    
   X84.223       Y39.789    
   Y40.268    
   X84.255       Y40.028    
   X84.131       Y40.491    
   X84.223       Y40.268    
   X83.984       Y40.683    
   X84.131       Y40.491    
   X83.792       Y40.830    
   X83.984       Y40.683    
   X83.568       Y40.923    
   X83.792       Y40.830    
   X83.329       Y40.954    
   X83.568       Y40.923    
   X83.089    
   X83.329       Y40.954    
   X82.866       Y40.830    
   X83.089       Y40.923    
   X82.674       Y40.683    
   X82.866       Y40.830    
   X82.527       Y40.491    
   X82.674       Y40.683    
   X82.434       Y40.268    
   X82.527       Y40.491    
   X82.403       Y40.028    
   X82.434       Y40.268    
   Y39.789    
   X82.403       Y40.028    
   X82.527       Y39.565    
   X82.434       Y39.789    
   X82.674       Y39.373    
   X82.527       Y39.565    
   X82.866       Y39.226    
   X82.674       Y39.373    
(Pass: 5)
   X83.089       Y39.134    
   Z-2.500     F200 
   X82.866       Y39.226     F400 
   X83.329       Y39.102    
   X83.089       Y39.134    
   X83.568    
   X83.329       Y39.102    
   X83.792       Y39.226    
   X83.568       Y39.134    
   X83.984       Y39.373    
   X83.792       Y39.226    
   X84.131       Y39.565    
   X83.984       Y39.373    
   X84.223       Y39.789    
   X84.131       Y39.565    
   X84.255       Y40.028    
   X84.223       Y39.789    
   Y40.268    
   X84.255       Y40.028    
   X84.131       Y40.491    
   X84.223       Y40.268    
   X83.984       Y40.683    
   X84.131       Y40.491    
   X83.792       Y40.830    
   X83.984       Y40.683    
   X83.568       Y40.923    
   X83.792       Y40.830    
   X83.329       Y40.954    
   X83.568       Y40.923    
   X83.089    
   X83.329       Y40.954    
   X82.866       Y40.830    
   X83.089       Y40.923    
   X82.674       Y40.683    
   X82.866       Y40.830    
   X82.527       Y40.491    
   X82.674       Y40.683    
   X82.434       Y40.268    
   X82.527       Y40.491    
   X82.403       Y40.028    
   X82.434       Y40.268    
   Y39.789    
   X82.403       Y40.028    
   X82.527       Y39.565    
   X82.434       Y39.789    
   X82.674       Y39.373    
   X82.527       Y39.565    
   X82.866       Y39.226    
   X82.674       Y39.373    
(Pass: 6)
   X83.089       Y39.134    
   Z-2.700     F200 
   X82.866       Y39.226     F400 
   X83.329       Y39.102    
   X83.089       Y39.134    
   X83.568    
   X83.329       Y39.102    
   X83.792       Y39.226    
   X83.568       Y39.134    
   X83.984       Y39.373    
   X83.792       Y39.226    
   X84.131       Y39.565    
   X83.984       Y39.373    
   X84.223       Y39.789    
   X84.131       Y39.565    
   X84.255       Y40.028    
   X84.223       Y39.789    
   Y40.268    
   X84.255       Y40.028    
   X84.131       Y40.491    
   X84.223       Y40.268    
   X83.984       Y40.683    
   X84.131       Y40.491    
   X83.792       Y40.830    
   X83.984       Y40.683    
   X83.568       Y40.923    
   X83.792       Y40.830    
   X83.329       Y40.954    
   X83.568       Y40.923    
   X83.089    
   X83.329       Y40.954    
   X82.866       Y40.830    
   X83.089       Y40.923    
   X82.674       Y40.683    
   X82.866       Y40.830    
   X82.527       Y40.491    
   X82.674       Y40.683    
   X82.434       Y40.268    
   X82.527       Y40.491    
   X82.403       Y40.028    
   X82.434       Y40.268    
   Y39.789    
   X82.403       Y40.028    
   X82.527       Y39.565    
   X82.434       Y39.789    
   X82.674       Y39.373    
   X82.527       Y39.565    
   X82.866       Y39.226    
   X82.674       Y39.373    
G0   Z15.000    
(Pass: 1)
   X52.359       Y39.640    
G1   Z-0.500     F200 
G17 G2   X52.3717      Y40.2624      R2.4000     F400 
   X52.2230      Y40.8673      R2.4000    
   X51.9228      Y41.4131      R2.4000    
   X51.4915      Y41.8626      R2.4000    
   X50.9586      Y42.1852      R2.4000    
   X50.3604      Y42.3588      R2.4000    
   X49.6769      Y42.3730      R2.4000    
   X49.1475      Y42.2311      R2.4000    
   X48.5869      Y41.9228      R2.4000    
   X48.1374      Y41.4915      R2.4000    
   X47.8148      Y40.9586      R2.4000    
   X47.6412      Y40.3604      R2.4000    
   X47.6283      Y39.7376      R2.4000    
   X47.7770      Y39.1327      R2.4000    
   X48.0772      Y38.5869      R2.4000    
   X48.5085      Y38.1374      R2.4000    
   X49.0414      Y37.8148      R2.4000    
   X49.6396      Y37.6412      R2.4000    
   X50.2624      Y37.6283      R2.4000    
   X50.8673      Y37.7770      R2.4000    
   X51.4131      Y38.0772      R2.4000    
   X51.8626      Y38.5085      R2.4000    
   X52.1852      Y39.0414      R2.4000    
   X52.3588      Y39.6396      R2.4000    
(Pass: 2)
G1   Z-1.000     F200 
G17 G2   X52.3717      Y40.2624      R2.4000     F400 
   X52.2230      Y40.8673      R2.4000    
   X51.9228      Y41.4131      R2.4000    
   X51.4915      Y41.8626      R2.4000    
   X50.9586      Y42.1852      R2.4000    
   X50.3604      Y42.3588      R2.4000    
   X49.6769      Y42.3730      R2.4000    
   X49.1475      Y42.2311      R2.4000    
   X48.5869      Y41.9228      R2.4000    
   X48.1374      Y41.4915      R2.4000    
   X47.8148      Y40.9586      R2.4000    
   X47.6412      Y40.3604      R2.4000    
   X47.6283      Y39.7376      R2.4000    
   X47.7770      Y39.1327      R2.4000    
   X48.0772      Y38.5869      R2.4000    
   X48.5085      Y38.1374      R2.4000    
   X49.0414      Y37.8148      R2.4000    
   X49.6396      Y37.6412      R2.4000    
   X50.2624      Y37.6283      R2.4000    
   X50.8673      Y37.7770      R2.4000    
   X51.4131      Y38.0772      R2.4000    
   X51.8626      Y38.5085      R2.4000    
   X52.1852      Y39.0414      R2.4000    
   X52.3588      Y39.6396      R2.4000    
(Pass: 3)
G1   Z-1.500     F200 
G17 G2   X52.3717      Y40.2624      R2.4000     F400 
   X52.2230      Y40.8673      R2.4000    
   X51.9228      Y41.4131      R2.4000    
   X51.4915      Y41.8626      R2.4000    
   X50.9586      Y42.1852      R2.4000    
   X50.3604      Y42.3588      R2.4000    
   X49.6769      Y42.3730      R2.4000    
   X49.1475      Y42.2311      R2.4000    
   X48.5869      Y41.9228      R2.4000    
   X48.1374      Y41.4915      R2.4000    
   X47.8148      Y40.9586      R2.4000    
   X47.6412      Y40.3604      R2.4000    
   X47.6283      Y39.7376      R2.4000    
   X47.7770      Y39.1327      R2.4000    
   X48.0772      Y38.5869      R2.4000    
   X48.5085      Y38.1374      R2.4000    
   X49.0414      Y37.8148      R2.4000    
   X49.6396      Y37.6412      R2.4000    
   X50.2624      Y37.6283      R2.4000    
   X50.8673      Y37.7770      R2.4000    
   X51.4131      Y38.0772      R2.4000    
   X51.8626      Y38.5085      R2.4000    
   X52.1852      Y39.0414      R2.4000    
   X52.3588      Y39.6396      R2.4000    
(Pass: 4)
G1   Z-2.000     F200 
G17 G2   X52.3717      Y40.2624      R2.4000     F400 
   X52.2230      Y40.8673      R2.4000    
   X51.9228      Y41.4131      R2.4000    
   X51.4915      Y41.8626      R2.4000    
   X50.9586      Y42.1852      R2.4000    
   X50.3604      Y42.3588      R2.4000    
   X49.6769      Y42.3730      R2.4000    
   X49.1475      Y42.2311      R2.4000    
   X48.5869      Y41.9228      R2.4000    
   X48.1374      Y41.4915      R2.4000    
   X47.8148      Y40.9586      R2.4000    
   X47.6412      Y40.3604      R2.4000    
   X47.6283      Y39.7376      R2.4000    
   X47.7770      Y39.1327      R2.4000    
   X48.0772      Y38.5869      R2.4000    
   X48.5085      Y38.1374      R2.4000    
   X49.0414      Y37.8148      R2.4000    
   X49.6396      Y37.6412      R2.4000    
   X50.2624      Y37.6283      R2.4000    
   X50.8673      Y37.7770      R2.4000    
   X51.4131      Y38.0772      R2.4000    
   X51.8626      Y38.5085      R2.4000    
   X52.1852      Y39.0414      R2.4000    
   X52.3588      Y39.6396      R2.4000    
(Pass: 5)
G1   Z-2.500     F200 
G17 G2   X52.3717      Y40.2624      R2.4000     F400 
   X52.2230      Y40.8673      R2.4000    
   X51.9228      Y41.4131      R2.4000    
   X51.4915      Y41.8626      R2.4000    
   X50.9586      Y42.1852      R2.4000    
   X50.3604      Y42.3588      R2.4000    
   X49.6769      Y42.3730      R2.4000    
   X49.1475      Y42.2311      R2.4000    
   X48.5869      Y41.9228      R2.4000    
   X48.1374      Y41.4915      R2.4000    
   X47.8148      Y40.9586      R2.4000    
   X47.6412      Y40.3604      R2.4000    
   X47.6283      Y39.7376      R2.4000    
   X47.7770      Y39.1327      R2.4000    
   X48.0772      Y38.5869      R2.4000    
   X48.5085      Y38.1374      R2.4000    
   X49.0414      Y37.8148      R2.4000    
   X49.6396      Y37.6412      R2.4000    
   X50.2624      Y37.6283      R2.4000    
   X50.8673      Y37.7770      R2.4000    
   X51.4131      Y38.0772      R2.4000    
   X51.8626      Y38.5085      R2.4000    
   X52.1852      Y39.0414      R2.4000    
   X52.3588      Y39.6396      R2.4000    
(Pass: 6)
G1   Z-2.700     F200 
G17 G2   X52.3717      Y40.2624      R2.4000     F400 
   X52.2230      Y40.8673      R2.4000    
   X51.9228      Y41.4131      R2.4000    
   X51.4915      Y41.8626      R2.4000    
   X50.9586      Y42.1852      R2.4000    
   X50.3604      Y42.3588      R2.4000    
   X49.6769      Y42.3730      R2.4000    
   X49.1475      Y42.2311      R2.4000    
   X48.5869      Y41.9228      R2.4000    
   X48.1374      Y41.4915      R2.4000    
   X47.8148      Y40.9586      R2.4000    
   X47.6412      Y40.3604      R2.4000    
   X47.6283      Y39.7376      R2.4000    
   X47.7770      Y39.1327      R2.4000    
   X48.0772      Y38.5869      R2.4000    
   X48.5085      Y38.1374      R2.4000    
   X49.0414      Y37.8148      R2.4000    
   X49.6396      Y37.6412      R2.4000    
   X50.2624      Y37.6283      R2.4000    
   X50.8673      Y37.7770      R2.4000    
   X51.4131      Y38.0772      R2.4000    
   X51.8626      Y38.5085      R2.4000    
   X52.1852      Y39.0414      R2.4000    
   X52.3588      Y39.6396      R2.4000    
G0   Z15.000    
(Pass: 1)
   X17.586       Y40.028    
G1   Z-0.500     F200 
   X17.554       Y39.789     F400 
   Y40.268    
   X17.586       Y40.028    
   X17.461       Y40.491    
   X17.554       Y40.268    
   X17.314       Y40.683    
   X17.461       Y40.491    
   X17.122       Y40.830    
   X17.314       Y40.683    
   X16.899       Y40.923    
   X17.122       Y40.830    
   X16.659       Y40.954    
   X16.899       Y40.923    
   X16.420    
   X16.659       Y40.954    
   X16.196       Y40.830    
   X16.420       Y40.923    
   X16.004       Y40.683    
   X16.196       Y40.830    
   X15.857       Y40.491    
   X16.004       Y40.683    
   X15.765       Y40.268    
   X15.857       Y40.491    
   X15.733       Y40.028    
   X15.765       Y40.268    
   Y39.789    
   X15.733       Y40.028    
   X15.857       Y39.565    
   X15.765       Y39.789    
   X16.004       Y39.373    
   X15.857       Y39.565    
   X16.196       Y39.226    
   X16.004       Y39.373    
   X16.420       Y39.134    
   X16.196       Y39.226    
   X16.659       Y39.102    
   X16.420       Y39.134    
   X16.899    
   X16.659       Y39.102    
   X17.122       Y39.226    
   X16.899       Y39.134    
   X17.314       Y39.373    
   X17.122       Y39.226    
   X17.461       Y39.565    
   X17.314       Y39.373    
   X17.554       Y39.789    
   X17.461       Y39.565    
(Pass: 2)
   X17.586       Y40.028    
   Z-1.000     F200 
   X17.554       Y39.789     F400 
   Y40.268    
   X17.586       Y40.028    
   X17.461       Y40.491    
   X17.554       Y40.268    
   X17.314       Y40.683    
   X17.461       Y40.491    
   X17.122       Y40.830    
   X17.314       Y40.683    
   X16.899       Y40.923    
   X17.122       Y40.830    
   X16.659       Y40.954    
   X16.899       Y40.923    
   X16.420    
   X16.659       Y40.954    
   X16.196       Y40.830    
   X16.420       Y40.923    
   X16.004       Y40.683    
   X16.196       Y40.830    
   X15.857       Y40.491    
   X16.004       Y40.683    
   X15.765       Y40.268    
   X15.857       Y40.491    
   X15.733       Y40.028    
   X15.765       Y40.268    
   Y39.789    
   X15.733       Y40.028    
   X15.857       Y39.565    
   X15.765       Y39.789    
   X16.004       Y39.373    
   X15.857       Y39.565    
   X16.196       Y39.226    
   X16.004       Y39.373    
   X16.420       Y39.134    
   X16.196       Y39.226    
   X16.659       Y39.102    
   X16.420       Y39.134    
   X16.899    
   X16.659       Y39.102    
   X17.122       Y39.226    
   X16.899       Y39.134    
   X17.314       Y39.373    
   X17.122       Y39.226    
   X17.461       Y39.565    
   X17.314       Y39.373    
   X17.554       Y39.789    
   X17.461       Y39.565    
(Pass: 3)
   X17.586       Y40.028    
   Z-1.500     F200 
   X17.554       Y39.789     F400 
   Y40.268    
   X17.586       Y40.028    
   X17.461       Y40.491    
   X17.554       Y40.268    
   X17.314       Y40.683    
   X17.461       Y40.491    
   X17.122       Y40.830    
   X17.314       Y40.683    
   X16.899       Y40.923    
   X17.122       Y40.830    
   X16.659       Y40.954    
   X16.899       Y40.923    
   X16.420    
   X16.659       Y40.954    
   X16.196       Y40.830    
   X16.420       Y40.923    
   X16.004       Y40.683    
   X16.196       Y40.830    
   X15.857       Y40.491    
   X16.004       Y40.683    
   X15.765       Y40.268    
   X15.857       Y40.491    
   X15.733       Y40.028    
   X15.765       Y40.268    
   Y39.789    
   X15.733       Y40.028    
   X15.857       Y39.565    
   X15.765       Y39.789    
   X16.004       Y39.373    
   X15.857       Y39.565    
   X16.196       Y39.226    
   X16.004       Y39.373    
   X16.420       Y39.134    
   X16.196       Y39.226    
   X16.659       Y39.102    
   X16.420       Y39.134    
   X16.899    
   X16.659       Y39.102    
   X17.122       Y39.226    
   X16.899       Y39.134    
   X17.314       Y39.373    
   X17.122       Y39.226    
   X17.461       Y39.565    
   X17.314       Y39.373    
   X17.554       Y39.789    
   X17.461       Y39.565    
(Pass: 4)
   X17.586       Y40.028    
   Z-2.000     F200 
   X17.554       Y39.789     F400 
   Y40.268    
   X17.586       Y40.028    
   X17.461       Y40.491    
   X17.554       Y40.268    
   X17.314       Y40.683    
   X17.461       Y40.491    
   X17.122       Y40.830    
   X17.314       Y40.683    
   X16.899       Y40.923    
   X17.122       Y40.830    
   X16.659       Y40.954    
   X16.899       Y40.923    
   X16.420    
   X16.659       Y40.954    
   X16.196       Y40.830    
   X16.420       Y40.923    
   X16.004       Y40.683    
   X16.196       Y40.830    
   X15.857       Y40.491    
   X16.004       Y40.683    
   X15.765       Y40.268    
   X15.857       Y40.491    
   X15.733       Y40.028    
   X15.765       Y40.268    
   Y39.789    
   X15.733       Y40.028    
   X15.857       Y39.565    
   X15.765       Y39.789    
   X16.004       Y39.373    
   X15.857       Y39.565    
   X16.196       Y39.226    
   X16.004       Y39.373    
   X16.420       Y39.134    
   X16.196       Y39.226    
   X16.659       Y39.102    
   X16.420       Y39.134    
   X16.899    
   X16.659       Y39.102    
   X17.122       Y39.226    
   X16.899       Y39.134    
   X17.314       Y39.373    
   X17.122       Y39.226    
   X17.461       Y39.565    
   X17.314       Y39.373    
   X17.554       Y39.789    
   X17.461       Y39.565    
(Pass: 5)
   X17.586       Y40.028    
   Z-2.500     F200 
   X17.554       Y39.789     F400 
   Y40.268    
   X17.586       Y40.028    
   X17.461       Y40.491    
   X17.554       Y40.268    
   X17.314       Y40.683    
   X17.461       Y40.491    
   X17.122       Y40.830    
   X17.314       Y40.683    
   X16.899       Y40.923    
   X17.122       Y40.830    
   X16.659       Y40.954    
   X16.899       Y40.923    
   X16.420    
   X16.659       Y40.954    
   X16.196       Y40.830    
   X16.420       Y40.923    
   X16.004       Y40.683    
   X16.196       Y40.830    
   X15.857       Y40.491    
   X16.004       Y40.683    
   X15.765       Y40.268    
   X15.857       Y40.491    
   X15.733       Y40.028    
   X15.765       Y40.268    
   Y39.789    
   X15.733       Y40.028    
   X15.857       Y39.565    
   X15.765       Y39.789    
   X16.004       Y39.373    
   X15.857       Y39.565    
   X16.196       Y39.226    
   X16.004       Y39.373    
   X16.420       Y39.134    
   X16.196       Y39.226    
   X16.659       Y39.102    
   X16.420       Y39.134    
   X16.899    
   X16.659       Y39.102    
   X17.122       Y39.226    
   X16.899       Y39.134    
   X17.314       Y39.373    
   X17.122       Y39.226    
   X17.461       Y39.565    
   X17.314       Y39.373    
   X17.554       Y39.789    
   X17.461       Y39.565    
(Pass: 6)
   X17.586       Y40.028    
   Z-2.700     F200 
   X17.554       Y39.789     F400 
   Y40.268    
   X17.586       Y40.028    
   X17.461       Y40.491    
   X17.554       Y40.268    
   X17.314       Y40.683    
   X17.461       Y40.491    
   X17.122       Y40.830    
   X17.314       Y40.683    
   X16.899       Y40.923    
   X17.122       Y40.830    
   X16.659       Y40.954    
   X16.899       Y40.923    
   X16.420    
   X16.659       Y40.954    
   X16.196       Y40.830    
   X16.420       Y40.923    
   X16.004       Y40.683    
   X16.196       Y40.830    
   X15.857       Y40.491    
   X16.004       Y40.683    
   X15.765       Y40.268    
   X15.857       Y40.491    
   X15.733       Y40.028    
   X15.765       Y40.268    
   Y39.789    
   X15.733       Y40.028    
   X15.857       Y39.565    
   X15.765       Y39.789    
   X16.004       Y39.373    
   X15.857       Y39.565    
   X16.196       Y39.226    
   X16.004       Y39.373    
   X16.420       Y39.134    
   X16.196       Y39.226    
   X16.659       Y39.102    
   X16.420       Y39.134    
   X16.899    
   X16.659       Y39.102    
   X17.122       Y39.226    
   X16.899       Y39.134    
   X17.314       Y39.373    
   X17.122       Y39.226    
   X17.461       Y39.565    
   X17.314       Y39.373    
   X17.554       Y39.789    
   X17.461       Y39.565    
G0   Z15.000    
(Pass: 1)
   X49.339       Y72.708    
G1   Z-0.500     F200 
   X49.192       Y72.900     F400 
   X49.531       Y72.561    
   X49.339       Y72.708    
   X49.754       Y72.468    
   X49.531       Y72.561    
   X49.994       Y72.437    
   X49.754       Y72.468    
   X50.234    
   X49.994       Y72.437    
   X50.457       Y72.561    
   X50.234       Y72.468    
   X50.649       Y72.708    
   X50.457       Y72.561    
   X50.796       Y72.900    
   X50.649       Y72.708    
   X50.889       Y73.123    
   X50.796       Y72.900    
   X50.920       Y73.363    
   X50.889       Y73.123    
   Y73.603    
   X50.920       Y73.363    
   X50.796       Y73.826    
   X50.889       Y73.603    
   X50.649       Y74.018    
   X50.796       Y73.826    
   X50.457       Y74.165    
   X50.649       Y74.018    
   X50.234       Y74.258    
   X50.457       Y74.165    
   X49.994       Y74.289    
   X50.234       Y74.258    
   X49.754    
   X49.994       Y74.289    
   X49.531       Y74.165    
   X49.754       Y74.258    
   X49.339       Y74.018    
   X49.531       Y74.165    
   X49.192       Y73.826    
   X49.339       Y74.018    
   X49.099       Y73.603    
   X49.192       Y73.826    
   X49.068       Y73.363    
   X49.099       Y73.603    
   Y73.123    
   X49.068       Y73.363    
   X49.192       Y72.900    
   X49.099       Y73.123    
(Pass: 2)
   X49.339       Y72.708    
   Z-1.000     F200 
   X49.192       Y72.900     F400 
   X49.531       Y72.561    
   X49.339       Y72.708    
   X49.754       Y72.468    
   X49.531       Y72.561    
   X49.994       Y72.437    
   X49.754       Y72.468    
   X50.234    
   X49.994       Y72.437    
   X50.457       Y72.561    
   X50.234       Y72.468    
   X50.649       Y72.708    
   X50.457       Y72.561    
   X50.796       Y72.900    
   X50.649       Y72.708    
   X50.889       Y73.123    
   X50.796       Y72.900    
   X50.920       Y73.363    
   X50.889       Y73.123    
   Y73.603    
   X50.920       Y73.363    
   X50.796       Y73.826    
   X50.889       Y73.603    
   X50.649       Y74.018    
   X50.796       Y73.826    
   X50.457       Y74.165    
   X50.649       Y74.018    
   X50.234       Y74.258    
   X50.457       Y74.165    
   X49.994       Y74.289    
   X50.234       Y74.258    
   X49.754    
   X49.994       Y74.289    
   X49.531       Y74.165    
   X49.754       Y74.258    
   X49.339       Y74.018    
   X49.531       Y74.165    
   X49.192       Y73.826    
   X49.339       Y74.018    
   X49.099       Y73.603    
   X49.192       Y73.826    
   X49.068       Y73.363    
   X49.099       Y73.603    
   Y73.123    
   X49.068       Y73.363    
   X49.192       Y72.900    
   X49.099       Y73.123    
(Pass: 3)
   X49.339       Y72.708    
   Z-1.500     F200 
   X49.192       Y72.900     F400 
   X49.531       Y72.561    
   X49.339       Y72.708    
   X49.754       Y72.468    
   X49.531       Y72.561    
   X49.994       Y72.437    
   X49.754       Y72.468    
   X50.234    
   X49.994       Y72.437    
   X50.457       Y72.561    
   X50.234       Y72.468    
   X50.649       Y72.708    
   X50.457       Y72.561    
   X50.796       Y72.900    
   X50.649       Y72.708    
   X50.889       Y73.123    
   X50.796       Y72.900    
   X50.920       Y73.363    
   X50.889       Y73.123    
   Y73.603    
   X50.920       Y73.363    
   X50.796       Y73.826    
   X50.889       Y73.603    
   X50.649       Y74.018    
   X50.796       Y73.826    
   X50.457       Y74.165    
   X50.649       Y74.018    
   X50.234       Y74.258    
   X50.457       Y74.165    
   X49.994       Y74.289    
   X50.234       Y74.258    
   X49.754    
   X49.994       Y74.289    
   X49.531       Y74.165    
   X49.754       Y74.258    
   X49.339       Y74.018    
   X49.531       Y74.165    
   X49.192       Y73.826    
   X49.339       Y74.018    
   X49.099       Y73.603    
   X49.192       Y73.826    
   X49.068       Y73.363    
   X49.099       Y73.603    
   Y73.123    
   X49.068       Y73.363    
   X49.192       Y72.900    
   X49.099       Y73.123    
(Pass: 4)
   X49.339       Y72.708    
   Z-2.000     F200 
   X49.192       Y72.900     F400 
   X49.531       Y72.561    
   X49.339       Y72.708    
   X49.754       Y72.468    
   X49.531       Y72.561    
   X49.994       Y72.437    
   X49.754       Y72.468    
   X50.234    
   X49.994       Y72.437    
   X50.457       Y72.561    
   X50.234       Y72.468    
   X50.649       Y72.708    
   X50.457       Y72.561    
   X50.796       Y72.900    
   X50.649       Y72.708    
   X50.889       Y73.123    
   X50.796       Y72.900    
   X50.920       Y73.363    
   X50.889       Y73.123    
   Y73.603    
   X50.920       Y73.363    
   X50.796       Y73.826    
   X50.889       Y73.603    
   X50.649       Y74.018    
   X50.796       Y73.826    
   X50.457       Y74.165    
   X50.649       Y74.018    
   X50.234       Y74.258    
   X50.457       Y74.165    
   X49.994       Y74.289    
   X50.234       Y74.258    
   X49.754    
   X49.994       Y74.289    
   X49.531       Y74.165    
   X49.754       Y74.258    
   X49.339       Y74.018    
   X49.531       Y74.165    
   X49.192       Y73.826    
   X49.339       Y74.018    
   X49.099       Y73.603    
   X49.192       Y73.826    
   X49.068       Y73.363    
   X49.099       Y73.603    
   Y73.123    
   X49.068       Y73.363    
   X49.192       Y72.900    
   X49.099       Y73.123    
(Pass: 5)
   X49.339       Y72.708    
   Z-2.500     F200 
   X49.192       Y72.900     F400 
   X49.531       Y72.561    
   X49.339       Y72.708    
   X49.754       Y72.468    
   X49.531       Y72.561    
   X49.994       Y72.437    
   X49.754       Y72.468    
   X50.234    
   X49.994       Y72.437    
   X50.457       Y72.561    
   X50.234       Y72.468    
   X50.649       Y72.708    
   X50.457       Y72.561    
   X50.796       Y72.900    
   X50.649       Y72.708    
   X50.889       Y73.123    
   X50.796       Y72.900    
   X50.920       Y73.363    
   X50.889       Y73.123    
   Y73.603    
   X50.920       Y73.363    
   X50.796       Y73.826    
   X50.889       Y73.603    
   X50.649       Y74.018    
   X50.796       Y73.826    
   X50.457       Y74.165    
   X50.649       Y74.018    
   X50.234       Y74.258    
   X50.457       Y74.165    
   X49.994       Y74.289    
   X50.234       Y74.258    
   X49.754    
   X49.994       Y74.289    
   X49.531       Y74.165    
   X49.754       Y74.258    
   X49.339       Y74.018    
   X49.531       Y74.165    
   X49.192       Y73.826    
   X49.339       Y74.018    
   X49.099       Y73.603    
   X49.192       Y73.826    
   X49.068       Y73.363    
   X49.099       Y73.603    
   Y73.123    
   X49.068       Y73.363    
   X49.192       Y72.900    
   X49.099       Y73.123    
(Pass: 6)
   X49.339       Y72.708    
   Z-2.700     F200 
   X49.192       Y72.900     F400 
   X49.531       Y72.561    
   X49.339       Y72.708    
   X49.754       Y72.468    
   X49.531       Y72.561    
   X49.994       Y72.437    
   X49.754       Y72.468    
   X50.234    
   X49.994       Y72.437    
   X50.457       Y72.561    
   X50.234       Y72.468    
   X50.649       Y72.708    
   X50.457       Y72.561    
   X50.796       Y72.900    
   X50.649       Y72.708    
   X50.889       Y73.123    
   X50.796       Y72.900    
   X50.920       Y73.363    
   X50.889       Y73.123    
   Y73.603    
   X50.920       Y73.363    
   X50.796       Y73.826    
   X50.889       Y73.603    
   X50.649       Y74.018    
   X50.796       Y73.826    
   X50.457       Y74.165    
   X50.649       Y74.018    
   X50.234       Y74.258    
   X50.457       Y74.165    
   X49.994       Y74.289    
   X50.234       Y74.258    
   X49.754    
   X49.994       Y74.289    
   X49.531       Y74.165    
   X49.754       Y74.258    
   X49.339       Y74.018    
   X49.531       Y74.165    
   X49.192       Y73.826    
   X49.339       Y74.018    
   X49.099       Y73.603    
   X49.192       Y73.826    
   X49.068       Y73.363    
   X49.099       Y73.603    
   Y73.123    
   X49.068       Y73.363    
   X49.192       Y72.900    
   X49.099       Y73.123    
G0   Z15.000    
(Pass: 1)
   X35.728       Y81.663    
G1   Z-0.500     F200 
   X64.246     F400 
   X34.135       Y81.453    
   X35.728       Y81.663    
   X32.583       Y81.038    
   X34.135       Y81.453    
   X31.099       Y80.423    
   X32.583       Y81.038    
   X29.708       Y79.619    
   X31.099       Y80.423    
   X28.429       Y78.638    
   X29.708       Y79.619    
   X10.576       Y60.557    
   X28.429       Y78.638    
   X9.874        Y59.642    
   X10.576       Y60.557    
   X9.294        Y58.638    
   X9.874        Y59.642    
   X8.851        Y57.568    
   X9.294        Y58.638    
   X8.551        Y56.449    
   X8.851        Y57.568    
   X8.400        Y55.301    
   X8.551        Y56.449    
   X8.400        Y12.548    
   Y55.301    
   X8.453        Y11.738    
   X8.400        Y12.548    
   X8.622        Y10.891    
   X8.453        Y11.738    
   X8.899        Y10.073    
   X8.622        Y10.891    
   X9.281        Y9.298     
   X8.899        Y10.073    
   X9.761        Y8.580     
   X9.281        Y9.298     
   X10.331       Y7.931     
   X9.761        Y8.580     
   X10.980       Y7.361     
   X10.331       Y7.931     
   X11.698       Y6.881     
   X10.980       Y7.361     
   X12.473       Y6.499     
   X11.698       Y6.881     
   X13.291       Y6.222     
   X12.473       Y6.499     
   X14.138       Y6.053     
   X13.291       Y6.222     
   X14.948       Y6.000     
   X14.138       Y6.053     
   X85.038       Y6.000     
   X14.948    
   X85.848       Y6.053     
   X85.038       Y6.000     
   X86.695       Y6.222     
   X85.848       Y6.053     
   X87.513       Y6.499     
   X86.695       Y6.222     
   X88.288       Y6.881     
   X87.513       Y6.499     
   X89.006       Y7.361     
   X88.288       Y6.881     
   X89.655       Y7.931     
   X89.006       Y7.361     
   X90.225       Y8.580     
   X89.655       Y7.931     
   X90.705       Y9.298     
   X90.225       Y8.580     
   X91.087       Y10.073    
   X90.705       Y9.298     
   X91.364       Y10.891    
   X91.087       Y10.073    
   X91.533       Y11.738    
   X91.364       Y10.891    
   X91.586       Y12.548    
   X91.533       Y11.738    
   X91.586       Y55.301    
   Y12.548    
   X91.435       Y56.449    
   X91.586       Y55.301    
   X91.135       Y57.568    
   X91.435       Y56.449    
   X90.692       Y58.638    
   X91.135       Y57.568    
   X90.112       Y59.642    
   X90.692       Y58.638    
   X89.410       Y60.556    
   X90.112       Y59.642    
   X71.571       Y78.638    
   X89.410       Y60.556    
   X70.292       Y79.619    
   X71.571       Y78.638    
   X68.924       Y80.410    
   X70.292       Y79.619    
   X68.144       Y80.763    
   X68.924       Y80.410    
   X66.648       Y81.271    
   X68.144       Y80.763    
   X65.098       Y81.579    
   X66.648       Y81.271    
   X64.246       Y81.663    
   X65.098       Y81.579    
(Pass: 2)
   X35.728       Y81.663    
   Z-1.000     F200 
   X64.246     F400 
   X34.135       Y81.453    
   X35.728       Y81.663    
   X32.583       Y81.038    
   X34.135       Y81.453    
   X31.099       Y80.423    
   X32.583       Y81.038    
   X29.708       Y79.619    
   X31.099       Y80.423    
   X28.429       Y78.638    
   X29.708       Y79.619    
   X10.576       Y60.557    
   X28.429       Y78.638    
   X9.874        Y59.642    
   X10.576       Y60.557    
   X9.294        Y58.638    
   X9.874        Y59.642    
   X8.851        Y57.568    
   X9.294        Y58.638    
   X8.551        Y56.449    
   X8.851        Y57.568    
   X8.400        Y55.301    
   X8.551        Y56.449    
   X8.400        Y12.548    
   Y55.301    
   X8.453        Y11.738    
   X8.400        Y12.548    
   X8.622        Y10.891    
   X8.453        Y11.738    
   X8.899        Y10.073    
   X8.622        Y10.891    
   X9.281        Y9.298     
   X8.899        Y10.073    
   X9.761        Y8.580     
   X9.281        Y9.298     
   X10.331       Y7.931     
   X9.761        Y8.580     
   X10.980       Y7.361     
   X10.331       Y7.931     
   X11.698       Y6.881     
   X10.980       Y7.361     
   X12.473       Y6.499     
   X11.698       Y6.881     
   X13.291       Y6.222     
   X12.473       Y6.499     
   X14.138       Y6.053     
   X13.291       Y6.222     
   X14.948       Y6.000     
   X14.138       Y6.053     
   X85.038       Y6.000     
   X14.948    
   X85.848       Y6.053     
   X85.038       Y6.000     
   X86.695       Y6.222     
   X85.848       Y6.053     
   X87.513       Y6.499     
   X86.695       Y6.222     
   X88.288       Y6.881     
   X87.513       Y6.499     
   X89.006       Y7.361     
   X88.288       Y6.881     
   X89.655       Y7.931     
   X89.006       Y7.361     
   X90.225       Y8.580     
   X89.655       Y7.931     
   X90.705       Y9.298     
   X90.225       Y8.580     
   X91.087       Y10.073    
   X90.705       Y9.298     
   X91.364       Y10.891    
   X91.087       Y10.073    
   X91.533       Y11.738    
   X91.364       Y10.891    
   X91.586       Y12.548    
   X91.533       Y11.738    
   X91.586       Y55.301    
   Y12.548    
   X91.435       Y56.449    
   X91.586       Y55.301    
   X91.135       Y57.568    
   X91.435       Y56.449    
   X90.692       Y58.638    
   X91.135       Y57.568    
   X90.112       Y59.642    
   X90.692       Y58.638    
   X89.410       Y60.556    
   X90.112       Y59.642    
   X71.571       Y78.638    
   X89.410       Y60.556    
   X70.292       Y79.619    
   X71.571       Y78.638    
   X68.924       Y80.410    
   X70.292       Y79.619    
