%
(Generated by SketchUcam {1.2})
(File: Router Plates.skp)
(Bit diameter: 2.0mm)
(Feed rate: 400.0mm/min)
(Material Thickness: 3.5mm)
(Material length: 600.0mm X width: 300.0mm)
(Overhead Gantry: true)
(Retract feed rate NOT limited to plunge feed rate)
(Multipass enabled, Depth = 0.5mm)
(Optimization is ON)
(www.PhlatBoyz.com)
G90 G21 G49 
M3 S11000
G0   Z5.000     
(Pass: 1)
   X88.796       Y43.834    
G1   Z-0.500     F400 
G17 G2   X88.7761      Y43.8938      R0.2500    
   X88.7723      Y43.9567      R0.2500    
   X88.7848      Y44.0184      R0.2500    
   X88.8129      Y44.0748      R0.2500    
   X88.8547      Y44.1220      R0.2500    
   X88.9072      Y44.1568      R0.2500    
   X88.9670      Y44.1768      R0.2500    
   X89.0299      Y44.1806      R0.2500    
   X89.0916      Y44.1681      R0.2500    
   X89.1480      Y44.1399      R0.2500    
   X89.1952      Y44.0982      R0.2500    
   X89.2300      Y44.0456      R0.2500    
   X89.2500      Y43.9859      R0.2500    
   X89.2538      Y43.9230      R0.2500    
   X89.2413      Y43.8613      R0.2500    
   X89.2132      Y43.8049      R0.2500    
   X89.1714      Y43.7577      R0.2500    
   X89.1189      Y43.7229      R0.2500    
   X89.0591      Y43.7029      R0.2500    
   X88.9962      Y43.6990      R0.2500    
   X88.9345      Y43.7116      R0.2500    
   X88.8781      Y43.7397      R0.2500    
   X88.8309      Y43.7815      R0.2500    
   X88.7961      Y43.8340      R0.2500    
(Pass: 2)
G1   Z-1.000    
G17 G2   X88.7761      Y43.8938      R0.2500    
   X88.7723      Y43.9567      R0.2500    
   X88.7848      Y44.0184      R0.2500    
   X88.8129      Y44.0748      R0.2500    
   X88.8547      Y44.1220      R0.2500    
   X88.9072      Y44.1568      R0.2500    
   X88.9670      Y44.1768      R0.2500    
   X89.0299      Y44.1806      R0.2500    
   X89.0916      Y44.1681      R0.2500    
   X89.1480      Y44.1399      R0.2500    
   X89.1952      Y44.0982      R0.2500    
   X89.2300      Y44.0456      R0.2500    
   X89.2500      Y43.9859      R0.2500    
   X89.2538      Y43.9230      R0.2500    
   X89.2413      Y43.8613      R0.2500    
   X89.2132      Y43.8049      R0.2500    
   X89.1714      Y43.7577      R0.2500    
   X89.1189      Y43.7229      R0.2500    
   X89.0591      Y43.7029      R0.2500    
   X88.9962      Y43.6990      R0.2500    
   X88.9345      Y43.7116      R0.2500    
   X88.8781      Y43.7397      R0.2500    
   X88.8309      Y43.7815      R0.2500    
   X88.7961      Y43.8340      R0.2500    
(Pass: 3)
G1   Z-1.500    
G17 G2   X88.7761      Y43.8938      R0.2500    
   X88.7723      Y43.9567      R0.2500    
   X88.7848      Y44.0184      R0.2500    
   X88.8129      Y44.0748      R0.2500    
   X88.8547      Y44.1220      R0.2500    
   X88.9072      Y44.1568      R0.2500    
   X88.9670      Y44.1768      R0.2500    
   X89.0299      Y44.1806      R0.2500    
   X89.0916      Y44.1681      R0.2500    
   X89.1480      Y44.1399      R0.2500    
   X89.1952      Y44.0982      R0.2500    
   X89.2300      Y44.0456      R0.2500    
   X89.2500      Y43.9859      R0.2500    
   X89.2538      Y43.9230      R0.2500    
   X89.2413      Y43.8613      R0.2500    
   X89.2132      Y43.8049      R0.2500    
   X89.1714      Y43.7577      R0.2500    
   X89.1189      Y43.7229      R0.2500    
   X89.0591      Y43.7029      R0.2500    
   X88.9962      Y43.6990      R0.2500    
   X88.9345      Y43.7116      R0.2500    
   X88.8781      Y43.7397      R0.2500    
   X88.8309      Y43.7815      R0.2500    
   X88.7961      Y43.8340      R0.2500    
(Pass: 4)
G1   Z-2.000    
G17 G2   X88.7761      Y43.8938      R0.2500    
   X88.7723      Y43.9567      R0.2500    
   X88.7848      Y44.0184      R0.2500    
   X88.8129      Y44.0748      R0.2500    
   X88.8547      Y44.1220      R0.2500    
   X88.9072      Y44.1568      R0.2500    
   X88.9670      Y44.1768      R0.2500    
   X89.0299      Y44.1806      R0.2500    
   X89.0916      Y44.1681      R0.2500    
   X89.1480      Y44.1399      R0.2500    
   X89.1952      Y44.0982      R0.2500    
   X89.2300      Y44.0456      R0.2500    
   X89.2500      Y43.9859      R0.2500    
   X89.2538      Y43.9230      R0.2500    
   X89.2413      Y43.8613      R0.2500    
   X89.2132      Y43.8049      R0.2500    
   X89.1714      Y43.7577      R0.2500    
   X89.1189      Y43.7229      R0.2500    
   X89.0591      Y43.7029      R0.2500    
   X88.9962      Y43.6990      R0.2500    
   X88.9345      Y43.7116      R0.2500    
   X88.8781      Y43.7397      R0.2500    
   X88.8309      Y43.7815      R0.2500    
   X88.7961      Y43.8340      R0.2500    
(Pass: 5)
G1   Z-2.500    
G17 G2   X88.7761      Y43.8938      R0.2500    
   X88.7723      Y43.9567      R0.2500    
   X88.7848      Y44.0184      R0.2500    
   X88.8129      Y44.0748      R0.2500    
   X88.8547      Y44.1220      R0.2500    
   X88.9072      Y44.1568      R0.2500    
   X88.9670      Y44.1768      R0.2500    
   X89.0299      Y44.1806      R0.2500    
   X89.0916      Y44.1681      R0.2500    
   X89.1480      Y44.1399      R0.2500    
   X89.1952      Y44.0982      R0.2500    
   X89.2300      Y44.0456      R0.2500    
   X89.2500      Y43.9859      R0.2500    
   X89.2538      Y43.9230      R0.2500    
   X89.2413      Y43.8613      R0.2500    
   X89.2132      Y43.8049      R0.2500    
   X89.1714      Y43.7577      R0.2500    
   X89.1189      Y43.7229      R0.2500    
   X89.0591      Y43.7029      R0.2500    
   X88.9962      Y43.6990      R0.2500    
   X88.9345      Y43.7116      R0.2500    
   X88.8781      Y43.7397      R0.2500    
   X88.8309      Y43.7815      R0.2500    
   X88.7961      Y43.8340      R0.2500    
(Pass: 6)
G1   Z-3.000    
G17 G2   X88.7761      Y43.8938      R0.2500    
   X88.7723      Y43.9567      R0.2500    
   X88.7848      Y44.0184      R0.2500    
   X88.8129      Y44.0748      R0.2500    
   X88.8547      Y44.1220      R0.2500    
   X88.9072      Y44.1568      R0.2500    
   X88.9670      Y44.1768      R0.2500    
   X89.0299      Y44.1806      R0.2500    
   X89.0916      Y44.1681      R0.2500    
   X89.1480      Y44.1399      R0.2500    
   X89.1952      Y44.0982      R0.2500    
   X89.2300      Y44.0456      R0.2500    
   X89.2500      Y43.9859      R0.2500    
   X89.2538      Y43.9230      R0.2500    
   X89.2413      Y43.8613      R0.2500    
   X89.2132      Y43.8049      R0.2500    
   X89.1714      Y43.7577      R0.2500    
   X89.1189      Y43.7229      R0.2500    
   X89.0591      Y43.7029      R0.2500    
   X88.9962      Y43.6990      R0.2500    
   X88.9345      Y43.7116      R0.2500    
   X88.8781      Y43.7397      R0.2500    
   X88.8309      Y43.7815      R0.2500    
   X88.7961      Y43.8340      R0.2500    
(Pass: 7)
G1   Z-3.500    
G17 G2   X88.7761      Y43.8938      R0.2500    
   X88.7723      Y43.9567      R0.2500    
   X88.7848      Y44.0184      R0.2500    
   X88.8129      Y44.0748      R0.2500    
   X88.8547      Y44.1220      R0.2500    
   X88.9072      Y44.1568      R0.2500    
   X88.9670      Y44.1768      R0.2500    
   X89.0299      Y44.1806      R0.2500    
   X89.0916      Y44.1681      R0.2500    
   X89.1480      Y44.1399      R0.2500    
   X89.1952      Y44.0982      R0.2500    
   X89.2300      Y44.0456      R0.2500    
   X89.2500      Y43.9859      R0.2500    
   X89.2538      Y43.9230      R0.2500    
   X89.2413      Y43.8613      R0.2500    
   X89.2132      Y43.8049      R0.2500    
   X89.1714      Y43.7577      R0.2500    
   X89.1189      Y43.7229      R0.2500    
   X89.0591      Y43.7029      R0.2500    
   X88.9962      Y43.6990      R0.2500    
   X88.9345      Y43.7116      R0.2500    
   X88.8781      Y43.7397      R0.2500    
   X88.8309      Y43.7815      R0.2500    
   X88.7961      Y43.8340      R0.2500    
G0   Z5.000     
(Pass: 1)
   X98.843       Y22.111    
G1   Z-0.500     F400 
G17 G2   X98.8934      Y22.1495      R0.2500    
   X98.9517      Y22.1733      R0.2500    
   X99.0142      Y22.1812      R0.2500    
   X99.0767      Y22.1727      R0.2500    
   X99.1348      Y22.1483      R0.2500    
   X99.1846      Y22.1097      R0.2500    
   X99.2227      Y22.0595      R0.2500    
   X99.2465      Y22.0012      R0.2500    
   X99.2544      Y21.9386      R0.2500    
   X99.2459      Y21.8762      R0.2500    
   X99.2215      Y21.8181      R0.2500    
   X99.1829      Y21.7683      R0.2500    
   X99.1327      Y21.7302      R0.2500    
   X99.0744      Y21.7064      R0.2500    
   X99.0118      Y21.6985      R0.2500    
   X98.9494      Y21.7070      R0.2500    
   X98.8913      Y21.7314      R0.2500    
   X98.8415      Y21.7700      R0.2500    
   X98.8034      Y21.8202      R0.2500    
   X98.7796      Y21.8785      R0.2500    
   X98.7717      Y21.9410      R0.2500    
   X98.7802      Y22.0035      R0.2500    
   X98.8046      Y22.0615      R0.2500    
   X98.8432      Y22.1113      R0.2500    
(Pass: 2)
G1   Z-1.000    
G17 G2   X98.8934      Y22.1495      R0.2500    
   X98.9517      Y22.1733      R0.2500    
   X99.0142      Y22.1812      R0.2500    
   X99.0767      Y22.1727      R0.2500    
   X99.1348      Y22.1483      R0.2500    
   X99.1846      Y22.1097      R0.2500    
   X99.2227      Y22.0595      R0.2500    
   X99.2465      Y22.0012      R0.2500    
   X99.2544      Y21.9386      R0.2500    
   X99.2459      Y21.8762      R0.2500    
   X99.2215      Y21.8181      R0.2500    
   X99.1829      Y21.7683      R0.2500    
   X99.1327      Y21.7302      R0.2500    
   X99.0744      Y21.7064      R0.2500    
   X99.0118      Y21.6985      R0.2500    
   X98.9494      Y21.7070      R0.2500    
   X98.8913      Y21.7314      R0.2500    
   X98.8415      Y21.7700      R0.2500    
   X98.8034      Y21.8202      R0.2500    
   X98.7796      Y21.8785      R0.2500    
   X98.7717      Y21.9410      R0.2500    
   X98.7802      Y22.0035      R0.2500    
   X98.8046      Y22.0615      R0.2500    
   X98.8432      Y22.1113      R0.2500    
(Pass: 3)
G1   Z-1.500    
G17 G2   X98.8934      Y22.1495      R0.2500    
   X98.9517      Y22.1733      R0.2500    
   X99.0142      Y22.1812      R0.2500    
   X99.0767      Y22.1727      R0.2500    
   X99.1348      Y22.1483      R0.2500    
   X99.1846      Y22.1097      R0.2500    
   X99.2227      Y22.0595      R0.2500    
   X99.2465      Y22.0012      R0.2500    
   X99.2544      Y21.9386      R0.2500    
   X99.2459      Y21.8762      R0.2500    
   X99.2215      Y21.8181      R0.2500    
   X99.1829      Y21.7683      R0.2500    
   X99.1327      Y21.7302      R0.2500    
   X99.0744      Y21.7064      R0.2500    
   X99.0118      Y21.6985      R0.2500    
   X98.9494      Y21.7070      R0.2500    
   X98.8913      Y21.7314      R0.2500    
   X98.8415      Y21.7700      R0.2500    
   X98.8034      Y21.8202      R0.2500    
   X98.7796      Y21.8785      R0.2500    
   X98.7717      Y21.9410      R0.2500    
   X98.7802      Y22.0035      R0.2500    
   X98.8046      Y22.0615      R0.2500    
   X98.8432      Y22.1113      R0.2500    
(Pass: 4)
G1   Z-2.000    
G17 G2   X98.8934      Y22.1495      R0.2500    
   X98.9517      Y22.1733      R0.2500    
   X99.0142      Y22.1812      R0.2500    
   X99.0767      Y22.1727      R0.2500    
   X99.1348      Y22.1483      R0.2500    
   X99.1846      Y22.1097      R0.2500    
   X99.2227      Y22.0595      R0.2500    
   X99.2465      Y22.0012      R0.2500    
   X99.2544      Y21.9386      R0.2500    
   X99.2459      Y21.8762      R0.2500    
   X99.2215      Y21.8181      R0.2500    
   X99.1829      Y21.7683      R0.2500    
   X99.1327      Y21.7302      R0.2500    
   X99.0744      Y21.7064      R0.2500    
   X99.0118      Y21.6985      R0.2500    
   X98.9494      Y21.7070      R0.2500    
   X98.8913      Y21.7314      R0.2500    
   X98.8415      Y21.7700      R0.2500    
   X98.8034      Y21.8202      R0.2500    
   X98.7796      Y21.8785      R0.2500    
   X98.7717      Y21.9410      R0.2500    
   X98.7802      Y22.0035      R0.2500    
   X98.8046      Y22.0615      R0.2500    
   X98.8432      Y22.1113      R0.2500    
(Pass: 5)
G1   Z-2.500    
G17 G2   X98.8934      Y22.1495      R0.2500    
   X98.9517      Y22.1733      R0.2500    
   X99.0142      Y22.1812      R0.2500    
   X99.0767      Y22.1727      R0.2500    
   X99.1348      Y22.1483      R0.2500    
   X99.1846      Y22.1097      R0.2500    
   X99.2227      Y22.0595      R0.2500    
   X99.2465      Y22.0012      R0.2500    
   X99.2544      Y21.9386      R0.2500    
   X99.2459      Y21.8762      R0.2500    
   X99.2215      Y21.8181      R0.2500    
   X99.1829      Y21.7683      R0.2500    
   X99.1327      Y21.7302      R0.2500    
   X99.0744      Y21.7064      R0.2500    
   X99.0118      Y21.6985      R0.2500    
   X98.9494      Y21.7070      R0.2500    
   X98.8913      Y21.7314      R0.2500    
   X98.8415      Y21.7700      R0.2500    
   X98.8034      Y21.8202      R0.2500    
   X98.7796      Y21.8785      R0.2500    
   X98.7717      Y21.9410      R0.2500    
   X98.7802      Y22.0035      R0.2500    
   X98.8046      Y22.0615      R0.2500    
   X98.8432      Y22.1113      R0.2500    
(Pass: 6)
G1   Z-3.000    
G17 G2   X98.8934      Y22.1495      R0.2500    
   X98.9517      Y22.1733      R0.2500    
   X99.0142      Y22.1812      R0.2500    
   X99.0767      Y22.1727      R0.2500    
   X99.1348      Y22.1483      R0.2500    
   X99.1846      Y22.1097      R0.2500    
   X99.2227      Y22.0595      R0.2500    
   X99.2465      Y22.0012      R0.2500    
   X99.2544      Y21.9386      R0.2500    
   X99.2459      Y21.8762      R0.2500    
   X99.2215      Y21.8181      R0.2500    
   X99.1829      Y21.7683      R0.2500    
   X99.1327      Y21.7302      R0.2500    
   X99.0744      Y21.7064      R0.2500    
   X99.0118      Y21.6985      R0.2500    
   X98.9494      Y21.7070      R0.2500    
   X98.8913      Y21.7314      R0.2500    
   X98.8415      Y21.7700      R0.2500    
   X98.8034      Y21.8202      R0.2500    
   X98.7796      Y21.8785      R0.2500    
   X98.7717      Y21.9410      R0.2500    
   X98.7802      Y22.0035      R0.2500    
   X98.8046      Y22.0615      R0.2500    
   X98.8432      Y22.1113      R0.2500    
(Pass: 7)
G1   Z-3.500    
G17 G2   X98.8934      Y22.1495      R0.2500    
   X98.9517      Y22.1733      R0.2500    
   X99.0142      Y22.1812      R0.2500    
   X99.0767      Y22.1727      R0.2500    
   X99.1348      Y22.1483      R0.2500    
   X99.1846      Y22.1097      R0.2500    
   X99.2227      Y22.0595      R0.2500    
   X99.2465      Y22.0012      R0.2500    
   X99.2544      Y21.9386      R0.2500    
   X99.2459      Y21.8762      R0.2500    
   X99.2215      Y21.8181      R0.2500    
   X99.1829      Y21.7683      R0.2500    
   X99.1327      Y21.7302      R0.2500    
   X99.0744      Y21.7064      R0.2500    
   X99.0118      Y21.6985      R0.2500    
   X98.9494      Y21.7070      R0.2500    
   X98.8913      Y21.7314      R0.2500    
   X98.8415      Y21.7700      R0.2500    
   X98.8034      Y21.8202      R0.2500    
   X98.7796      Y21.8785      R0.2500    
   X98.7717      Y21.9410      R0.2500    
   X98.7802      Y22.0035      R0.2500    
   X98.8046      Y22.0615      R0.2500    
   X98.8432      Y22.1113      R0.2500    
G0   Z5.000     
(Pass: 1)
   X113.372      Y17.560    
G1   Z-0.500     F400 
   X113.628      Y18.178    
   X114.035      Y18.708    
   X114.565      Y19.115    
   X115.182      Y19.370    
   X115.845      Y19.458    
   X116.507      Y19.370    
   X117.125      Y19.115    
   X117.655      Y18.708    
   X118.062      Y18.178    
   X118.317      Y17.560    
   X118.405      Y16.898    
   X118.317      Y16.235    
   X118.062      Y15.618    
   X117.655      Y15.088    
   X117.125      Y14.681    
   X116.507      Y14.425    
   X115.845      Y14.338    
   X115.182      Y14.425    
   X114.565      Y14.681    
   X114.035      Y15.088    
   X113.628      Y15.618    
   X113.372      Y16.235    
   X113.285      Y16.898    
   X113.372      Y17.560    
(Pass: 2)
   Z-1.000    
   X113.628      Y18.178    
   X114.035      Y18.708    
   X114.565      Y19.115    
   X115.182      Y19.370    
   X115.845      Y19.458    
   X116.507      Y19.370    
   X117.125      Y19.115    
   X117.655      Y18.708    
   X118.062      Y18.178    
   X118.317      Y17.560    
   X118.405      Y16.898    
   X118.317      Y16.235    
   X118.062      Y15.618    
   X117.655      Y15.088    
   X117.125      Y14.681    
   X116.507      Y14.425    
   X115.845      Y14.338    
   X115.182      Y14.425    
   X114.565      Y14.681    
   X114.035      Y15.088    
   X113.628      Y15.618    
   X113.372      Y16.235    
   X113.285      Y16.898    
   X113.372      Y17.560    
(Pass: 3)
   Z-1.500    
   X113.628      Y18.178    
   X114.035      Y18.708    
   X114.565      Y19.115    
   X115.182      Y19.370    
   X115.845      Y19.458    
   X116.507      Y19.370    
   X117.125      Y19.115    
   X117.655      Y18.708    
   X118.062      Y18.178    
   X118.317      Y17.560    
   X118.405      Y16.898    
   X118.317      Y16.235    
   X118.062      Y15.618    
   X117.655      Y15.088    
   X117.125      Y14.681    
   X116.507      Y14.425    
   X115.845      Y14.338    
   X115.182      Y14.425    
   X114.565      Y14.681    
   X114.035      Y15.088    
   X113.628      Y15.618    
   X113.372      Y16.235    
   X113.285      Y16.898    
   X113.372      Y17.560    
(Pass: 4)
   Z-2.000    
   X113.628      Y18.178    
   X114.035      Y18.708    
   X114.565      Y19.115    
   X115.182      Y19.370    
   X115.845      Y19.458    
   X116.507      Y19.370    
   X117.125      Y19.115    
   X117.655      Y18.708    
   X118.062      Y18.178    
   X118.317      Y17.560    
   X118.405      Y16.898    
   X118.317      Y16.235    
   X118.062      Y15.618    
   X117.655      Y15.088    
   X117.125      Y14.681    
   X116.507      Y14.425    
   X115.845      Y14.338    
   X115.182      Y14.425    
   X114.565      Y14.681    
   X114.035      Y15.088    
   X113.628      Y15.618    
   X113.372      Y16.235    
   X113.285      Y16.898    
   X113.372      Y17.560    
(Pass: 5)
   Z-2.500    
   X113.628      Y18.178    
   X114.035      Y18.708    
   X114.565      Y19.115    
   X115.182      Y19.370    
   X115.845      Y19.458    
   X116.507      Y19.370    
   X117.125      Y19.115    
   X117.655      Y18.708    
   X118.062      Y18.178    
   X118.317      Y17.560    
   X118.405      Y16.898    
   X118.317      Y16.235    
   X118.062      Y15.618    
   X117.655      Y15.088    
   X117.125      Y14.681    
   X116.507      Y14.425    
   X115.845      Y14.338    
   X115.182      Y14.425    
   X114.565      Y14.681    
   X114.035      Y15.088    
   X113.628      Y15.618    
   X113.372      Y16.235    
   X113.285      Y16.898    
   X113.372      Y17.560    
(Pass: 6)
   Z-3.000    
   X113.628      Y18.178    
   X114.035      Y18.708    
   X114.565      Y19.115    
   X115.182      Y19.370    
   X115.845      Y19.458    
   X116.507      Y19.370    
   X117.125      Y19.115    
   X117.655      Y18.708    
   X118.062      Y18.178    
   X118.317      Y17.560    
   X118.405      Y16.898    
   X118.317      Y16.235    
   X118.062      Y15.618    
   X117.655      Y15.088    
   X117.125      Y14.681    
   X116.507      Y14.425    
   X115.845      Y14.338    
   X115.182      Y14.425    
   X114.565      Y14.681    
   X114.035      Y15.088    
   X113.628      Y15.618    
   X113.372      Y16.235    
   X113.285      Y16.898    
   X113.372      Y17.560    
(Pass: 7)
   Z-3.500    
   X113.628      Y18.178    
   X114.035      Y18.708    
   X114.565      Y19.115    
   X115.182      Y19.370    
   X115.845      Y19.458    
   X116.507      Y19.370    
   X117.125      Y19.115    
   X117.655      Y18.708    
   X118.062      Y18.178    
   X118.317      Y17.560    
   X118.405      Y16.898    
   X118.317      Y16.235    
   X118.062      Y15.618    
   X117.655      Y15.088    
   X117.125      Y14.681    
   X116.507      Y14.425    
   X115.845      Y14.338    
   X115.182      Y14.425    
   X114.565      Y14.681    
   X114.035      Y15.088    
   X113.628      Y15.618    
   X113.372      Y16.235    
   X113.285      Y16.898    
   X113.372      Y17.560    
G0   Z5.000     
(Pass: 1)
   X188.605      Y16.898    
G1   Z-0.500     F400 
   X188.692      Y17.560    
   X188.948      Y18.178    
   X189.355      Y18.708    
   X189.885      Y19.115    
   X190.502      Y19.370    
   X191.165      Y19.458    
   X191.827      Y19.370    
   X192.445      Y19.115    
   X192.975      Y18.708    
   X193.382      Y18.178    
   X193.637      Y17.560    
   X193.725      Y16.898    
   X193.637      Y16.235    
   X193.382      Y15.618    
   X192.975      Y15.088    
   X192.445      Y14.681    
   X191.827      Y14.425    
   X191.165      Y14.338    
   X190.502      Y14.425    
   X189.885      Y14.681    
   X189.355      Y15.088    
   X188.948      Y15.618    
   X188.692      Y16.235    
   X188.605      Y16.898    
(Pass: 2)
   Z-1.000    
   X188.692      Y17.560    
   X188.948      Y18.178    
   X189.355      Y18.708    
   X189.885      Y19.115    
   X190.502      Y19.370    
   X191.165      Y19.458    
   X191.827      Y19.370    
   X192.445      Y19.115    
   X192.975      Y18.708    
   X193.382      Y18.178    
   X193.637      Y17.560    
   X193.725      Y16.898    
   X193.637      Y16.235    
   X193.382      Y15.618    
   X192.975      Y15.088    
   X192.445      Y14.681    
   X191.827      Y14.425    
   X191.165      Y14.338    
   X190.502      Y14.425    
   X189.885      Y14.681    
   X189.355      Y15.088    
   X188.948      Y15.618    
   X188.692      Y16.235    
   X188.605      Y16.898    
(Pass: 3)
   Z-1.500    
   X188.692      Y17.560    
   X188.948      Y18.178    
   X189.355      Y18.708    
   X189.885      Y19.115    
   X190.502      Y19.370    
   X191.165      Y19.458    
   X191.827      Y19.370    
   X192.445      Y19.115    
   X192.975      Y18.708    
   X193.382      Y18.178    
   X193.637      Y17.560    
   X193.725      Y16.898    
   X193.637      Y16.235    
   X193.382      Y15.618    
   X192.975      Y15.088    
   X192.445      Y14.681    
   X191.827      Y14.425    
   X191.165      Y14.338    
   X190.502      Y14.425    
   X189.885      Y14.681    
   X189.355      Y15.088    
   X188.948      Y15.618    
   X188.692      Y16.235    
   X188.605      Y16.898    
(Pass: 4)
   Z-2.000    
   X188.692      Y17.560    
   X188.948      Y18.178    
   X189.355      Y18.708    
   X189.885      Y19.115    
   X190.502      Y19.370    
   X191.165      Y19.458    
   X191.827      Y19.370    
   X192.445      Y19.115    
   X192.975      Y18.708    
   X193.382      Y18.178    
   X193.637      Y17.560    
   X193.725      Y16.898    
   X193.637      Y16.235    
   X193.382      Y15.618    
   X192.975      Y15.088    
   X192.445      Y14.681    
   X191.827      Y14.425    
   X191.165      Y14.338    
   X190.502      Y14.425    
   X189.885      Y14.681    
   X189.355      Y15.088    
   X188.948      Y15.618    
   X188.692      Y16.235    
   X188.605      Y16.898    
(Pass: 5)
   Z-2.500    
   X188.692      Y17.560    
   X188.948      Y18.178    
   X189.355      Y18.708    
   X189.885      Y19.115    
   X190.502      Y19.370    
   X191.165      Y19.458    
   X191.827      Y19.370    
   X192.445      Y19.115    
   X192.975      Y18.708    
   X193.382      Y18.178    
   X193.637      Y17.560    
   X193.725      Y16.898    
   X193.637      Y16.235    
   X193.382      Y15.618    
   X192.975      Y15.088    
   X192.445      Y14.681    
   X191.827      Y14.425    
   X191.165      Y14.338    
   X190.502      Y14.425    
   X189.885      Y14.681    
   X189.355      Y15.088    
   X188.948      Y15.618    
   X188.692      Y16.235    
   X188.605      Y16.898    
(Pass: 6)
   Z-3.000    
   X188.692      Y17.560    
   X188.948      Y18.178    
   X189.355      Y18.708    
   X189.885      Y19.115    
   X190.502      Y19.370    
   X191.165      Y19.458    
   X191.827      Y19.370    
   X192.445      Y19.115    
   X192.975      Y18.708    
   X193.382      Y18.178    
   X193.637      Y17.560    
   X193.725      Y16.898    
   X193.637      Y16.235    
   X193.382      Y15.618    
   X192.975      Y15.088    
   X192.445      Y14.681    
   X191.827      Y14.425    
   X191.165      Y14.338    
   X190.502      Y14.425    
   X189.885      Y14.681    
   X189.355      Y15.088    
   X188.948      Y15.618    
   X188.692      Y16.235    
   X188.605      Y16.898    
(Pass: 7)
   Z-3.500    
   X188.692      Y17.560    
   X188.948      Y18.178    
   X189.355      Y18.708    
   X189.885      Y19.115    
   X190.502      Y19.370    
   X191.165      Y19.458    
   X191.827      Y19.370    
   X192.445      Y19.115    
   X192.975      Y18.708    
   X193.382      Y18.178    
   X193.637      Y17.560    
   X193.725      Y16.898    
   X193.637      Y16.235    
   X193.382      Y15.618    
   X192.975      Y15.088    
   X192.445      Y14.681    
   X191.827      Y14.425    
   X191.165      Y14.338    
   X190.502      Y14.425    
   X189.885      Y14.681    
   X189.355      Y15.088    
   X188.948      Y15.618    
   X188.692      Y16.235    
   X188.605      Y16.898    
G0   Z5.000     
(Pass: 1)
   X263.925   
G1   Z-0.500     F400 
   X264.012      Y17.560    
   X264.268      Y18.178    
   X264.675      Y18.708    
   X265.205      Y19.115    
   X265.822      Y19.370    
   X266.485      Y19.458    
   X267.147      Y19.370    
   X267.765      Y19.115    
   X268.295      Y18.708    
   X268.702      Y18.178    
   X268.957      Y17.560    
   X269.045      Y16.898    
   X268.957      Y16.235    
   X268.702      Y15.618    
   X268.295      Y15.088    
   X267.765      Y14.681    
   X267.147      Y14.425    
   X266.485      Y14.338    
   X265.822      Y14.425    
   X265.205      Y14.681    
   X264.675      Y15.088    
   X264.268      Y15.618    
   X264.012      Y16.235    
   X263.925      Y16.898    
(Pass: 2)
   Z-1.000    
   X264.012      Y17.560    
   X264.268      Y18.178    
   X264.675      Y18.708    
   X265.205      Y19.115    
   X265.822      Y19.370    
   X266.485      Y19.458    
   X267.147      Y19.370    
   X267.765      Y19.115    
   X268.295      Y18.708    
   X268.702      Y18.178    
   X268.957      Y17.560    
   X269.045      Y16.898    
   X268.957      Y16.235    
   X268.702      Y15.618    
   X268.295      Y15.088    
   X267.765      Y14.681    
   X267.147      Y14.425    
   X266.485      Y14.338    
   X265.822      Y14.425    
   X265.205      Y14.681    
   X264.675      Y15.088    
   X264.268      Y15.618    
   X264.012      Y16.235    
   X263.925      Y16.898    
(Pass: 3)
   Z-1.500    
   X264.012      Y17.560    
   X264.268      Y18.178    
   X264.675      Y18.708    
   X265.205      Y19.115    
   X265.822      Y19.370    
   X266.485      Y19.458    
   X267.147      Y19.370    
   X267.765      Y19.115    
   X268.295      Y18.708    
   X268.702      Y18.178    
   X268.957      Y17.560    
   X269.045      Y16.898    
   X268.957      Y16.235    
   X268.702      Y15.618    
   X268.295      Y15.088    
   X267.765      Y14.681    
   X267.147      Y14.425    
   X266.485      Y14.338    
   X265.822      Y14.425    
   X265.205      Y14.681    
   X264.675      Y15.088    
   X264.268      Y15.618    
   X264.012      Y16.235    
   X263.925      Y16.898    
(Pass: 4)
   Z-2.000    
   X264.012      Y17.560    
   X264.268      Y18.178    
   X264.675      Y18.708    
   X265.205      Y19.115    
   X265.822      Y19.370    
   X266.485      Y19.458    
   X267.147      Y19.370    
   X267.765      Y19.115    
   X268.295      Y18.708    
   X268.702      Y18.178    
   X268.957      Y17.560    
   X269.045      Y16.898    
   X268.957      Y16.235    
   X268.702      Y15.618    
   X268.295      Y15.088    
   X267.765      Y14.681    
   X267.147      Y14.425    
   X266.485      Y14.338    
   X265.822      Y14.425    
   X265.205      Y14.681    
   X264.675      Y15.088    
   X264.268      Y15.618    
   X264.012      Y16.235    
   X263.925      Y16.898    
(Pass: 5)
   Z-2.500    
   X264.012      Y17.560    
   X264.268      Y18.178    
   X264.675      Y18.708    
   X265.205      Y19.115    
   X265.822      Y19.370    
   X266.485      Y19.458    
   X267.147      Y19.370    
   X267.765      Y19.115    
   X268.295      Y18.708    
   X268.702      Y18.178    
   X268.957      Y17.560    
   X269.045      Y16.898    
   X268.957      Y16.235    
   X268.702      Y15.618    
   X268.295      Y15.088    
   X267.765      Y14.681    
   X267.147      Y14.425    
   X266.485      Y14.338    
   X265.822      Y14.425    
   X265.205      Y14.681    
   X264.675      Y15.088    
   X264.268      Y15.618    
   X264.012      Y16.235    
   X263.925      Y16.898    
(Pass: 6)
   Z-3.000    
   X264.012      Y17.560    
   X264.268      Y18.178    
   X264.675      Y18.708    
   X265.205      Y19.115    
   X265.822      Y19.370    
   X266.485      Y19.458    
   X267.147      Y19.370    
   X267.765      Y19.115    
   X268.295      Y18.708    
   X268.702      Y18.178    
   X268.957      Y17.560    
   X269.045      Y16.898    
   X268.957      Y16.235    
   X268.702      Y15.618    
   X268.295      Y15.088    
   X267.765      Y14.681    
   X267.147      Y14.425    
   X266.485      Y14.338    
   X265.822      Y14.425    
   X265.205      Y14.681    
   X264.675      Y15.088    
   X264.268      Y15.618    
   X264.012      Y16.235    
   X263.925      Y16.898    
(Pass: 7)
   Z-3.500    
   X264.012      Y17.560    
   X264.268      Y18.178    
   X264.675      Y18.708    
   X265.205      Y19.115    
   X265.822      Y19.370    
   X266.485      Y19.458    
   X267.147      Y19.370    
   X267.765      Y19.115    
   X268.295      Y18.708    
   X268.702      Y18.178    
   X268.957      Y17.560    
   X269.045      Y16.898    
   X268.957      Y16.235    
   X268.702      Y15.618    
   X268.295      Y15.088    
   X267.765      Y14.681    
   X267.147      Y14.425    
   X266.485      Y14.338    
   X265.822      Y14.425    
   X265.205      Y14.681    
   X264.675      Y15.088    
   X264.268      Y15.618    
   X264.012      Y16.235    
   X263.925      Y16.898    
G0   Z5.000     
(Pass: 1)
   X283.194      Y22.027    
G1   Z-0.500     F400 
G17 G2   X283.1980     Y22.0900      R0.2500    
   X283.2180     Y22.1498      R0.2500    
   X283.2527     Y22.2023      R0.2500    
   X283.2999     Y22.2441      R0.2500    
   X283.3563     Y22.2722      R0.2500    
   X283.4181     Y22.2847      R0.2500    
   X283.4810     Y22.2809      R0.2500    
   X283.5407     Y22.2609      R0.2500    
   X283.5933     Y22.2261      R0.2500    
   X283.6350     Y22.1789      R0.2500    
   X283.6631     Y22.1225      R0.2500    
   X283.6757     Y22.0608      R0.2500    
   X283.6718     Y21.9979      R0.2500    
   X283.6518     Y21.9381      R0.2500    
   X283.6171     Y21.8856      R0.2500    
   X283.5699     Y21.8439      R0.2500    
   X283.5135     Y21.8157      R0.2500    
   X283.4517     Y21.8032      R0.2500    
   X283.3888     Y21.8070      R0.2500    
   X283.3291     Y21.8270      R0.2500    
   X283.2765     Y21.8618      R0.2500    
   X283.2348     Y21.9090      R0.2500    
   X283.2067     Y21.9654      R0.2500    
   X283.1941     Y22.0271      R0.2500    
(Pass: 2)
G1   Z-1.000    
G17 G2   X283.1980     Y22.0900      R0.2500    
   X283.2180     Y22.1498      R0.2500    
   X283.2527     Y22.2023      R0.2500    
   X283.2999     Y22.2441      R0.2500    
   X283.3563     Y22.2722      R0.2500    
   X283.4181     Y22.2847      R0.2500    
   X283.4810     Y22.2809      R0.2500    
   X283.5407     Y22.2609      R0.2500    
   X283.5933     Y22.2261      R0.2500    
   X283.6350     Y22.1789      R0.2500    
   X283.6631     Y22.1225      R0.2500    
   X283.6757     Y22.0608      R0.2500    
   X283.6718     Y21.9979      R0.2500    
   X283.6518     Y21.9381      R0.2500    
   X283.6171     Y21.8856      R0.2500    
   X283.5699     Y21.8439      R0.2500    
   X283.5135     Y21.8157      R0.2500    
   X283.4517     Y21.8032      R0.2500    
   X283.3888     Y21.8070      R0.2500    
   X283.3291     Y21.8270      R0.2500    
   X283.2765     Y21.8618      R0.2500    
   X283.2348     Y21.9090      R0.2500    
   X283.2067     Y21.9654      R0.2500    
   X283.1941     Y22.0271      R0.2500    
(Pass: 3)
G1   Z-1.500    
G17 G2   X283.1980     Y22.0900      R0.2500    
   X283.2180     Y22.1498      R0.2500    
   X283.2527     Y22.2023      R0.2500    
   X283.2999     Y22.2441      R0.2500    
   X283.3563     Y22.2722      R0.2500    
   X283.4181     Y22.2847      R0.2500    
   X283.4810     Y22.2809      R0.2500    
   X283.5407     Y22.2609      R0.2500    
   X283.5933     Y22.2261      R0.2500    
   X283.6350     Y22.1789      R0.2500    
   X283.6631     Y22.1225      R0.2500    
   X283.6757     Y22.0608      R0.2500    
   X283.6718     Y21.9979      R0.2500    
   X283.6518     Y21.9381      R0.2500    
   X283.6171     Y21.8856      R0.2500    
   X283.5699     Y21.8439      R0.2500    
   X283.5135     Y21.8157      R0.2500    
   X283.4517     Y21.8032      R0.2500    
   X283.3888     Y21.8070      R0.2500    
   X283.3291     Y21.8270      R0.2500    
   X283.2765     Y21.8618      R0.2500    
   X283.2348     Y21.9090      R0.2500    
   X283.2067     Y21.9654      R0.2500    
   X283.1941     Y22.0271      R0.2500    
(Pass: 4)
G1   Z-2.000    
G17 G2   X283.1980     Y22.0900      R0.2500    
   X283.2180     Y22.1498      R0.2500    
   X283.2527     Y22.2023      R0.2500    
   X283.2999     Y22.2441      R0.2500    
   X283.3563     Y22.2722      R0.2500    
   X283.4181     Y22.2847      R0.2500    
   X283.4810     Y22.2809      R0.2500    
   X283.5407     Y22.2609      R0.2500    
   X283.5933     Y22.2261      R0.2500    
   X283.6350     Y22.1789      R0.2500    
   X283.6631     Y22.1225      R0.2500    
   X283.6757     Y22.0608      R0.2500    
   X283.6718     Y21.9979      R0.2500    
   X283.6518     Y21.9381      R0.2500    
   X283.6171     Y21.8856      R0.2500    
   X283.5699     Y21.8439      R0.2500    
   X283.5135     Y21.8157      R0.2500    
   X283.4517     Y21.8032      R0.2500    
   X283.3888     Y21.8070      R0.2500    
   X283.3291     Y21.8270      R0.2500    
   X283.2765     Y21.8618      R0.2500    
   X283.2348     Y21.9090      R0.2500    
   X283.2067     Y21.9654      R0.2500    
   X283.1941     Y22.0271      R0.2500    
(Pass: 5)
G1   Z-2.500    
G17 G2   X283.1980     Y22.0900      R0.2500    
   X283.2180     Y22.1498      R0.2500    
   X283.2527     Y22.2023      R0.2500    
   X283.2999     Y22.2441      R0.2500    
   X283.3563     Y22.2722      R0.2500    
   X283.4181     Y22.2847      R0.2500    
   X283.4810     Y22.2809      R0.2500    
   X283.5407     Y22.2609      R0.2500    
   X283.5933     Y22.2261      R0.2500    
   X283.6350     Y22.1789      R0.2500    
   X283.6631     Y22.1225      R0.2500    
   X283.6757     Y22.0608      R0.2500    
   X283.6718     Y21.9979      R0.2500    
   X283.6518     Y21.9381      R0.2500    
   X283.6171     Y21.8856      R0.2500    
   X283.5699     Y21.8439      R0.2500    
   X283.5135     Y21.8157      R0.2500    
   X283.4517     Y21.8032      R0.2500    
   X283.3888     Y21.8070      R0.2500    
   X283.3291     Y21.8270      R0.2500    
   X283.2765     Y21.8618      R0.2500    
   X283.2348     Y21.9090      R0.2500    
   X283.2067     Y21.9654      R0.2500    
   X283.1941     Y22.0271      R0.2500    
(Pass: 6)
G1   Z-3.000    
G17 G2   X283.1980     Y22.0900      R0.2500    
   X283.2180     Y22.1498      R0.2500    
   X283.2527     Y22.2023      R0.2500    
   X283.2999     Y22.2441      R0.2500    
   X283.3563     Y22.2722      R0.2500    
   X283.4181     Y22.2847      R0.2500    
   X283.4810     Y22.2809      R0.2500    
   X283.5407     Y22.2609      R0.2500    
   X283.5933     Y22.2261      R0.2500    
   X283.6350     Y22.1789      R0.2500    
   X283.6631     Y22.1225      R0.2500    
   X283.6757     Y22.0608      R0.2500    
   X283.6718     Y21.9979      R0.2500    
   X283.6518     Y21.9381      R0.2500    
   X283.6171     Y21.8856      R0.2500    
   X283.5699     Y21.8439      R0.2500    
   X283.5135     Y21.8157      R0.2500    
   X283.4517     Y21.8032      R0.2500    
   X283.3888     Y21.8070      R0.2500    
   X283.3291     Y21.8270      R0.2500    
   X283.2765     Y21.8618      R0.2500    
   X283.2348     Y21.9090      R0.2500    
   X283.2067     Y21.9654      R0.2500    
   X283.1941     Y22.0271      R0.2500    
(Pass: 7)
G1   Z-3.500    
G17 G2   X283.1980     Y22.0900      R0.2500    
   X283.2180     Y22.1498      R0.2500    
   X283.2527     Y22.2023      R0.2500    
   X283.2999     Y22.2441      R0.2500    
   X283.3563     Y22.2722      R0.2500    
   X283.4181     Y22.2847      R0.2500    
   X283.4810     Y22.2809      R0.2500    
   X283.5407     Y22.2609      R0.2500    
   X283.5933     Y22.2261      R0.2500    
   X283.6350     Y22.1789      R0.2500    
   X283.6631     Y22.1225      R0.2500    
   X283.6757     Y22.0608      R0.2500    
   X283.6718     Y21.9979      R0.2500    
   X283.6518     Y21.9381      R0.2500    
   X283.6171     Y21.8856      R0.2500    
   X283.5699     Y21.8439      R0.2500    
   X283.5135     Y21.8157      R0.2500    
   X283.4517     Y21.8032      R0.2500    
   X283.3888     Y21.8070      R0.2500    
   X283.3291     Y21.8270      R0.2500    
   X283.2765     Y21.8618      R0.2500    
   X283.2348     Y21.9090      R0.2500    
   X283.2067     Y21.9654      R0.2500    
   X283.1941     Y22.0271      R0.2500    
G0   Z5.000     
(Pass: 1)
   X293.374      Y43.811    
G1   Z-0.500     F400 
G17 G2   X293.3153     Y43.8343      R0.2500    
   X293.2651     Y43.8724      R0.2500    
   X293.2265     Y43.9222      R0.2500    
   X293.2021     Y43.9803      R0.2500    
   X293.1935     Y44.0428      R0.2500    
   X293.2015     Y44.1053      R0.2500    
   X293.2253     Y44.1636      R0.2500    
   X293.2634     Y44.2138      R0.2500    
   X293.3132     Y44.2524      R0.2500    
   X293.3713     Y44.2768      R0.2500    
   X293.4337     Y44.2853      R0.2500    
   X293.4962     Y44.2774      R0.2500    
   X293.5546     Y44.2536      R0.2500    
   X293.6047     Y44.2155      R0.2500    
   X293.6433     Y44.1657      R0.2500    
   X293.6677     Y44.1076      R0.2500    
   X293.6763     Y44.0452      R0.2500    
   X293.6684     Y43.9826      R0.2500    
   X293.6445     Y43.9243      R0.2500    
   X293.6064     Y43.8741      R0.2500    
   X293.5566     Y43.8355      R0.2500    
   X293.4985     Y43.8111      R0.2500    
   X293.4361     Y43.8026      R0.2500    
   X293.3736     Y43.8105      R0.2500    
(Pass: 2)
G1   Z-1.000    
G17 G2   X293.3153     Y43.8343      R0.2500    
   X293.2651     Y43.8724      R0.2500    
   X293.2265     Y43.9222      R0.2500    
   X293.2021     Y43.9803      R0.2500    
   X293.1935     Y44.0428      R0.2500    
   X293.2015     Y44.1053      R0.2500    
   X293.2253     Y44.1636      R0.2500    
   X293.2634     Y44.2138      R0.2500    
   X293.3132     Y44.2524      R0.2500    
   X293.3713     Y44.2768      R0.2500    
   X293.4337     Y44.2853      R0.2500    
   X293.4962     Y44.2774      R0.2500    
   X293.5546     Y44.2536      R0.2500    
   X293.6047     Y44.2155      R0.2500    
   X293.6433     Y44.1657      R0.2500    
   X293.6677     Y44.1076      R0.2500    
   X293.6763     Y44.0452      R0.2500    
   X293.6684     Y43.9826      R0.2500    
   X293.6445     Y43.9243      R0.2500    
   X293.6064     Y43.8741      R0.2500    
   X293.5566     Y43.8355      R0.2500    
   X293.4985     Y43.8111      R0.2500    
   X293.4361     Y43.8026      R0.2500    
   X293.3736     Y43.8105      R0.2500    
(Pass: 3)
G1   Z-1.500    
G17 G2   X293.3153     Y43.8343      R0.2500    
   X293.2651     Y43.8724      R0.2500    
   X293.2265     Y43.9222      R0.2500    
   X293.2021     Y43.9803      R0.2500    
   X293.1935     Y44.0428      R0.2500    
   X293.2015     Y44.1053      R0.2500    
   X293.2253     Y44.1636      R0.2500    
   X293.2634     Y44.2138      R0.2500    
   X293.3132     Y44.2524      R0.2500    
   X293.3713     Y44.2768      R0.2500    
   X293.4337     Y44.2853      R0.2500    
   X293.4962     Y44.2774      R0.2500    
   X293.5546     Y44.2536      R0.2500    
   X293.6047     Y44.2155      R0.2500    
   X293.6433     Y44.1657      R0.2500    
   X293.6677     Y44.1076      R0.2500    
   X293.6763     Y44.0452      R0.2500    
   X293.6684     Y43.9826      R0.2500    
   X293.6445     Y43.9243      R0.2500    
   X293.6064     Y43.8741      R0.2500    
   X293.5566     Y43.8355      R0.2500    
   X293.4985     Y43.8111      R0.2500    
   X293.4361     Y43.8026      R0.2500    
   X293.3736     Y43.8105      R0.2500    
(Pass: 4)
G1   Z-2.000    
G17 G2   X293.3153     Y43.8343      R0.2500    
   X293.2651     Y43.8724      R0.2500    
   X293.2265     Y43.9222      R0.2500    
   X293.2021     Y43.9803      R0.2500    
   X293.1935     Y44.0428      R0.2500    
   X293.2015     Y44.1053      R0.2500    
   X293.2253     Y44.1636      R0.2500    
   X293.2634     Y44.2138      R0.2500    
   X293.3132     Y44.2524      R0.2500    
   X293.3713     Y44.2768      R0.2500    
   X293.4337     Y44.2853      R0.2500    
   X293.4962     Y44.2774      R0.2500    
   X293.5546     Y44.2536      R0.2500    
   X293.6047     Y44.2155      R0.2500    
   X293.6433     Y44.1657      R0.2500    
   X293.6677     Y44.1076      R0.2500    
   X293.6763     Y44.0452      R0.2500    
   X293.6684     Y43.9826      R0.2500    
   X293.6445     Y43.9243      R0.2500    
   X293.6064     Y43.8741      R0.2500    
   X293.5566     Y43.8355      R0.2500    
   X293.4985     Y43.8111      R0.2500    
   X293.4361     Y43.8026      R0.2500    
   X293.3736     Y43.8105      R0.2500    
(Pass: 5)
G1   Z-2.500    
G17 G2   X293.3153     Y43.8343      R0.2500    
   X293.2651     Y43.8724      R0.2500    
   X293.2265     Y43.9222      R0.2500    
   X293.2021     Y43.9803      R0.2500    
   X293.1935     Y44.0428      R0.2500    
   X293.2015     Y44.1053      R0.2500    
   X293.2253     Y44.1636      R0.2500    
   X293.2634     Y44.2138      R0.2500    
   X293.3132     Y44.2524      R0.2500    
   X293.3713     Y44.2768      R0.2500    
   X293.4337     Y44.2853      R0.2500    
   X293.4962     Y44.2774      R0.2500    
   X293.5546     Y44.2536      R0.2500    
   X293.6047     Y44.2155      R0.2500    
   X293.6433     Y44.1657      R0.2500    
   X293.6677     Y44.1076      R0.2500    
   X293.6763     Y44.0452      R0.2500    
   X293.6684     Y43.9826      R0.2500    
   X293.6445     Y43.9243      R0.2500    
   X293.6064     Y43.8741      R0.2500    
   X293.5566     Y43.8355      R0.2500    
   X293.4985     Y43.8111      R0.2500    
   X293.4361     Y43.8026      R0.2500    
   X293.3736     Y43.8105      R0.2500    
(Pass: 6)
G1   Z-3.000    
G17 G2   X293.3153     Y43.8343      R0.2500    
   X293.2651     Y43.8724      R0.2500    
   X293.2265     Y43.9222      R0.2500    
   X293.2021     Y43.9803      R0.2500    
   X293.1935     Y44.0428      R0.2500    
   X293.2015     Y44.1053      R0.2500    
   X293.2253     Y44.1636      R0.2500    
   X293.2634     Y44.2138      R0.2500    
   X293.3132     Y44.2524      R0.2500    
   X293.3713     Y44.2768      R0.2500    
   X293.4337     Y44.2853      R0.2500    
   X293.4962     Y44.2774      R0.2500    
   X293.5546     Y44.2536      R0.2500    
   X293.6047     Y44.2155      R0.2500    
   X293.6433     Y44.1657      R0.2500    
   X293.6677     Y44.1076      R0.2500    
   X293.6763     Y44.0452      R0.2500    
   X293.6684     Y43.9826      R0.2500    
   X293.6445     Y43.9243      R0.2500    
   X293.6064     Y43.8741      R0.2500    
   X293.5566     Y43.8355      R0.2500    
   X293.4985     Y43.8111      R0.2500    
   X293.4361     Y43.8026      R0.2500    
   X293.3736     Y43.8105      R0.2500    
(Pass: 7)
G1   Z-3.500    
G17 G2   X293.3153     Y43.8343      R0.2500    
   X293.2651     Y43.8724      R0.2500    
   X293.2265     Y43.9222      R0.2500    
   X293.2021     Y43.9803      R0.2500    
   X293.1935     Y44.0428      R0.2500    
   X293.2015     Y44.1053      R0.2500    
   X293.2253     Y44.1636      R0.2500    
   X293.2634     Y44.2138      R0.2500    
   X293.3132     Y44.2524      R0.2500    
   X293.3713     Y44.2768      R0.2500    
   X293.4337     Y44.2853      R0.2500    
   X293.4962     Y44.2774      R0.2500    
   X293.5546     Y44.2536      R0.2500    
   X293.6047     Y44.2155      R0.2500    
   X293.6433     Y44.1657      R0.2500    
   X293.6677     Y44.1076      R0.2500    
   X293.6763     Y44.0452      R0.2500    
   X293.6684     Y43.9826      R0.2500    
   X293.6445     Y43.9243      R0.2500    
   X293.6064     Y43.8741      R0.2500    
   X293.5566     Y43.8355      R0.2500    
   X293.4985     Y43.8111      R0.2500    
   X293.4361     Y43.8026      R0.2500    
   X293.3736     Y43.8105      R0.2500    
G0   Z5.000     
(Pass: 1)
   X281.871      Y114.819   
G1   Z-0.500     F400 
   X281.485      Y114.768   
   X281.099      Y114.819   
   X280.739      Y114.968   
   X280.430      Y115.205   
   X280.193      Y115.514   
   X280.044      Y115.873   
   X279.993      Y116.259   
   X280.044      Y116.645   
   X280.193      Y117.005   
   X280.430      Y117.314   
   X280.739      Y117.551   
   X281.099      Y117.700   
   X281.485      Y117.751   
   X281.871      Y117.700   
   X282.230      Y117.551   
   X282.539      Y117.314   
   X282.776      Y117.005   
   X282.925      Y116.645   
   X282.976      Y116.259   
   X282.925      Y115.873   
   X282.776      Y115.514   
   X282.539      Y115.205   
   X282.230      Y114.968   
   X281.871      Y114.819   
(Pass: 2)
   Z-1.000    
   X281.485      Y114.768   
   X281.099      Y114.819   
   X280.739      Y114.968   
   X280.430      Y115.205   
   X280.193      Y115.514   
   X280.044      Y115.873   
   X279.993      Y116.259   
   X280.044      Y116.645   
   X280.193      Y117.005   
   X280.430      Y117.314   
   X280.739      Y117.551   
   X281.099      Y117.700   
   X281.485      Y117.751   
   X281.871      Y117.700   
   X282.230      Y117.551   
   X282.539      Y117.314   
   X282.776      Y117.005   
   X282.925      Y116.645   
   X282.976      Y116.259   
   X282.925      Y115.873   
   X282.776      Y115.514   
   X282.539      Y115.205   
   X282.230      Y114.968   
   X281.871      Y114.819   
(Pass: 3)
   Z-1.500    
   X281.485      Y114.768   
   X281.099      Y114.819   
   X280.739      Y114.968   
   X280.430      Y115.205   
   X280.193      Y115.514   
   X280.044      Y115.873   
   X279.993      Y116.259   
   X280.044      Y116.645   
   X280.193      Y117.005   
   X280.430      Y117.314   
   X280.739      Y117.551   
   X281.099      Y117.700   
   X281.485      Y117.751   
   X281.871      Y117.700   
   X282.230      Y117.551   
   X282.539      Y117.314   
   X282.776      Y117.005   
   X282.925      Y116.645   
   X282.976      Y116.259   
   X282.925      Y115.873   
   X282.776      Y115.514   
   X282.539      Y115.205   
   X282.230      Y114.968   
   X281.871      Y114.819   
(Pass: 4)
   Z-2.000    
   X281.485      Y114.768   
   X281.099      Y114.819   
   X280.739      Y114.968   
   X280.430      Y115.205   
   X280.193      Y115.514   
   X280.044      Y115.873   
   X279.993      Y116.259   
   X280.044      Y116.645   
   X280.193      Y117.005   
   X280.430      Y117.314   
   X280.739      Y117.551   
   X281.099      Y117.700   
   X281.485      Y117.751   
   X281.871      Y117.700   
   X282.230      Y117.551   
   X282.539      Y117.314   
   X282.776      Y117.005   
   X282.925      Y116.645   
   X282.976      Y116.259   
   X282.925      Y115.873   
   X282.776      Y115.514   
   X282.539      Y115.205   
   X282.230      Y114.968   
   X281.871      Y114.819   
(Pass: 5)
   Z-2.500    
   X281.485      Y114.768   
   X281.099      Y114.819   
   X280.739      Y114.968   
   X280.430      Y115.205   
   X280.193      Y115.514   
   X280.044      Y115.873   
   X279.993      Y116.259   
   X280.044      Y116.645   
   X280.193      Y117.005   
   X280.430      Y117.314   
   X280.739      Y117.551   
   X281.099      Y117.700   
   X281.485      Y117.751   
   X281.871      Y117.700   
   X282.230      Y117.551   
   X282.539      Y117.314   
   X282.776      Y117.005   
   X282.925      Y116.645   
   X282.976      Y116.259   
   X282.925      Y115.873   
   X282.776      Y115.514   
   X282.539      Y115.205   
   X282.230      Y114.968   
   X281.871      Y114.819   
(Pass: 6)
   Z-3.000    
   X281.485      Y114.768   
   X281.099      Y114.819   
   X280.739      Y114.968   
   X280.430      Y115.205   
   X280.193      Y115.514   
   X280.044      Y115.873   
   X279.993      Y116.259   
   X280.044      Y116.645   
   X280.193      Y117.005   
   X280.430      Y117.314   
   X280.739      Y117.551   
   X281.099      Y117.700   
   X281.485      Y117.751   
   X281.871      Y117.700   
   X282.230      Y117.551   
   X282.539      Y117.314   
   X282.776      Y117.005   
   X282.925      Y116.645   
   X282.976      Y116.259   
   X282.925      Y115.873   
   X282.776      Y115.514   
   X282.539      Y115.205   
   X282.230      Y114.968   
   X281.871      Y114.819   
(Pass: 7)
   Z-3.500    
   X281.485      Y114.768   
   X281.099      Y114.819   
   X280.739      Y114.968   
   X280.430      Y115.205   
   X280.193      Y115.514   
   X280.044      Y115.873   
   X279.993      Y116.259   
   X280.044      Y116.645   
   X280.193      Y117.005   
   X280.430      Y117.314   
   X280.739      Y117.551   
   X281.099      Y117.700   
   X281.485      Y117.751   
   X281.871      Y117.700   
   X282.230      Y117.551   
   X282.539      Y117.314   
   X282.776      Y117.005   
   X282.925      Y116.645   
   X282.976      Y116.259   
   X282.925      Y115.873   
   X282.776      Y115.514   
   X282.539      Y115.205   
   X282.230      Y114.968   
   X281.871      Y114.819   
G0   Z5.000     
(Pass: 1)
   X237.976      Y116.259   
G1   Z-0.500     F400 
   X237.925      Y115.873   
   X237.776      Y115.514   
   X237.539      Y115.205   
   X237.230      Y114.968   
   X236.871      Y114.819   
   X236.485      Y114.768   
   X236.099      Y114.819   
   X235.739      Y114.968   
   X235.430      Y115.205   
   X235.193      Y115.514   
   X235.044      Y115.873   
   X234.993      Y116.259   
   X235.044      Y116.645   
   X235.193      Y117.005   
   X235.430      Y117.314   
   X235.739      Y117.551   
   X236.099      Y117.700   
   X236.485      Y117.751   
   X236.871      Y117.700   
   X237.230      Y117.551   
   X237.539      Y117.314   
   X237.776      Y117.005   
   X237.925      Y116.645   
   X237.976      Y116.259   
(Pass: 2)
   Z-1.000    
   X237.925      Y115.873   
   X237.776      Y115.514   
   X237.539      Y115.205   
   X237.230      Y114.968   
   X236.871      Y114.819   
   X236.485      Y114.768   
   X236.099      Y114.819   
   X235.739      Y114.968   
   X235.430      Y115.205   
   X235.193      Y115.514   
   X235.044      Y115.873   
   X234.993      Y116.259   
   X235.044      Y116.645   
   X235.193      Y117.005   
   X235.430      Y117.314   
   X235.739      Y117.551   
   X236.099      Y117.700   
   X236.485      Y117.751   
   X236.871      Y117.700   
   X237.230      Y117.551   
   X237.539      Y117.314   
   X237.776      Y117.005   
   X237.925      Y116.645   
   X237.976      Y116.259   
(Pass: 3)
   Z-1.500    
   X237.925      Y115.873   
   X237.776      Y115.514   
   X237.539      Y115.205   
   X237.230      Y114.968   
   X236.871      Y114.819   
   X236.485      Y114.768   
   X236.099      Y114.819   
   X235.739      Y114.968   
   X235.430      Y115.205   
   X235.193      Y115.514   
   X235.044      Y115.873   
   X234.993      Y116.259   
   X235.044      Y116.645   
   X235.193      Y117.005   
   X235.430      Y117.314   
   X235.739      Y117.551   
   X236.099      Y117.700   
   X236.485      Y117.751   
   X236.871      Y117.700   
   X237.230      Y117.551   
   X237.539      Y117.314   
   X237.776      Y117.005   
   X237.925      Y116.645   
   X237.976      Y116.259   
(Pass: 4)
   Z-2.000    
   X237.925      Y115.873   
   X237.776      Y115.514   
   X237.539      Y115.205   
   X237.230      Y114.968   
   X236.871      Y114.819   
   X236.485      Y114.768   
   X236.099      Y114.819   
   X235.739      Y114.968   
   X235.430      Y115.205   
   X235.193      Y115.514   
   X235.044      Y115.873   
   X234.993      Y116.259   
   X235.044      Y116.645   
   X235.193      Y117.005   
   X235.430      Y117.314   
   X235.739      Y117.551   
   X236.099      Y117.700   
   X236.485      Y117.751   
   X236.871      Y117.700   
   X237.230      Y117.551   
   X237.539      Y117.314   
   X237.776      Y117.005   
   X237.925      Y116.645   
   X237.976      Y116.259   
(Pass: 5)
   Z-2.500    
   X237.925      Y115.873   
   X237.776      Y115.514   
   X237.539      Y115.205   
   X237.230      Y114.968   
   X236.871      Y114.819   
   X236.485      Y114.768   
   X236.099      Y114.819   
   X235.739      Y114.968   
   X235.430      Y115.205   
   X235.193      Y115.514   
   X235.044      Y115.873   
   X234.993      Y116.259   
   X235.044      Y116.645   
   X235.193      Y117.005   
   X235.430      Y117.314   
   X235.739      Y117.551   
   X236.099      Y117.700   
   X236.485      Y117.751   
   X236.871      Y117.700   
   X237.230      Y117.551   
   X237.539      Y117.314   
   X237.776      Y117.005   
   X237.925      Y116.645   
   X237.976      Y116.259   
(Pass: 6)
   Z-3.000    
   X237.925      Y115.873   
   X237.776      Y115.514   
   X237.539      Y115.205   
   X237.230      Y114.968   
   X236.871      Y114.819   
   X236.485      Y114.768   
   X236.099      Y114.819   
   X235.739      Y114.968   
   X235.430      Y115.205   
   X235.193      Y115.514   
   X235.044      Y115.873   
   X234.993      Y116.259   
   X235.044      Y116.645   
   X235.193      Y117.005   
   X235.430      Y117.314   
   X235.739      Y117.551   
   X236.099      Y117.700   
   X236.485      Y117.751   
   X236.871      Y117.700   
   X237.230      Y117.551   
   X237.539      Y117.314   
   X237.776      Y117.005   
   X237.925      Y116.645   
   X237.976      Y116.259   
(Pass: 7)
   Z-3.500    
   X237.925      Y115.873   
   X237.776      Y115.514   
   X237.539      Y115.205   
   X237.230      Y114.968   
   X236.871      Y114.819   
   X236.485      Y114.768   
   X236.099      Y114.819   
   X235.739      Y114.968   
   X235.430      Y115.205   
   X235.193      Y115.514   
   X235.044      Y115.873   
   X234.993      Y116.259   
   X235.044      Y116.645   
   X235.193      Y117.005   
   X235.430      Y117.314   
   X235.739      Y117.551   
   X236.099      Y117.700   
   X236.485      Y117.751   
   X236.871      Y117.700   
   X237.230      Y117.551   
   X237.539      Y117.314   
   X237.776      Y117.005   
   X237.925      Y116.645   
   X237.976      Y116.259   
G0   Z5.000     
(Pass: 1)
   X216.256      Y112.836   
G1   Z-0.500     F400 
   X216.317      Y112.375   
   Y103.506   
   X216.256      Y103.044   
   X216.103      Y102.674   
   X215.860      Y102.357   
   X215.542      Y102.114   
   X215.173      Y101.961   
   X214.777      Y101.909   
   X214.380      Y101.961   
   X214.011      Y102.114   
   X213.694      Y102.357   
   X213.451      Y102.674   
   X213.298      Y103.044   
   X213.237      Y103.506   
   Y112.375   
   X213.298      Y112.836   
   X213.451      Y113.206   
   X213.694      Y113.523   
   X214.011      Y113.766   
   X214.380      Y113.919   
   X214.777      Y113.971   
   X215.173      Y113.919   
   X215.542      Y113.766   
   X215.860      Y113.523   
   X216.103      Y113.206   
   X216.256      Y112.836   
(Pass: 2)
   Z-1.000    
   X216.317      Y112.375   
   Y103.506   
   X216.256      Y103.044   
   X216.103      Y102.674   
   X215.860      Y102.357   
   X215.542      Y102.114   
   X215.173      Y101.961   
   X214.777      Y101.909   
   X214.380      Y101.961   
   X214.011      Y102.114   
   X213.694      Y102.357   
   X213.451      Y102.674   
   X213.298      Y103.044   
   X213.237      Y103.506   
   Y112.375   
   X213.298      Y112.836   
   X213.451      Y113.206   
   X213.694      Y113.523   
   X214.011      Y113.766   
   X214.380      Y113.919   
   X214.777      Y113.971   
   X215.173      Y113.919   
   X215.542      Y113.766   
   X215.860      Y113.523   
   X216.103      Y113.206   
   X216.256      Y112.836   
(Pass: 3)
   Z-1.500    
   X216.317      Y112.375   
   Y103.506   
   X216.256      Y103.044   
   X216.103      Y102.674   
   X215.860      Y102.357   
   X215.542      Y102.114   
   X215.173      Y101.961   
   X214.777      Y101.909   
   X214.380      Y101.961   
   X214.011      Y102.114   
   X213.694      Y102.357   
   X213.451      Y102.674   
   X213.298      Y103.044   
   X213.237      Y103.506   
   Y112.375   
   X213.298      Y112.836   
   X213.451      Y113.206   
   X213.694      Y113.523   
   X214.011      Y113.766   
   X214.380      Y113.919   
   X214.777      Y113.971   
   X215.173      Y113.919   
   X215.542      Y113.766   
   X215.860      Y113.523   
   X216.103      Y113.206   
   X216.256      Y112.836   
(Pass: 4)
   Z-2.000    
   X216.317      Y112.375   
   Y103.506   
   X216.256      Y103.044   
   X216.103      Y102.674   
   X215.860      Y102.357   
   X215.542      Y102.114   
   X215.173      Y101.961   
   X214.777      Y101.909   
   X214.380      Y101.961   
   X214.011      Y102.114   
   X213.694      Y102.357   
   X213.451      Y102.674   
   X213.298      Y103.044   
   X213.237      Y103.506   
   Y112.375   
   X213.298      Y112.836   
   X213.451      Y113.206   
   X213.694      Y113.523   
   X214.011      Y113.766   
   X214.380      Y113.919   
   X214.777      Y113.971   
   X215.173      Y113.919   
   X215.542      Y113.766   
   X215.860      Y113.523   
   X216.103      Y113.206   
   X216.256      Y112.836   
(Pass: 5)
   Z-2.500    
   X216.317      Y112.375   
   Y103.506   
   X216.256      Y103.044   
   X216.103      Y102.674   
   X215.860      Y102.357   
   X215.542      Y102.114   
   X215.173      Y101.961   
   X214.777      Y101.909   
   X214.380      Y101.961   
   X214.011      Y102.114   
   X213.694      Y102.357   
   X213.451      Y102.674   
   X213.298      Y103.044   
   X213.237      Y103.506   
   Y112.375   
   X213.298      Y112.836   
   X213.451      Y113.206   
   X213.694      Y113.523   
   X214.011      Y113.766   
   X214.380      Y113.919   
   X214.777      Y113.971   
   X215.173      Y113.919   
   X215.542      Y113.766   
   X215.860      Y113.523   
   X216.103      Y113.206   
   X216.256      Y112.836   
(Pass: 6)
   Z-3.000    
   X216.317      Y112.375   
   Y103.506   
   X216.256      Y103.044   
   X216.103      Y102.674   
   X215.860      Y102.357   
   X215.542      Y102.114   
   X215.173      Y101.961   
   X214.777      Y101.909   
   X214.380      Y101.961   
   X214.011      Y102.114   
   X213.694      Y102.357   
   X213.451      Y102.674   
   X213.298      Y103.044   
   X213.237      Y103.506   
   Y112.375   
   X213.298      Y112.836   
   X213.451      Y113.206   
   X213.694      Y113.523   
   X214.011      Y113.766   
   X214.380      Y113.919   
   X214.777      Y113.971   
   X215.173      Y113.919   
   X215.542      Y113.766   
   X215.860      Y113.523   
   X216.103      Y113.206   
   X216.256      Y112.836   
(Pass: 7)
   Z-3.500    
   X216.317      Y112.375   
   Y103.506   
   X216.256      Y103.044   
   X216.103      Y102.674   
   X215.860      Y102.357   
   X215.542      Y102.114   
   X215.173      Y101.961   
   X214.777      Y101.909   
   X214.380      Y101.961   
   X214.011      Y102.114   
   X213.694      Y102.357   
   X213.451      Y102.674   
   X213.298      Y103.044   
   X213.237      Y103.506   
   Y112.375   
   X213.298      Y112.836   
   X213.451      Y113.206   
   X213.694      Y113.523   
   X214.011      Y113.766   
   X214.380      Y113.919   
   X214.777      Y113.971   
   X215.173      Y113.919   
   X215.542      Y113.766   
   X215.860      Y113.523   
   X216.103      Y113.206   
   X216.256      Y112.836   
G0   Z5.000     
(Pass: 1)
   X201.097      Y120.809   
G1   Z-0.500     F400 
   X199.270      Y118.429   
   X196.890      Y116.602   
   X194.119      Y115.454   
   X191.145      Y115.063   
   X188.171      Y115.454   
   X185.399      Y116.602   
   X183.019      Y118.429   
   X181.193      Y120.809   
   X180.045      Y123.580   
   X179.645      Y126.620   
   Y136.489   
   X180.045      Y139.528   
   X181.193      Y142.300   
   X183.019      Y144.680   
   X185.399      Y146.506   
   X188.171      Y147.654   
   X191.145      Y148.046   
   X194.119      Y147.654   
   X196.890      Y146.506   
   X199.270      Y144.680   
   X201.097      Y142.300   
   X202.245      Y139.528   
   X202.645      Y136.489   
   Y126.620   
   X202.245      Y123.580   
   X201.097      Y120.809   
(Pass: 2)
   Z-1.000    
   X199.270      Y118.429   
   X196.890      Y116.602   
   X194.119      Y115.454   
   X191.145      Y115.063   
   X188.171      Y115.454   
   X185.399      Y116.602   
   X183.019      Y118.429   
   X181.193      Y120.809   
   X180.045      Y123.580   
   X179.645      Y126.620   
   Y136.489   
   X180.045      Y139.528   
   X181.193      Y142.300   
   X183.019      Y144.680   
   X185.399      Y146.506   
   X188.171      Y147.654   
   X191.145      Y148.046   
   X194.119      Y147.654   
   X196.890      Y146.506   
   X199.270      Y144.680   
   X201.097      Y142.300   
   X202.245      Y139.528   
   X202.645      Y136.489   
   Y126.620   
   X202.245      Y123.580   
   X201.097      Y120.809   
(Pass: 3)
   Z-1.500    
   X199.270      Y118.429   
   X196.890      Y116.602   
   X194.119      Y115.454   
   X191.145      Y115.063   
   X188.171      Y115.454   
   X185.399      Y116.602   
   X183.019      Y118.429   
   X181.193      Y120.809   
   X180.045      Y123.580   
   X179.645      Y126.620   
   Y136.489   
   X180.045      Y139.528   
   X181.193      Y142.300   
   X183.019      Y144.680   
   X185.399      Y146.506   
   X188.171      Y147.654   
   X191.145      Y148.046   
   X194.119      Y147.654   
   X196.890      Y146.506   
   X199.270      Y144.680   
   X201.097      Y142.300   
   X202.245      Y139.528   
   X202.645      Y136.489   
   Y126.620   
   X202.245      Y123.580   
   X201.097      Y120.809   
(Pass: 4)
   Z-2.000    
   X199.270      Y118.429   
   X196.890      Y116.602   
   X194.119      Y115.454   
   X191.145      Y115.063   
   X188.171      Y115.454   
   X185.399      Y116.602   
   X183.019      Y118.429   
   X181.193      Y120.809   
   X180.045      Y123.580   
   X179.645      Y126.620   
   Y136.489   
   X180.045      Y139.528   
   X181.193      Y142.300   
   X183.019      Y144.680   
   X185.399      Y146.506   
   X188.171      Y147.654   
   X191.145      Y148.046   
   X194.119      Y147.654   
   X196.890      Y146.506   
   X199.270      Y144.680   
   X201.097      Y142.300   
   X202.245      Y139.528   
   X202.645      Y136.489   
   Y126.620   
   X202.245      Y123.580   
   X201.097      Y120.809   
(Pass: 5)
   Z-2.500    
   X199.270      Y118.429   
   X196.890      Y116.602   
   X194.119      Y115.454   
   X191.145      Y115.063   
   X188.171      Y115.454   
   X185.399      Y116.602   
   X183.019      Y118.429   
   X181.193      Y120.809   
   X180.045      Y123.580   
   X179.645      Y126.620   
   Y136.489   
   X180.045      Y139.528   
   X181.193      Y142.300   
   X183.019      Y144.680   
   X185.399      Y146.506   
   X188.171      Y147.654   
   X191.145      Y148.046   
   X194.119      Y147.654   
   X196.890      Y146.506   
   X199.270      Y144.680   
   X201.097      Y142.300   
   X202.245      Y139.528   
   X202.645      Y136.489   
   Y126.620   
   X202.245      Y123.580   
   X201.097      Y120.809   
(Pass: 6)
   Z-3.000    
   X199.270      Y118.429   
   X196.890      Y116.602   
   X194.119      Y115.454   
   X191.145      Y115.063   
   X188.171      Y115.454   
   X185.399      Y116.602   
   X183.019      Y118.429   
   X181.193      Y120.809   
   X180.045      Y123.580   
   X179.645      Y126.620   
   Y136.489   
   X180.045      Y139.528   
   X181.193      Y142.300   
   X183.019      Y144.680   
   X185.399      Y146.506   
   X188.171      Y147.654   
   X191.145      Y148.046   
   X194.119      Y147.654   
   X196.890      Y146.506   
   X199.270      Y144.680   
   X201.097      Y142.300   
   X202.245      Y139.528   
   X202.645      Y136.489   
   Y126.620   
   X202.245      Y123.580   
   X201.097      Y120.809   
(Pass: 7)
   Z-3.500    
   X199.270      Y118.429   
   X196.890      Y116.602   
   X194.119      Y115.454   
   X191.145      Y115.063   
   X188.171      Y115.454   
   X185.399      Y116.602   
   X183.019      Y118.429   
   X181.193      Y120.809   
   X180.045      Y123.580   
   X179.645      Y126.620   
   Y136.489   
   X180.045      Y139.528   
   X181.193      Y142.300   
   X183.019      Y144.680   
   X185.399      Y146.506   
   X188.171      Y147.654   
   X191.145      Y148.046   
   X194.119      Y147.654   
   X196.890      Y146.506   
   X199.270      Y144.680   
   X201.097      Y142.300   
   X202.245      Y139.528   
   X202.645      Y136.489   
   Y126.620   
   X202.245      Y123.580   
   X201.097      Y120.809   
G0   Z5.000     
(Pass: 1)
   X169.012      Y112.836   
G1   Z-0.500     F400 
   X169.073      Y112.375   
   Y103.506   
   X169.012      Y103.044   
   X168.859      Y102.674   
   X168.616      Y102.357   
   X168.299      Y102.114   
   X167.929      Y101.961   
   X167.533      Y101.909   
   X167.136      Y101.961   
   X166.767      Y102.114   
   X166.450      Y102.357   
   X166.207      Y102.674   
   X166.054      Y103.044   
   X165.993      Y103.506   
   Y112.375   
   X166.054      Y112.836   
   X166.207      Y113.206   
   X166.450      Y113.523   
   X166.767      Y113.766   
   X167.137      Y113.919   
   X167.533      Y113.971   
   X167.929      Y113.919   
   X168.299      Y113.766   
   X168.616      Y113.523   
   X168.859      Y113.206   
   X169.012      Y112.836   
(Pass: 2)
   Z-1.000    
   X169.073      Y112.375   
   Y103.506   
   X169.012      Y103.044   
   X168.859      Y102.674   
   X168.616      Y102.357   
   X168.299      Y102.114   
   X167.929      Y101.961   
   X167.533      Y101.909   
   X167.136      Y101.961   
   X166.767      Y102.114   
   X166.450      Y102.357   
   X166.207      Y102.674   
   X166.054      Y103.044   
   X165.993      Y103.506   
   Y112.375   
   X166.054      Y112.836   
   X166.207      Y113.206   
   X166.450      Y113.523   
   X166.767      Y113.766   
   X167.137      Y113.919   
   X167.533      Y113.971   
   X167.929      Y113.919   
   X168.299      Y113.766   
   X168.616      Y113.523   
   X168.859      Y113.206   
   X169.012      Y112.836   
(Pass: 3)
   Z-1.500    
   X169.073      Y112.375   
   Y103.506   
   X169.012      Y103.044   
   X168.859      Y102.674   
   X168.616      Y102.357   
   X168.299      Y102.114   
   X167.929      Y101.961   
   X167.533      Y101.909   
   X167.136      Y101.961   
   X166.767      Y102.114   
   X166.450      Y102.357   
   X166.207      Y102.674   
   X166.054      Y103.044   
   X165.993      Y103.506   
   Y112.375   
   X166.054      Y112.836   
   X166.207      Y113.206   
   X166.450      Y113.523   
   X166.767      Y113.766   
   X167.137      Y113.919   
   X167.533      Y113.971   
   X167.929      Y113.919   
   X168.299      Y113.766   
   X168.616      Y113.523   
   X168.859      Y113.206   
   X169.012      Y112.836   
(Pass: 4)
   Z-2.000    
   X169.073      Y112.375   
   Y103.506   
   X169.012      Y103.044   
   X168.859      Y102.674   
   X168.616      Y102.357   
   X168.299      Y102.114   
   X167.929      Y101.961   
   X167.533      Y101.909   
   X167.136      Y101.961   
   X166.767      Y102.114   
   X166.450      Y102.357   
   X166.207      Y102.674   
   X166.054      Y103.044   
   X165.993      Y103.506   
   Y112.375   
   X166.054      Y112.836   
   X166.207      Y113.206   
   X166.450      Y113.523   
   X166.767      Y113.766   
   X167.137      Y113.919   
   X167.533      Y113.971   
   X167.929      Y113.919   
   X168.299      Y113.766   
   X168.616      Y113.523   
   X168.859      Y113.206   
   X169.012      Y112.836   
(Pass: 5)
   Z-2.500    
   X169.073      Y112.375   
   Y103.506   
   X169.012      Y103.044   
   X168.859      Y102.674   
   X168.616      Y102.357   
   X168.299      Y102.114   
   X167.929      Y101.961   
   X167.533      Y101.909   
   X167.136      Y101.961   
   X166.767      Y102.114   
   X166.450      Y102.357   
   X166.207      Y102.674   
   X166.054      Y103.044   
   X165.993      Y103.506   
   Y112.375   
   X166.054      Y112.836   
   X166.207      Y113.206   
   X166.450      Y113.523   
   X166.767      Y113.766   
   X167.137      Y113.919   
   X167.533      Y113.971   
   X167.929      Y113.919   
   X168.299      Y113.766   
   X168.616      Y113.523   
   X168.859      Y113.206   
   X169.012      Y112.836   
(Pass: 6)
   Z-3.000    
   X169.073      Y112.375   
   Y103.506   
   X169.012      Y103.044   
   X168.859      Y102.674   
   X168.616      Y102.357   
   X168.299      Y102.114   
   X167.929      Y101.961   
   X167.533      Y101.909   
   X167.136      Y101.961   
   X166.767      Y102.114   
   X166.450      Y102.357   
   X166.207      Y102.674   
   X166.054      Y103.044   
   X165.993      Y103.506   
   Y112.375   
   X166.054      Y112.836   
   X166.207      Y113.206   
   X166.450      Y113.523   
   X166.767      Y113.766   
   X167.137      Y113.919   
   X167.533      Y113.971   
   X167.929      Y113.919   
   X168.299      Y113.766   
   X168.616      Y113.523   
   X168.859      Y113.206   
   X169.012      Y112.836   
(Pass: 7)
   Z-3.500    
   X169.073      Y112.375   
   Y103.506   
   X169.012      Y103.044   
   X168.859      Y102.674   
   X168.616      Y102.357   
   X168.299      Y102.114   
   X167.929      Y101.961   
   X167.533      Y101.909   
   X167.136      Y101.961   
   X166.767      Y102.114   
   X166.450      Y102.357   
   X166.207      Y102.674   
   X166.054      Y103.044   
   X165.993      Y103.506   
   Y112.375   
   X166.054      Y112.836   
   X166.207      Y113.206   
   X166.450      Y113.523   
   X166.767      Y113.766   
   X167.137      Y113.919   
   X167.533      Y113.971   
   X167.929      Y113.919   
   X168.299      Y113.766   
   X168.616      Y113.523   
   X168.859      Y113.206   
   X169.012      Y112.836   
G0   Z5.000     
(Pass: 1)
   X147.236      Y116.259   
G1   Z-0.500     F400 
   X147.185      Y115.873   
   X147.036      Y115.514   
   X146.799      Y115.205   
   X146.490      Y114.968   
   X146.131      Y114.819   
   X145.745      Y114.768   
   X145.359      Y114.819   
   X144.999      Y114.968   
   X144.690      Y115.205   
   X144.453      Y115.514   
   X144.304      Y115.873   
   X144.253      Y116.259   
   X144.304      Y116.645   
   X144.453      Y117.005   
   X144.690      Y117.314   
   X144.999      Y117.551   
   X145.359      Y117.700   
   X145.745      Y117.751   
   X146.131      Y117.700   
   X146.490      Y117.551   
   X146.799      Y117.314   
   X147.036      Y117.005   
   X147.185      Y116.645   
   X147.236      Y116.259   
(Pass: 2)
   Z-1.000    
   X147.185      Y115.873   
   X147.036      Y115.514   
   X146.799      Y115.205   
   X146.490      Y114.968   
   X146.131      Y114.819   
   X145.745      Y114.768   
   X145.359      Y114.819   
   X144.999      Y114.968   
   X144.690      Y115.205   
   X144.453      Y115.514   
   X144.304      Y115.873   
   X144.253      Y116.259   
   X144.304      Y116.645   
   X144.453      Y117.005   
   X144.690      Y117.314   
   X144.999      Y117.551   
   X145.359      Y117.700   
   X145.745      Y117.751   
   X146.131      Y117.700   
   X146.490      Y117.551   
   X146.799      Y117.314   
   X147.036      Y117.005   
   X147.185      Y116.645   
   X147.236      Y116.259   
(Pass: 3)
   Z-1.500    
   X147.185      Y115.873   
   X147.036      Y115.514   
   X146.799      Y115.205   
   X146.490      Y114.968   
   X146.131      Y114.819   
   X145.745      Y114.768   
   X145.359      Y114.819   
   X144.999      Y114.968   
   X144.690      Y115.205   
   X144.453      Y115.514   
   X144.304      Y115.873   
   X144.253      Y116.259   
   X144.304      Y116.645   
   X144.453      Y117.005   
   X144.690      Y117.314   
   X144.999      Y117.551   
   X145.359      Y117.700   
   X145.745      Y117.751   
   X146.131      Y117.700   
   X146.490      Y117.551   
   X146.799      Y117.314   
   X147.036      Y117.005   
   X147.185      Y116.645   
   X147.236      Y116.259   
(Pass: 4)
   Z-2.000    
   X147.185      Y115.873   
   X147.036      Y115.514   
   X146.799      Y115.205   
   X146.490      Y114.968   
   X146.131      Y114.819   
   X145.745      Y114.768   
   X145.359      Y114.819   
   X144.999      Y114.968   
   X144.690      Y115.205   
   X144.453      Y115.514   
   X144.304      Y115.873   
   X144.253      Y116.259   
   X144.304      Y116.645   
   X144.453      Y117.005   
   X144.690      Y117.314   
   X144.999      Y117.551   
   X145.359      Y117.700   
   X145.745      Y117.751   
   X146.131      Y117.700   
   X146.490      Y117.551   
   X146.799      Y117.314   
   X147.036      Y117.005   
   X147.185      Y116.645   
   X147.236      Y116.259   
(Pass: 5)
   Z-2.500    
   X147.185      Y115.873   
   X147.036      Y115.514   
   X146.799      Y115.205   
   X146.490      Y114.968   
   X146.131      Y114.819   
   X145.745      Y114.768   
   X145.359      Y114.819   
   X144.999      Y114.968   
   X144.690      Y115.205   
   X144.453      Y115.514   
   X144.304      Y115.873   
   X144.253      Y116.259   
   X144.304      Y116.645   
   X144.453      Y117.005   
   X144.690      Y117.314   
   X144.999      Y117.551   
   X145.359      Y117.700   
   X145.745      Y117.751   
   X146.131      Y117.700   
   X146.490      Y117.551   
   X146.799      Y117.314   
   X147.036      Y117.005   
   X147.185      Y116.645   
   X147.236      Y116.259   
(Pass: 6)
   Z-3.000    
   X147.185      Y115.873   
   X147.036      Y115.514   
   X146.799      Y115.205   
   X146.490      Y114.968   
   X146.131      Y114.819   
   X145.745      Y114.768   
   X145.359      Y114.819   
   X144.999      Y114.968   
   X144.690      Y115.205   
   X144.453      Y115.514   
   X144.304      Y115.873   
   X144.253      Y116.259   
   X144.304      Y116.645   
   X144.453      Y117.005   
   X144.690      Y117.314   
   X144.999      Y117.551   
   X145.359      Y117.700   
   X145.745      Y117.751   
   X146.131      Y117.700   
   X146.490      Y117.551   
   X146.799      Y117.314   
   X147.036      Y117.005   
   X147.185      Y116.645   
   X147.236      Y116.259   
(Pass: 7)
   Z-3.500    
   X147.185      Y115.873   
   X147.036      Y115.514   
   X146.799      Y115.205   
   X146.490      Y114.968   
   X146.131      Y114.819   
   X145.745      Y114.768   
   X145.359      Y114.819   
   X144.999      Y114.968   
   X144.690      Y115.205   
   X144.453      Y115.514   
   X144.304      Y115.873   
   X144.253      Y116.259   
   X144.304      Y116.645   
   X144.453      Y117.005   
   X144.690      Y117.314   
   X144.999      Y117.551   
   X145.359      Y117.700   
   X145.745      Y117.751   
   X146.131      Y117.700   
   X146.490      Y117.551   
   X146.799      Y117.314   
   X147.036      Y117.005   
   X147.185      Y116.645   
   X147.236      Y116.259   
G0   Z5.000     
(Pass: 1)
   X166.767      Y149.358   
G1   Z-0.500     F400 
   X166.450      Y149.601   
   X166.207      Y149.918   
   X166.054      Y150.288   
   X165.993      Y150.749   
   Y159.618   
   X166.054      Y160.080   
   X166.207      Y160.450   
   X166.450      Y160.767   
   X166.767      Y161.010   
   X167.137      Y161.163   
   X167.533      Y161.215   
   X167.929      Y161.163   
   X168.299      Y161.010   
   X168.616      Y160.767   
   X168.859      Y160.450   
   X169.012      Y160.080   
   X169.073      Y159.618   
   Y150.750   
   X169.012      Y150.288   
   X168.859      Y149.918   
   X168.616      Y149.601   
   X168.299      Y149.358   
   X167.929      Y149.205   
   X167.533      Y149.153   
   X167.136      Y149.205   
   X166.767      Y149.358   
(Pass: 2)
   Z-1.000    
   X166.450      Y149.601   
   X166.207      Y149.918   
   X166.054      Y150.288   
   X165.993      Y150.749   
   Y159.618   
   X166.054      Y160.080   
   X166.207      Y160.450   
   X166.450      Y160.767   
   X166.767      Y161.010   
   X167.137      Y161.163   
   X167.533      Y161.215   
   X167.929      Y161.163   
   X168.299      Y161.010   
   X168.616      Y160.767   
   X168.859      Y160.450   
   X169.012      Y160.080   
   X169.073      Y159.618   
   Y150.750   
   X169.012      Y150.288   
   X168.859      Y149.918   
   X168.616      Y149.601   
   X168.299      Y149.358   
   X167.929      Y149.205   
   X167.533      Y149.153   
   X167.136      Y149.205   
   X166.767      Y149.358   
(Pass: 3)
   Z-1.500    
   X166.450      Y149.601   
   X166.207      Y149.918   
   X166.054      Y150.288   
   X165.993      Y150.749   
   Y159.618   
   X166.054      Y160.080   
   X166.207      Y160.450   
   X166.450      Y160.767   
   X166.767      Y161.010   
   X167.137      Y161.163   
   X167.533      Y161.215   
   X167.929      Y161.163   
   X168.299      Y161.010   
   X168.616      Y160.767   
   X168.859      Y160.450   
   X169.012      Y160.080   
   X169.073      Y159.618   
   Y150.750   
   X169.012      Y150.288   
   X168.859      Y149.918   
   X168.616      Y149.601   
   X168.299      Y149.358   
   X167.929      Y149.205   
   X167.533      Y149.153   
   X167.136      Y149.205   
   X166.767      Y149.358   
(Pass: 4)
   Z-2.000    
   X166.450      Y149.601   
   X166.207      Y149.918   
   X166.054      Y150.288   
   X165.993      Y150.749   
   Y159.618   
   X166.054      Y160.080   
   X166.207      Y160.450   
   X166.450      Y160.767   
   X166.767      Y161.010   
   X167.137      Y161.163   
   X167.533      Y161.215   
   X167.929      Y161.163   
   X168.299      Y161.010   
   X168.616      Y160.767   
   X168.859      Y160.450   
   X169.012      Y160.080   
   X169.073      Y159.618   
   Y150.750   
   X169.012      Y150.288   
   X168.859      Y149.918   
   X168.616      Y149.601   
   X168.299      Y149.358   
   X167.929      Y149.205   
   X167.533      Y149.153   
   X167.136      Y149.205   
   X166.767      Y149.358   
(Pass: 5)
   Z-2.500    
   X166.450      Y149.601   
   X166.207      Y149.918   
   X166.054      Y150.288   
   X165.993      Y150.749   
   Y159.618   
   X166.054      Y160.080   
   X166.207      Y160.450   
   X166.450      Y160.767   
   X166.767      Y161.010   
   X167.137      Y161.163   
   X167.533      Y161.215   
   X167.929      Y161.163   
   X168.299      Y161.010   
   X168.616      Y160.767   
   X168.859      Y160.450   
   X169.012      Y160.080   
   X169.073      Y159.618   
   Y150.750   
   X169.012      Y150.288   
   X168.859      Y149.918   
   X168.616      Y149.601   
   X168.299      Y149.358   
   X167.929      Y149.205   
   X167.533      Y149.153   
   X167.136      Y149.205   
   X166.767      Y149.358   
(Pass: 6)
   Z-3.000    
   X166.450      Y149.601   
   X166.207      Y149.918   
   X166.054      Y150.288   
   X165.993      Y150.749   
   Y159.618   
   X166.054      Y160.080   
   X166.207      Y160.450   
   X166.450      Y160.767   
   X166.767      Y161.010   
   X167.137      Y161.163   
   X167.533      Y161.215   
   X167.929      Y161.163   
   X168.299      Y161.010   
   X168.616      Y160.767   
   X168.859      Y160.450   
   X169.012      Y160.080   
   X169.073      Y159.618   
   Y150.750   
   X169.012      Y150.288   
   X168.859      Y149.918   
   X168.616      Y149.601   
   X168.299      Y149.358   
   X167.929      Y149.205   
   X167.533      Y149.153   
   X167.136      Y149.205   
   X166.767      Y149.358   
(Pass: 7)
   Z-3.500    
   X166.450      Y149.601   
   X166.207      Y149.918   
   X166.054      Y150.288   
   X165.993      Y150.749   
   Y159.618   
   X166.054      Y160.080   
   X166.207      Y160.450   
   X166.450      Y160.767   
   X166.767      Y161.010   
   X167.137      Y161.163   
   X167.533      Y161.215   
   X167.929      Y161.163   
   X168.299      Y161.010   
   X168.616      Y160.767   
   X168.859      Y160.450   
   X169.012      Y160.080   
   X169.073      Y159.618   
   Y150.750   
   X169.012      Y150.288   
   X168.859      Y149.918   
   X168.616      Y149.601   
   X168.299      Y149.358   
   X167.929      Y149.205   
   X167.533      Y149.153   
   X167.136      Y149.205   
   X166.767      Y149.358   
G0   Z5.000     
(Pass: 1)
   X213.237      Y150.749   
G1   Z-0.500     F400 
   Y159.618   
   X213.298      Y160.080   
   X213.451      Y160.450   
   X213.694      Y160.767   
   X214.011      Y161.010   
   X214.380      Y161.163   
   X214.777      Y161.215   
   X215.173      Y161.163   
   X215.542      Y161.010   
   X215.860      Y160.767   
   X216.103      Y160.450   
   X216.256      Y160.080   
   X216.317      Y159.618   
   Y150.750   
   X216.256      Y150.288   
   X216.103      Y149.918   
   X215.860      Y149.601   
   X215.542      Y149.358   
   X215.173      Y149.205   
   X214.777      Y149.153   
   X214.380      Y149.205   
   X214.011      Y149.358   
   X213.694      Y149.601   
   X213.451      Y149.918   
   X213.298      Y150.288   
   X213.237      Y150.749   
(Pass: 2)
   Z-1.000    
   Y159.618   
   X213.298      Y160.080   
   X213.451      Y160.450   
   X213.694      Y160.767   
   X214.011      Y161.010   
   X214.380      Y161.163   
   X214.777      Y161.215   
   X215.173      Y161.163   
   X215.542      Y161.010   
   X215.860      Y160.767   
   X216.103      Y160.450   
   X216.256      Y160.080   
   X216.317      Y159.618   
   Y150.750   
   X216.256      Y150.288   
   X216.103      Y149.918   
   X215.860      Y149.601   
   X215.542      Y149.358   
   X215.173      Y149.205   
   X214.777      Y149.153   
   X214.380      Y149.205   
   X214.011      Y149.358   
   X213.694      Y149.601   
   X213.451      Y149.918   
   X213.298      Y150.288   
   X213.237      Y150.749   
(Pass: 3)
   Z-1.500    
   Y159.618   
   X213.298      Y160.080   
   X213.451      Y160.450   
   X213.694      Y160.767   
   X214.011      Y161.010   
   X214.380      Y161.163   
   X214.777      Y161.215   
   X215.173      Y161.163   
   X215.542      Y161.010   
   X215.860      Y160.767   
   X216.103      Y160.450   
   X216.256      Y160.080   
   X216.317      Y159.618   
   Y150.750   
   X216.256      Y150.288   
   X216.103      Y149.918   
   X215.860      Y149.601   
   X215.542      Y149.358   
   X215.173      Y149.205   
   X214.777      Y149.153   
   X214.380      Y149.205   
   X214.011      Y149.358   
   X213.694      Y149.601   
   X213.451      Y149.918   
   X213.298      Y150.288   
   X213.237      Y150.749   
(Pass: 4)
   Z-2.000    
   Y159.618   
   X213.298      Y160.080   
   X213.451      Y160.450   
   X213.694      Y160.767   
   X214.011      Y161.010   
   X214.380      Y161.163   
   X214.777      Y161.215   
   X215.173      Y161.163   
   X215.542      Y161.010   
   X215.860      Y160.767   
   X216.103      Y160.450   
   X216.256      Y160.080   
   X216.317      Y159.618   
   Y150.750   
   X216.256      Y150.288   
   X216.103      Y149.918   
   X215.860      Y149.601   
   X215.542      Y149.358   
   X215.173      Y149.205   
   X214.777      Y149.153   
   X214.380      Y149.205   
   X214.011      Y149.358   
   X213.694      Y149.601   
   X213.451      Y149.918   
   X213.298      Y150.288   
   X213.237      Y150.749   
(Pass: 5)
   Z-2.500    
   Y159.618   
   X213.298      Y160.080   
   X213.451      Y160.450   
   X213.694      Y160.767   
   X214.011      Y161.010   
   X214.380      Y161.163   
   X214.777      Y161.215   
   X215.173      Y161.163   
   X215.542      Y161.010   
   X215.860      Y160.767   
   X216.103      Y160.450   
   X216.256      Y160.080   
   X216.317      Y159.618   
   Y150.750   
   X216.256      Y150.288   
   X216.103      Y149.918   
   X215.860      Y149.601   
   X215.542      Y149.358   
   X215.173      Y149.205   
   X214.777      Y149.153   
   X214.380      Y149.205   
   X214.011      Y149.358   
   X213.694      Y149.601   
   X213.451      Y149.918   
   X213.298      Y150.288   
   X213.237      Y150.749   
(Pass: 6)
   Z-3.000    
   Y159.618   
   X213.298      Y160.080   
   X213.451      Y160.450   
   X213.694      Y160.767   
   X214.011      Y161.010   
   X214.380      Y161.163   
   X214.777      Y161.215   
   X215.173      Y161.163   
   X215.542      Y161.010   
   X215.860      Y160.767   
   X216.103      Y160.450   
   X216.256      Y160.080   
   X216.317      Y159.618   
   Y150.750   
   X216.256      Y150.288   
   X216.103      Y149.918   
   X215.860      Y149.601   
   X215.542      Y149.358   
   X215.173      Y149.205   
   X214.777      Y149.153   
   X214.380      Y149.205   
   X214.011      Y149.358   
   X213.694      Y149.601   
   X213.451      Y149.918   
   X213.298      Y150.288   
   X213.237      Y150.749   
(Pass: 7)
   Z-3.500    
   Y159.618   
   X213.298      Y160.080   
   X213.451      Y160.450   
   X213.694      Y160.767   
   X214.011      Y161.010   
   X214.380      Y161.163   
   X214.777      Y161.215   
   X215.173      Y161.163   
   X215.542      Y161.010   
   X215.860      Y160.767   
   X216.103      Y160.450   
   X216.256      Y160.080   
   X216.317      Y159.618   
   Y150.750   
   X216.256      Y150.288   
   X216.103      Y149.918   
   X215.860      Y149.601   
   X215.542      Y149.358   
   X215.173      Y149.205   
   X214.777      Y149.153   
   X214.380      Y149.205   
   X214.011      Y149.358   
   X213.694      Y149.601   
   X213.451      Y149.918   
   X213.298      Y150.288   
   X213.237      Y150.749   
G0   Z5.000     
(Pass: 1)
   X242.708      Y237.773   
G1   Z-0.500     F400 
   X242.349      Y237.922   
   X242.040      Y238.159   
   X241.803      Y238.468   
   X241.654      Y238.828   
   X241.603      Y239.214   
   X241.654      Y239.600   
   X241.803      Y239.959   
   X242.040      Y240.268   
   X242.349      Y240.505   
   X242.708      Y240.654   
   X243.094      Y240.705   
   X243.480      Y240.654   
   X243.840      Y240.505   
   X244.149      Y240.268   
   X244.386      Y239.959   
   X244.535      Y239.600   
   X244.586      Y239.214   
   X244.535      Y238.828   
   X244.386      Y238.468   
   X244.149      Y238.159   
   X243.840      Y237.922   
   X243.480      Y237.773   
   X243.094      Y237.722   
   X242.708      Y237.773   
(Pass: 2)
   Z-1.000    
   X242.349      Y237.922   
   X242.040      Y238.159   
   X241.803      Y238.468   
   X241.654      Y238.828   
   X241.603      Y239.214   
   X241.654      Y239.600   
   X241.803      Y239.959   
   X242.040      Y240.268   
   X242.349      Y240.505   
   X242.708      Y240.654   
   X243.094      Y240.705   
   X243.480      Y240.654   
   X243.840      Y240.505   
   X244.149      Y240.268   
   X244.386      Y239.959   
   X244.535      Y239.600   
   X244.586      Y239.214   
   X244.535      Y238.828   
   X244.386      Y238.468   
   X244.149      Y238.159   
   X243.840      Y237.922   
   X243.480      Y237.773   
   X243.094      Y237.722   
   X242.708      Y237.773   
(Pass: 3)
   Z-1.500    
   X242.349      Y237.922   
   X242.040      Y238.159   
   X241.803      Y238.468   
   X241.654      Y238.828   
   X241.603      Y239.214   
   X241.654      Y239.600   
   X241.803      Y239.959   
   X242.040      Y240.268   
   X242.349      Y240.505   
   X242.708      Y240.654   
   X243.094      Y240.705   
   X243.480      Y240.654   
   X243.840      Y240.505   
   X244.149      Y240.268   
   X244.386      Y239.959   
   X244.535      Y239.600   
   X244.586      Y239.214   
   X244.535      Y238.828   
   X244.386      Y238.468   
   X244.149      Y238.159   
   X243.840      Y237.922   
   X243.480      Y237.773   
   X243.094      Y237.722   
   X242.708      Y237.773   
(Pass: 4)
   Z-2.000    
   X242.349      Y237.922   
   X242.040      Y238.159   
   X241.803      Y238.468   
   X241.654      Y238.828   
   X241.603      Y239.214   
   X241.654      Y239.600   
   X241.803      Y239.959   
   X242.040      Y240.268   
   X242.349      Y240.505   
   X242.708      Y240.654   
   X243.094      Y240.705   
   X243.480      Y240.654   
   X243.840      Y240.505   
   X244.149      Y240.268   
   X244.386      Y239.959   
   X244.535      Y239.600   
   X244.586      Y239.214   
   X244.535      Y238.828   
   X244.386      Y238.468   
   X244.149      Y238.159   
   X243.840      Y237.922   
   X243.480      Y237.773   
   X243.094      Y237.722   
   X242.708      Y237.773   
(Pass: 5)
   Z-2.500    
   X242.349      Y237.922   
   X242.040      Y238.159   
   X241.803      Y238.468   
   X241.654      Y238.828   
   X241.603      Y239.214   
   X241.654      Y239.600   
   X241.803      Y239.959   
   X242.040      Y240.268   
   X242.349      Y240.505   
   X242.708      Y240.654   
   X243.094      Y240.705   
   X243.480      Y240.654   
   X243.840      Y240.505   
   X244.149      Y240.268   
   X244.386      Y239.959   
   X244.535      Y239.600   
   X244.586      Y239.214   
   X244.535      Y238.828   
   X244.386      Y238.468   
   X244.149      Y238.159   
   X243.840      Y237.922   
   X243.480      Y237.773   
   X243.094      Y237.722   
   X242.708      Y237.773   
(Pass: 6)
   Z-3.000    
   X242.349      Y237.922   
   X242.040      Y238.159   
   X241.803      Y238.468   
   X241.654      Y238.828   
   X241.603      Y239.214   
   X241.654      Y239.600   
   X241.803      Y239.959   
   X242.040      Y240.268   
   X242.349      Y240.505   
   X242.708      Y240.654   
   X243.094      Y240.705   
   X243.480      Y240.654   
   X243.840      Y240.505   
   X244.149      Y240.268   
   X244.386      Y239.959   
   X244.535      Y239.600   
   X244.586      Y239.214   
   X244.535      Y238.828   
   X244.386      Y238.468   
   X244.149      Y238.159   
   X243.840      Y237.922   
   X243.480      Y237.773   
   X243.094      Y237.722   
   X242.708      Y237.773   
(Pass: 7)
   Z-3.500    
   X242.349      Y237.922   
   X242.040      Y238.159   
   X241.803      Y238.468   
   X241.654      Y238.828   
   X241.603      Y239.214   
   X241.654      Y239.600   
   X241.803      Y239.959   
   X242.040      Y240.268   
   X242.349      Y240.505   
   X242.708      Y240.654   
   X243.094      Y240.705   
   X243.480      Y240.654   
   X243.840      Y240.505   
   X244.149      Y240.268   
   X244.386      Y239.959   
   X244.535      Y239.600   
   X244.586      Y239.214   
   X244.535      Y238.828   
   X244.386      Y238.468   
   X244.149      Y238.159   
   X243.840      Y237.922   
   X243.480      Y237.773   
   X243.094      Y237.722   
   X242.708      Y237.773   
G0   Z5.000     
(Pass: 1)
   X262.993      Y239.214   
G1   Z-0.500     F400 
   X263.044      Y239.600   
   X263.193      Y239.959   
   X263.430      Y240.268   
   X263.739      Y240.505   
   X264.099      Y240.654   
   X264.485      Y240.705   
   X264.871      Y240.654   
   X265.230      Y240.505   
   X265.539      Y240.268   
   X265.776      Y239.959   
   X265.925      Y239.600   
   X265.976      Y239.214   
   X265.925      Y238.828   
   X265.776      Y238.468   
   X265.539      Y238.159   
   X265.230      Y237.922   
   X264.871      Y237.773   
   X264.485      Y237.722   
   X264.099      Y237.773   
   X263.739      Y237.922   
   X263.430      Y238.159   
   X263.193      Y238.468   
   X263.044      Y238.828   
   X262.993      Y239.214   
(Pass: 2)
   Z-1.000    
   X263.044      Y239.600   
   X263.193      Y239.959   
   X263.430      Y240.268   
   X263.739      Y240.505   
   X264.099      Y240.654   
   X264.485      Y240.705   
   X264.871      Y240.654   
   X265.230      Y240.505   
   X265.539      Y240.268   
   X265.776      Y239.959   
   X265.925      Y239.600   
   X265.976      Y239.214   
   X265.925      Y238.828   
   X265.776      Y238.468   
   X265.539      Y238.159   
   X265.230      Y237.922   
   X264.871      Y237.773   
   X264.485      Y237.722   
   X264.099      Y237.773   
   X263.739      Y237.922   
   X263.430      Y238.159   
   X263.193      Y238.468   
   X263.044      Y238.828   
   X262.993      Y239.214   
(Pass: 3)
   Z-1.500    
   X263.044      Y239.600   
   X263.193      Y239.959   
   X263.430      Y240.268   
   X263.739      Y240.505   
   X264.099      Y240.654   
   X264.485      Y240.705   
   X264.871      Y240.654   
   X265.230      Y240.505   
   X265.539      Y240.268   
   X265.776      Y239.959   
   X265.925      Y239.600   
   X265.976      Y239.214   
   X265.925      Y238.828   
   X265.776      Y238.468   
   X265.539      Y238.159   
   X265.230      Y237.922   
   X264.871      Y237.773   
   X264.485      Y237.722   
   X264.099      Y237.773   
   X263.739      Y237.922   
   X263.430      Y238.159   
   X263.193      Y238.468   
   X263.044      Y238.828   
   X262.993      Y239.214   
(Pass: 4)
   Z-2.000    
   X263.044      Y239.600   
   X263.193      Y239.959   
   X263.430      Y240.268   
   X263.739      Y240.505   
   X264.099      Y240.654   
   X264.485      Y240.705   
   X264.871      Y240.654   
   X265.230      Y240.505   
   X265.539      Y240.268   
   X265.776      Y239.959   
   X265.925      Y239.600   
   X265.976      Y239.214   
   X265.925      Y238.828   
   X265.776      Y238.468   
   X265.539      Y238.159   
   X265.230      Y237.922   
   X264.871      Y237.773   
   X264.485      Y237.722   
   X264.099      Y237.773   
   X263.739      Y237.922   
   X263.430      Y238.159   
   X263.193      Y238.468   
   X263.044      Y238.828   
   X262.993      Y239.214   
(Pass: 5)
   Z-2.500    
   X263.044      Y239.600   
   X263.193      Y239.959   
   X263.430      Y240.268   
   X263.739      Y240.505   
   X264.099      Y240.654   
   X264.485      Y240.705   
   X264.871      Y240.654   
   X265.230      Y240.505   
   X265.539      Y240.268   
   X265.776      Y239.959   
   X265.925      Y239.600   
   X265.976      Y239.214   
   X265.925      Y238.828   
   X265.776      Y238.468   
   X265.539      Y238.159   
   X265.230      Y237.922   
   X264.871      Y237.773   
   X264.485      Y237.722   
   X264.099      Y237.773   
   X263.739      Y237.922   
   X263.430      Y238.159   
   X263.193      Y238.468   
   X263.044      Y238.828   
   X262.993      Y239.214   
(Pass: 6)
   Z-3.000    
   X263.044      Y239.600   
   X263.193      Y239.959   
   X263.430      Y240.268   
   X263.739      Y240.505   
   X264.099      Y240.654   
   X264.485      Y240.705   
   X264.871      Y240.654   
   X265.230      Y240.505   
   X265.539      Y240.268   
   X265.776      Y239.959   
   X265.925      Y239.600   
   X265.976      Y239.214   
   X265.925      Y238.828   
   X265.776      Y238.468   
   X265.539      Y238.159   
   X265.230      Y237.922   
   X264.871      Y237.773   
   X264.485      Y237.722   
   X264.099      Y237.773   
   X263.739      Y237.922   
   X263.430      Y238.159   
   X263.193      Y238.468   
   X263.044      Y238.828   
   X262.993      Y239.214   
(Pass: 7)
   Z-3.500    
   X263.044      Y239.600   
   X263.193      Y239.959   
   X263.430      Y240.268   
   X263.739      Y240.505   
   X264.099      Y240.654   
   X264.485      Y240.705   
   X264.871      Y240.654   
   X265.230      Y240.505   
   X265.539      Y240.268   
   X265.776      Y239.959   
   X265.925      Y239.600   
   X265.976      Y239.214   
   X265.925      Y238.828   
   X265.776      Y238.468   
   X265.539      Y238.159   
   X265.230      Y237.922   
   X264.871      Y237.773   
   X264.485      Y237.722   
   X264.099      Y237.773   
   X263.739      Y237.922   
   X263.430      Y238.159   
   X263.193      Y238.468   
   X263.044      Y238.828   
   X262.993      Y239.214   
G0   Z5.000     
(Pass: 1)
   X264.485      Y257.722   
G1   Z-0.500     F400 
   X264.099      Y257.773   
   X263.739      Y257.922   
   X263.430      Y258.159   
   X263.193      Y258.468   
   X263.044      Y258.828   
   X262.993      Y259.214   
   X263.044      Y259.600   
   X263.193      Y259.959   
   X263.430      Y260.268   
   X263.739      Y260.505   
   X264.099      Y260.654   
   X264.485      Y260.705   
   X264.871      Y260.654   
   X265.230      Y260.505   
   X265.539      Y260.268   
   X265.776      Y259.959   
   X265.925      Y259.600   
   X265.976      Y259.214   
   X265.925      Y258.828   
   X265.776      Y258.468   
   X265.539      Y258.159   
   X265.230      Y257.922   
   X264.871      Y257.773   
   X264.485      Y257.722   
(Pass: 2)
   Z-1.000    
   X264.099      Y257.773   
   X263.739      Y257.922   
   X263.430      Y258.159   
   X263.193      Y258.468   
   X263.044      Y258.828   
   X262.993      Y259.214   
   X263.044      Y259.600   
   X263.193      Y259.959   
   X263.430      Y260.268   
   X263.739      Y260.505   
   X264.099      Y260.654   
   X264.485      Y260.705   
   X264.871      Y260.654   
   X265.230      Y260.505   
   X265.539      Y260.268   
   X265.776      Y259.959   
   X265.925      Y259.600   
   X265.976      Y259.214   
   X265.925      Y258.828   
   X265.776      Y258.468   
   X265.539      Y258.159   
   X265.230      Y257.922   
   X264.871      Y257.773   
   X264.485      Y257.722   
(Pass: 3)
   Z-1.500    
   X264.099      Y257.773   
   X263.739      Y257.922   
   X263.430      Y258.159   
   X263.193      Y258.468   
   X263.044      Y258.828   
   X262.993      Y259.214   
   X263.044      Y259.600   
   X263.193      Y259.959   
   X263.430      Y260.268   
   X263.739      Y260.505   
   X264.099      Y260.654   
   X264.485      Y260.705   
   X264.871      Y260.654   
   X265.230      Y260.505   
   X265.539      Y260.268   
   X265.776      Y259.959   
   X265.925      Y259.600   
   X265.976      Y259.214   
   X265.925      Y258.828   
   X265.776      Y258.468   
   X265.539      Y258.159   
   X265.230      Y257.922   
   X264.871      Y257.773   
   X264.485      Y257.722   
(Pass: 4)
   Z-2.000    
