%
(Generated by SketchUcam {1.2})
(File: Router Plates.skp)
(Bit diameter: 3.1mm)
(Feed rate: 200.0mm/min)
(Material Thickness: 3.5mm)
(Material length: 304.0mm X width: 608.0mm)
(Overhead Gantry: true)
(Retract feed rate NOT limited to plunge feed rate)
(Multipass enabled, Depth = 0.5mm)
(Optimization is ON)
(www.PhlatBoyz.com)
G90 G21 G49 
M3 S15000
G0   Z15.000    
(Pass: 1)
   X16.197       Y14.773    
G1   Z-0.500     F200 
   X16.109       Y14.987    
   X16.338       Y14.590    
   X16.197       Y14.773    
   X16.522       Y14.449    
   X16.338       Y14.590    
   X16.735       Y14.360    
   X16.522       Y14.449    
   X16.965       Y14.330    
   X16.735       Y14.360    
   X17.194    
   X16.965       Y14.330    
   X17.408       Y14.449    
   X17.194       Y14.360    
   X17.591       Y14.590    
   X17.408       Y14.449    
   X17.732       Y14.773    
   X17.591       Y14.590    
   X17.821       Y14.987    
   X17.732       Y14.773    
   X17.865       Y15.321    
   X17.821       Y14.987    
   X17.859       Y23.923    
   Y15.321    
   X17.815       Y24.258    
   X17.859       Y23.923    
   X17.726       Y24.471    
   X17.815       Y24.258    
   X17.585       Y24.655    
   X17.726       Y24.471    
   X17.402       Y24.796    
   X17.585       Y24.655    
   X17.188       Y24.884    
   X17.402       Y24.796    
   X16.959       Y24.914    
   X17.188       Y24.884    
   X16.729    
   X16.959       Y24.914    
   X16.516       Y24.796    
   X16.729       Y24.884    
   X16.332       Y24.655    
   X16.516       Y24.796    
   X16.191       Y24.471    
   X16.332       Y24.655    
   X16.103       Y24.258    
   X16.191       Y24.471    
   X16.059       Y23.924    
   X16.103       Y24.258    
   X16.065       Y15.322    
   Y23.924    
   X16.109       Y14.987    
   X16.065       Y15.322    
(Pass: 2)
   X16.197       Y14.773    
   Z-1.000    
   X16.109       Y14.987    
   X16.338       Y14.590    
   X16.197       Y14.773    
   X16.522       Y14.449    
   X16.338       Y14.590    
   X16.735       Y14.360    
   X16.522       Y14.449    
   X16.965       Y14.330    
   X16.735       Y14.360    
   X17.194    
   X16.965       Y14.330    
   X17.408       Y14.449    
   X17.194       Y14.360    
   X17.591       Y14.590    
   X17.408       Y14.449    
   X17.732       Y14.773    
   X17.591       Y14.590    
   X17.821       Y14.987    
   X17.732       Y14.773    
   X17.865       Y15.321    
   X17.821       Y14.987    
   X17.859       Y23.923    
   Y15.321    
   X17.815       Y24.258    
   X17.859       Y23.923    
   X17.726       Y24.471    
   X17.815       Y24.258    
   X17.585       Y24.655    
   X17.726       Y24.471    
   X17.402       Y24.796    
   X17.585       Y24.655    
   X17.188       Y24.884    
   X17.402       Y24.796    
   X16.959       Y24.914    
   X17.188       Y24.884    
   X16.729    
   X16.959       Y24.914    
   X16.516       Y24.796    
   X16.729       Y24.884    
   X16.332       Y24.655    
   X16.516       Y24.796    
   X16.191       Y24.471    
   X16.332       Y24.655    
   X16.103       Y24.258    
   X16.191       Y24.471    
   X16.059       Y23.924    
   X16.103       Y24.258    
   X16.065       Y15.322    
   Y23.924    
   X16.109       Y14.987    
   X16.065       Y15.322    
(Pass: 3)
   X16.197       Y14.773    
   Z-1.500    
   X16.109       Y14.987    
   X16.338       Y14.590    
   X16.197       Y14.773    
   X16.522       Y14.449    
   X16.338       Y14.590    
   X16.735       Y14.360    
   X16.522       Y14.449    
   X16.965       Y14.330    
   X16.735       Y14.360    
   X17.194    
   X16.965       Y14.330    
   X17.408       Y14.449    
   X17.194       Y14.360    
   X17.591       Y14.590    
   X17.408       Y14.449    
   X17.732       Y14.773    
   X17.591       Y14.590    
   X17.821       Y14.987    
   X17.732       Y14.773    
   X17.865       Y15.321    
   X17.821       Y14.987    
   X17.859       Y23.923    
   Y15.321    
   X17.815       Y24.258    
   X17.859       Y23.923    
   X17.726       Y24.471    
   X17.815       Y24.258    
   X17.585       Y24.655    
   X17.726       Y24.471    
   X17.402       Y24.796    
   X17.585       Y24.655    
   X17.188       Y24.884    
   X17.402       Y24.796    
   X16.959       Y24.914    
   X17.188       Y24.884    
   X16.729    
   X16.959       Y24.914    
   X16.516       Y24.796    
   X16.729       Y24.884    
   X16.332       Y24.655    
   X16.516       Y24.796    
   X16.191       Y24.471    
   X16.332       Y24.655    
   X16.103       Y24.258    
   X16.191       Y24.471    
   X16.059       Y23.924    
   X16.103       Y24.258    
   X16.065       Y15.322    
   Y23.924    
   X16.109       Y14.987    
   X16.065       Y15.322    
(Pass: 4)
   X16.197       Y14.773    
   Z-2.000    
   X16.109       Y14.987    
   X16.338       Y14.590    
   X16.197       Y14.773    
   X16.522       Y14.449    
   X16.338       Y14.590    
   X16.735       Y14.360    
   X16.522       Y14.449    
   X16.965       Y14.330    
   X16.735       Y14.360    
   X17.194    
   X16.965       Y14.330    
   X17.408       Y14.449    
   X17.194       Y14.360    
   X17.591       Y14.590    
   X17.408       Y14.449    
   X17.732       Y14.773    
   X17.591       Y14.590    
   X17.821       Y14.987    
   X17.732       Y14.773    
   X17.865       Y15.321    
   X17.821       Y14.987    
   X17.859       Y23.923    
   Y15.321    
   X17.815       Y24.258    
   X17.859       Y23.923    
   X17.726       Y24.471    
   X17.815       Y24.258    
   X17.585       Y24.655    
   X17.726       Y24.471    
   X17.402       Y24.796    
   X17.585       Y24.655    
   X17.188       Y24.884    
   X17.402       Y24.796    
   X16.959       Y24.914    
   X17.188       Y24.884    
   X16.729    
   X16.959       Y24.914    
   X16.516       Y24.796    
   X16.729       Y24.884    
   X16.332       Y24.655    
   X16.516       Y24.796    
   X16.191       Y24.471    
   X16.332       Y24.655    
   X16.103       Y24.258    
   X16.191       Y24.471    
   X16.059       Y23.924    
   X16.103       Y24.258    
   X16.065       Y15.322    
   Y23.924    
   X16.109       Y14.987    
   X16.065       Y15.322    
(Pass: 5)
   X16.197       Y14.773    
   Z-2.500    
   X16.109       Y14.987    
   X16.338       Y14.590    
   X16.197       Y14.773    
   X16.522       Y14.449    
   X16.338       Y14.590    
   X16.735       Y14.360    
   X16.522       Y14.449    
   X16.965       Y14.330    
   X16.735       Y14.360    
   X17.194    
   X16.965       Y14.330    
   X17.408       Y14.449    
   X17.194       Y14.360    
   X17.591       Y14.590    
   X17.408       Y14.449    
   X17.732       Y14.773    
   X17.591       Y14.590    
   X17.821       Y14.987    
   X17.732       Y14.773    
   X17.865       Y15.321    
   X17.821       Y14.987    
   X17.859       Y23.923    
   Y15.321    
   X17.815       Y24.258    
   X17.859       Y23.923    
   X17.726       Y24.471    
   X17.815       Y24.258    
   X17.585       Y24.655    
   X17.726       Y24.471    
   X17.402       Y24.796    
   X17.585       Y24.655    
   X17.188       Y24.884    
   X17.402       Y24.796    
   X16.959       Y24.914    
   X17.188       Y24.884    
   X16.729    
   X16.959       Y24.914    
   X16.516       Y24.796    
   X16.729       Y24.884    
   X16.332       Y24.655    
   X16.516       Y24.796    
   X16.191       Y24.471    
   X16.332       Y24.655    
   X16.103       Y24.258    
   X16.191       Y24.471    
   X16.059       Y23.924    
   X16.103       Y24.258    
   X16.065       Y15.322    
   Y23.924    
   X16.109       Y14.987    
   X16.065       Y15.322    
(Pass: 6)
   X16.197       Y14.773    
   Z-3.000    
   X16.109       Y14.987    
   X16.338       Y14.590    
   X16.197       Y14.773    
   X16.522       Y14.449    
   X16.338       Y14.590    
   X16.735       Y14.360    
   X16.522       Y14.449    
   X16.965       Y14.330    
   X16.735       Y14.360    
   X17.194    
   X16.965       Y14.330    
   X17.408       Y14.449    
   X17.194       Y14.360    
   X17.591       Y14.590    
   X17.408       Y14.449    
   X17.732       Y14.773    
   X17.591       Y14.590    
   X17.821       Y14.987    
   X17.732       Y14.773    
   X17.865       Y15.321    
   X17.821       Y14.987    
   X17.859       Y23.923    
   Y15.321    
   X17.815       Y24.258    
   X17.859       Y23.923    
   X17.726       Y24.471    
   X17.815       Y24.258    
   X17.585       Y24.655    
   X17.726       Y24.471    
   X17.402       Y24.796    
   X17.585       Y24.655    
   X17.188       Y24.884    
   X17.402       Y24.796    
   X16.959       Y24.914    
   X17.188       Y24.884    
   X16.729    
   X16.959       Y24.914    
   X16.516       Y24.796    
   X16.729       Y24.884    
   X16.332       Y24.655    
   X16.516       Y24.796    
   X16.191       Y24.471    
   X16.332       Y24.655    
   X16.103       Y24.258    
   X16.191       Y24.471    
   X16.059       Y23.924    
   X16.103       Y24.258    
   X16.065       Y15.322    
   Y23.924    
   X16.109       Y14.987    
   X16.065       Y15.322    
(Pass: 7)
   X16.197       Y14.773    
   Z-3.500    
   X16.109       Y14.987    
   X16.338       Y14.590    
   X16.197       Y14.773    
   X16.522       Y14.449    
   X16.338       Y14.590    
   X16.735       Y14.360    
   X16.522       Y14.449    
   X16.965       Y14.330    
   X16.735       Y14.360    
   X17.194    
   X16.965       Y14.330    
   X17.408       Y14.449    
   X17.194       Y14.360    
   X17.591       Y14.590    
   X17.408       Y14.449    
   X17.732       Y14.773    
   X17.591       Y14.590    
   X17.821       Y14.987    
   X17.732       Y14.773    
   X17.865       Y15.321    
   X17.821       Y14.987    
   X17.859       Y23.923    
   Y15.321    
   X17.815       Y24.258    
   X17.859       Y23.923    
   X17.726       Y24.471    
   X17.815       Y24.258    
   X17.585       Y24.655    
   X17.726       Y24.471    
   X17.402       Y24.796    
   X17.585       Y24.655    
   X17.188       Y24.884    
   X17.402       Y24.796    
   X16.959       Y24.914    
   X17.188       Y24.884    
   X16.729    
   X16.959       Y24.914    
   X16.516       Y24.796    
   X16.729       Y24.884    
   X16.332       Y24.655    
   X16.516       Y24.796    
   X16.191       Y24.471    
   X16.332       Y24.655    
   X16.103       Y24.258    
   X16.191       Y24.471    
   X16.059       Y23.924    
   X16.103       Y24.258    
   X16.065       Y15.322    
   Y23.924    
   X16.109       Y14.987    
   X16.065       Y15.322    
G0   Z15.000    
(Pass: 1)
   X26.065    
G1   Z-0.500     F200 
   Y23.924    
   X26.109       Y14.987    
   X26.065       Y15.322    
   X26.197       Y14.773    
   X26.109       Y14.987    
   X26.338       Y14.590    
   X26.197       Y14.773    
   X26.522       Y14.449    
   X26.338       Y14.590    
   X26.735       Y14.360    
   X26.522       Y14.449    
   X26.965       Y14.330    
   X26.735       Y14.360    
   X27.194    
   X26.965       Y14.330    
   X27.408       Y14.449    
   X27.194       Y14.360    
   X27.591       Y14.590    
   X27.408       Y14.449    
   X27.732       Y14.773    
   X27.591       Y14.590    
   X27.821       Y14.987    
   X27.732       Y14.773    
   X27.865       Y15.321    
   X27.821       Y14.987    
   X27.859       Y23.923    
   Y15.321    
   X27.815       Y24.258    
   X27.859       Y23.923    
   X27.726       Y24.471    
   X27.815       Y24.258    
   X27.585       Y24.655    
   X27.726       Y24.471    
   X27.402       Y24.796    
   X27.585       Y24.655    
   X27.188       Y24.884    
   X27.402       Y24.796    
   X26.959       Y24.914    
   X27.188       Y24.884    
   X26.729    
   X26.959       Y24.914    
   X26.516       Y24.796    
   X26.729       Y24.884    
   X26.332       Y24.655    
   X26.516       Y24.796    
   X26.191       Y24.471    
   X26.332       Y24.655    
   X26.103       Y24.258    
   X26.191       Y24.471    
   X26.059       Y23.924    
   X26.103       Y24.258    
(Pass: 2)
   X26.065       Y15.322    
   Z-1.000    
   Y23.924    
   X26.109       Y14.987    
   X26.065       Y15.322    
   X26.197       Y14.773    
   X26.109       Y14.987    
   X26.338       Y14.590    
   X26.197       Y14.773    
   X26.522       Y14.449    
   X26.338       Y14.590    
   X26.735       Y14.360    
   X26.522       Y14.449    
   X26.965       Y14.330    
   X26.735       Y14.360    
   X27.194    
   X26.965       Y14.330    
   X27.408       Y14.449    
   X27.194       Y14.360    
   X27.591       Y14.590    
   X27.408       Y14.449    
   X27.732       Y14.773    
   X27.591       Y14.590    
   X27.821       Y14.987    
   X27.732       Y14.773    
   X27.865       Y15.321    
   X27.821       Y14.987    
   X27.859       Y23.923    
   Y15.321    
   X27.815       Y24.258    
   X27.859       Y23.923    
   X27.726       Y24.471    
   X27.815       Y24.258    
   X27.585       Y24.655    
   X27.726       Y24.471    
   X27.402       Y24.796    
   X27.585       Y24.655    
   X27.188       Y24.884    
   X27.402       Y24.796    
   X26.959       Y24.914    
   X27.188       Y24.884    
   X26.729    
   X26.959       Y24.914    
   X26.516       Y24.796    
   X26.729       Y24.884    
   X26.332       Y24.655    
   X26.516       Y24.796    
   X26.191       Y24.471    
   X26.332       Y24.655    
   X26.103       Y24.258    
   X26.191       Y24.471    
   X26.059       Y23.924    
   X26.103       Y24.258    
(Pass: 3)
   X26.065       Y15.322    
   Z-1.500    
   Y23.924    
   X26.109       Y14.987    
   X26.065       Y15.322    
   X26.197       Y14.773    
   X26.109       Y14.987    
   X26.338       Y14.590    
   X26.197       Y14.773    
   X26.522       Y14.449    
   X26.338       Y14.590    
   X26.735       Y14.360    
   X26.522       Y14.449    
   X26.965       Y14.330    
   X26.735       Y14.360    
   X27.194    
   X26.965       Y14.330    
   X27.408       Y14.449    
   X27.194       Y14.360    
   X27.591       Y14.590    
   X27.408       Y14.449    
   X27.732       Y14.773    
   X27.591       Y14.590    
   X27.821       Y14.987    
   X27.732       Y14.773    
   X27.865       Y15.321    
   X27.821       Y14.987    
   X27.859       Y23.923    
   Y15.321    
   X27.815       Y24.258    
   X27.859       Y23.923    
   X27.726       Y24.471    
   X27.815       Y24.258    
   X27.585       Y24.655    
   X27.726       Y24.471    
   X27.402       Y24.796    
   X27.585       Y24.655    
   X27.188       Y24.884    
   X27.402       Y24.796    
   X26.959       Y24.914    
   X27.188       Y24.884    
   X26.729    
   X26.959       Y24.914    
   X26.516       Y24.796    
   X26.729       Y24.884    
   X26.332       Y24.655    
   X26.516       Y24.796    
   X26.191       Y24.471    
   X26.332       Y24.655    
   X26.103       Y24.258    
   X26.191       Y24.471    
   X26.059       Y23.924    
   X26.103       Y24.258    
(Pass: 4)
   X26.065       Y15.322    
   Z-2.000    
   Y23.924    
   X26.109       Y14.987    
   X26.065       Y15.322    
   X26.197       Y14.773    
   X26.109       Y14.987    
   X26.338       Y14.590    
   X26.197       Y14.773    
   X26.522       Y14.449    
   X26.338       Y14.590    
   X26.735       Y14.360    
   X26.522       Y14.449    
   X26.965       Y14.330    
   X26.735       Y14.360    
   X27.194    
   X26.965       Y14.330    
   X27.408       Y14.449    
   X27.194       Y14.360    
   X27.591       Y14.590    
   X27.408       Y14.449    
   X27.732       Y14.773    
   X27.591       Y14.590    
   X27.821       Y14.987    
   X27.732       Y14.773    
   X27.865       Y15.321    
   X27.821       Y14.987    
   X27.859       Y23.923    
   Y15.321    
   X27.815       Y24.258    
   X27.859       Y23.923    
   X27.726       Y24.471    
   X27.815       Y24.258    
   X27.585       Y24.655    
   X27.726       Y24.471    
   X27.402       Y24.796    
   X27.585       Y24.655    
   X27.188       Y24.884    
   X27.402       Y24.796    
   X26.959       Y24.914    
   X27.188       Y24.884    
   X26.729    
   X26.959       Y24.914    
   X26.516       Y24.796    
   X26.729       Y24.884    
   X26.332       Y24.655    
   X26.516       Y24.796    
   X26.191       Y24.471    
   X26.332       Y24.655    
   X26.103       Y24.258    
   X26.191       Y24.471    
   X26.059       Y23.924    
   X26.103       Y24.258    
(Pass: 5)
   X26.065       Y15.322    
   Z-2.500    
   Y23.924    
   X26.109       Y14.987    
   X26.065       Y15.322    
   X26.197       Y14.773    
   X26.109       Y14.987    
   X26.338       Y14.590    
   X26.197       Y14.773    
   X26.522       Y14.449    
   X26.338       Y14.590    
   X26.735       Y14.360    
   X26.522       Y14.449    
   X26.965       Y14.330    
   X26.735       Y14.360    
   X27.194    
   X26.965       Y14.330    
   X27.408       Y14.449    
   X27.194       Y14.360    
   X27.591       Y14.590    
   X27.408       Y14.449    
   X27.732       Y14.773    
   X27.591       Y14.590    
   X27.821       Y14.987    
   X27.732       Y14.773    
   X27.865       Y15.321    
   X27.821       Y14.987    
   X27.859       Y23.923    
   Y15.321    
   X27.815       Y24.258    
   X27.859       Y23.923    
   X27.726       Y24.471    
   X27.815       Y24.258    
   X27.585       Y24.655    
   X27.726       Y24.471    
   X27.402       Y24.796    
   X27.585       Y24.655    
   X27.188       Y24.884    
   X27.402       Y24.796    
   X26.959       Y24.914    
   X27.188       Y24.884    
   X26.729    
   X26.959       Y24.914    
   X26.516       Y24.796    
   X26.729       Y24.884    
   X26.332       Y24.655    
   X26.516       Y24.796    
   X26.191       Y24.471    
   X26.332       Y24.655    
   X26.103       Y24.258    
   X26.191       Y24.471    
   X26.059       Y23.924    
   X26.103       Y24.258    
(Pass: 6)
   X26.065       Y15.322    
   Z-3.000    
   Y23.924    
   X26.109       Y14.987    
   X26.065       Y15.322    
   X26.197       Y14.773    
   X26.109       Y14.987    
   X26.338       Y14.590    
   X26.197       Y14.773    
   X26.522       Y14.449    
   X26.338       Y14.590    
   X26.735       Y14.360    
   X26.522       Y14.449    
   X26.965       Y14.330    
   X26.735       Y14.360    
   X27.194    
   X26.965       Y14.330    
   X27.408       Y14.449    
   X27.194       Y14.360    
   X27.591       Y14.590    
   X27.408       Y14.449    
   X27.732       Y14.773    
   X27.591       Y14.590    
   X27.821       Y14.987    
   X27.732       Y14.773    
   X27.865       Y15.321    
   X27.821       Y14.987    
   X27.859       Y23.923    
   Y15.321    
   X27.815       Y24.258    
   X27.859       Y23.923    
   X27.726       Y24.471    
   X27.815       Y24.258    
   X27.585       Y24.655    
   X27.726       Y24.471    
   X27.402       Y24.796    
   X27.585       Y24.655    
   X27.188       Y24.884    
   X27.402       Y24.796    
   X26.959       Y24.914    
   X27.188       Y24.884    
   X26.729    
   X26.959       Y24.914    
   X26.516       Y24.796    
   X26.729       Y24.884    
   X26.332       Y24.655    
   X26.516       Y24.796    
   X26.191       Y24.471    
   X26.332       Y24.655    
   X26.103       Y24.258    
   X26.191       Y24.471    
   X26.059       Y23.924    
   X26.103       Y24.258    
(Pass: 7)
   X26.065       Y15.322    
   Z-3.500    
   Y23.924    
   X26.109       Y14.987    
   X26.065       Y15.322    
   X26.197       Y14.773    
   X26.109       Y14.987    
   X26.338       Y14.590    
   X26.197       Y14.773    
   X26.522       Y14.449    
   X26.338       Y14.590    
   X26.735       Y14.360    
   X26.522       Y14.449    
   X26.965       Y14.330    
   X26.735       Y14.360    
   X27.194    
   X26.965       Y14.330    
   X27.408       Y14.449    
   X27.194       Y14.360    
   X27.591       Y14.590    
   X27.408       Y14.449    
   X27.732       Y14.773    
   X27.591       Y14.590    
   X27.821       Y14.987    
   X27.732       Y14.773    
   X27.865       Y15.321    
   X27.821       Y14.987    
   X27.859       Y23.923    
   Y15.321    
   X27.815       Y24.258    
   X27.859       Y23.923    
   X27.726       Y24.471    
   X27.815       Y24.258    
   X27.585       Y24.655    
   X27.726       Y24.471    
   X27.402       Y24.796    
   X27.585       Y24.655    
   X27.188       Y24.884    
   X27.402       Y24.796    
   X26.959       Y24.914    
   X27.188       Y24.884    
   X26.729    
   X26.959       Y24.914    
   X26.516       Y24.796    
   X26.729       Y24.884    
   X26.332       Y24.655    
   X26.516       Y24.796    
   X26.191       Y24.471    
   X26.332       Y24.655    
   X26.103       Y24.258    
   X26.191       Y24.471    
   X26.059       Y23.924    
   X26.103       Y24.258    
G0   Z15.000    
(Pass: 1)
   X36.059       Y23.924    
G1   Z-0.500     F200 
   X36.103       Y24.258    
   X36.065       Y15.322    
   Y23.924    
   X36.109       Y14.987    
   X36.065       Y15.322    
   X36.197       Y14.773    
   X36.109       Y14.987    
   X36.338       Y14.590    
   X36.197       Y14.773    
   X36.522       Y14.449    
   X36.338       Y14.590    
   X36.735       Y14.360    
   X36.522       Y14.449    
   X36.965       Y14.330    
   X36.735       Y14.360    
   X37.194    
   X36.965       Y14.330    
   X37.408       Y14.449    
   X37.194       Y14.360    
   X37.591       Y14.590    
   X37.408       Y14.449    
   X37.732       Y14.773    
   X37.591       Y14.590    
   X37.821       Y14.987    
   X37.732       Y14.773    
   X37.865       Y15.321    
   X37.821       Y14.987    
   X37.859       Y23.923    
   Y15.321    
   X37.815       Y24.258    
   X37.859       Y23.923    
   X37.726       Y24.471    
   X37.815       Y24.258    
   X37.585       Y24.655    
   X37.726       Y24.471    
   X37.402       Y24.796    
   X37.585       Y24.655    
   X37.188       Y24.884    
   X37.402       Y24.796    
   X36.959       Y24.914    
   X37.188       Y24.884    
   X36.729    
   X36.959       Y24.914    
   X36.516       Y24.796    
   X36.729       Y24.884    
   X36.332       Y24.655    
   X36.516       Y24.796    
   X36.191       Y24.471    
   X36.332       Y24.655    
   X36.103       Y24.258    
   X36.191       Y24.471    
(Pass: 2)
   X36.059       Y23.924    
   Z-1.000    
   X36.103       Y24.258    
   X36.065       Y15.322    
   Y23.924    
   X36.109       Y14.987    
   X36.065       Y15.322    
   X36.197       Y14.773    
   X36.109       Y14.987    
   X36.338       Y14.590    
   X36.197       Y14.773    
   X36.522       Y14.449    
   X36.338       Y14.590    
   X36.735       Y14.360    
   X36.522       Y14.449    
   X36.965       Y14.330    
   X36.735       Y14.360    
   X37.194    
   X36.965       Y14.330    
   X37.408       Y14.449    
   X37.194       Y14.360    
   X37.591       Y14.590    
   X37.408       Y14.449    
   X37.732       Y14.773    
   X37.591       Y14.590    
   X37.821       Y14.987    
   X37.732       Y14.773    
   X37.865       Y15.321    
   X37.821       Y14.987    
   X37.859       Y23.923    
   Y15.321    
   X37.815       Y24.258    
   X37.859       Y23.923    
   X37.726       Y24.471    
   X37.815       Y24.258    
   X37.585       Y24.655    
   X37.726       Y24.471    
   X37.402       Y24.796    
   X37.585       Y24.655    
   X37.188       Y24.884    
   X37.402       Y24.796    
   X36.959       Y24.914    
   X37.188       Y24.884    
   X36.729    
   X36.959       Y24.914    
   X36.516       Y24.796    
   X36.729       Y24.884    
   X36.332       Y24.655    
   X36.516       Y24.796    
   X36.191       Y24.471    
   X36.332       Y24.655    
   X36.103       Y24.258    
   X36.191       Y24.471    
(Pass: 3)
   X36.059       Y23.924    
   Z-1.500    
   X36.103       Y24.258    
   X36.065       Y15.322    
   Y23.924    
   X36.109       Y14.987    
   X36.065       Y15.322    
   X36.197       Y14.773    
   X36.109       Y14.987    
   X36.338       Y14.590    
   X36.197       Y14.773    
   X36.522       Y14.449    
   X36.338       Y14.590    
   X36.735       Y14.360    
   X36.522       Y14.449    
   X36.965       Y14.330    
   X36.735       Y14.360    
   X37.194    
   X36.965       Y14.330    
   X37.408       Y14.449    
   X37.194       Y14.360    
   X37.591       Y14.590    
   X37.408       Y14.449    
   X37.732       Y14.773    
   X37.591       Y14.590    
   X37.821       Y14.987    
   X37.732       Y14.773    
   X37.865       Y15.321    
   X37.821       Y14.987    
   X37.859       Y23.923    
   Y15.321    
   X37.815       Y24.258    
   X37.859       Y23.923    
   X37.726       Y24.471    
   X37.815       Y24.258    
   X37.585       Y24.655    
   X37.726       Y24.471    
   X37.402       Y24.796    
   X37.585       Y24.655    
   X37.188       Y24.884    
   X37.402       Y24.796    
   X36.959       Y24.914    
   X37.188       Y24.884    
   X36.729    
   X36.959       Y24.914    
   X36.516       Y24.796    
   X36.729       Y24.884    
   X36.332       Y24.655    
   X36.516       Y24.796    
   X36.191       Y24.471    
   X36.332       Y24.655    
   X36.103       Y24.258    
   X36.191       Y24.471    
(Pass: 4)
   X36.059       Y23.924    
   Z-2.000    
   X36.103       Y24.258    
   X36.065       Y15.322    
   Y23.924    
   X36.109       Y14.987    
   X36.065       Y15.322    
   X36.197       Y14.773    
   X36.109       Y14.987    
   X36.338       Y14.590    
   X36.197       Y14.773    
   X36.522       Y14.449    
   X36.338       Y14.590    
   X36.735       Y14.360    
   X36.522       Y14.449    
   X36.965       Y14.330    
   X36.735       Y14.360    
   X37.194    
   X36.965       Y14.330    
   X37.408       Y14.449    
   X37.194       Y14.360    
   X37.591       Y14.590    
   X37.408       Y14.449    
   X37.732       Y14.773    
   X37.591       Y14.590    
   X37.821       Y14.987    
   X37.732       Y14.773    
   X37.865       Y15.321    
   X37.821       Y14.987    
   X37.859       Y23.923    
   Y15.321    
   X37.815       Y24.258    
   X37.859       Y23.923    
   X37.726       Y24.471    
   X37.815       Y24.258    
   X37.585       Y24.655    
   X37.726       Y24.471    
   X37.402       Y24.796    
   X37.585       Y24.655    
   X37.188       Y24.884    
   X37.402       Y24.796    
   X36.959       Y24.914    
   X37.188       Y24.884    
   X36.729    
   X36.959       Y24.914    
   X36.516       Y24.796    
   X36.729       Y24.884    
   X36.332       Y24.655    
   X36.516       Y24.796    
   X36.191       Y24.471    
   X36.332       Y24.655    
   X36.103       Y24.258    
   X36.191       Y24.471    
(Pass: 5)
   X36.059       Y23.924    
   Z-2.500    
   X36.103       Y24.258    
   X36.065       Y15.322    
   Y23.924    
   X36.109       Y14.987    
   X36.065       Y15.322    
   X36.197       Y14.773    
   X36.109       Y14.987    
   X36.338       Y14.590    
   X36.197       Y14.773    
   X36.522       Y14.449    
   X36.338       Y14.590    
   X36.735       Y14.360    
   X36.522       Y14.449    
   X36.965       Y14.330    
   X36.735       Y14.360    
   X37.194    
   X36.965       Y14.330    
   X37.408       Y14.449    
   X37.194       Y14.360    
   X37.591       Y14.590    
   X37.408       Y14.449    
   X37.732       Y14.773    
   X37.591       Y14.590    
   X37.821       Y14.987    
   X37.732       Y14.773    
   X37.865       Y15.321    
   X37.821       Y14.987    
   X37.859       Y23.923    
   Y15.321    
   X37.815       Y24.258    
   X37.859       Y23.923    
   X37.726       Y24.471    
   X37.815       Y24.258    
   X37.585       Y24.655    
   X37.726       Y24.471    
   X37.402       Y24.796    
   X37.585       Y24.655    
   X37.188       Y24.884    
   X37.402       Y24.796    
   X36.959       Y24.914    
   X37.188       Y24.884    
   X36.729    
   X36.959       Y24.914    
   X36.516       Y24.796    
   X36.729       Y24.884    
   X36.332       Y24.655    
   X36.516       Y24.796    
   X36.191       Y24.471    
   X36.332       Y24.655    
   X36.103       Y24.258    
   X36.191       Y24.471    
(Pass: 6)
   X36.059       Y23.924    
   Z-3.000    
   X36.103       Y24.258    
   X36.065       Y15.322    
   Y23.924    
   X36.109       Y14.987    
   X36.065       Y15.322    
   X36.197       Y14.773    
   X36.109       Y14.987    
   X36.338       Y14.590    
   X36.197       Y14.773    
   X36.522       Y14.449    
   X36.338       Y14.590    
   X36.735       Y14.360    
   X36.522       Y14.449    
   X36.965       Y14.330    
   X36.735       Y14.360    
   X37.194    
   X36.965       Y14.330    
   X37.408       Y14.449    
   X37.194       Y14.360    
   X37.591       Y14.590    
   X37.408       Y14.449    
   X37.732       Y14.773    
   X37.591       Y14.590    
   X37.821       Y14.987    
   X37.732       Y14.773    
   X37.865       Y15.321    
   X37.821       Y14.987    
   X37.859       Y23.923    
   Y15.321    
   X37.815       Y24.258    
   X37.859       Y23.923    
   X37.726       Y24.471    
   X37.815       Y24.258    
   X37.585       Y24.655    
   X37.726       Y24.471    
   X37.402       Y24.796    
   X37.585       Y24.655    
   X37.188       Y24.884    
   X37.402       Y24.796    
   X36.959       Y24.914    
   X37.188       Y24.884    
   X36.729    
   X36.959       Y24.914    
   X36.516       Y24.796    
   X36.729       Y24.884    
   X36.332       Y24.655    
   X36.516       Y24.796    
   X36.191       Y24.471    
   X36.332       Y24.655    
   X36.103       Y24.258    
   X36.191       Y24.471    
(Pass: 7)
   X36.059       Y23.924    
   Z-3.500    
   X36.103       Y24.258    
   X36.065       Y15.322    
   Y23.924    
   X36.109       Y14.987    
   X36.065       Y15.322    
   X36.197       Y14.773    
   X36.109       Y14.987    
   X36.338       Y14.590    
   X36.197       Y14.773    
   X36.522       Y14.449    
   X36.338       Y14.590    
   X36.735       Y14.360    
   X36.522       Y14.449    
   X36.965       Y14.330    
   X36.735       Y14.360    
   X37.194    
   X36.965       Y14.330    
   X37.408       Y14.449    
   X37.194       Y14.360    
   X37.591       Y14.590    
   X37.408       Y14.449    
   X37.732       Y14.773    
   X37.591       Y14.590    
   X37.821       Y14.987    
   X37.732       Y14.773    
   X37.865       Y15.321    
   X37.821       Y14.987    
   X37.859       Y23.923    
   Y15.321    
   X37.815       Y24.258    
   X37.859       Y23.923    
   X37.726       Y24.471    
   X37.815       Y24.258    
   X37.585       Y24.655    
   X37.726       Y24.471    
   X37.402       Y24.796    
   X37.585       Y24.655    
   X37.188       Y24.884    
   X37.402       Y24.796    
   X36.959       Y24.914    
   X37.188       Y24.884    
   X36.729    
   X36.959       Y24.914    
   X36.516       Y24.796    
   X36.729       Y24.884    
   X36.332       Y24.655    
   X36.516       Y24.796    
   X36.191       Y24.471    
   X36.332       Y24.655    
   X36.103       Y24.258    
   X36.191       Y24.471    
G0   Z15.000    
(Pass: 1)
   X46.068       Y23.924    
G1   Z-0.500     F200 
   X46.112       Y24.258    
   X46.074       Y15.322    
   Y23.924    
   X46.118       Y14.987    
   X46.074       Y15.322    
   X46.207       Y14.773    
   X46.118       Y14.987    
   X46.348       Y14.590    
   X46.207       Y14.773    
   X46.531       Y14.449    
   X46.348       Y14.590    
   X46.745       Y14.360    
   X46.531       Y14.449    
   X46.974       Y14.330    
   X46.745       Y14.360    
   X47.204    
   X46.974       Y14.330    
   X47.417       Y14.449    
   X47.204       Y14.360    
   X47.601       Y14.590    
   X47.417       Y14.449    
   X47.742       Y14.773    
   X47.601       Y14.590    
   X47.830       Y14.987    
   X47.742       Y14.773    
   X47.874       Y15.321    
   X47.830       Y14.987    
   X47.868       Y23.923    
   Y15.321    
   X47.824       Y24.258    
   X47.868       Y23.923    
   X47.736       Y24.471    
   X47.824       Y24.258    
   X47.595       Y24.655    
   X47.736       Y24.471    
   X47.411       Y24.796    
   X47.595       Y24.655    
   X47.198       Y24.884    
   X47.411       Y24.796    
   X46.968       Y24.915    
   X47.198       Y24.884    
   X46.739    
   X46.968       Y24.915    
   X46.525       Y24.796    
   X46.739       Y24.884    
   X46.342       Y24.655    
   X46.525       Y24.796    
   X46.201       Y24.471    
   X46.342       Y24.655    
   X46.112       Y24.258    
   X46.201       Y24.471    
(Pass: 2)
   X46.068       Y23.924    
   Z-1.000    
   X46.112       Y24.258    
   X46.074       Y15.322    
   Y23.924    
   X46.118       Y14.987    
   X46.074       Y15.322    
   X46.207       Y14.773    
   X46.118       Y14.987    
   X46.348       Y14.590    
   X46.207       Y14.773    
   X46.531       Y14.449    
   X46.348       Y14.590    
   X46.745       Y14.360    
   X46.531       Y14.449    
   X46.974       Y14.330    
   X46.745       Y14.360    
   X47.204    
   X46.974       Y14.330    
   X47.417       Y14.449    
   X47.204       Y14.360    
   X47.601       Y14.590    
   X47.417       Y14.449    
   X47.742       Y14.773    
   X47.601       Y14.590    
   X47.830       Y14.987    
   X47.742       Y14.773    
   X47.874       Y15.321    
   X47.830       Y14.987    
   X47.868       Y23.923    
   Y15.321    
   X47.824       Y24.258    
   X47.868       Y23.923    
   X47.736       Y24.471    
   X47.824       Y24.258    
   X47.595       Y24.655    
   X47.736       Y24.471    
   X47.411       Y24.796    
   X47.595       Y24.655    
   X47.198       Y24.884    
   X47.411       Y24.796    
   X46.968       Y24.915    
   X47.198       Y24.884    
   X46.739    
   X46.968       Y24.915    
   X46.525       Y24.796    
   X46.739       Y24.884    
   X46.342       Y24.655    
   X46.525       Y24.796    
   X46.201       Y24.471    
   X46.342       Y24.655    
   X46.112       Y24.258    
   X46.201       Y24.471    
(Pass: 3)
   X46.068       Y23.924    
   Z-1.500    
   X46.112       Y24.258    
   X46.074       Y15.322    
   Y23.924    
   X46.118       Y14.987    
   X46.074       Y15.322    
   X46.207       Y14.773    
   X46.118       Y14.987    
   X46.348       Y14.590    
   X46.207       Y14.773    
   X46.531       Y14.449    
   X46.348       Y14.590    
   X46.745       Y14.360    
   X46.531       Y14.449    
   X46.974       Y14.330    
   X46.745       Y14.360    
   X47.204    
   X46.974       Y14.330    
   X47.417       Y14.449    
   X47.204       Y14.360    
   X47.601       Y14.590    
   X47.417       Y14.449    
   X47.742       Y14.773    
   X47.601       Y14.590    
   X47.830       Y14.987    
   X47.742       Y14.773    
   X47.874       Y15.321    
   X47.830       Y14.987    
   X47.868       Y23.923    
   Y15.321    
   X47.824       Y24.258    
   X47.868       Y23.923    
   X47.736       Y24.471    
   X47.824       Y24.258    
   X47.595       Y24.655    
   X47.736       Y24.471    
   X47.411       Y24.796    
   X47.595       Y24.655    
   X47.198       Y24.884    
   X47.411       Y24.796    
   X46.968       Y24.915    
   X47.198       Y24.884    
   X46.739    
   X46.968       Y24.915    
   X46.525       Y24.796    
   X46.739       Y24.884    
   X46.342       Y24.655    
   X46.525       Y24.796    
   X46.201       Y24.471    
   X46.342       Y24.655    
   X46.112       Y24.258    
   X46.201       Y24.471    
(Pass: 4)
   X46.068       Y23.924    
   Z-2.000    
   X46.112       Y24.258    
   X46.074       Y15.322    
   Y23.924    
   X46.118       Y14.987    
   X46.074       Y15.322    
   X46.207       Y14.773    
   X46.118       Y14.987    
   X46.348       Y14.590    
   X46.207       Y14.773    
   X46.531       Y14.449    
   X46.348       Y14.590    
   X46.745       Y14.360    
   X46.531       Y14.449    
   X46.974       Y14.330    
   X46.745       Y14.360    
   X47.204    
   X46.974       Y14.330    
   X47.417       Y14.449    
   X47.204       Y14.360    
   X47.601       Y14.590    
   X47.417       Y14.449    
   X47.742       Y14.773    
   X47.601       Y14.590    
   X47.830       Y14.987    
   X47.742       Y14.773    
   X47.874       Y15.321    
   X47.830       Y14.987    
   X47.868       Y23.923    
   Y15.321    
   X47.824       Y24.258    
   X47.868       Y23.923    
   X47.736       Y24.471    
   X47.824       Y24.258    
   X47.595       Y24.655    
   X47.736       Y24.471    
   X47.411       Y24.796    
   X47.595       Y24.655    
   X47.198       Y24.884    
   X47.411       Y24.796    
   X46.968       Y24.915    
   X47.198       Y24.884    
   X46.739    
   X46.968       Y24.915    
   X46.525       Y24.796    
   X46.739       Y24.884    
   X46.342       Y24.655    
   X46.525       Y24.796    
   X46.201       Y24.471    
   X46.342       Y24.655    
   X46.112       Y24.258    
   X46.201       Y24.471    
(Pass: 5)
   X46.068       Y23.924    
   Z-2.500    
   X46.112       Y24.258    
   X46.074       Y15.322    
   Y23.924    
   X46.118       Y14.987    
   X46.074       Y15.322    
   X46.207       Y14.773    
   X46.118       Y14.987    
   X46.348       Y14.590    
   X46.207       Y14.773    
   X46.531       Y14.449    
   X46.348       Y14.590    
   X46.745       Y14.360    
   X46.531       Y14.449    
   X46.974       Y14.330    
   X46.745       Y14.360    
   X47.204    
   X46.974       Y14.330    
   X47.417       Y14.449    
   X47.204       Y14.360    
   X47.601       Y14.590    
   X47.417       Y14.449    
   X47.742       Y14.773    
   X47.601       Y14.590    
   X47.830       Y14.987    
   X47.742       Y14.773    
   X47.874       Y15.321    
   X47.830       Y14.987    
   X47.868       Y23.923    
   Y15.321    
   X47.824       Y24.258    
   X47.868       Y23.923    
   X47.736       Y24.471    
   X47.824       Y24.258    
   X47.595       Y24.655    
   X47.736       Y24.471    
   X47.411       Y24.796    
   X47.595       Y24.655    
   X47.198       Y24.884    
   X47.411       Y24.796    
   X46.968       Y24.915    
   X47.198       Y24.884    
   X46.739    
   X46.968       Y24.915    
   X46.525       Y24.796    
   X46.739       Y24.884    
   X46.342       Y24.655    
   X46.525       Y24.796    
   X46.201       Y24.471    
   X46.342       Y24.655    
   X46.112       Y24.258    
   X46.201       Y24.471    
(Pass: 6)
   X46.068       Y23.924    
   Z-3.000    
   X46.112       Y24.258    
   X46.074       Y15.322    
   Y23.924    
   X46.118       Y14.987    
   X46.074       Y15.322    
   X46.207       Y14.773    
   X46.118       Y14.987    
   X46.348       Y14.590    
   X46.207       Y14.773    
   X46.531       Y14.449    
   X46.348       Y14.590    
   X46.745       Y14.360    
   X46.531       Y14.449    
   X46.974       Y14.330    
   X46.745       Y14.360    
   X47.204    
   X46.974       Y14.330    
   X47.417       Y14.449    
   X47.204       Y14.360    
   X47.601       Y14.590    
   X47.417       Y14.449    
   X47.742       Y14.773    
   X47.601       Y14.590    
   X47.830       Y14.987    
   X47.742       Y14.773    
   X47.874       Y15.321    
   X47.830       Y14.987    
   X47.868       Y23.923    
   Y15.321    
   X47.824       Y24.258    
   X47.868       Y23.923    
   X47.736       Y24.471    
   X47.824       Y24.258    
   X47.595       Y24.655    
   X47.736       Y24.471    
   X47.411       Y24.796    
   X47.595       Y24.655    
   X47.198       Y24.884    
   X47.411       Y24.796    
   X46.968       Y24.915    
   X47.198       Y24.884    
   X46.739    
   X46.968       Y24.915    
   X46.525       Y24.796    
   X46.739       Y24.884    
   X46.342       Y24.655    
   X46.525       Y24.796    
   X46.201       Y24.471    
   X46.342       Y24.655    
   X46.112       Y24.258    
   X46.201       Y24.471    
(Pass: 7)
   X46.068       Y23.924    
   Z-3.500    
   X46.112       Y24.258    
   X46.074       Y15.322    
   Y23.924    
   X46.118       Y14.987    
   X46.074       Y15.322    
   X46.207       Y14.773    
   X46.118       Y14.987    
   X46.348       Y14.590    
   X46.207       Y14.773    
   X46.531       Y14.449    
   X46.348       Y14.590    
   X46.745       Y14.360    
   X46.531       Y14.449    
   X46.974       Y14.330    
   X46.745       Y14.360    
   X47.204    
   X46.974       Y14.330    
   X47.417       Y14.449    
   X47.204       Y14.360    
   X47.601       Y14.590    
   X47.417       Y14.449    
   X47.742       Y14.773    
   X47.601       Y14.590    
   X47.830       Y14.987    
   X47.742       Y14.773    
   X47.874       Y15.321    
   X47.830       Y14.987    
   X47.868       Y23.923    
   Y15.321    
   X47.824       Y24.258    
   X47.868       Y23.923    
   X47.736       Y24.471    
   X47.824       Y24.258    
   X47.595       Y24.655    
   X47.736       Y24.471    
   X47.411       Y24.796    
   X47.595       Y24.655    
   X47.198       Y24.884    
   X47.411       Y24.796    
   X46.968       Y24.915    
   X47.198       Y24.884    
   X46.739    
   X46.968       Y24.915    
   X46.525       Y24.796    
   X46.739       Y24.884    
   X46.342       Y24.655    
   X46.525       Y24.796    
   X46.201       Y24.471    
   X46.342       Y24.655    
   X46.112       Y24.258    
   X46.201       Y24.471    
G0   Z15.000    
(Pass: 1)
   X56.059       Y23.924    
G1   Z-0.500     F200 
   X56.103       Y24.258    
   X56.065       Y15.322    
   Y23.924    
   X56.109       Y14.987    
   X56.065       Y15.322    
   X56.197       Y14.773    
   X56.109       Y14.987    
   X56.338       Y14.590    
   X56.197       Y14.773    
   X56.522       Y14.449    
   X56.338       Y14.590    
   X56.735       Y14.360    
   X56.522       Y14.449    
   X56.965       Y14.330    
   X56.735       Y14.360    
   X57.194    
   X56.965       Y14.330    
   X57.408       Y14.449    
   X57.194       Y14.360    
   X57.591       Y14.590    
   X57.408       Y14.449    
   X57.732       Y14.773    
   X57.591       Y14.590    
   X57.821       Y14.987    
   X57.732       Y14.773    
   X57.865       Y15.321    
   X57.821       Y14.987    
   X57.859       Y23.923    
   Y15.321    
   X57.815       Y24.258    
   X57.859       Y23.923    
   X57.726       Y24.471    
   X57.815       Y24.258    
   X57.585       Y24.655    
   X57.726       Y24.471    
   X57.402       Y24.796    
   X57.585       Y24.655    
   X57.188       Y24.884    
   X57.402       Y24.796    
   X56.959       Y24.914    
   X57.188       Y24.884    
   X56.729    
   X56.959       Y24.914    
   X56.516       Y24.796    
   X56.729       Y24.884    
   X56.332       Y24.655    
   X56.516       Y24.796    
   X56.191       Y24.471    
   X56.332       Y24.655    
   X56.103       Y24.258    
   X56.191       Y24.471    
(Pass: 2)
   X56.059       Y23.924    
   Z-1.000    
   X56.103       Y24.258    
   X56.065       Y15.322    
   Y23.924    
   X56.109       Y14.987    
   X56.065       Y15.322    
   X56.197       Y14.773    
   X56.109       Y14.987    
   X56.338       Y14.590    
   X56.197       Y14.773    
   X56.522       Y14.449    
   X56.338       Y14.590    
   X56.735       Y14.360    
   X56.522       Y14.449    
   X56.965       Y14.330    
   X56.735       Y14.360    
   X57.194    
   X56.965       Y14.330    
   X57.408       Y14.449    
   X57.194       Y14.360    
   X57.591       Y14.590    
   X57.408       Y14.449    
   X57.732       Y14.773    
   X57.591       Y14.590    
   X57.821       Y14.987    
   X57.732       Y14.773    
   X57.865       Y15.321    
   X57.821       Y14.987    
   X57.859       Y23.923    
   Y15.321    
   X57.815       Y24.258    
   X57.859       Y23.923    
   X57.726       Y24.471    
   X57.815       Y24.258    
   X57.585       Y24.655    
   X57.726       Y24.471    
   X57.402       Y24.796    
   X57.585       Y24.655    
   X57.188       Y24.884    
   X57.402       Y24.796    
   X56.959       Y24.914    
   X57.188       Y24.884    
   X56.729    
   X56.959       Y24.914    
   X56.516       Y24.796    
   X56.729       Y24.884    
   X56.332       Y24.655    
   X56.516       Y24.796    
   X56.191       Y24.471    
   X56.332       Y24.655    
   X56.103       Y24.258    
   X56.191       Y24.471    
(Pass: 3)
   X56.059       Y23.924    
   Z-1.500    
   X56.103       Y24.258    
   X56.065       Y15.322    
   Y23.924    
   X56.109       Y14.987    
   X56.065       Y15.322    
   X56.197       Y14.773    
   X56.109       Y14.987    
   X56.338       Y14.590    
   X56.197       Y14.773    
   X56.522       Y14.449    
   X56.338       Y14.590    
   X56.735       Y14.360    
   X56.522       Y14.449    
   X56.965       Y14.330    
   X56.735       Y14.360    
   X57.194    
   X56.965       Y14.330    
   X57.408       Y14.449    
   X57.194       Y14.360    
   X57.591       Y14.590    
   X57.408       Y14.449    
   X57.732       Y14.773    
   X57.591       Y14.590    
   X57.821       Y14.987    
   X57.732       Y14.773    
   X57.865       Y15.321    
   X57.821       Y14.987    
   X57.859       Y23.923    
   Y15.321    
   X57.815       Y24.258    
   X57.859       Y23.923    
   X57.726       Y24.471    
   X57.815       Y24.258    
   X57.585       Y24.655    
   X57.726       Y24.471    
   X57.402       Y24.796    
   X57.585       Y24.655    
   X57.188       Y24.884    
   X57.402       Y24.796    
   X56.959       Y24.914    
   X57.188       Y24.884    
   X56.729    
   X56.959       Y24.914    
   X56.516       Y24.796    
   X56.729       Y24.884    
   X56.332       Y24.655    
   X56.516       Y24.796    
   X56.191       Y24.471    
   X56.332       Y24.655    
   X56.103       Y24.258    
   X56.191       Y24.471    
(Pass: 4)
   X56.059       Y23.924    
   Z-2.000    
   X56.103       Y24.258    
   X56.065       Y15.322    
   Y23.924    
   X56.109       Y14.987    
   X56.065       Y15.322    
   X56.197       Y14.773    
   X56.109       Y14.987    
   X56.338       Y14.590    
   X56.197       Y14.773    
   X56.522       Y14.449    
   X56.338       Y14.590    
   X56.735       Y14.360    
   X56.522       Y14.449    
   X56.965       Y14.330    
   X56.735       Y14.360    
   X57.194    
   X56.965       Y14.330    
   X57.408       Y14.449    
   X57.194       Y14.360    
   X57.591       Y14.590    
   X57.408       Y14.449    
   X57.732       Y14.773    
   X57.591       Y14.590    
   X57.821       Y14.987    
   X57.732       Y14.773    
   X57.865       Y15.321    
   X57.821       Y14.987    
   X57.859       Y23.923    
   Y15.321    
   X57.815       Y24.258    
   X57.859       Y23.923    
   X57.726       Y24.471    
   X57.815       Y24.258    
   X57.585       Y24.655    
   X57.726       Y24.471    
   X57.402       Y24.796    
   X57.585       Y24.655    
   X57.188       Y24.884    
   X57.402       Y24.796    
   X56.959       Y24.914    
   X57.188       Y24.884    
   X56.729    
   X56.959       Y24.914    
   X56.516       Y24.796    
   X56.729       Y24.884    
   X56.332       Y24.655    
   X56.516       Y24.796    
   X56.191       Y24.471    
   X56.332       Y24.655    
   X56.103       Y24.258    
   X56.191       Y24.471    
(Pass: 5)
   X56.059       Y23.924    
   Z-2.500    
   X56.103       Y24.258    
   X56.065       Y15.322    
   Y23.924    
   X56.109       Y14.987    
   X56.065       Y15.322    
   X56.197       Y14.773    
   X56.109       Y14.987    
   X56.338       Y14.590    
   X56.197       Y14.773    
   X56.522       Y14.449    
   X56.338       Y14.590    
   X56.735       Y14.360    
   X56.522       Y14.449    
   X56.965       Y14.330    
   X56.735       Y14.360    
   X57.194    
   X56.965       Y14.330    
   X57.408       Y14.449    
   X57.194       Y14.360    
   X57.591       Y14.590    
   X57.408       Y14.449    
   X57.732       Y14.773    
   X57.591       Y14.590    
   X57.821       Y14.987    
   X57.732       Y14.773    
   X57.865       Y15.321    
   X57.821       Y14.987    
   X57.859       Y23.923    
   Y15.321    
   X57.815       Y24.258    
   X57.859       Y23.923    
   X57.726       Y24.471    
   X57.815       Y24.258    
   X57.585       Y24.655    
   X57.726       Y24.471    
   X57.402       Y24.796    
   X57.585       Y24.655    
   X57.188       Y24.884    
   X57.402       Y24.796    
   X56.959       Y24.914    
   X57.188       Y24.884    
   X56.729    
   X56.959       Y24.914    
   X56.516       Y24.796    
   X56.729       Y24.884    
   X56.332       Y24.655    
   X56.516       Y24.796    
   X56.191       Y24.471    
   X56.332       Y24.655    
   X56.103       Y24.258    
   X56.191       Y24.471    
(Pass: 6)
   X56.059       Y23.924    
   Z-3.000    
   X56.103       Y24.258    
   X56.065       Y15.322    
   Y23.924    
   X56.109       Y14.987    
   X56.065       Y15.322    
   X56.197       Y14.773    
   X56.109       Y14.987    
   X56.338       Y14.590    
   X56.197       Y14.773    
   X56.522       Y14.449    
   X56.338       Y14.590    
   X56.735       Y14.360    
   X56.522       Y14.449    
   X56.965       Y14.330    
   X56.735       Y14.360    
   X57.194    
   X56.965       Y14.330    
   X57.408       Y14.449    
   X57.194       Y14.360    
   X57.591       Y14.590    
   X57.408       Y14.449    
   X57.732       Y14.773    
   X57.591       Y14.590    
   X57.821       Y14.987    
   X57.732       Y14.773    
   X57.865       Y15.321    
   X57.821       Y14.987    
   X57.859       Y23.923    
   Y15.321    
   X57.815       Y24.258    
   X57.859       Y23.923    
   X57.726       Y24.471    
   X57.815       Y24.258    
   X57.585       Y24.655    
   X57.726       Y24.471    
   X57.402       Y24.796    
   X57.585       Y24.655    
   X57.188       Y24.884    
   X57.402       Y24.796    
   X56.959       Y24.914    
   X57.188       Y24.884    
   X56.729    
   X56.959       Y24.914    
   X56.516       Y24.796    
   X56.729       Y24.884    
   X56.332       Y24.655    
   X56.516       Y24.796    
   X56.191       Y24.471    
   X56.332       Y24.655    
   X56.103       Y24.258    
   X56.191       Y24.471    
(Pass: 7)
   X56.059       Y23.924    
   Z-3.500    
   X56.103       Y24.258    
   X56.065       Y15.322    
   Y23.924    
   X56.109       Y14.987    
   X56.065       Y15.322    
   X56.197       Y14.773    
   X56.109       Y14.987    
   X56.338       Y14.590    
   X56.197       Y14.773    
   X56.522       Y14.449    
   X56.338       Y14.590    
   X56.735       Y14.360    
   X56.522       Y14.449    
   X56.965       Y14.330    
   X56.735       Y14.360    
   X57.194    
   X56.965       Y14.330    
   X57.408       Y14.449    
   X57.194       Y14.360    
   X57.591       Y14.590    
   X57.408       Y14.449    
   X57.732       Y14.773    
   X57.591       Y14.590    
   X57.821       Y14.987    
   X57.732       Y14.773    
   X57.865       Y15.321    
   X57.821       Y14.987    
   X57.859       Y23.923    
   Y15.321    
   X57.815       Y24.258    
   X57.859       Y23.923    
   X57.726       Y24.471    
   X57.815       Y24.258    
   X57.585       Y24.655    
   X57.726       Y24.471    
   X57.402       Y24.796    
   X57.585       Y24.655    
   X57.188       Y24.884    
   X57.402       Y24.796    
   X56.959       Y24.914    
   X57.188       Y24.884    
   X56.729    
   X56.959       Y24.914    
   X56.516       Y24.796    
   X56.729       Y24.884    
   X56.332       Y24.655    
   X56.516       Y24.796    
   X56.191       Y24.471    
   X56.332       Y24.655    
   X56.103       Y24.258    
   X56.191       Y24.471    
G0   Z15.000    
(Pass: 1)
   X66.059       Y23.924    
G1   Z-0.500     F200 
   X66.103       Y24.258    
   X66.065       Y15.322    
   Y23.924    
   X66.109       Y14.987    
   X66.065       Y15.322    
   X66.197       Y14.773    
   X66.109       Y14.987    
   X66.338       Y14.590    
   X66.197       Y14.773    
   X66.522       Y14.449    
   X66.338       Y14.590    
   X66.735       Y14.360    
   X66.522       Y14.449    
   X66.965       Y14.330    
   X66.735       Y14.360    
   X67.194    
   X66.965       Y14.330    
   X67.408       Y14.449    
   X67.194       Y14.360    
   X67.591       Y14.590    
   X67.408       Y14.449    
   X67.732       Y14.773    
   X67.591       Y14.590    
   X67.821       Y14.987    
   X67.732       Y14.773    
   X67.865       Y15.321    
   X67.821       Y14.987    
   X67.859       Y23.923    
   Y15.321    
   X67.815       Y24.258    
   X67.859       Y23.923    
   X67.726       Y24.471    
   X67.815       Y24.258    
   X67.585       Y24.655    
   X67.726       Y24.471    
   X67.402       Y24.796    
   X67.585       Y24.655    
   X67.188       Y24.884    
   X67.402       Y24.796    
   X66.959       Y24.915    
   X67.188       Y24.884    
   X66.729    
   X66.959       Y24.915    
   X66.516       Y24.796    
   X66.729       Y24.884    
   X66.332       Y24.655    
   X66.516       Y24.796    
   X66.191       Y24.471    
   X66.332       Y24.655    
   X66.103       Y24.258    
   X66.191       Y24.471    
(Pass: 2)
   X66.059       Y23.924    
   Z-1.000    
   X66.103       Y24.258    
   X66.065       Y15.322    
   Y23.924    
   X66.109       Y14.987    
   X66.065       Y15.322    
   X66.197       Y14.773    
   X66.109       Y14.987    
   X66.338       Y14.590    
   X66.197       Y14.773    
   X66.522       Y14.449    
   X66.338       Y14.590    
   X66.735       Y14.360    
   X66.522       Y14.449    
   X66.965       Y14.330    
   X66.735       Y14.360    
   X67.194    
   X66.965       Y14.330    
   X67.408       Y14.449    
   X67.194       Y14.360    
   X67.591       Y14.590    
   X67.408       Y14.449    
   X67.732       Y14.773    
   X67.591       Y14.590    
   X67.821       Y14.987    
   X67.732       Y14.773    
   X67.865       Y15.321    
   X67.821       Y14.987    
   X67.859       Y23.923    
   Y15.321    
   X67.815       Y24.258    
   X67.859       Y23.923    
   X67.726       Y24.471    
   X67.815       Y24.258    
   X67.585       Y24.655    
   X67.726       Y24.471    
   X67.402       Y24.796    
   X67.585       Y24.655    
   X67.188       Y24.884    
   X67.402       Y24.796    
   X66.959       Y24.915    
   X67.188       Y24.884    
   X66.729    
   X66.959       Y24.915    
   X66.516       Y24.796    
   X66.729       Y24.884    
   X66.332       Y24.655    
   X66.516       Y24.796    
   X66.191       Y24.471    
   X66.332       Y24.655    
   X66.103       Y24.258    
   X66.191       Y24.471    
(Pass: 3)
   X66.059       Y23.924    
   Z-1.500    
   X66.103       Y24.258    
   X66.065       Y15.322    
   Y23.924    
   X66.109       Y14.987    
   X66.065       Y15.322    
   X66.197       Y14.773    
   X66.109       Y14.987    
   X66.338       Y14.590    
   X66.197       Y14.773    
   X66.522       Y14.449    
   X66.338       Y14.590    
   X66.735       Y14.360    
   X66.522       Y14.449    
   X66.965       Y14.330    
   X66.735       Y14.360    
   X67.194    
   X66.965       Y14.330    
   X67.408       Y14.449    
   X67.194       Y14.360    
   X67.591       Y14.590    
   X67.408       Y14.449    
   X67.732       Y14.773    
   X67.591       Y14.590    
   X67.821       Y14.987    
   X67.732       Y14.773    
   X67.865       Y15.321    
   X67.821       Y14.987    
   X67.859       Y23.923    
   Y15.321    
   X67.815       Y24.258    
   X67.859       Y23.923    
   X67.726       Y24.471    
   X67.815       Y24.258    
   X67.585       Y24.655    
   X67.726       Y24.471    
   X67.402       Y24.796    
   X67.585       Y24.655    
   X67.188       Y24.884    
   X67.402       Y24.796    
   X66.959       Y24.915    
   X67.188       Y24.884    
   X66.729    
   X66.959       Y24.915    
   X66.516       Y24.796    
   X66.729       Y24.884    
   X66.332       Y24.655    
   X66.516       Y24.796    
   X66.191       Y24.471    
   X66.332       Y24.655    
   X66.103       Y24.258    
   X66.191       Y24.471    
(Pass: 4)
   X66.059       Y23.924    
   Z-2.000    
   X66.103       Y24.258    
   X66.065       Y15.322    
   Y23.924    
   X66.109       Y14.987    
   X66.065       Y15.322    
   X66.197       Y14.773    
   X66.109       Y14.987    
   X66.338       Y14.590    
   X66.197       Y14.773    
   X66.522       Y14.449    
   X66.338       Y14.590    
   X66.735       Y14.360    
   X66.522       Y14.449    
   X66.965       Y14.330    
   X66.735       Y14.360    
   X67.194    
   X66.965       Y14.330    
   X67.408       Y14.449    
   X67.194       Y14.360    
   X67.591       Y14.590    
   X67.408       Y14.449    
   X67.732       Y14.773    
   X67.591       Y14.590    
   X67.821       Y14.987    
   X67.732       Y14.773    
   X67.865       Y15.321    
   X67.821       Y14.987    
   X67.859       Y23.923    
   Y15.321    
   X67.815       Y24.258    
   X67.859       Y23.923    
   X67.726       Y24.471    
   X67.815       Y24.258    
   X67.585       Y24.655    
   X67.726       Y24.471    
   X67.402       Y24.796    
   X67.585       Y24.655    
   X67.188       Y24.884    
   X67.402       Y24.796    
   X66.959       Y24.915    
   X67.188       Y24.884    
   X66.729    
   X66.959       Y24.915    
   X66.516       Y24.796    
   X66.729       Y24.884    
   X66.332       Y24.655    
   X66.516       Y24.796    
   X66.191       Y24.471    
   X66.332       Y24.655    
   X66.103       Y24.258    
   X66.191       Y24.471    
(Pass: 5)
   X66.059       Y23.924    
   Z-2.500    
   X66.103       Y24.258    
   X66.065       Y15.322    
   Y23.924    
   X66.109       Y14.987    
   X66.065       Y15.322    
   X66.197       Y14.773    
   X66.109       Y14.987    
   X66.338       Y14.590    
   X66.197       Y14.773    
   X66.522       Y14.449    
   X66.338       Y14.590    
   X66.735       Y14.360    
   X66.522       Y14.449    
   X66.965       Y14.330    
   X66.735       Y14.360    
   X67.194    
   X66.965       Y14.330    
   X67.408       Y14.449    
   X67.194       Y14.360    
   X67.591       Y14.590    
   X67.408       Y14.449    
   X67.732       Y14.773    
   X67.591       Y14.590    
   X67.821       Y14.987    
   X67.732       Y14.773    
   X67.865       Y15.321    
   X67.821       Y14.987    
   X67.859       Y23.923    
   Y15.321    
   X67.815       Y24.258    
   X67.859       Y23.923    
   X67.726       Y24.471    
   X67.815       Y24.258    
   X67.585       Y24.655    
   X67.726       Y24.471    
   X67.402       Y24.796    
   X67.585       Y24.655    
   X67.188       Y24.884    
   X67.402       Y24.796    
   X66.959       Y24.915    
   X67.188       Y24.884    
   X66.729    
   X66.959       Y24.915    
   X66.516       Y24.796    
   X66.729       Y24.884    
   X66.332       Y24.655    
   X66.516       Y24.796    
   X66.191       Y24.471    
   X66.332       Y24.655    
   X66.103       Y24.258    
   X66.191       Y24.471    
(Pass: 6)
   X66.059       Y23.924    
   Z-3.000    
   X66.103       Y24.258    
   X66.065       Y15.322    
   Y23.924    
   X66.109       Y14.987    
   X66.065       Y15.322    
   X66.197       Y14.773    
   X66.109       Y14.987    
   X66.338       Y14.590    
   X66.197       Y14.773    
   X66.522       Y14.449    
   X66.338       Y14.590    
   X66.735       Y14.360    
   X66.522       Y14.449    
   X66.965       Y14.330    
   X66.735       Y14.360    
   X67.194    
   X66.965       Y14.330    
   X67.408       Y14.449    
   X67.194       Y14.360    
   X67.591       Y14.590    
   X67.408       Y14.449    
   X67.732       Y14.773    
   X67.591       Y14.590    
   X67.821       Y14.987    
   X67.732       Y14.773    
   X67.865       Y15.321    
   X67.821       Y14.987    
   X67.859       Y23.923    
   Y15.321    
   X67.815       Y24.258    
   X67.859       Y23.923    
   X67.726       Y24.471    
   X67.815       Y24.258    
   X67.585       Y24.655    
   X67.726       Y24.471    
   X67.402       Y24.796    
   X67.585       Y24.655    
   X67.188       Y24.884    
   X67.402       Y24.796    
   X66.959       Y24.915    
   X67.188       Y24.884    
   X66.729    
   X66.959       Y24.915    
   X66.516       Y24.796    
   X66.729       Y24.884    
   X66.332       Y24.655    
   X66.516       Y24.796    
   X66.191       Y24.471    
   X66.332       Y24.655    
   X66.103       Y24.258    
   X66.191       Y24.471    
(Pass: 7)
   X66.059       Y23.924    
   Z-3.500    
   X66.103       Y24.258    
   X66.065       Y15.322    
   Y23.924    
   X66.109       Y14.987    
   X66.065       Y15.322    
   X66.197       Y14.773    
   X66.109       Y14.987    
   X66.338       Y14.590    
   X66.197       Y14.773    
   X66.522       Y14.449    
   X66.338       Y14.590    
   X66.735       Y14.360    
   X66.522       Y14.449    
   X66.965       Y14.330    
   X66.735       Y14.360    
   X67.194    
   X66.965       Y14.330    
   X67.408       Y14.449    
   X67.194       Y14.360    
   X67.591       Y14.590    
   X67.408       Y14.449    
   X67.732       Y14.773    
   X67.591       Y14.590    
   X67.821       Y14.987    
   X67.732       Y14.773    
   X67.865       Y15.321    
   X67.821       Y14.987    
   X67.859       Y23.923    
   Y15.321    
   X67.815       Y24.258    
   X67.859       Y23.923    
   X67.726       Y24.471    
   X67.815       Y24.258    
   X67.585       Y24.655    
   X67.726       Y24.471    
   X67.402       Y24.796    
   X67.585       Y24.655    
   X67.188       Y24.884    
   X67.402       Y24.796    
   X66.959       Y24.915    
   X67.188       Y24.884    
   X66.729    
   X66.959       Y24.915    
   X66.516       Y24.796    
   X66.729       Y24.884    
   X66.332       Y24.655    
   X66.516       Y24.796    
   X66.191       Y24.471    
   X66.332       Y24.655    
   X66.103       Y24.258    
   X66.191       Y24.471    
G0   Z15.000    
(Pass: 1)
   X76.059       Y23.924    
G1   Z-0.500     F200 
   X76.103       Y24.258    
   X76.065       Y15.322    
   Y23.924    
   X76.109       Y14.987    
   X76.065       Y15.322    
   X76.197       Y14.773    
   X76.109       Y14.987    
   X76.338       Y14.590    
   X76.197       Y14.773    
   X76.522       Y14.449    
   X76.338       Y14.590    
   X76.735       Y14.360    
   X76.522       Y14.449    
   X76.965       Y14.330    
   X76.735       Y14.360    
   X77.194    
   X76.965       Y14.330    
   X77.408       Y14.449    
   X77.194       Y14.360    
   X77.591       Y14.590    
   X77.408       Y14.449    
   X77.732       Y14.773    
   X77.591       Y14.590    
   X77.821       Y14.987    
   X77.732       Y14.773    
   X77.865       Y15.321    
   X77.821       Y14.987    
   X77.859       Y23.923    
   Y15.321    
   X77.815       Y24.258    
   X77.859       Y23.923    
   X77.726       Y24.471    
   X77.815       Y24.258    
   X77.585       Y24.655    
   X77.726       Y24.471    
   X77.402       Y24.796    
   X77.585       Y24.655    
   X77.188       Y24.884    
   X77.402       Y24.796    
   X76.959       Y24.915    
   X77.188       Y24.884    
   X76.729    
   X76.959       Y24.915    
   X76.516       Y24.796    
   X76.729       Y24.884    
   X76.332       Y24.655    
   X76.516       Y24.796    
   X76.191       Y24.471    
   X76.332       Y24.655    
   X76.103       Y24.258    
   X76.191       Y24.471    
(Pass: 2)
   X76.059       Y23.924    
   Z-1.000    
   X76.103       Y24.258    
   X76.065       Y15.322    
   Y23.924    
   X76.109       Y14.987    
   X76.065       Y15.322    
   X76.197       Y14.773    
   X76.109       Y14.987    
   X76.338       Y14.590    
   X76.197       Y14.773    
   X76.522       Y14.449    
   X76.338       Y14.590    
   X76.735       Y14.360    
   X76.522       Y14.449    
   X76.965       Y14.330    
   X76.735       Y14.360    
   X77.194    
   X76.965       Y14.330    
   X77.408       Y14.449    
   X77.194       Y14.360    
   X77.591       Y14.590    
   X77.408       Y14.449    
   X77.732       Y14.773    
   X77.591       Y14.590    
   X77.821       Y14.987    
   X77.732       Y14.773    
   X77.865       Y15.321    
   X77.821       Y14.987    
   X77.859       Y23.923    
   Y15.321    
   X77.815       Y24.258    
   X77.859       Y23.923    
   X77.726       Y24.471    
   X77.815       Y24.258    
   X77.585       Y24.655    
   X77.726       Y24.471    
   X77.402       Y24.796    
   X77.585       Y24.655    
   X77.188       Y24.884    
   X77.402       Y24.796    
   X76.959       Y24.915    
   X77.188       Y24.884    
   X76.729    
   X76.959       Y24.915    
   X76.516       Y24.796    
   X76.729       Y24.884    
   X76.332       Y24.655    
   X76.516       Y24.796    
   X76.191       Y24.471    
   X76.332       Y24.655    
   X76.103       Y24.258    
   X76.191       Y24.471    
(Pass: 3)
   X76.059       Y23.924    
   Z-1.500    
   X76.103       Y24.258    
   X76.065       Y15.322    
   Y23.924    
   X76.109       Y14.987    
   X76.065       Y15.322    
   X76.197       Y14.773    
   X76.109       Y14.987    
   X76.338       Y14.590    
   X76.197       Y14.773    
   X76.522       Y14.449    
   X76.338       Y14.590    
   X76.735       Y14.360    
   X76.522       Y14.449    
   X76.965       Y14.330    
   X76.735       Y14.360    
   X77.194    
   X76.965       Y14.330    
   X77.408       Y14.449    
   X77.194       Y14.360    
   X77.591       Y14.590    
   X77.408       Y14.449    
   X77.732       Y14.773    
   X77.591       Y14.590    
   X77.821       Y14.987    
   X77.732       Y14.773    
   X77.865       Y15.321    
   X77.821       Y14.987    
   X77.859       Y23.923    
   Y15.321    
   X77.815       Y24.258    
   X77.859       Y23.923    
   X77.726       Y24.471    
   X77.815       Y24.258    
   X77.585       Y24.655    
   X77.726       Y24.471    
   X77.402       Y24.796    
   X77.585       Y24.655    
   X77.188       Y24.884    
   X77.402       Y24.796    
   X76.959       Y24.915    
   X77.188       Y24.884    
   X76.729    
   X76.959       Y24.915    
   X76.516       Y24.796    
   X76.729       Y24.884    
   X76.332       Y24.655    
   X76.516       Y24.796    
   X76.191       Y24.471    
   X76.332       Y24.655    
   X76.103       Y24.258    
   X76.191       Y24.471    
(Pass: 4)
   X76.059       Y23.924    
   Z-2.000    
   X76.103       Y24.258    
   X76.065       Y15.322    
   Y23.924    
   X76.109       Y14.987    
   X76.065       Y15.322    
   X76.197       Y14.773    
   X76.109       Y14.987    
   X76.338       Y14.590    
   X76.197       Y14.773    
   X76.522       Y14.449    
   X76.338       Y14.590    
   X76.735       Y14.360    
   X76.522       Y14.449    
   X76.965       Y14.330    
   X76.735       Y14.360    
   X77.194    
   X76.965       Y14.330    
   X77.408       Y14.449    
   X77.194       Y14.360    
   X77.591       Y14.590    
   X77.408       Y14.449    
   X77.732       Y14.773    
   X77.591       Y14.590    
   X77.821       Y14.987    
   X77.732       Y14.773    
   X77.865       Y15.321    
   X77.821       Y14.987    
   X77.859       Y23.923    
   Y15.321    
   X77.815       Y24.258    
   X77.859       Y23.923    
   X77.726       Y24.471    
   X77.815       Y24.258    
   X77.585       Y24.655    
   X77.726       Y24.471    
   X77.402       Y24.796    
   X77.585       Y24.655    
   X77.188       Y24.884    
   X77.402       Y24.796    
   X76.959       Y24.915    
   X77.188       Y24.884    
   X76.729    
   X76.959       Y24.915    
   X76.516       Y24.796    
   X76.729       Y24.884    
   X76.332       Y24.655    
   X76.516       Y24.796    
   X76.191       Y24.471    
   X76.332       Y24.655    
   X76.103       Y24.258    
   X76.191       Y24.471    
(Pass: 5)
   X76.059       Y23.924    
   Z-2.500    
   X76.103       Y24.258    
   X76.065       Y15.322    
   Y23.924    
   X76.109       Y14.987    
   X76.065       Y15.322    
   X76.197       Y14.773    
   X76.109       Y14.987    
   X76.338       Y14.590    
   X76.197       Y14.773    
   X76.522       Y14.449    
   X76.338       Y14.590    
   X76.735       Y14.360    
   X76.522       Y14.449    
   X76.965       Y14.330    
   X76.735       Y14.360    
   X77.194    
   X76.965       Y14.330    
   X77.408       Y14.449    
   X77.194       Y14.360    
   X77.591       Y14.590    
   X77.408       Y14.449    
   X77.732       Y14.773    
   X77.591       Y14.590    
   X77.821       Y14.987    
   X77.732       Y14.773    
   X77.865       Y15.321    
   X77.821       Y14.987    
   X77.859       Y23.923    
   Y15.321    
   X77.815       Y24.258    
   X77.859       Y23.923    
   X77.726       Y24.471    
   X77.815       Y24.258    
   X77.585       Y24.655    
   X77.726       Y24.471    
   X77.402       Y24.796    
   X77.585       Y24.655    
   X77.188       Y24.884    
   X77.402       Y24.796    
   X76.959       Y24.915    
   X77.188       Y24.884    
   X76.729    
   X76.959       Y24.915    
   X76.516       Y24.796    
   X76.729       Y24.884    
   X76.332       Y24.655    
   X76.516       Y24.796    
   X76.191       Y24.471    
   X76.332       Y24.655    
   X76.103       Y24.258    
   X76.191       Y24.471    
(Pass: 6)
   X76.059       Y23.924    
   Z-3.000    
   X76.103       Y24.258    
   X76.065       Y15.322    
   Y23.924    
   X76.109       Y14.987    
   X76.065       Y15.322    
   X76.197       Y14.773    
   X76.109       Y14.987    
   X76.338       Y14.590    
   X76.197       Y14.773    
   X76.522       Y14.449    
   X76.338       Y14.590    
   X76.735       Y14.360    
   X76.522       Y14.449    
   X76.965       Y14.330    
   X76.735       Y14.360    
   X77.194    
   X76.965       Y14.330    
   X77.408       Y14.449    
   X77.194       Y14.360    
   X77.591       Y14.590    
   X77.408       Y14.449    
   X77.732       Y14.773    
   X77.591       Y14.590    
   X77.821       Y14.987    
   X77.732       Y14.773    
   X77.865       Y15.321    
   X77.821       Y14.987    
   X77.859       Y23.923    
   Y15.321    
   X77.815       Y24.258    
   X77.859       Y23.923    
   X77.726       Y24.471    
   X77.815       Y24.258    
   X77.585       Y24.655    
   X77.726       Y24.471    
   X77.402       Y24.796    
   X77.585       Y24.655    
   X77.188       Y24.884    
   X77.402       Y24.796    
   X76.959       Y24.915    
   X77.188       Y24.884    
   X76.729    
   X76.959       Y24.915    
   X76.516       Y24.796    
   X76.729       Y24.884    
   X76.332       Y24.655    
   X76.516       Y24.796    
   X76.191       Y24.471    
   X76.332       Y24.655    
   X76.103       Y24.258    
   X76.191       Y24.471    
(Pass: 7)
   X76.059       Y23.924    
   Z-3.500    
   X76.103       Y24.258    
   X76.065       Y15.322    
   Y23.924    
   X76.109       Y14.987    
   X76.065       Y15.322    
   X76.197       Y14.773    
   X76.109       Y14.987    
   X76.338       Y14.590    
   X76.197       Y14.773    
   X76.522       Y14.449    
   X76.338       Y14.590    
   X76.735       Y14.360    
   X76.522       Y14.449    
   X76.965       Y14.330    
   X76.735       Y14.360    
   X77.194    
   X76.965       Y14.330    
   X77.408       Y14.449    
   X77.194       Y14.360    
   X77.591       Y14.590    
   X77.408       Y14.449    
   X77.732       Y14.773    
   X77.591       Y14.590    
   X77.821       Y14.987    
   X77.732       Y14.773    
   X77.865       Y15.321    
   X77.821       Y14.987    
   X77.859       Y23.923    
   Y15.321    
   X77.815       Y24.258    
   X77.859       Y23.923    
   X77.726       Y24.471    
   X77.815       Y24.258    
   X77.585       Y24.655    
   X77.726       Y24.471    
   X77.402       Y24.796    
   X77.585       Y24.655    
   X77.188       Y24.884    
   X77.402       Y24.796    
   X76.959       Y24.915    
   X77.188       Y24.884    
   X76.729    
   X76.959       Y24.915    
   X76.516       Y24.796    
   X76.729       Y24.884    
   X76.332       Y24.655    
   X76.516       Y24.796    
   X76.191       Y24.471    
   X76.332       Y24.655    
   X76.103       Y24.258    
   X76.191       Y24.471    
G0   Z15.000    
(Pass: 1)
   X80.089       Y39.134    
G1   Z-0.500     F200 
   X79.866       Y39.226    
   X80.329       Y39.102    
   X80.089       Y39.134    
   X80.568    
   X80.329       Y39.102    
   X80.792       Y39.226    
   X80.568       Y39.134    
   X80.984       Y39.373    
   X80.792       Y39.226    
   X81.131       Y39.565    
   X80.984       Y39.373    
   X81.223       Y39.789    
   X81.131       Y39.565    
   X81.255       Y40.028    
   X81.223       Y39.789    
   Y40.268    
   X81.255       Y40.028    
   X81.131       Y40.491    
   X81.223       Y40.268    
   X80.984       Y40.683    
   X81.131       Y40.491    
   X80.792       Y40.830    
   X80.984       Y40.683    
   X80.568       Y40.923    
   X80.792       Y40.830    
   X80.329       Y40.954    
   X80.568       Y40.923    
   X80.089    
   X80.329       Y40.954    
   X79.866       Y40.830    
   X80.089       Y40.923    
   X79.674       Y40.683    
   X79.866       Y40.830    
   X79.527       Y40.491    
   X79.674       Y40.683    
   X79.434       Y40.268    
   X79.527       Y40.491    
   X79.403       Y40.028    
   X79.434       Y40.268    
   Y39.789    
   X79.403       Y40.028    
   X79.527       Y39.565    
   X79.434       Y39.789    
   X79.674       Y39.373    
   X79.527       Y39.565    
   X79.866       Y39.226    
   X79.674       Y39.373    
(Pass: 2)
   X80.089       Y39.134    
   Z-1.000    
   X79.866       Y39.226    
   X80.329       Y39.102    
   X80.089       Y39.134    
   X80.568    
   X80.329       Y39.102    
   X80.792       Y39.226    
   X80.568       Y39.134    
   X80.984       Y39.373    
   X80.792       Y39.226    
   X81.131       Y39.565    
   X80.984       Y39.373    
   X81.223       Y39.789    
   X81.131       Y39.565    
   X81.255       Y40.028    
   X81.223       Y39.789    
   Y40.268    
   X81.255       Y40.028    
   X81.131       Y40.491    
   X81.223       Y40.268    
   X80.984       Y40.683    
   X81.131       Y40.491    
   X80.792       Y40.830    
   X80.984       Y40.683    
   X80.568       Y40.923    
   X80.792       Y40.830    
   X80.329       Y40.954    
   X80.568       Y40.923    
   X80.089    
   X80.329       Y40.954    
   X79.866       Y40.830    
   X80.089       Y40.923    
   X79.674       Y40.683    
   X79.866       Y40.830    
   X79.527       Y40.491    
   X79.674       Y40.683    
   X79.434       Y40.268    
   X79.527       Y40.491    
   X79.403       Y40.028    
   X79.434       Y40.268    
   Y39.789    
   X79.403       Y40.028    
   X79.527       Y39.565    
   X79.434       Y39.789    
   X79.674       Y39.373    
   X79.527       Y39.565    
   X79.866       Y39.226    
   X79.674       Y39.373    
(Pass: 3)
   X80.089       Y39.134    
   Z-1.500    
   X79.866       Y39.226    
   X80.329       Y39.102    
   X80.089       Y39.134    
   X80.568    
   X80.329       Y39.102    
   X80.792       Y39.226    
   X80.568       Y39.134    
   X80.984       Y39.373    
   X80.792       Y39.226    
   X81.131       Y39.565    
   X80.984       Y39.373    
   X81.223       Y39.789    
   X81.131       Y39.565    
   X81.255       Y40.028    
   X81.223       Y39.789    
   Y40.268    
   X81.255       Y40.028    
   X81.131       Y40.491    
   X81.223       Y40.268    
   X80.984       Y40.683    
   X81.131       Y40.491    
   X80.792       Y40.830    
   X80.984       Y40.683    
   X80.568       Y40.923    
   X80.792       Y40.830    
   X80.329       Y40.954    
   X80.568       Y40.923    
   X80.089    
   X80.329       Y40.954    
   X79.866       Y40.830    
   X80.089       Y40.923    
   X79.674       Y40.683    
   X79.866       Y40.830    
   X79.527       Y40.491    
   X79.674       Y40.683    
   X79.434       Y40.268    
   X79.527       Y40.491    
   X79.403       Y40.028    
   X79.434       Y40.268    
   Y39.789    
   X79.403       Y40.028    
   X79.527       Y39.565    
   X79.434       Y39.789    
   X79.674       Y39.373    
   X79.527       Y39.565    
   X79.866       Y39.226    
   X79.674       Y39.373    
(Pass: 4)
   X80.089       Y39.134    
   Z-2.000    
   X79.866       Y39.226    
   X80.329       Y39.102    
   X80.089       Y39.134    
   X80.568    
   X80.329       Y39.102    
   X80.792       Y39.226    
   X80.568       Y39.134    
   X80.984       Y39.373    
   X80.792       Y39.226    
   X81.131       Y39.565    
   X80.984       Y39.373    
   X81.223       Y39.789    
   X81.131       Y39.565    
   X81.255       Y40.028    
   X81.223       Y39.789    
   Y40.268    
   X81.255       Y40.028    
   X81.131       Y40.491    
   X81.223       Y40.268    
   X80.984       Y40.683    
   X81.131       Y40.491    
   X80.792       Y40.830    
   X80.984       Y40.683    
   X80.568       Y40.923    
   X80.792       Y40.830    
   X80.329       Y40.954    
   X80.568       Y40.923    
   X80.089    
   X80.329       Y40.954    
   X79.866       Y40.830    
   X80.089       Y40.923    
   X79.674       Y40.683    
   X79.866       Y40.830    
   X79.527       Y40.491    
   X79.674       Y40.683    
   X79.434       Y40.268    
   X79.527       Y40.491    
   X79.403       Y40.028    
   X79.434       Y40.268    
   Y39.789    
   X79.403       Y40.028    
   X79.527       Y39.565    
   X79.434       Y39.789    
   X79.674       Y39.373    
   X79.527       Y39.565    
   X79.866       Y39.226    
   X79.674       Y39.373    
(Pass: 5)
   X80.089       Y39.134    
   Z-2.500    
   X79.866       Y39.226    
   X80.329       Y39.102    
   X80.089       Y39.134    
   X80.568    
   X80.329       Y39.102    
   X80.792       Y39.226    
   X80.568       Y39.134    
   X80.984       Y39.373    
   X80.792       Y39.226    
   X81.131       Y39.565    
   X80.984       Y39.373    
   X81.223       Y39.789    
   X81.131       Y39.565    
   X81.255       Y40.028    
   X81.223       Y39.789    
   Y40.268    
   X81.255       Y40.028    
   X81.131       Y40.491    
   X81.223       Y40.268    
   X80.984       Y40.683    
   X81.131       Y40.491    
   X80.792       Y40.830    
   X80.984       Y40.683    
   X80.568       Y40.923    
   X80.792       Y40.830    
   X80.329       Y40.954    
   X80.568       Y40.923    
   X80.089    
   X80.329       Y40.954    
   X79.866       Y40.830    
   X80.089       Y40.923    
   X79.674       Y40.683    
   X79.866       Y40.830    
   X79.527       Y40.491    
   X79.674       Y40.683    
   X79.434       Y40.268    
   X79.527       Y40.491    
   X79.403       Y40.028    
   X79.434       Y40.268    
   Y39.789    
   X79.403       Y40.028    
   X79.527       Y39.565    
   X79.434       Y39.789    
   X79.674       Y39.373    
   X79.527       Y39.565    
   X79.866       Y39.226    
   X79.674       Y39.373    
(Pass: 6)
   X80.089       Y39.134    
   Z-3.000    
   X79.866       Y39.226    
   X80.329       Y39.102    
   X80.089       Y39.134    
   X80.568    
   X80.329       Y39.102    
   X80.792       Y39.226    
   X80.568       Y39.134    
   X80.984       Y39.373    
   X80.792       Y39.226    
   X81.131       Y39.565    
   X80.984       Y39.373    
   X81.223       Y39.789    
   X81.131       Y39.565    
   X81.255       Y40.028    
   X81.223       Y39.789    
   Y40.268    
   X81.255       Y40.028    
   X81.131       Y40.491    
   X81.223       Y40.268    
   X80.984       Y40.683    
   X81.131       Y40.491    
   X80.792       Y40.830    
   X80.984       Y40.683    
   X80.568       Y40.923    
   X80.792       Y40.830    
   X80.329       Y40.954    
   X80.568       Y40.923    
   X80.089    
   X80.329       Y40.954    
   X79.866       Y40.830    
   X80.089       Y40.923    
   X79.674       Y40.683    
   X79.866       Y40.830    
   X79.527       Y40.491    
   X79.674       Y40.683    
   X79.434       Y40.268    
   X79.527       Y40.491    
   X79.403       Y40.028    
   X79.434       Y40.268    
   Y39.789    
   X79.403       Y40.028    
   X79.527       Y39.565    
   X79.434       Y39.789    
   X79.674       Y39.373    
   X79.527       Y39.565    
   X79.866       Y39.226    
   X79.674       Y39.373    
(Pass: 7)
   X80.089       Y39.134    
   Z-3.500    
   X79.866       Y39.226    
   X80.329       Y39.102    
   X80.089       Y39.134    
   X80.568    
   X80.329       Y39.102    
   X80.792       Y39.226    
   X80.568       Y39.134    
   X80.984       Y39.373    
   X80.792       Y39.226    
   X81.131       Y39.565    
   X80.984       Y39.373    
   X81.223       Y39.789    
   X81.131       Y39.565    
   X81.255       Y40.028    
   X81.223       Y39.789    
   Y40.268    
   X81.255       Y40.028    
   X81.131       Y40.491    
   X81.223       Y40.268    
   X80.984       Y40.683    
   X81.131       Y40.491    
   X80.792       Y40.830    
   X80.984       Y40.683    
   X80.568       Y40.923    
   X80.792       Y40.830    
   X80.329       Y40.954    
   X80.568       Y40.923    
   X80.089    
   X80.329       Y40.954    
   X79.866       Y40.830    
   X80.089       Y40.923    
   X79.674       Y40.683    
   X79.866       Y40.830    
   X79.527       Y40.491    
   X79.674       Y40.683    
   X79.434       Y40.268    
   X79.527       Y40.491    
   X79.403       Y40.028    
   X79.434       Y40.268    
   Y39.789    
   X79.403       Y40.028    
   X79.527       Y39.565    
   X79.434       Y39.789    
   X79.674       Y39.373    
   X79.527       Y39.565    
   X79.866       Y39.226    
   X79.674       Y39.373    
G0   Z15.000    
(Pass: 1)
   X49.359       Y39.640    
G1   Z-0.500     F200 
G17 G2   X49.3717      Y40.2624      R2.4000    
   X49.2230      Y40.8673      R2.4000    
   X48.9228      Y41.4131      R2.4000    
   X48.4915      Y41.8626      R2.4000    
   X47.9586      Y42.1852      R2.4000    
   X47.3604      Y42.3588      R2.4000    
   X46.6769      Y42.3730      R2.4000    
   X46.1475      Y42.2311      R2.4000    
   X45.5869      Y41.9228      R2.4000    
   X45.1374      Y41.4915      R2.4000    
   X44.8148      Y40.9586      R2.4000    
   X44.6412      Y40.3604      R2.4000    
   X44.6283      Y39.7376      R2.4000    
   X44.7770      Y39.1327      R2.4000    
   X45.0772      Y38.5869      R2.4000    
   X45.5085      Y38.1374      R2.4000    
   X46.0414      Y37.8148      R2.4000    
   X46.6396      Y37.6412      R2.4000    
   X47.2624      Y37.6283      R2.4000    
   X47.8673      Y37.7770      R2.4000    
   X48.4131      Y38.0772      R2.4000    
   X48.8626      Y38.5085      R2.4000    
   X49.1852      Y39.0414      R2.4000    
   X49.3588      Y39.6396      R2.4000    
(Pass: 2)
G1   Z-1.000    
G17 G2   X49.3717      Y40.2624      R2.4000    
   X49.2230      Y40.8673      R2.4000    
   X48.9228      Y41.4131      R2.4000    
   X48.4915      Y41.8626      R2.4000    
   X47.9586      Y42.1852      R2.4000    
   X47.3604      Y42.3588      R2.4000    
   X46.6769      Y42.3730      R2.4000    
   X46.1475      Y42.2311      R2.4000    
   X45.5869      Y41.9228      R2.4000    
   X45.1374      Y41.4915      R2.4000    
   X44.8148      Y40.9586      R2.4000    
   X44.6412      Y40.3604      R2.4000    
   X44.6283      Y39.7376      R2.4000    
   X44.7770      Y39.1327      R2.4000    
   X45.0772      Y38.5869      R2.4000    
   X45.5085      Y38.1374      R2.4000    
   X46.0414      Y37.8148      R2.4000    
   X46.6396      Y37.6412      R2.4000    
   X47.2624      Y37.6283      R2.4000    
   X47.8673      Y37.7770      R2.4000    
   X48.4131      Y38.0772      R2.4000    
   X48.8626      Y38.5085      R2.4000    
   X49.1852      Y39.0414      R2.4000    
   X49.3588      Y39.6396      R2.4000    
(Pass: 3)
G1   Z-1.500    
G17 G2   X49.3717      Y40.2624      R2.4000    
   X49.2230      Y40.8673      R2.4000    
   X48.9228      Y41.4131      R2.4000    
   X48.4915      Y41.8626      R2.4000    
   X47.9586      Y42.1852      R2.4000    
   X47.3604      Y42.3588      R2.4000    
   X46.6769      Y42.3730      R2.4000    
   X46.1475      Y42.2311      R2.4000    
   X45.5869      Y41.9228      R2.4000    
   X45.1374      Y41.4915      R2.4000    
   X44.8148      Y40.9586      R2.4000    
   X44.6412      Y40.3604      R2.4000    
   X44.6283      Y39.7376      R2.4000    
   X44.7770      Y39.1327      R2.4000    
   X45.0772      Y38.5869      R2.4000    
   X45.5085      Y38.1374      R2.4000    
   X46.0414      Y37.8148      R2.4000    
   X46.6396      Y37.6412      R2.4000    
   X47.2624      Y37.6283      R2.4000    
   X47.8673      Y37.7770      R2.4000    
   X48.4131      Y38.0772      R2.4000    
   X48.8626      Y38.5085      R2.4000    
   X49.1852      Y39.0414      R2.4000    
   X49.3588      Y39.6396      R2.4000    
(Pass: 4)
G1   Z-2.000    
G17 G2   X49.3717      Y40.2624      R2.4000    
   X49.2230      Y40.8673      R2.4000    
   X48.9228      Y41.4131      R2.4000    
   X48.4915      Y41.8626      R2.4000    
   X47.9586      Y42.1852      R2.4000    
   X47.3604      Y42.3588      R2.4000    
   X46.6769      Y42.3730      R2.4000    
   X46.1475      Y42.2311      R2.4000    
   X45.5869      Y41.9228      R2.4000    
   X45.1374      Y41.4915      R2.4000    
   X44.8148      Y40.9586      R2.4000    
   X44.6412      Y40.3604      R2.4000    
   X44.6283      Y39.7376      R2.4000    
   X44.7770      Y39.1327      R2.4000    
   X45.0772      Y38.5869      R2.4000    
   X45.5085      Y38.1374      R2.4000    
   X46.0414      Y37.8148      R2.4000    
   X46.6396      Y37.6412      R2.4000    
   X47.2624      Y37.6283      R2.4000    
   X47.8673      Y37.7770      R2.4000    
   X48.4131      Y38.0772      R2.4000    
   X48.8626      Y38.5085      R2.4000    
   X49.1852      Y39.0414      R2.4000    
   X49.3588      Y39.6396      R2.4000    
(Pass: 5)
G1   Z-2.500    
G17 G2   X49.3717      Y40.2624      R2.4000    
   X49.2230      Y40.8673      R2.4000    
   X48.9228      Y41.4131      R2.4000    
   X48.4915      Y41.8626      R2.4000    
   X47.9586      Y42.1852      R2.4000    
   X47.3604      Y42.3588      R2.4000    
   X46.6769      Y42.3730      R2.4000    
   X46.1475      Y42.2311      R2.4000    
   X45.5869      Y41.9228      R2.4000    
   X45.1374      Y41.4915      R2.4000    
   X44.8148      Y40.9586      R2.4000    
   X44.6412      Y40.3604      R2.4000    
   X44.6283      Y39.7376      R2.4000    
   X44.7770      Y39.1327      R2.4000    
   X45.0772      Y38.5869      R2.4000    
   X45.5085      Y38.1374      R2.4000    
   X46.0414      Y37.8148      R2.4000    
   X46.6396      Y37.6412      R2.4000    
   X47.2624      Y37.6283      R2.4000    
   X47.8673      Y37.7770      R2.4000    
   X48.4131      Y38.0772      R2.4000    
   X48.8626      Y38.5085      R2.4000    
   X49.1852      Y39.0414      R2.4000    
   X49.3588      Y39.6396      R2.4000    
(Pass: 6)
G1   Z-3.000    
G17 G2   X49.3717      Y40.2624      R2.4000    
   X49.2230      Y40.8673      R2.4000    
   X48.9228      Y41.4131      R2.4000    
   X48.4915      Y41.8626      R2.4000    
   X47.9586      Y42.1852      R2.4000    
   X47.3604      Y42.3588      R2.4000    
   X46.6769      Y42.3730      R2.4000    
   X46.1475      Y42.2311      R2.4000    
   X45.5869      Y41.9228      R2.4000    
   X45.1374      Y41.4915      R2.4000    
   X44.8148      Y40.9586      R2.4000    
   X44.6412      Y40.3604      R2.4000    
   X44.6283      Y39.7376      R2.4000    
   X44.7770      Y39.1327      R2.4000    
   X45.0772      Y38.5869      R2.4000    
   X45.5085      Y38.1374      R2.4000    
   X46.0414      Y37.8148      R2.4000    
   X46.6396      Y37.6412      R2.4000    
   X47.2624      Y37.6283      R2.4000    
   X47.8673      Y37.7770      R2.4000    
   X48.4131      Y38.0772      R2.4000    
   X48.8626      Y38.5085      R2.4000    
   X49.1852      Y39.0414      R2.4000    
   X49.3588      Y39.6396      R2.4000    
(Pass: 7)
G1   Z-3.500    
G17 G2   X49.3717      Y40.2624      R2.4000    
   X49.2230      Y40.8673      R2.4000    
   X48.9228      Y41.4131      R2.4000    
   X48.4915      Y41.8626      R2.4000    
   X47.9586      Y42.1852      R2.4000    
   X47.3604      Y42.3588      R2.4000    
   X46.6769      Y42.3730      R2.4000    
   X46.1475      Y42.2311      R2.4000    
   X45.5869      Y41.9228      R2.4000    
   X45.1374      Y41.4915      R2.4000    
   X44.8148      Y40.9586      R2.4000    
   X44.6412      Y40.3604      R2.4000    
   X44.6283      Y39.7376      R2.4000    
   X44.7770      Y39.1327      R2.4000    
   X45.0772      Y38.5869      R2.4000    
   X45.5085      Y38.1374      R2.4000    
   X46.0414      Y37.8148      R2.4000    
   X46.6396      Y37.6412      R2.4000    
   X47.2624      Y37.6283      R2.4000    
   X47.8673      Y37.7770      R2.4000    
   X48.4131      Y38.0772      R2.4000    
   X48.8626      Y38.5085      R2.4000    
   X49.1852      Y39.0414      R2.4000    
   X49.3588      Y39.6396      R2.4000    
G0   Z15.000    
(Pass: 1)
   X14.586       Y40.028    
G1   Z-0.500     F200 
   X14.554       Y39.789    
   Y40.268    
   X14.586       Y40.028    
   X14.461       Y40.491    
   X14.554       Y40.268    
   X14.314       Y40.683    
   X14.461       Y40.491    
   X14.122       Y40.830    
   X14.314       Y40.683    
   X13.899       Y40.923    
   X14.122       Y40.830    
   X13.659       Y40.954    
   X13.899       Y40.923    
   X13.420    
   X13.659       Y40.954    
   X13.196       Y40.830    
   X13.420       Y40.923    
   X13.004       Y40.683    
   X13.196       Y40.830    
   X12.857       Y40.491    
   X13.004       Y40.683    
   X12.765       Y40.268    
   X12.857       Y40.491    
   X12.733       Y40.028    
   X12.765       Y40.268    
   Y39.789    
   X12.733       Y40.028    
   X12.857       Y39.565    
   X12.765       Y39.789    
   X13.004       Y39.373    
   X12.857       Y39.565    
   X13.196       Y39.226    
   X13.004       Y39.373    
   X13.420       Y39.134    
   X13.196       Y39.226    
   X13.659       Y39.102    
   X13.420       Y39.134    
   X13.899    
   X13.659       Y39.102    
   X14.122       Y39.226    
   X13.899       Y39.134    
   X14.314       Y39.373    
   X14.122       Y39.226    
   X14.461       Y39.565    
   X14.314       Y39.373    
   X14.554       Y39.789    
   X14.461       Y39.565    
(Pass: 2)
   X14.586       Y40.028    
   Z-1.000    
   X14.554       Y39.789    
   Y40.268    
   X14.586       Y40.028    
   X14.461       Y40.491    
   X14.554       Y40.268    
   X14.314       Y40.683    
   X14.461       Y40.491    
   X14.122       Y40.830    
   X14.314       Y40.683    
   X13.899       Y40.923    
   X14.122       Y40.830    
   X13.659       Y40.954    
   X13.899       Y40.923    
   X13.420    
   X13.659       Y40.954    
   X13.196       Y40.830    
   X13.420       Y40.923    
   X13.004       Y40.683    
   X13.196       Y40.830    
   X12.857       Y40.491    
   X13.004       Y40.683    
   X12.765       Y40.268    
   X12.857       Y40.491    
   X12.733       Y40.028    
   X12.765       Y40.268    
   Y39.789    
   X12.733       Y40.028    
   X12.857       Y39.565    
   X12.765       Y39.789    
   X13.004       Y39.373    
   X12.857       Y39.565    
   X13.196       Y39.226    
   X13.004       Y39.373    
   X13.420       Y39.134    
   X13.196       Y39.226    
   X13.659       Y39.102    
   X13.420       Y39.134    
   X13.899    
   X13.659       Y39.102    
   X14.122       Y39.226    
   X13.899       Y39.134    
   X14.314       Y39.373    
   X14.122       Y39.226    
   X14.461       Y39.565    
   X14.314       Y39.373    
   X14.554       Y39.789    
   X14.461       Y39.565    
(Pass: 3)
   X14.586       Y40.028    
   Z-1.500    
   X14.554       Y39.789    
   Y40.268    
   X14.586       Y40.028    
   X14.461       Y40.491    
   X14.554       Y40.268    
   X14.314       Y40.683    
   X14.461       Y40.491    
   X14.122       Y40.830    
   X14.314       Y40.683    
   X13.899       Y40.923    
   X14.122       Y40.830    
   X13.659       Y40.954    
   X13.899       Y40.923    
   X13.420    
   X13.659       Y40.954    
   X13.196       Y40.830    
   X13.420       Y40.923    
   X13.004       Y40.683    
   X13.196       Y40.830    
   X12.857       Y40.491    
   X13.004       Y40.683    
   X12.765       Y40.268    
   X12.857       Y40.491    
   X12.733       Y40.028    
   X12.765       Y40.268    
   Y39.789    
   X12.733       Y40.028    
   X12.857       Y39.565    
   X12.765       Y39.789    
   X13.004       Y39.373    
   X12.857       Y39.565    
   X13.196       Y39.226    
   X13.004       Y39.373    
   X13.420       Y39.134    
   X13.196       Y39.226    
   X13.659       Y39.102    
   X13.420       Y39.134    
   X13.899    
   X13.659       Y39.102    
   X14.122       Y39.226    
   X13.899       Y39.134    
   X14.314       Y39.373    
   X14.122       Y39.226    
   X14.461       Y39.565    
   X14.314       Y39.373    
   X14.554       Y39.789    
   X14.461       Y39.565    
(Pass: 4)
   X14.586       Y40.028    
   Z-2.000    
   X14.554       Y39.789    
   Y40.268    
   X14.586       Y40.028    
   X14.461       Y40.491    
   X14.554       Y40.268    
   X14.314       Y40.683    
   X14.461       Y40.491    
   X14.122       Y40.830    
   X14.314       Y40.683    
   X13.899       Y40.923    
   X14.122       Y40.830    
   X13.659       Y40.954    
   X13.899       Y40.923    
   X13.420    
   X13.659       Y40.954    
   X13.196       Y40.830    
   X13.420       Y40.923    
   X13.004       Y40.683    
   X13.196       Y40.830    
   X12.857       Y40.491    
   X13.004       Y40.683    
   X12.765       Y40.268    
   X12.857       Y40.491    
   X12.733       Y40.028    
   X12.765       Y40.268    
   Y39.789    
   X12.733       Y40.028    
   X12.857       Y39.565    
   X12.765       Y39.789    
   X13.004       Y39.373    
   X12.857       Y39.565    
   X13.196       Y39.226    
   X13.004       Y39.373    
   X13.420       Y39.134    
   X13.196       Y39.226    
   X13.659       Y39.102    
   X13.420       Y39.134    
   X13.899    
   X13.659       Y39.102    
   X14.122       Y39.226    
   X13.899       Y39.134    
   X14.314       Y39.373    
   X14.122       Y39.226    
   X14.461       Y39.565    
   X14.314       Y39.373    
   X14.554       Y39.789    
   X14.461       Y39.565    
(Pass: 5)
   X14.586       Y40.028    
   Z-2.500    
   X14.554       Y39.789    
   Y40.268    
   X14.586       Y40.028    
   X14.461       Y40.491    
   X14.554       Y40.268    
   X14.314       Y40.683    
   X14.461       Y40.491    
   X14.122       Y40.830    
   X14.314       Y40.683    
   X13.899       Y40.923    
   X14.122       Y40.830    
   X13.659       Y40.954    
   X13.899       Y40.923    
   X13.420    
   X13.659       Y40.954    
   X13.196       Y40.830    
   X13.420       Y40.923    
   X13.004       Y40.683    
   X13.196       Y40.830    
   X12.857       Y40.491    
   X13.004       Y40.683    
   X12.765       Y40.268    
   X12.857       Y40.491    
   X12.733       Y40.028    
   X12.765       Y40.268    
   Y39.789    
   X12.733       Y40.028    
   X12.857       Y39.565    
   X12.765       Y39.789    
   X13.004       Y39.373    
   X12.857       Y39.565    
   X13.196       Y39.226    
   X13.004       Y39.373    
   X13.420       Y39.134    
   X13.196       Y39.226    
   X13.659       Y39.102    
   X13.420       Y39.134    
   X13.899    
   X13.659       Y39.102    
   X14.122       Y39.226    
   X13.899       Y39.134    
   X14.314       Y39.373    
   X14.122       Y39.226    
   X14.461       Y39.565    
   X14.314       Y39.373    
   X14.554       Y39.789    
   X14.461       Y39.565    
(Pass: 6)
   X14.586       Y40.028    
   Z-3.000    
   X14.554       Y39.789    
   Y40.268    
   X14.586       Y40.028    
   X14.461       Y40.491    
   X14.554       Y40.268    
   X14.314       Y40.683    
   X14.461       Y40.491    
   X14.122       Y40.830    
   X14.314       Y40.683    
   X13.899       Y40.923    
   X14.122       Y40.830    
   X13.659       Y40.954    
   X13.899       Y40.923    
   X13.420    
   X13.659       Y40.954    
   X13.196       Y40.830    
   X13.420       Y40.923    
   X13.004       Y40.683    
   X13.196       Y40.830    
   X12.857       Y40.491    
   X13.004       Y40.683    
   X12.765       Y40.268    
   X12.857       Y40.491    
   X12.733       Y40.028    
   X12.765       Y40.268    
   Y39.789    
   X12.733       Y40.028    
   X12.857       Y39.565    
   X12.765       Y39.789    
   X13.004       Y39.373    
   X12.857       Y39.565    
   X13.196       Y39.226    
   X13.004       Y39.373    
   X13.420       Y39.134    
   X13.196       Y39.226    
   X13.659       Y39.102    
   X13.420       Y39.134    
   X13.899    
   X13.659       Y39.102    
   X14.122       Y39.226    
   X13.899       Y39.134    
   X14.314       Y39.373    
   X14.122       Y39.226    
   X14.461       Y39.565    
   X14.314       Y39.373    
   X14.554       Y39.789    
   X14.461       Y39.565    
(Pass: 7)
   X14.586       Y40.028    
   Z-3.500    
   X14.554       Y39.789    
   Y40.268    
   X14.586       Y40.028    
   X14.461       Y40.491    
   X14.554       Y40.268    
   X14.314       Y40.683    
   X14.461       Y40.491    
   X14.122       Y40.830    
   X14.314       Y40.683    
   X13.899       Y40.923    
   X14.122       Y40.830    
   X13.659       Y40.954    
   X13.899       Y40.923    
   X13.420    
   X13.659       Y40.954    
   X13.196       Y40.830    
   X13.420       Y40.923    
   X13.004       Y40.683    
   X13.196       Y40.830    
   X12.857       Y40.491    
   X13.004       Y40.683    
   X12.765       Y40.268    
   X12.857       Y40.491    
   X12.733       Y40.028    
   X12.765       Y40.268    
   Y39.789    
   X12.733       Y40.028    
   X12.857       Y39.565    
   X12.765       Y39.789    
   X13.004       Y39.373    
   X12.857       Y39.565    
   X13.196       Y39.226    
   X13.004       Y39.373    
   X13.420       Y39.134    
   X13.196       Y39.226    
   X13.659       Y39.102    
   X13.420       Y39.134    
   X13.899    
   X13.659       Y39.102    
   X14.122       Y39.226    
   X13.899       Y39.134    
   X14.314       Y39.373    
   X14.122       Y39.226    
   X14.461       Y39.565    
   X14.314       Y39.373    
   X14.554       Y39.789    
   X14.461       Y39.565    
G0   Z15.000    
(Pass: 1)
   X46.339       Y72.708    
G1   Z-0.500     F200 
   X46.192       Y72.900    
   X46.531       Y72.561    
   X46.339       Y72.708    
   X46.754       Y72.468    
   X46.531       Y72.561    
   X46.994       Y72.437    
   X46.754       Y72.468    
   X47.234    
   X46.994       Y72.437    
   X47.457       Y72.561    
   X47.234       Y72.468    
   X47.649       Y72.708    
   X47.457       Y72.561    
   X47.796       Y72.900    
   X47.649       Y72.708    
