%
(Generated by SketchUcam {1.2})
(File: Router Plates.skp)
(Bit diameter: 3.1mm)
(Feed rate: 200.0mm/min)
(Material Thickness: 3.2mm)
(Material length: 304.0mm X width: 608.0mm)
(Overhead Gantry: true)
(Retract feed rate NOT limited to plunge feed rate)
(Multipass enabled, Depth = 0.5mm)
(Optimization is ON)
(Z ZERO IS TABLETOP)
(www.PhlatBoyz.com)
G90 G21 G49 
M3 S15000
G0   Z18.200    
(Pass: 1)
   X236.704      Y29.015    
G1   Z2.700      F200 
G17 G2   X236.6750     Y29.1255      R0.4500    
   X236.6760     Y29.2394      R0.4500    
   X236.7065     Y29.3493      R0.4500    
   X236.7643     Y29.4475      R0.4500    
   X236.8456     Y29.5274      R0.4500    
   X236.9449     Y29.5835      R0.4500    
   X237.0552     Y29.6120      R0.4500    
   X237.1692     Y29.6110      R0.4500    
   X237.2790     Y29.5805      R0.4500    
   X237.3772     Y29.5227      R0.4500    
   X237.4571     Y29.4414      R0.4500    
   X237.5132     Y29.3422      R0.4500    
   X237.5418     Y29.2318      R0.4500    
   X237.5408     Y29.1178      R0.4500    
   X237.5103     Y29.0080      R0.4500    
   X237.4524     Y28.9098      R0.4500    
   X237.3711     Y28.8299      R0.4500    
   X237.2719     Y28.7738      R0.4500    
   X237.1616     Y28.7453      R0.4500    
   X237.0476     Y28.7463      R0.4500    
   X236.9377     Y28.7767      R0.4500    
   X236.8395     Y28.8346      R0.4500    
   X236.7597     Y28.9159      R0.4500    
   X236.7035     Y29.0151      R0.4500    
(Pass: 2)
G1   Z2.200     
G17 G2   X236.6750     Y29.1255      R0.4500    
   X236.6760     Y29.2394      R0.4500    
   X236.7065     Y29.3493      R0.4500    
   X236.7643     Y29.4475      R0.4500    
   X236.8456     Y29.5274      R0.4500    
   X236.9449     Y29.5835      R0.4500    
   X237.0552     Y29.6120      R0.4500    
   X237.1692     Y29.6110      R0.4500    
   X237.2790     Y29.5805      R0.4500    
   X237.3772     Y29.5227      R0.4500    
   X237.4571     Y29.4414      R0.4500    
   X237.5132     Y29.3422      R0.4500    
   X237.5418     Y29.2318      R0.4500    
   X237.5408     Y29.1178      R0.4500    
   X237.5103     Y29.0080      R0.4500    
   X237.4524     Y28.9098      R0.4500    
   X237.3711     Y28.8299      R0.4500    
   X237.2719     Y28.7738      R0.4500    
   X237.1616     Y28.7453      R0.4500    
   X237.0476     Y28.7463      R0.4500    
   X236.9377     Y28.7767      R0.4500    
   X236.8395     Y28.8346      R0.4500    
   X236.7597     Y28.9159      R0.4500    
   X236.7035     Y29.0151      R0.4500    
(Pass: 3)
G1   Z1.700     
G17 G2   X236.6750     Y29.1255      R0.4500    
   X236.6760     Y29.2394      R0.4500    
   X236.7065     Y29.3493      R0.4500    
   X236.7643     Y29.4475      R0.4500    
   X236.8456     Y29.5274      R0.4500    
   X236.9449     Y29.5835      R0.4500    
   X237.0552     Y29.6120      R0.4500    
   X237.1692     Y29.6110      R0.4500    
   X237.2790     Y29.5805      R0.4500    
   X237.3772     Y29.5227      R0.4500    
   X237.4571     Y29.4414      R0.4500    
   X237.5132     Y29.3422      R0.4500    
   X237.5418     Y29.2318      R0.4500    
   X237.5408     Y29.1178      R0.4500    
   X237.5103     Y29.0080      R0.4500    
   X237.4524     Y28.9098      R0.4500    
   X237.3711     Y28.8299      R0.4500    
   X237.2719     Y28.7738      R0.4500    
   X237.1616     Y28.7453      R0.4500    
   X237.0476     Y28.7463      R0.4500    
   X236.9377     Y28.7767      R0.4500    
   X236.8395     Y28.8346      R0.4500    
   X236.7597     Y28.9159      R0.4500    
   X236.7035     Y29.0151      R0.4500    
(Pass: 4)
G1   Z1.200     
G17 G2   X236.6750     Y29.1255      R0.4500    
   X236.6760     Y29.2394      R0.4500    
   X236.7065     Y29.3493      R0.4500    
   X236.7643     Y29.4475      R0.4500    
   X236.8456     Y29.5274      R0.4500    
   X236.9449     Y29.5835      R0.4500    
   X237.0552     Y29.6120      R0.4500    
   X237.1692     Y29.6110      R0.4500    
   X237.2790     Y29.5805      R0.4500    
   X237.3772     Y29.5227      R0.4500    
   X237.4571     Y29.4414      R0.4500    
   X237.5132     Y29.3422      R0.4500    
   X237.5418     Y29.2318      R0.4500    
   X237.5408     Y29.1178      R0.4500    
   X237.5103     Y29.0080      R0.4500    
   X237.4524     Y28.9098      R0.4500    
   X237.3711     Y28.8299      R0.4500    
   X237.2719     Y28.7738      R0.4500    
   X237.1616     Y28.7453      R0.4500    
   X237.0476     Y28.7463      R0.4500    
   X236.9377     Y28.7767      R0.4500    
   X236.8395     Y28.8346      R0.4500    
   X236.7597     Y28.9159      R0.4500    
   X236.7035     Y29.0151      R0.4500    
(Pass: 5)
G1   Z0.700     
G17 G2   X236.6750     Y29.1255      R0.4500    
   X236.6760     Y29.2394      R0.4500    
   X236.7065     Y29.3493      R0.4500    
   X236.7643     Y29.4475      R0.4500    
   X236.8456     Y29.5274      R0.4500    
   X236.9449     Y29.5835      R0.4500    
   X237.0552     Y29.6120      R0.4500    
   X237.1692     Y29.6110      R0.4500    
   X237.2790     Y29.5805      R0.4500    
   X237.3772     Y29.5227      R0.4500    
   X237.4571     Y29.4414      R0.4500    
   X237.5132     Y29.3422      R0.4500    
   X237.5418     Y29.2318      R0.4500    
   X237.5408     Y29.1178      R0.4500    
   X237.5103     Y29.0080      R0.4500    
   X237.4524     Y28.9098      R0.4500    
   X237.3711     Y28.8299      R0.4500    
   X237.2719     Y28.7738      R0.4500    
   X237.1616     Y28.7453      R0.4500    
   X237.0476     Y28.7463      R0.4500    
   X236.9377     Y28.7767      R0.4500    
   X236.8395     Y28.8346      R0.4500    
   X236.7597     Y28.9159      R0.4500    
   X236.7035     Y29.0151      R0.4500    
(Pass: 6)
G1   Z0.200     
G17 G2   X236.6750     Y29.1255      R0.4500    
   X236.6760     Y29.2394      R0.4500    
   X236.7065     Y29.3493      R0.4500    
   X236.7643     Y29.4475      R0.4500    
   X236.8456     Y29.5274      R0.4500    
   X236.9449     Y29.5835      R0.4500    
   X237.0552     Y29.6120      R0.4500    
   X237.1692     Y29.6110      R0.4500    
   X237.2790     Y29.5805      R0.4500    
   X237.3772     Y29.5227      R0.4500    
   X237.4571     Y29.4414      R0.4500    
   X237.5132     Y29.3422      R0.4500    
   X237.5418     Y29.2318      R0.4500    
   X237.5408     Y29.1178      R0.4500    
   X237.5103     Y29.0080      R0.4500    
   X237.4524     Y28.9098      R0.4500    
   X237.3711     Y28.8299      R0.4500    
   X237.2719     Y28.7738      R0.4500    
   X237.1616     Y28.7453      R0.4500    
   X237.0476     Y28.7463      R0.4500    
   X236.9377     Y28.7767      R0.4500    
   X236.8395     Y28.8346      R0.4500    
   X236.7597     Y28.9159      R0.4500    
   X236.7035     Y29.0151      R0.4500    
(Pass: 7)
G1   Z-0.300    
G17 G2   X236.6750     Y29.1255      R0.4500    
   X236.6760     Y29.2394      R0.4500    
   X236.7065     Y29.3493      R0.4500    
   X236.7643     Y29.4475      R0.4500    
   X236.8456     Y29.5274      R0.4500    
   X236.9449     Y29.5835      R0.4500    
   X237.0552     Y29.6120      R0.4500    
   X237.1692     Y29.6110      R0.4500    
   X237.2790     Y29.5805      R0.4500    
   X237.3772     Y29.5227      R0.4500    
   X237.4571     Y29.4414      R0.4500    
   X237.5132     Y29.3422      R0.4500    
   X237.5418     Y29.2318      R0.4500    
   X237.5408     Y29.1178      R0.4500    
   X237.5103     Y29.0080      R0.4500    
   X237.4524     Y28.9098      R0.4500    
   X237.3711     Y28.8299      R0.4500    
   X237.2719     Y28.7738      R0.4500    
   X237.1616     Y28.7453      R0.4500    
   X237.0476     Y28.7463      R0.4500    
   X236.9377     Y28.7767      R0.4500    
   X236.8395     Y28.8346      R0.4500    
   X236.7597     Y28.9159      R0.4500    
   X236.7035     Y29.0151      R0.4500    
(Pass: 8)
G1   Z-0.480    
G17 G2   X236.6750     Y29.1255      R0.4500    
   X236.6760     Y29.2394      R0.4500    
   X236.7065     Y29.3493      R0.4500    
   X236.7643     Y29.4475      R0.4500    
   X236.8456     Y29.5274      R0.4500    
   X236.9449     Y29.5835      R0.4500    
   X237.0552     Y29.6120      R0.4500    
   X237.1692     Y29.6110      R0.4500    
   X237.2790     Y29.5805      R0.4500    
   X237.3772     Y29.5227      R0.4500    
   X237.4571     Y29.4414      R0.4500    
   X237.5132     Y29.3422      R0.4500    
   X237.5418     Y29.2318      R0.4500    
   X237.5408     Y29.1178      R0.4500    
   X237.5103     Y29.0080      R0.4500    
   X237.4524     Y28.9098      R0.4500    
   X237.3711     Y28.8299      R0.4500    
   X237.2719     Y28.7738      R0.4500    
   X237.1616     Y28.7453      R0.4500    
   X237.0476     Y28.7463      R0.4500    
   X236.9377     Y28.7767      R0.4500    
   X236.8395     Y28.8346      R0.4500    
   X236.7597     Y28.9159      R0.4500    
   X236.7035     Y29.0151      R0.4500    
(BREAK pass 8)
G0   Z18.200    
(Pass: 1)
   X244.072      Y23.845    
G1   Z2.700      F200 
   X244.391      Y24.260    
   X244.806      Y24.579    
   X245.290      Y24.779    
   X245.809      Y24.848    
   X246.327      Y24.779    
   X246.811      Y24.579    
   X247.226      Y24.260    
   X247.545      Y23.845    
   X247.745      Y23.361    
   X247.814      Y22.842    
   X247.745      Y22.323    
   X247.545      Y21.840    
   X247.226      Y21.425    
   X246.811      Y21.106    
   X246.327      Y20.906    
   X245.809      Y20.837    
   X245.290      Y20.906    
   X244.806      Y21.106    
   X244.391      Y21.425    
   X244.072      Y21.840    
   X243.872      Y22.323    
   X243.803      Y22.842    
   X243.872      Y23.361    
   X244.072      Y23.845    
(Pass: 2)
   Z2.200     
   X244.391      Y24.260    
   X244.806      Y24.579    
   X245.290      Y24.779    
   X245.809      Y24.848    
   X246.327      Y24.779    
   X246.811      Y24.579    
   X247.226      Y24.260    
   X247.545      Y23.845    
   X247.745      Y23.361    
   X247.814      Y22.842    
   X247.745      Y22.323    
   X247.545      Y21.840    
   X247.226      Y21.425    
   X246.811      Y21.106    
   X246.327      Y20.906    
   X245.809      Y20.837    
   X245.290      Y20.906    
   X244.806      Y21.106    
   X244.391      Y21.425    
   X244.072      Y21.840    
   X243.872      Y22.323    
   X243.803      Y22.842    
   X243.872      Y23.361    
   X244.072      Y23.845    
(Pass: 3)
   Z1.700     
   X244.391      Y24.260    
   X244.806      Y24.579    
   X245.290      Y24.779    
   X245.809      Y24.848    
   X246.327      Y24.779    
   X246.811      Y24.579    
   X247.226      Y24.260    
   X247.545      Y23.845    
   X247.745      Y23.361    
   X247.814      Y22.842    
   X247.745      Y22.323    
   X247.545      Y21.840    
   X247.226      Y21.425    
   X246.811      Y21.106    
   X246.327      Y20.906    
   X245.809      Y20.837    
   X245.290      Y20.906    
   X244.806      Y21.106    
   X244.391      Y21.425    
   X244.072      Y21.840    
   X243.872      Y22.323    
   X243.803      Y22.842    
   X243.872      Y23.361    
   X244.072      Y23.845    
(Pass: 4)
   Z1.200     
   X244.391      Y24.260    
   X244.806      Y24.579    
   X245.290      Y24.779    
   X245.809      Y24.848    
   X246.327      Y24.779    
   X246.811      Y24.579    
   X247.226      Y24.260    
   X247.545      Y23.845    
   X247.745      Y23.361    
   X247.814      Y22.842    
   X247.745      Y22.323    
   X247.545      Y21.840    
   X247.226      Y21.425    
   X246.811      Y21.106    
   X246.327      Y20.906    
   X245.809      Y20.837    
   X245.290      Y20.906    
   X244.806      Y21.106    
   X244.391      Y21.425    
   X244.072      Y21.840    
   X243.872      Y22.323    
   X243.803      Y22.842    
   X243.872      Y23.361    
   X244.072      Y23.845    
(Pass: 5)
   Z0.700     
   X244.391      Y24.260    
   X244.806      Y24.579    
   X245.290      Y24.779    
   X245.809      Y24.848    
   X246.327      Y24.779    
   X246.811      Y24.579    
   X247.226      Y24.260    
   X247.545      Y23.845    
   X247.745      Y23.361    
   X247.814      Y22.842    
   X247.745      Y22.323    
   X247.545      Y21.840    
   X247.226      Y21.425    
   X246.811      Y21.106    
   X246.327      Y20.906    
   X245.809      Y20.837    
   X245.290      Y20.906    
   X244.806      Y21.106    
   X244.391      Y21.425    
   X244.072      Y21.840    
   X243.872      Y22.323    
   X243.803      Y22.842    
   X243.872      Y23.361    
   X244.072      Y23.845    
(Pass: 6)
   Z0.200     
   X244.391      Y24.260    
   X244.806      Y24.579    
   X245.290      Y24.779    
   X245.809      Y24.848    
   X246.327      Y24.779    
   X246.811      Y24.579    
   X247.226      Y24.260    
   X247.545      Y23.845    
   X247.745      Y23.361    
   X247.814      Y22.842    
   X247.745      Y22.323    
   X247.545      Y21.840    
   X247.226      Y21.425    
   X246.811      Y21.106    
   X246.327      Y20.906    
   X245.809      Y20.837    
   X245.290      Y20.906    
   X244.806      Y21.106    
   X244.391      Y21.425    
   X244.072      Y21.840    
   X243.872      Y22.323    
   X243.803      Y22.842    
   X243.872      Y23.361    
   X244.072      Y23.845    
(Pass: 7)
   Z-0.300    
   X244.391      Y24.260    
   X244.806      Y24.579    
   X245.290      Y24.779    
   X245.809      Y24.848    
   X246.327      Y24.779    
   X246.811      Y24.579    
   X247.226      Y24.260    
   X247.545      Y23.845    
   X247.745      Y23.361    
   X247.814      Y22.842    
   X247.745      Y22.323    
   X247.545      Y21.840    
   X247.226      Y21.425    
   X246.811      Y21.106    
   X246.327      Y20.906    
   X245.809      Y20.837    
   X245.290      Y20.906    
   X244.806      Y21.106    
   X244.391      Y21.425    
   X244.072      Y21.840    
   X243.872      Y22.323    
   X243.803      Y22.842    
   X243.872      Y23.361    
   X244.072      Y23.845    
(Pass: 8)
   Z-0.480    
   X244.391      Y24.260    
   X244.806      Y24.579    
   X245.290      Y24.779    
   X245.809      Y24.848    
   X246.327      Y24.779    
   X246.811      Y24.579    
   X247.226      Y24.260    
   X247.545      Y23.845    
   X247.745      Y23.361    
   X247.814      Y22.842    
   X247.745      Y22.323    
   X247.545      Y21.840    
   X247.226      Y21.425    
   X246.811      Y21.106    
   X246.327      Y20.906    
   X245.809      Y20.837    
   X245.290      Y20.906    
   X244.806      Y21.106    
   X244.391      Y21.425    
   X244.072      Y21.840    
   X243.872      Y22.323    
   X243.803      Y22.842    
   X243.872      Y23.361    
   X244.072      Y23.845    
(BREAK pass 8)
G0   Z18.200    
(Pass: 1)
   X237.327      Y38.800    
G1   Z2.700      F200 
G17 G2   X237.2213     Y38.7569      R0.4500    
   X237.1083     Y38.7420      R0.4500    
   X236.9953     Y38.7569      R0.4500    
   X236.8900     Y38.8005      R0.4500    
   X236.7996     Y38.8699      R0.4500    
   X236.7302     Y38.9603      R0.4500    
   X236.6866     Y39.0656      R0.4500    
   X236.6717     Y39.1786      R0.4500    
   X236.6866     Y39.2916      R0.4500    
   X236.7302     Y39.3969      R0.4500    
   X236.7996     Y39.4874      R0.4500    
   X236.8900     Y39.5568      R0.4500    
   X236.9953     Y39.6004      R0.4500    
   X237.1083     Y39.6153      R0.4500    
   X237.2213     Y39.6004      R0.4500    
   X237.3266     Y39.5568      R0.4500    
   X237.4171     Y39.4874      R0.4500    
   X237.4864     Y39.3969      R0.4500    
   X237.5301     Y39.2916      R0.4500    
   X237.5449     Y39.1786      R0.4500    
   X237.5301     Y39.0656      R0.4500    
   X237.4864     Y38.9603      R0.4500    
   X237.4171     Y38.8699      R0.4500    
   X237.3266     Y38.8005      R0.4500    
(Pass: 2)
G1   Z2.200     
G17 G2   X237.2213     Y38.7569      R0.4500    
   X237.1083     Y38.7420      R0.4500    
   X236.9953     Y38.7569      R0.4500    
   X236.8900     Y38.8005      R0.4500    
   X236.7996     Y38.8699      R0.4500    
   X236.7302     Y38.9603      R0.4500    
   X236.6866     Y39.0656      R0.4500    
   X236.6717     Y39.1786      R0.4500    
   X236.6866     Y39.2916      R0.4500    
   X236.7302     Y39.3969      R0.4500    
   X236.7996     Y39.4874      R0.4500    
   X236.8900     Y39.5568      R0.4500    
   X236.9953     Y39.6004      R0.4500    
   X237.1083     Y39.6153      R0.4500    
   X237.2213     Y39.6004      R0.4500    
   X237.3266     Y39.5568      R0.4500    
   X237.4171     Y39.4874      R0.4500    
   X237.4864     Y39.3969      R0.4500    
   X237.5301     Y39.2916      R0.4500    
   X237.5449     Y39.1786      R0.4500    
   X237.5301     Y39.0656      R0.4500    
   X237.4864     Y38.9603      R0.4500    
   X237.4171     Y38.8699      R0.4500    
   X237.3266     Y38.8005      R0.4500    
(Pass: 3)
G1   Z1.700     
G17 G2   X237.2213     Y38.7569      R0.4500    
   X237.1083     Y38.7420      R0.4500    
   X236.9953     Y38.7569      R0.4500    
   X236.8900     Y38.8005      R0.4500    
   X236.7996     Y38.8699      R0.4500    
   X236.7302     Y38.9603      R0.4500    
   X236.6866     Y39.0656      R0.4500    
   X236.6717     Y39.1786      R0.4500    
   X236.6866     Y39.2916      R0.4500    
   X236.7302     Y39.3969      R0.4500    
   X236.7996     Y39.4874      R0.4500    
   X236.8900     Y39.5568      R0.4500    
   X236.9953     Y39.6004      R0.4500    
   X237.1083     Y39.6153      R0.4500    
   X237.2213     Y39.6004      R0.4500    
   X237.3266     Y39.5568      R0.4500    
   X237.4171     Y39.4874      R0.4500    
   X237.4864     Y39.3969      R0.4500    
   X237.5301     Y39.2916      R0.4500    
   X237.5449     Y39.1786      R0.4500    
   X237.5301     Y39.0656      R0.4500    
   X237.4864     Y38.9603      R0.4500    
   X237.4171     Y38.8699      R0.4500    
   X237.3266     Y38.8005      R0.4500    
(Pass: 4)
G1   Z1.200     
G17 G2   X237.2213     Y38.7569      R0.4500    
   X237.1083     Y38.7420      R0.4500    
   X236.9953     Y38.7569      R0.4500    
   X236.8900     Y38.8005      R0.4500    
   X236.7996     Y38.8699      R0.4500    
   X236.7302     Y38.9603      R0.4500    
   X236.6866     Y39.0656      R0.4500    
   X236.6717     Y39.1786      R0.4500    
   X236.6866     Y39.2916      R0.4500    
   X236.7302     Y39.3969      R0.4500    
   X236.7996     Y39.4874      R0.4500    
   X236.8900     Y39.5568      R0.4500    
   X236.9953     Y39.6004      R0.4500    
   X237.1083     Y39.6153      R0.4500    
   X237.2213     Y39.6004      R0.4500    
   X237.3266     Y39.5568      R0.4500    
   X237.4171     Y39.4874      R0.4500    
   X237.4864     Y39.3969      R0.4500    
   X237.5301     Y39.2916      R0.4500    
   X237.5449     Y39.1786      R0.4500    
   X237.5301     Y39.0656      R0.4500    
   X237.4864     Y38.9603      R0.4500    
   X237.4171     Y38.8699      R0.4500    
   X237.3266     Y38.8005      R0.4500    
(Pass: 5)
G1   Z0.700     
G17 G2   X237.2213     Y38.7569      R0.4500    
   X237.1083     Y38.7420      R0.4500    
   X236.9953     Y38.7569      R0.4500    
   X236.8900     Y38.8005      R0.4500    
   X236.7996     Y38.8699      R0.4500    
   X236.7302     Y38.9603      R0.4500    
   X236.6866     Y39.0656      R0.4500    
   X236.6717     Y39.1786      R0.4500    
   X236.6866     Y39.2916      R0.4500    
   X236.7302     Y39.3969      R0.4500    
   X236.7996     Y39.4874      R0.4500    
   X236.8900     Y39.5568      R0.4500    
   X236.9953     Y39.6004      R0.4500    
   X237.1083     Y39.6153      R0.4500    
   X237.2213     Y39.6004      R0.4500    
   X237.3266     Y39.5568      R0.4500    
   X237.4171     Y39.4874      R0.4500    
   X237.4864     Y39.3969      R0.4500    
   X237.5301     Y39.2916      R0.4500    
   X237.5449     Y39.1786      R0.4500    
   X237.5301     Y39.0656      R0.4500    
   X237.4864     Y38.9603      R0.4500    
   X237.4171     Y38.8699      R0.4500    
   X237.3266     Y38.8005      R0.4500    
(Pass: 6)
G1   Z0.200     
G17 G2   X237.2213     Y38.7569      R0.4500    
   X237.1083     Y38.7420      R0.4500    
   X236.9953     Y38.7569      R0.4500    
   X236.8900     Y38.8005      R0.4500    
   X236.7996     Y38.8699      R0.4500    
   X236.7302     Y38.9603      R0.4500    
   X236.6866     Y39.0656      R0.4500    
   X236.6717     Y39.1786      R0.4500    
   X236.6866     Y39.2916      R0.4500    
   X236.7302     Y39.3969      R0.4500    
   X236.7996     Y39.4874      R0.4500    
   X236.8900     Y39.5568      R0.4500    
   X236.9953     Y39.6004      R0.4500    
   X237.1083     Y39.6153      R0.4500    
   X237.2213     Y39.6004      R0.4500    
   X237.3266     Y39.5568      R0.4500    
   X237.4171     Y39.4874      R0.4500    
   X237.4864     Y39.3969      R0.4500    
   X237.5301     Y39.2916      R0.4500    
   X237.5449     Y39.1786      R0.4500    
   X237.5301     Y39.0656      R0.4500    
   X237.4864     Y38.9603      R0.4500    
   X237.4171     Y38.8699      R0.4500    
   X237.3266     Y38.8005      R0.4500    
(Pass: 7)
G1   Z-0.300    
G17 G2   X237.2213     Y38.7569      R0.4500    
   X237.1083     Y38.7420      R0.4500    
   X236.9953     Y38.7569      R0.4500    
   X236.8900     Y38.8005      R0.4500    
   X236.7996     Y38.8699      R0.4500    
   X236.7302     Y38.9603      R0.4500    
   X236.6866     Y39.0656      R0.4500    
   X236.6717     Y39.1786      R0.4500    
   X236.6866     Y39.2916      R0.4500    
   X236.7302     Y39.3969      R0.4500    
   X236.7996     Y39.4874      R0.4500    
   X236.8900     Y39.5568      R0.4500    
   X236.9953     Y39.6004      R0.4500    
   X237.1083     Y39.6153      R0.4500    
   X237.2213     Y39.6004      R0.4500    
   X237.3266     Y39.5568      R0.4500    
   X237.4171     Y39.4874      R0.4500    
   X237.4864     Y39.3969      R0.4500    
   X237.5301     Y39.2916      R0.4500    
   X237.5449     Y39.1786      R0.4500    
   X237.5301     Y39.0656      R0.4500    
   X237.4864     Y38.9603      R0.4500    
   X237.4171     Y38.8699      R0.4500    
   X237.3266     Y38.8005      R0.4500    
(Pass: 8)
G1   Z-0.480    
G17 G2   X237.2213     Y38.7569      R0.4500    
   X237.1083     Y38.7420      R0.4500    
   X236.9953     Y38.7569      R0.4500    
   X236.8900     Y38.8005      R0.4500    
   X236.7996     Y38.8699      R0.4500    
   X236.7302     Y38.9603      R0.4500    
   X236.6866     Y39.0656      R0.4500    
   X236.6717     Y39.1786      R0.4500    
   X236.6866     Y39.2916      R0.4500    
   X236.7302     Y39.3969      R0.4500    
   X236.7996     Y39.4874      R0.4500    
   X236.8900     Y39.5568      R0.4500    
   X236.9953     Y39.6004      R0.4500    
   X237.1083     Y39.6153      R0.4500    
   X237.2213     Y39.6004      R0.4500    
   X237.3266     Y39.5568      R0.4500    
   X237.4171     Y39.4874      R0.4500    
   X237.4864     Y39.3969      R0.4500    
   X237.5301     Y39.2916      R0.4500    
   X237.5449     Y39.1786      R0.4500    
   X237.5301     Y39.0656      R0.4500    
   X237.4864     Y38.9603      R0.4500    
   X237.4171     Y38.8699      R0.4500    
   X237.3266     Y38.8005      R0.4500    
(BREAK pass 8)
G0   Z18.200    
(Pass: 1)
   X245.809      Y121.267   
G1   Z2.700      F200 
   X245.566      Y121.299   
   X245.340      Y121.393   
   X245.146      Y121.542   
   X244.997      Y121.736   
   X244.904      Y121.962   
   X244.872      Y122.204   
   X244.904      Y122.446   
   X244.997      Y122.672   
   X245.146      Y122.866   
   X245.340      Y123.015   
   X245.566      Y123.109   
   X245.809      Y123.141   
   X246.051      Y123.109   
   X246.277      Y123.015   
   X246.471      Y122.866   
   X246.620      Y122.672   
   X246.713      Y122.446   
   X246.745      Y122.204   
   X246.713      Y121.962   
   X246.620      Y121.736   
   X246.471      Y121.542   
   X246.277      Y121.393   
   X246.051      Y121.299   
   X245.809      Y121.267   
(Pass: 2)
   Z2.200     
   X245.566      Y121.299   
   X245.340      Y121.393   
   X245.146      Y121.542   
   X244.997      Y121.736   
   X244.904      Y121.962   
   X244.872      Y122.204   
   X244.904      Y122.446   
   X244.997      Y122.672   
   X245.146      Y122.866   
   X245.340      Y123.015   
   X245.566      Y123.109   
   X245.809      Y123.141   
   X246.051      Y123.109   
   X246.277      Y123.015   
   X246.471      Y122.866   
   X246.620      Y122.672   
   X246.713      Y122.446   
   X246.745      Y122.204   
   X246.713      Y121.962   
   X246.620      Y121.736   
   X246.471      Y121.542   
   X246.277      Y121.393   
   X246.051      Y121.299   
   X245.809      Y121.267   
(Pass: 3)
   Z1.700     
   X245.566      Y121.299   
   X245.340      Y121.393   
   X245.146      Y121.542   
   X244.997      Y121.736   
   X244.904      Y121.962   
   X244.872      Y122.204   
   X244.904      Y122.446   
   X244.997      Y122.672   
   X245.146      Y122.866   
   X245.340      Y123.015   
   X245.566      Y123.109   
   X245.809      Y123.141   
   X246.051      Y123.109   
   X246.277      Y123.015   
   X246.471      Y122.866   
   X246.620      Y122.672   
   X246.713      Y122.446   
   X246.745      Y122.204   
   X246.713      Y121.962   
   X246.620      Y121.736   
   X246.471      Y121.542   
   X246.277      Y121.393   
   X246.051      Y121.299   
   X245.809      Y121.267   
(Pass: 4)
   Z1.200     
   X245.566      Y121.299   
   X245.340      Y121.393   
   X245.146      Y121.542   
   X244.997      Y121.736   
   X244.904      Y121.962   
   X244.872      Y122.204   
   X244.904      Y122.446   
   X244.997      Y122.672   
   X245.146      Y122.866   
   X245.340      Y123.015   
   X245.566      Y123.109   
   X245.809      Y123.141   
   X246.051      Y123.109   
   X246.277      Y123.015   
   X246.471      Y122.866   
   X246.620      Y122.672   
   X246.713      Y122.446   
   X246.745      Y122.204   
   X246.713      Y121.962   
   X246.620      Y121.736   
   X246.471      Y121.542   
   X246.277      Y121.393   
   X246.051      Y121.299   
   X245.809      Y121.267   
(Pass: 5)
   Z0.700     
   X245.566      Y121.299   
   X245.340      Y121.393   
   X245.146      Y121.542   
   X244.997      Y121.736   
   X244.904      Y121.962   
   X244.872      Y122.204   
   X244.904      Y122.446   
   X244.997      Y122.672   
   X245.146      Y122.866   
   X245.340      Y123.015   
   X245.566      Y123.109   
   X245.809      Y123.141   
   X246.051      Y123.109   
   X246.277      Y123.015   
   X246.471      Y122.866   
   X246.620      Y122.672   
   X246.713      Y122.446   
   X246.745      Y122.204   
   X246.713      Y121.962   
   X246.620      Y121.736   
   X246.471      Y121.542   
   X246.277      Y121.393   
   X246.051      Y121.299   
   X245.809      Y121.267   
(Pass: 6)
   Z0.200     
   X245.566      Y121.299   
   X245.340      Y121.393   
   X245.146      Y121.542   
   X244.997      Y121.736   
   X244.904      Y121.962   
   X244.872      Y122.204   
   X244.904      Y122.446   
   X244.997      Y122.672   
   X245.146      Y122.866   
   X245.340      Y123.015   
   X245.566      Y123.109   
   X245.809      Y123.141   
   X246.051      Y123.109   
   X246.277      Y123.015   
   X246.471      Y122.866   
   X246.620      Y122.672   
   X246.713      Y122.446   
   X246.745      Y122.204   
   X246.713      Y121.962   
   X246.620      Y121.736   
   X246.471      Y121.542   
   X246.277      Y121.393   
   X246.051      Y121.299   
   X245.809      Y121.267   
(Pass: 7)
   Z-0.300    
   X245.566      Y121.299   
   X245.340      Y121.393   
   X245.146      Y121.542   
   X244.997      Y121.736   
   X244.904      Y121.962   
   X244.872      Y122.204   
   X244.904      Y122.446   
   X244.997      Y122.672   
   X245.146      Y122.866   
   X245.340      Y123.015   
   X245.566      Y123.109   
   X245.809      Y123.141   
   X246.051      Y123.109   
   X246.277      Y123.015   
   X246.471      Y122.866   
   X246.620      Y122.672   
   X246.713      Y122.446   
   X246.745      Y122.204   
   X246.713      Y121.962   
   X246.620      Y121.736   
   X246.471      Y121.542   
   X246.277      Y121.393   
   X246.051      Y121.299   
   X245.809      Y121.267   
(Pass: 8)
   Z-0.480    
   X245.566      Y121.299   
   X245.340      Y121.393   
   X245.146      Y121.542   
   X244.997      Y121.736   
   X244.904      Y121.962   
   X244.872      Y122.204   
   X244.904      Y122.446   
   X244.997      Y122.672   
   X245.146      Y122.866   
   X245.340      Y123.015   
   X245.566      Y123.109   
   X245.809      Y123.141   
   X246.051      Y123.109   
   X246.277      Y123.015   
   X246.471      Y122.866   
   X246.620      Y122.672   
   X246.713      Y122.446   
   X246.745      Y122.204   
   X246.713      Y121.962   
   X246.620      Y121.736   
   X246.471      Y121.542   
   X246.277      Y121.393   
   X246.051      Y121.299   
   X245.809      Y121.267   
(BREAK pass 8)
G0   Z18.200    
(Pass: 1)
   X247.809      Y154.222   
G1   Z2.700      F200 
   X247.566      Y154.254   
   X247.340      Y154.347   
   X247.146      Y154.496   
   X246.997      Y154.690   
   X246.904      Y154.916   
   X246.872      Y155.158   
   X246.904      Y155.401   
   X246.997      Y155.627   
   X247.146      Y155.821   
   X247.340      Y155.970   
   X247.566      Y156.063   
   X247.809      Y156.095   
   X248.051      Y156.063   
   X248.277      Y155.970   
   X248.471      Y155.821   
   X248.620      Y155.627   
   X248.713      Y155.401   
   X248.745      Y155.158   
   X248.713      Y154.916   
   X248.620      Y154.690   
   X248.471      Y154.496   
   X248.277      Y154.347   
   X248.051      Y154.254   
   X247.809      Y154.222   
(Pass: 2)
   Z2.200     
   X247.566      Y154.254   
   X247.340      Y154.347   
   X247.146      Y154.496   
   X246.997      Y154.690   
   X246.904      Y154.916   
   X246.872      Y155.158   
   X246.904      Y155.401   
   X246.997      Y155.627   
   X247.146      Y155.821   
   X247.340      Y155.970   
   X247.566      Y156.063   
   X247.809      Y156.095   
   X248.051      Y156.063   
   X248.277      Y155.970   
   X248.471      Y155.821   
   X248.620      Y155.627   
   X248.713      Y155.401   
   X248.745      Y155.158   
   X248.713      Y154.916   
   X248.620      Y154.690   
   X248.471      Y154.496   
   X248.277      Y154.347   
   X248.051      Y154.254   
   X247.809      Y154.222   
(Pass: 3)
   Z1.700     
   X247.566      Y154.254   
   X247.340      Y154.347   
   X247.146      Y154.496   
   X246.997      Y154.690   
   X246.904      Y154.916   
   X246.872      Y155.158   
   X246.904      Y155.401   
   X246.997      Y155.627   
   X247.146      Y155.821   
   X247.340      Y155.970   
   X247.566      Y156.063   
   X247.809      Y156.095   
   X248.051      Y156.063   
   X248.277      Y155.970   
   X248.471      Y155.821   
   X248.620      Y155.627   
   X248.713      Y155.401   
   X248.745      Y155.158   
   X248.713      Y154.916   
   X248.620      Y154.690   
   X248.471      Y154.496   
   X248.277      Y154.347   
   X248.051      Y154.254   
   X247.809      Y154.222   
(Pass: 4)
   Z1.200     
   X247.566      Y154.254   
   X247.340      Y154.347   
   X247.146      Y154.496   
   X246.997      Y154.690   
   X246.904      Y154.916   
   X246.872      Y155.158   
   X246.904      Y155.401   
   X246.997      Y155.627   
   X247.146      Y155.821   
   X247.340      Y155.970   
   X247.566      Y156.063   
   X247.809      Y156.095   
   X248.051      Y156.063   
   X248.277      Y155.970   
   X248.471      Y155.821   
   X248.620      Y155.627   
   X248.713      Y155.401   
   X248.745      Y155.158   
   X248.713      Y154.916   
   X248.620      Y154.690   
   X248.471      Y154.496   
   X248.277      Y154.347   
   X248.051      Y154.254   
   X247.809      Y154.222   
(Pass: 5)
   Z0.700     
   X247.566      Y154.254   
   X247.340      Y154.347   
   X247.146      Y154.496   
   X246.997      Y154.690   
   X246.904      Y154.916   
   X246.872      Y155.158   
   X246.904      Y155.401   
   X246.997      Y155.627   
   X247.146      Y155.821   
   X247.340      Y155.970   
   X247.566      Y156.063   
   X247.809      Y156.095   
   X248.051      Y156.063   
   X248.277      Y155.970   
   X248.471      Y155.821   
   X248.620      Y155.627   
   X248.713      Y155.401   
   X248.745      Y155.158   
   X248.713      Y154.916   
   X248.620      Y154.690   
   X248.471      Y154.496   
   X248.277      Y154.347   
   X248.051      Y154.254   
   X247.809      Y154.222   
(Pass: 6)
   Z0.200     
   X247.566      Y154.254   
   X247.340      Y154.347   
   X247.146      Y154.496   
   X246.997      Y154.690   
   X246.904      Y154.916   
   X246.872      Y155.158   
   X246.904      Y155.401   
   X246.997      Y155.627   
   X247.146      Y155.821   
   X247.340      Y155.970   
   X247.566      Y156.063   
   X247.809      Y156.095   
   X248.051      Y156.063   
   X248.277      Y155.970   
   X248.471      Y155.821   
   X248.620      Y155.627   
   X248.713      Y155.401   
   X248.745      Y155.158   
   X248.713      Y154.916   
   X248.620      Y154.690   
   X248.471      Y154.496   
   X248.277      Y154.347   
   X248.051      Y154.254   
   X247.809      Y154.222   
(Pass: 7)
   Z-0.300    
   X247.566      Y154.254   
   X247.340      Y154.347   
   X247.146      Y154.496   
   X246.997      Y154.690   
   X246.904      Y154.916   
   X246.872      Y155.158   
   X246.904      Y155.401   
   X246.997      Y155.627   
   X247.146      Y155.821   
   X247.340      Y155.970   
   X247.566      Y156.063   
   X247.809      Y156.095   
   X248.051      Y156.063   
   X248.277      Y155.970   
   X248.471      Y155.821   
   X248.620      Y155.627   
   X248.713      Y155.401   
   X248.745      Y155.158   
   X248.713      Y154.916   
   X248.620      Y154.690   
   X248.471      Y154.496   
   X248.277      Y154.347   
   X248.051      Y154.254   
   X247.809      Y154.222   
(Pass: 8)
   Z-0.480    
   X247.566      Y154.254   
   X247.340      Y154.347   
   X247.146      Y154.496   
   X246.997      Y154.690   
   X246.904      Y154.916   
   X246.872      Y155.158   
   X246.904      Y155.401   
   X246.997      Y155.627   
   X247.146      Y155.821   
   X247.340      Y155.970   
   X247.566      Y156.063   
   X247.809      Y156.095   
   X248.051      Y156.063   
   X248.277      Y155.970   
   X248.471      Y155.821   
   X248.620      Y155.627   
   X248.713      Y155.401   
   X248.745      Y155.158   
   X248.713      Y154.916   
   X248.620      Y154.690   
   X248.471      Y154.496   
   X248.277      Y154.347   
   X248.051      Y154.254   
   X247.809      Y154.222   
(BREAK pass 8)
G0   Z18.200    
(Pass: 1)
   Y174.222   
G1   Z2.700      F200 
   X247.566      Y174.254   
   X247.340      Y174.347   
   X247.146      Y174.496   
   X246.997      Y174.690   
   X246.904      Y174.916   
   X246.872      Y175.158   
   X246.904      Y175.401   
   X246.997      Y175.627   
   X247.146      Y175.821   
   X247.340      Y175.970   
   X247.566      Y176.063   
   X247.809      Y176.095   
   X248.051      Y176.063   
   X248.277      Y175.970   
   X248.471      Y175.821   
   X248.620      Y175.627   
   X248.713      Y175.401   
   X248.745      Y175.158   
   X248.713      Y174.916   
   X248.620      Y174.690   
   X248.471      Y174.496   
   X248.277      Y174.347   
   X248.051      Y174.254   
   X247.809      Y174.222   
(Pass: 2)
   Z2.200     
   X247.566      Y174.254   
   X247.340      Y174.347   
   X247.146      Y174.496   
   X246.997      Y174.690   
   X246.904      Y174.916   
   X246.872      Y175.158   
   X246.904      Y175.401   
   X246.997      Y175.627   
   X247.146      Y175.821   
   X247.340      Y175.970   
   X247.566      Y176.063   
   X247.809      Y176.095   
   X248.051      Y176.063   
   X248.277      Y175.970   
   X248.471      Y175.821   
   X248.620      Y175.627   
   X248.713      Y175.401   
   X248.745      Y175.158   
   X248.713      Y174.916   
   X248.620      Y174.690   
   X248.471      Y174.496   
   X248.277      Y174.347   
   X248.051      Y174.254   
   X247.809      Y174.222   
(Pass: 3)
   Z1.700     
   X247.566      Y174.254   
   X247.340      Y174.347   
   X247.146      Y174.496   
   X246.997      Y174.690   
   X246.904      Y174.916   
   X246.872      Y175.158   
   X246.904      Y175.401   
   X246.997      Y175.627   
   X247.146      Y175.821   
   X247.340      Y175.970   
   X247.566      Y176.063   
   X247.809      Y176.095   
   X248.051      Y176.063   
   X248.277      Y175.970   
   X248.471      Y175.821   
   X248.620      Y175.627   
   X248.713      Y175.401   
   X248.745      Y175.158   
   X248.713      Y174.916   
   X248.620      Y174.690   
   X248.471      Y174.496   
   X248.277      Y174.347   
   X248.051      Y174.254   
   X247.809      Y174.222   
(Pass: 4)
   Z1.200     
   X247.566      Y174.254   
   X247.340      Y174.347   
   X247.146      Y174.496   
   X246.997      Y174.690   
   X246.904      Y174.916   
   X246.872      Y175.158   
   X246.904      Y175.401   
   X246.997      Y175.627   
   X247.146      Y175.821   
   X247.340      Y175.970   
   X247.566      Y176.063   
   X247.809      Y176.095   
   X248.051      Y176.063   
   X248.277      Y175.970   
   X248.471      Y175.821   
   X248.620      Y175.627   
   X248.713      Y175.401   
   X248.745      Y175.158   
   X248.713      Y174.916   
   X248.620      Y174.690   
   X248.471      Y174.496   
   X248.277      Y174.347   
   X248.051      Y174.254   
   X247.809      Y174.222   
(Pass: 5)
   Z0.700     
   X247.566      Y174.254   
   X247.340      Y174.347   
   X247.146      Y174.496   
   X246.997      Y174.690   
   X246.904      Y174.916   
   X246.872      Y175.158   
   X246.904      Y175.401   
   X246.997      Y175.627   
   X247.146      Y175.821   
   X247.340      Y175.970   
   X247.566      Y176.063   
   X247.809      Y176.095   
   X248.051      Y176.063   
   X248.277      Y175.970   
   X248.471      Y175.821   
   X248.620      Y175.627   
   X248.713      Y175.401   
   X248.745      Y175.158   
   X248.713      Y174.916   
   X248.620      Y174.690   
   X248.471      Y174.496   
   X248.277      Y174.347   
   X248.051      Y174.254   
   X247.809      Y174.222   
(Pass: 6)
   Z0.200     
   X247.566      Y174.254   
   X247.340      Y174.347   
   X247.146      Y174.496   
   X246.997      Y174.690   
   X246.904      Y174.916   
   X246.872      Y175.158   
   X246.904      Y175.401   
   X246.997      Y175.627   
   X247.146      Y175.821   
   X247.340      Y175.970   
   X247.566      Y176.063   
   X247.809      Y176.095   
   X248.051      Y176.063   
   X248.277      Y175.970   
   X248.471      Y175.821   
   X248.620      Y175.627   
   X248.713      Y175.401   
   X248.745      Y175.158   
   X248.713      Y174.916   
   X248.620      Y174.690   
   X248.471      Y174.496   
   X248.277      Y174.347   
   X248.051      Y174.254   
   X247.809      Y174.222   
(Pass: 7)
   Z-0.300    
   X247.566      Y174.254   
   X247.340      Y174.347   
   X247.146      Y174.496   
   X246.997      Y174.690   
   X246.904      Y174.916   
   X246.872      Y175.158   
   X246.904      Y175.401   
   X246.997      Y175.627   
   X247.146      Y175.821   
   X247.340      Y175.970   
   X247.566      Y176.063   
   X247.809      Y176.095   
   X248.051      Y176.063   
   X248.277      Y175.970   
   X248.471      Y175.821   
   X248.620      Y175.627   
   X248.713      Y175.401   
   X248.745      Y175.158   
   X248.713      Y174.916   
   X248.620      Y174.690   
   X248.471      Y174.496   
   X248.277      Y174.347   
   X248.051      Y174.254   
   X247.809      Y174.222   
(Pass: 8)
   Z-0.480    
   X247.566      Y174.254   
   X247.340      Y174.347   
   X247.146      Y174.496   
   X246.997      Y174.690   
   X246.904      Y174.916   
   X246.872      Y175.158   
   X246.904      Y175.401   
   X246.997      Y175.627   
   X247.146      Y175.821   
   X247.340      Y175.970   
   X247.566      Y176.063   
   X247.809      Y176.095   
   X248.051      Y176.063   
   X248.277      Y175.970   
   X248.471      Y175.821   
   X248.620      Y175.627   
   X248.713      Y175.401   
   X248.745      Y175.158   
   X248.713      Y174.916   
   X248.620      Y174.690   
   X248.471      Y174.496   
   X248.277      Y174.347   
   X248.051      Y174.254   
   X247.809      Y174.222   
(BREAK pass 8)
G0   Z18.200    
(Pass: 1)
   X267.021      Y198.455   
G1   Z2.700      F200 
   X266.872      Y198.649   
   X266.778      Y198.875   
   X266.746      Y199.117   
   X266.778      Y199.360   
   X266.872      Y199.586   
   X267.021      Y199.780   
   X267.215      Y199.928   
   X267.440      Y200.022   
   X267.683      Y200.054   
   X267.925      Y200.022   
   X268.151      Y199.928   
   X268.345      Y199.780   
   X268.494      Y199.586   
   X268.588      Y199.360   
   X268.620      Y199.117   
   X268.588      Y198.875   
   X268.494      Y198.649   
   X268.345      Y198.455   
   X268.151      Y198.306   
   X267.925      Y198.213   
   X267.683      Y198.181   
   X267.440      Y198.213   
   X267.215      Y198.306   
   X267.021      Y198.455   
(Pass: 2)
   Z2.200     
   X266.872      Y198.649   
   X266.778      Y198.875   
   X266.746      Y199.117   
   X266.778      Y199.360   
   X266.872      Y199.586   
   X267.021      Y199.780   
   X267.215      Y199.928   
   X267.440      Y200.022   
   X267.683      Y200.054   
   X267.925      Y200.022   
   X268.151      Y199.928   
   X268.345      Y199.780   
   X268.494      Y199.586   
   X268.588      Y199.360   
   X268.620      Y199.117   
   X268.588      Y198.875   
   X268.494      Y198.649   
   X268.345      Y198.455   
   X268.151      Y198.306   
   X267.925      Y198.213   
   X267.683      Y198.181   
   X267.440      Y198.213   
   X267.215      Y198.306   
   X267.021      Y198.455   
(Pass: 3)
   Z1.700     
   X266.872      Y198.649   
   X266.778      Y198.875   
   X266.746      Y199.117   
   X266.778      Y199.360   
   X266.872      Y199.586   
   X267.021      Y199.780   
   X267.215      Y199.928   
   X267.440      Y200.022   
   X267.683      Y200.054   
   X267.925      Y200.022   
   X268.151      Y199.928   
   X268.345      Y199.780   
   X268.494      Y199.586   
   X268.588      Y199.360   
   X268.620      Y199.117   
   X268.588      Y198.875   
   X268.494      Y198.649   
   X268.345      Y198.455   
   X268.151      Y198.306   
   X267.925      Y198.213   
   X267.683      Y198.181   
   X267.440      Y198.213   
   X267.215      Y198.306   
   X267.021      Y198.455   
(Pass: 4)
   Z1.200     
   X266.872      Y198.649   
   X266.778      Y198.875   
   X266.746      Y199.117   
   X266.778      Y199.360   
   X266.872      Y199.586   
   X267.021      Y199.780   
   X267.215      Y199.928   
   X267.440      Y200.022   
   X267.683      Y200.054   
   X267.925      Y200.022   
   X268.151      Y199.928   
   X268.345      Y199.780   
   X268.494      Y199.586   
   X268.588      Y199.360   
   X268.620      Y199.117   
   X268.588      Y198.875   
   X268.494      Y198.649   
   X268.345      Y198.455   
   X268.151      Y198.306   
   X267.925      Y198.213   
   X267.683      Y198.181   
   X267.440      Y198.213   
   X267.215      Y198.306   
   X267.021      Y198.455   
(Pass: 5)
   Z0.700     
   X266.872      Y198.649   
   X266.778      Y198.875   
   X266.746      Y199.117   
   X266.778      Y199.360   
   X266.872      Y199.586   
   X267.021      Y199.780   
   X267.215      Y199.928   
   X267.440      Y200.022   
   X267.683      Y200.054   
   X267.925      Y200.022   
   X268.151      Y199.928   
   X268.345      Y199.780   
   X268.494      Y199.586   
   X268.588      Y199.360   
   X268.620      Y199.117   
   X268.588      Y198.875   
   X268.494      Y198.649   
   X268.345      Y198.455   
   X268.151      Y198.306   
   X267.925      Y198.213   
   X267.683      Y198.181   
   X267.440      Y198.213   
   X267.215      Y198.306   
   X267.021      Y198.455   
(Pass: 6)
   Z0.200     
   X266.872      Y198.649   
   X266.778      Y198.875   
   X266.746      Y199.117   
   X266.778      Y199.360   
   X266.872      Y199.586   
   X267.021      Y199.780   
   X267.215      Y199.928   
   X267.440      Y200.022   
   X267.683      Y200.054   
   X267.925      Y200.022   
   X268.151      Y199.928   
   X268.345      Y199.780   
   X268.494      Y199.586   
   X268.588      Y199.360   
   X268.620      Y199.117   
   X268.588      Y198.875   
   X268.494      Y198.649   
   X268.345      Y198.455   
   X268.151      Y198.306   
   X267.925      Y198.213   
   X267.683      Y198.181   
   X267.440      Y198.213   
   X267.215      Y198.306   
   X267.021      Y198.455   
(Pass: 7)
   Z-0.300    
   X266.872      Y198.649   
   X266.778      Y198.875   
   X266.746      Y199.117   
   X266.778      Y199.360   
   X266.872      Y199.586   
   X267.021      Y199.780   
   X267.215      Y199.928   
   X267.440      Y200.022   
   X267.683      Y200.054   
   X267.925      Y200.022   
   X268.151      Y199.928   
   X268.345      Y199.780   
   X268.494      Y199.586   
   X268.588      Y199.360   
   X268.620      Y199.117   
   X268.588      Y198.875   
   X268.494      Y198.649   
   X268.345      Y198.455   
   X268.151      Y198.306   
   X267.925      Y198.213   
   X267.683      Y198.181   
   X267.440      Y198.213   
   X267.215      Y198.306   
   X267.021      Y198.455   
(Pass: 8)
   Z-0.480    
   X266.872      Y198.649   
   X266.778      Y198.875   
   X266.746      Y199.117   
   X266.778      Y199.360   
   X266.872      Y199.586   
   X267.021      Y199.780   
   X267.215      Y199.928   
   X267.440      Y200.022   
   X267.683      Y200.054   
   X267.925      Y200.022   
   X268.151      Y199.928   
   X268.345      Y199.780   
   X268.494      Y199.586   
   X268.588      Y199.360   
   X268.620      Y199.117   
   X268.588      Y198.875   
   X268.494      Y198.649   
   X268.345      Y198.455   
   X268.151      Y198.306   
   X267.925      Y198.213   
   X267.683      Y198.181   
   X267.440      Y198.213   
   X267.215      Y198.306   
   X267.021      Y198.455   
(BREAK pass 8)
G0   Z18.200    
(Pass: 1)
   X287.156      Y198.950   
G1   Z2.700      F200 
   X287.124      Y199.192   
   X287.156      Y199.435   
   X287.249      Y199.661   
   X287.398      Y199.855   
   X287.592      Y200.004   
   X287.818      Y200.097   
   X288.162      Y200.142   
   X308.959   
   X309.303      Y200.097   
   X309.529      Y200.004   
   X309.723      Y199.855   
   X309.872      Y199.661   
   X309.965      Y199.435   
   X309.997      Y199.192   
   X309.965      Y198.950   
   X309.872      Y198.724   
   X309.723      Y198.530   
   X309.529      Y198.381   
   X309.303      Y198.288   
   X308.959      Y198.242   
   X288.162   
   X287.818      Y198.288   
   X287.592      Y198.381   
   X287.398      Y198.530   
   X287.249      Y198.724   
   X287.156      Y198.950   
(Pass: 2)
   Z2.200     
   X287.124      Y199.192   
   X287.156      Y199.435   
   X287.249      Y199.661   
   X287.398      Y199.855   
   X287.592      Y200.004   
   X287.818      Y200.097   
   X288.162      Y200.142   
   X308.959   
   X309.303      Y200.097   
   X309.529      Y200.004   
   X309.723      Y199.855   
   X309.872      Y199.661   
   X309.965      Y199.435   
   X309.997      Y199.192   
   X309.965      Y198.950   
   X309.872      Y198.724   
   X309.723      Y198.530   
   X309.529      Y198.381   
   X309.303      Y198.288   
   X308.959      Y198.242   
   X288.162   
   X287.818      Y198.288   
   X287.592      Y198.381   
   X287.398      Y198.530   
   X287.249      Y198.724   
   X287.156      Y198.950   
(Pass: 3)
   Z1.700     
   X287.124      Y199.192   
   X287.156      Y199.435   
   X287.249      Y199.661   
   X287.398      Y199.855   
   X287.592      Y200.004   
   X287.818      Y200.097   
   X288.162      Y200.142   
   X308.959   
   X309.303      Y200.097   
   X309.529      Y200.004   
   X309.723      Y199.855   
   X309.872      Y199.661   
   X309.965      Y199.435   
   X309.997      Y199.192   
   X309.965      Y198.950   
   X309.872      Y198.724   
   X309.723      Y198.530   
   X309.529      Y198.381   
   X309.303      Y198.288   
   X308.959      Y198.242   
   X288.162   
   X287.818      Y198.288   
   X287.592      Y198.381   
   X287.398      Y198.530   
   X287.249      Y198.724   
   X287.156      Y198.950   
(Pass: 4)
   Z1.200     
   X287.124      Y199.192   
   X287.156      Y199.435   
   X287.249      Y199.661   
   X287.398      Y199.855   
   X287.592      Y200.004   
   X287.818      Y200.097   
   X288.162      Y200.142   
   X308.959   
   X309.303      Y200.097   
   X309.529      Y200.004   
   X309.723      Y199.855   
   X309.872      Y199.661   
   X309.965      Y199.435   
   X309.997      Y199.192   
   X309.965      Y198.950   
   X309.872      Y198.724   
   X309.723      Y198.530   
   X309.529      Y198.381   
   X309.303      Y198.288   
   X308.959      Y198.242   
   X288.162   
   X287.818      Y198.288   
   X287.592      Y198.381   
   X287.398      Y198.530   
   X287.249      Y198.724   
   X287.156      Y198.950   
(Pass: 5)
   Z0.700     
   X287.124      Y199.192   
   X287.156      Y199.435   
   X287.249      Y199.661   
   X287.398      Y199.855   
   X287.592      Y200.004   
   X287.818      Y200.097   
   X288.162      Y200.142   
   X308.959   
   X309.303      Y200.097   
   X309.529      Y200.004   
   X309.723      Y199.855   
   X309.872      Y199.661   
   X309.965      Y199.435   
   X309.997      Y199.192   
   X309.965      Y198.950   
   X309.872      Y198.724   
   X309.723      Y198.530   
   X309.529      Y198.381   
   X309.303      Y198.288   
   X308.959      Y198.242   
   X288.162   
   X287.818      Y198.288   
   X287.592      Y198.381   
   X287.398      Y198.530   
   X287.249      Y198.724   
   X287.156      Y198.950   
(Pass: 6)
   Z0.200     
   X287.124      Y199.192   
   X287.156      Y199.435   
   X287.249      Y199.661   
   X287.398      Y199.855   
   X287.592      Y200.004   
   X287.818      Y200.097   
   X288.162      Y200.142   
   X308.959   
   X309.303      Y200.097   
   X309.529      Y200.004   
   X309.723      Y199.855   
   X309.872      Y199.661   
   X309.965      Y199.435   
   X309.997      Y199.192   
   X309.965      Y198.950   
   X309.872      Y198.724   
   X309.723      Y198.530   
   X309.529      Y198.381   
   X309.303      Y198.288   
   X308.959      Y198.242   
   X288.162   
   X287.818      Y198.288   
   X287.592      Y198.381   
   X287.398      Y198.530   
   X287.249      Y198.724   
   X287.156      Y198.950   
(Pass: 7)
   Z-0.300    
   X287.124      Y199.192   
   X287.156      Y199.435   
   X287.249      Y199.661   
   X287.398      Y199.855   
   X287.592      Y200.004   
   X287.818      Y200.097   
   X288.162      Y200.142   
   X308.959   
   X309.303      Y200.097   
   X309.529      Y200.004   
   X309.723      Y199.855   
   X309.872      Y199.661   
   X309.965      Y199.435   
   X309.997      Y199.192   
   X309.965      Y198.950   
   X309.872      Y198.724   
   X309.723      Y198.530   
   X309.529      Y198.381   
   X309.303      Y198.288   
   X308.959      Y198.242   
   X288.162   
   X287.818      Y198.288   
   X287.592      Y198.381   
   X287.398      Y198.530   
   X287.249      Y198.724   
   X287.156      Y198.950   
(Pass: 8)
   Z-0.480    
   X287.124      Y199.192   
   X287.156      Y199.435   
   X287.249      Y199.661   
   X287.398      Y199.855   
   X287.592      Y200.004   
   X287.818      Y200.097   
   X288.162      Y200.142   
   X308.959   
   X309.303      Y200.097   
   X309.529      Y200.004   
   X309.723      Y199.855   
   X309.872      Y199.661   
   X309.965      Y199.435   
   X309.997      Y199.192   
   X309.965      Y198.950   
   X309.872      Y198.724   
   X309.723      Y198.530   
   X309.529      Y198.381   
   X309.303      Y198.288   
   X308.959      Y198.242   
   X288.162   
   X287.818      Y198.288   
   X287.592      Y198.381   
   X287.398      Y198.530   
   X287.249      Y198.724   
   X287.156      Y198.950   
(BREAK pass 8)
G0   Z18.200    
(Pass: 1)
   X288.162      Y180.143   
G1   Z2.700      F200 
   X308.959   
   X309.303      Y180.097   
   X309.529      Y180.004   
   X309.723      Y179.855   
   X309.872      Y179.661   
   X309.965      Y179.435   
   X309.997      Y179.193   
   X309.965      Y178.950   
   X309.872      Y178.724   
   X309.723      Y178.530   
   X309.529      Y178.381   
   X309.303      Y178.288   
   X308.959      Y178.243   
   X288.162   
   X287.818      Y178.288   
   X287.592      Y178.381   
   X287.398      Y178.530   
   X287.249      Y178.724   
   X287.156      Y178.950   
   X287.124      Y179.193   
   X287.156      Y179.435   
   X287.249      Y179.661   
   X287.398      Y179.855   
   X287.592      Y180.004   
   X287.818      Y180.097   
   X288.162      Y180.143   
(Pass: 2)
   Z2.200     
   X308.959   
   X309.303      Y180.097   
   X309.529      Y180.004   
   X309.723      Y179.855   
   X309.872      Y179.661   
   X309.965      Y179.435   
   X309.997      Y179.193   
   X309.965      Y178.950   
   X309.872      Y178.724   
   X309.723      Y178.530   
   X309.529      Y178.381   
   X309.303      Y178.288   
   X308.959      Y178.243   
   X288.162   
   X287.818      Y178.288   
   X287.592      Y178.381   
   X287.398      Y178.530   
   X287.249      Y178.724   
   X287.156      Y178.950   
   X287.124      Y179.193   
   X287.156      Y179.435   
   X287.249      Y179.661   
   X287.398      Y179.855   
   X287.592      Y180.004   
   X287.818      Y180.097   
   X288.162      Y180.143   
(Pass: 3)
   Z1.700     
   X308.959   
   X309.303      Y180.097   
   X309.529      Y180.004   
   X309.723      Y179.855   
   X309.872      Y179.661   
   X309.965      Y179.435   
   X309.997      Y179.193   
   X309.965      Y178.950   
   X309.872      Y178.724   
   X309.723      Y178.530   
   X309.529      Y178.381   
   X309.303      Y178.288   
   X308.959      Y178.243   
   X288.162   
   X287.818      Y178.288   
   X287.592      Y178.381   
   X287.398      Y178.530   
   X287.249      Y178.724   
   X287.156      Y178.950   
   X287.124      Y179.193   
   X287.156      Y179.435   
   X287.249      Y179.661   
   X287.398      Y179.855   
   X287.592      Y180.004   
   X287.818      Y180.097   
   X288.162      Y180.143   
(Pass: 4)
   Z1.200     
   X308.959   
   X309.303      Y180.097   
   X309.529      Y180.004   
   X309.723      Y179.855   
   X309.872      Y179.661   
   X309.965      Y179.435   
   X309.997      Y179.193   
   X309.965      Y178.950   
   X309.872      Y178.724   
   X309.723      Y178.530   
   X309.529      Y178.381   
   X309.303      Y178.288   
   X308.959      Y178.243   
   X288.162   
   X287.818      Y178.288   
   X287.592      Y178.381   
   X287.398      Y178.530   
   X287.249      Y178.724   
   X287.156      Y178.950   
   X287.124      Y179.193   
   X287.156      Y179.435   
   X287.249      Y179.661   
   X287.398      Y179.855   
   X287.592      Y180.004   
   X287.818      Y180.097   
   X288.162      Y180.143   
(Pass: 5)
   Z0.700     
   X308.959   
   X309.303      Y180.097   
   X309.529      Y180.004   
   X309.723      Y179.855   
   X309.872      Y179.661   
   X309.965      Y179.435   
   X309.997      Y179.193   
   X309.965      Y178.950   
   X309.872      Y178.724   
   X309.723      Y178.530   
   X309.529      Y178.381   
   X309.303      Y178.288   
   X308.959      Y178.243   
   X288.162   
   X287.818      Y178.288   
   X287.592      Y178.381   
   X287.398      Y178.530   
   X287.249      Y178.724   
   X287.156      Y178.950   
   X287.124      Y179.193   
   X287.156      Y179.435   
   X287.249      Y179.661   
   X287.398      Y179.855   
   X287.592      Y180.004   
   X287.818      Y180.097   
   X288.162      Y180.143   
(Pass: 6)
   Z0.200     
   X308.959   
   X309.303      Y180.097   
   X309.529      Y180.004   
   X309.723      Y179.855   
   X309.872      Y179.661   
   X309.965      Y179.435   
   X309.997      Y179.193   
   X309.965      Y178.950   
   X309.872      Y178.724   
   X309.723      Y178.530   
   X309.529      Y178.381   
   X309.303      Y178.288   
   X308.959      Y178.243   
   X288.162   
   X287.818      Y178.288   
   X287.592      Y178.381   
   X287.398      Y178.530   
   X287.249      Y178.724   
   X287.156      Y178.950   
   X287.124      Y179.193   
   X287.156      Y179.435   
   X287.249      Y179.661   
   X287.398      Y179.855   
   X287.592      Y180.004   
   X287.818      Y180.097   
   X288.162      Y180.143   
(Pass: 7)
   Z-0.300    
   X308.959   
   X309.303      Y180.097   
   X309.529      Y180.004   
   X309.723      Y179.855   
   X309.872      Y179.661   
   X309.965      Y179.435   
   X309.997      Y179.193   
   X309.965      Y178.950   
   X309.872      Y178.724   
   X309.723      Y178.530   
   X309.529      Y178.381   
   X309.303      Y178.288   
   X308.959      Y178.243   
   X288.162   
   X287.818      Y178.288   
   X287.592      Y178.381   
   X287.398      Y178.530   
   X287.249      Y178.724   
   X287.156      Y178.950   
   X287.124      Y179.193   
   X287.156      Y179.435   
   X287.249      Y179.661   
   X287.398      Y179.855   
   X287.592      Y180.004   
   X287.818      Y180.097   
   X288.162      Y180.143   
(Pass: 8)
   Z-0.480    
   X308.959   
   X309.303      Y180.097   
   X309.529      Y180.004   
   X309.723      Y179.855   
   X309.872      Y179.661   
   X309.965      Y179.435   
   X309.997      Y179.193   
   X309.965      Y178.950   
   X309.872      Y178.724   
   X309.723      Y178.530   
   X309.529      Y178.381   
   X309.303      Y178.288   
   X308.959      Y178.243   
   X288.162   
   X287.818      Y178.288   
   X287.592      Y178.381   
   X287.398      Y178.530   
   X287.249      Y178.724   
   X287.156      Y178.950   
   X287.124      Y179.193   
   X287.156      Y179.435   
   X287.249      Y179.661   
   X287.398      Y179.855   
   X287.592      Y180.004   
   X287.818      Y180.097   
   X288.162      Y180.143   
(BREAK pass 8)
G0   Z18.200    
(Pass: 1)
   X296.826      Y166.319   
G1   Z2.700      F200 
   X297.028      Y166.474   
   X297.264      Y166.572   
   X297.517      Y166.605   
   X297.769      Y166.572   
   X298.005      Y166.474   
   X298.207      Y166.319   
   X298.362      Y166.117   
   X298.460      Y165.881   
   X298.507      Y165.527   
   Y156.730   
   X298.460      Y156.376   
   X298.362      Y156.140   
   X298.207      Y155.938   
   X298.005      Y155.783   
   X297.769      Y155.685   
   X297.517      Y155.652   
   X297.264      Y155.685   
   X297.028      Y155.783   
   X296.826      Y155.938   
   X296.671      Y156.140   
   X296.573      Y156.376   
   X296.527      Y156.730   
   Y165.527   
   X296.573      Y165.881   
   X296.671      Y166.117   
   X296.826      Y166.319   
(Pass: 2)
   Z2.200     
   X297.028      Y166.474   
   X297.264      Y166.572   
   X297.517      Y166.605   
   X297.769      Y166.572   
   X298.005      Y166.474   
   X298.207      Y166.319   
   X298.362      Y166.117   
   X298.460      Y165.881   
   X298.507      Y165.527   
   Y156.730   
   X298.460      Y156.376   
   X298.362      Y156.140   
   X298.207      Y155.938   
   X298.005      Y155.783   
   X297.769      Y155.685   
   X297.517      Y155.652   
   X297.264      Y155.685   
   X297.028      Y155.783   
   X296.826      Y155.938   
   X296.671      Y156.140   
   X296.573      Y156.376   
   X296.527      Y156.730   
   Y165.527   
   X296.573      Y165.881   
   X296.671      Y166.117   
   X296.826      Y166.319   
(Pass: 3)
   Z1.700     
   X297.028      Y166.474   
   X297.264      Y166.572   
   X297.517      Y166.605   
   X297.769      Y166.572   
   X298.005      Y166.474   
   X298.207      Y166.319   
   X298.362      Y166.117   
   X298.460      Y165.881   
   X298.507      Y165.527   
   Y156.730   
   X298.460      Y156.376   
   X298.362      Y156.140   
   X298.207      Y155.938   
   X298.005      Y155.783   
   X297.769      Y155.685   
   X297.517      Y155.652   
   X297.264      Y155.685   
   X297.028      Y155.783   
   X296.826      Y155.938   
   X296.671      Y156.140   
   X296.573      Y156.376   
   X296.527      Y156.730   
   Y165.527   
   X296.573      Y165.881   
   X296.671      Y166.117   
   X296.826      Y166.319   
(Pass: 4)
   Z1.200     
   X297.028      Y166.474   
   X297.264      Y166.572   
   X297.517      Y166.605   
   X297.769      Y166.572   
   X298.005      Y166.474   
   X298.207      Y166.319   
   X298.362      Y166.117   
   X298.460      Y165.881   
   X298.507      Y165.527   
   Y156.730   
   X298.460      Y156.376   
   X298.362      Y156.140   
   X298.207      Y155.938   
   X298.005      Y155.783   
   X297.769      Y155.685   
   X297.517      Y155.652   
   X297.264      Y155.685   
   X297.028      Y155.783   
   X296.826      Y155.938   
   X296.671      Y156.140   
   X296.573      Y156.376   
   X296.527      Y156.730   
   Y165.527   
   X296.573      Y165.881   
   X296.671      Y166.117   
   X296.826      Y166.319   
(Pass: 5)
   Z0.700     
   X297.028      Y166.474   
   X297.264      Y166.572   
   X297.517      Y166.605   
   X297.769      Y166.572   
   X298.005      Y166.474   
   X298.207      Y166.319   
   X298.362      Y166.117   
   X298.460      Y165.881   
   X298.507      Y165.527   
   Y156.730   
   X298.460      Y156.376   
   X298.362      Y156.140   
   X298.207      Y155.938   
   X298.005      Y155.783   
   X297.769      Y155.685   
   X297.517      Y155.652   
   X297.264      Y155.685   
   X297.028      Y155.783   
   X296.826      Y155.938   
   X296.671      Y156.140   
   X296.573      Y156.376   
   X296.527      Y156.730   
   Y165.527   
   X296.573      Y165.881   
   X296.671      Y166.117   
   X296.826      Y166.319   
(Pass: 6)
   Z0.200     
   X297.028      Y166.474   
   X297.264      Y166.572   
   X297.517      Y166.605   
   X297.769      Y166.572   
   X298.005      Y166.474   
   X298.207      Y166.319   
   X298.362      Y166.117   
   X298.460      Y165.881   
   X298.507      Y165.527   
   Y156.730   
   X298.460      Y156.376   
   X298.362      Y156.140   
   X298.207      Y155.938   
   X298.005      Y155.783   
   X297.769      Y155.685   
   X297.517      Y155.652   
   X297.264      Y155.685   
   X297.028      Y155.783   
   X296.826      Y155.938   
   X296.671      Y156.140   
   X296.573      Y156.376   
   X296.527      Y156.730   
   Y165.527   
   X296.573      Y165.881   
   X296.671      Y166.117   
   X296.826      Y166.319   
(Pass: 7)
   Z-0.300    
   X297.028      Y166.474   
   X297.264      Y166.572   
   X297.517      Y166.605   
   X297.769      Y166.572   
   X298.005      Y166.474   
   X298.207      Y166.319   
   X298.362      Y166.117   
   X298.460      Y165.881   
   X298.507      Y165.527   
   Y156.730   
   X298.460      Y156.376   
   X298.362      Y156.140   
   X298.207      Y155.938   
   X298.005      Y155.783   
   X297.769      Y155.685   
   X297.517      Y155.652   
   X297.264      Y155.685   
   X297.028      Y155.783   
   X296.826      Y155.938   
   X296.671      Y156.140   
   X296.573      Y156.376   
   X296.527      Y156.730   
   Y165.527   
   X296.573      Y165.881   
   X296.671      Y166.117   
   X296.826      Y166.319   
(Pass: 8)
   Z-0.480    
   X297.028      Y166.474   
   X297.264      Y166.572   
   X297.517      Y166.605   
   X297.769      Y166.572   
   X298.005      Y166.474   
   X298.207      Y166.319   
   X298.362      Y166.117   
   X298.460      Y165.881   
   X298.507      Y165.527   
   Y156.730   
   X298.460      Y156.376   
   X298.362      Y156.140   
   X298.207      Y155.938   
   X298.005      Y155.783   
   X297.769      Y155.685   
   X297.517      Y155.652   
   X297.264      Y155.685   
   X297.028      Y155.783   
   X296.826      Y155.938   
   X296.671      Y156.140   
   X296.573      Y156.376   
   X296.527      Y156.730   
   Y165.527   
   X296.573      Y165.881   
   X296.671      Y166.117   
   X296.826      Y166.319   
(BREAK pass 8)
G0   Z18.200    
(Pass: 1)
   X313.415      Y150.232   
G1   Z2.700      F200 
   X315.680      Y151.970   
   X318.318      Y153.063   
   X321.149      Y153.435   
   X323.979      Y153.063   
   X326.617      Y151.970   
   X328.882      Y150.232   
   X330.620      Y147.967   
   X331.712      Y145.329   
   X332.099      Y142.397   
   Y132.600   
   X331.712      Y129.668   
   X330.620      Y127.030   
   X328.882      Y124.765   
   X326.617      Y123.027   
   X323.979      Y121.935   
   X321.149      Y121.562   
   X318.318      Y121.935   
   X315.680      Y123.027   
   X313.415      Y124.765   
   X311.677      Y127.030   
   X310.585      Y129.668   
   X310.199      Y132.600   
   Y142.397   
   X310.585      Y145.329   
   X311.677      Y147.967   
   X313.415      Y150.232   
(Pass: 2)
   Z2.200     
   X315.680      Y151.970   
   X318.318      Y153.063   
   X321.149      Y153.435   
   X323.979      Y153.063   
   X326.617      Y151.970   
   X328.882      Y150.232   
   X330.620      Y147.967   
   X331.712      Y145.329   
   X332.099      Y142.397   
   Y132.600   
   X331.712      Y129.668   
   X330.620      Y127.030   
   X328.882      Y124.765   
   X326.617      Y123.027   
   X323.979      Y121.935   
   X321.149      Y121.562   
   X318.318      Y121.935   
   X315.680      Y123.027   
   X313.415      Y124.765   
   X311.677      Y127.030   
   X310.585      Y129.668   
   X310.199      Y132.600   
   Y142.397   
   X310.585      Y145.329   
   X311.677      Y147.967   
   X313.415      Y150.232   
(Pass: 3)
   Z1.700     
   X315.680      Y151.970   
   X318.318      Y153.063   
   X321.149      Y153.435   
   X323.979      Y153.063   
   X326.617      Y151.970   
   X328.882      Y150.232   
   X330.620      Y147.967   
   X331.712      Y145.329   
   X332.099      Y142.397   
   Y132.600   
   X331.712      Y129.668   
   X330.620      Y127.030   
   X328.882      Y124.765   
   X326.617      Y123.027   
   X323.979      Y121.935   
   X321.149      Y121.562   
   X318.318      Y121.935   
   X315.680      Y123.027   
   X313.415      Y124.765   
   X311.677      Y127.030   
   X310.585      Y129.668   
   X310.199      Y132.600   
   Y142.397   
   X310.585      Y145.329   
   X311.677      Y147.967   
   X313.415      Y150.232   
(Pass: 4)
   Z1.200     
   X315.680      Y151.970   
   X318.318      Y153.063   
   X321.149      Y153.435   
   X323.979      Y153.063   
   X326.617      Y151.970   
   X328.882      Y150.232   
   X330.620      Y147.967   
   X331.712      Y145.329   
   X332.099      Y142.397   
   Y132.600   
   X331.712      Y129.668   
   X330.620      Y127.030   
   X328.882      Y124.765   
   X326.617      Y123.027   
   X323.979      Y121.935   
   X321.149      Y121.562   
   X318.318      Y121.935   
   X315.680      Y123.027   
   X313.415      Y124.765   
   X311.677      Y127.030   
   X310.585      Y129.668   
   X310.199      Y132.600   
   Y142.397   
   X310.585      Y145.329   
   X311.677      Y147.967   
   X313.415      Y150.232   
(Pass: 5)
   Z0.700     
   X315.680      Y151.970   
   X318.318      Y153.063   
   X321.149      Y153.435   
   X323.979      Y153.063   
   X326.617      Y151.970   
   X328.882      Y150.232   
   X330.620      Y147.967   
   X331.712      Y145.329   
   X332.099      Y142.397   
   Y132.600   
   X331.712      Y129.668   
   X330.620      Y127.030   
   X328.882      Y124.765   
   X326.617      Y123.027   
   X323.979      Y121.935   
   X321.149      Y121.562   
   X318.318      Y121.935   
   X315.680      Y123.027   
   X313.415      Y124.765   
   X311.677      Y127.030   
   X310.585      Y129.668   
   X310.199      Y132.600   
   Y142.397   
   X310.585      Y145.329   
   X311.677      Y147.967   
   X313.415      Y150.232   
(Pass: 6)
   Z0.200     
   X315.680      Y151.970   
   X318.318      Y153.063   
   X321.149      Y153.435   
   X323.979      Y153.063   
   X326.617      Y151.970   
   X328.882      Y150.232   
   X330.620      Y147.967   
   X331.712      Y145.329   
   X332.099      Y142.397   
   Y132.600   
   X331.712      Y129.668   
   X330.620      Y127.030   
   X328.882      Y124.765   
   X326.617      Y123.027   
   X323.979      Y121.935   
   X321.149      Y121.562   
   X318.318      Y121.935   
   X315.680      Y123.027   
   X313.415      Y124.765   
   X311.677      Y127.030   
   X310.585      Y129.668   
   X310.199      Y132.600   
   Y142.397   
   X310.585      Y145.329   
   X311.677      Y147.967   
   X313.415      Y150.232   
(Pass: 7)
   Z-0.300    
   X315.680      Y151.970   
   X318.318      Y153.063   
   X321.149      Y153.435   
   X323.979      Y153.063   
   X326.617      Y151.970   
   X328.882      Y150.232   
   X330.620      Y147.967   
   X331.712      Y145.329   
   X332.099      Y142.397   
   Y132.600   
   X331.712      Y129.668   
   X330.620      Y127.030   
   X328.882      Y124.765   
   X326.617      Y123.027   
   X323.979      Y121.935   
   X321.149      Y121.562   
   X318.318      Y121.935   
   X315.680      Y123.027   
   X313.415      Y124.765   
   X311.677      Y127.030   
   X310.585      Y129.668   
   X310.199      Y132.600   
   Y142.397   
   X310.585      Y145.329   
   X311.677      Y147.967   
   X313.415      Y150.232   
(Pass: 8)
   Z-0.480    
   X315.680      Y151.970   
   X318.318      Y153.063   
   X321.149      Y153.435   
   X323.979      Y153.063   
   X326.617      Y151.970   
   X328.882      Y150.232   
   X330.620      Y147.967   
   X331.712      Y145.329   
   X332.099      Y142.397   
   Y132.600   
   X331.712      Y129.668   
   X330.620      Y127.030   
   X328.882      Y124.765   
   X326.617      Y123.027   
   X323.979      Y121.935   
   X321.149      Y121.562   
   X318.318      Y121.935   
   X315.680      Y123.027   
   X313.415      Y124.765   
   X311.677      Y127.030   
   X310.585      Y129.668   
   X310.199      Y132.600   
   Y142.397   
   X310.585      Y145.329   
   X311.677      Y147.967   
   X313.415      Y150.232   
(BREAK pass 8)
G0   Z18.200    
(Pass: 1)
   X297.769      Y119.328   
G1   Z2.700      F200 
   X298.005      Y119.230   
   X298.207      Y119.075   
   X298.362      Y118.873   
   X298.460      Y118.637   
   X298.507      Y118.283   
   Y109.486   
   X298.460      Y109.132   
   X298.362      Y108.896   
   X298.207      Y108.694   
   X298.005      Y108.539   
   X297.769      Y108.441   
   X297.517      Y108.408   
   X297.264      Y108.441   
   X297.028      Y108.539   
   X296.826      Y108.694   
   X296.671      Y108.896   
   X296.573      Y109.132   
   X296.527      Y109.486   
   Y118.283   
   X296.573      Y118.637   
   X296.671      Y118.873   
   X296.826      Y119.075   
   X297.028      Y119.230   
   X297.264      Y119.328   
   X297.517      Y119.361   
   X297.769      Y119.328   
(Pass: 2)
   Z2.200     
   X298.005      Y119.230   
   X298.207      Y119.075   
   X298.362      Y118.873   
   X298.460      Y118.637   
   X298.507      Y118.283   
   Y109.486   
   X298.460      Y109.132   
   X298.362      Y108.896   
   X298.207      Y108.694   
   X298.005      Y108.539   
   X297.769      Y108.441   
   X297.517      Y108.408   
   X297.264      Y108.441   
   X297.028      Y108.539   
   X296.826      Y108.694   
   X296.671      Y108.896   
   X296.573      Y109.132   
   X296.527      Y109.486   
   Y118.283   
   X296.573      Y118.637   
   X296.671      Y118.873   
   X296.826      Y119.075   
   X297.028      Y119.230   
   X297.264      Y119.328   
   X297.517      Y119.361   
   X297.769      Y119.328   
(Pass: 3)
   Z1.700     
   X298.005      Y119.230   
   X298.207      Y119.075   
   X298.362      Y118.873   
   X298.460      Y118.637   
   X298.507      Y118.283   
   Y109.486   
   X298.460      Y109.132   
   X298.362      Y108.896   
   X298.207      Y108.694   
   X298.005      Y108.539   
   X297.769      Y108.441   
   X297.517      Y108.408   
   X297.264      Y108.441   
   X297.028      Y108.539   
   X296.826      Y108.694   
   X296.671      Y108.896   
   X296.573      Y109.132   
   X296.527      Y109.486   
   Y118.283   
   X296.573      Y118.637   
   X296.671      Y118.873   
   X296.826      Y119.075   
   X297.028      Y119.230   
   X297.264      Y119.328   
   X297.517      Y119.361   
   X297.769      Y119.328   
(Pass: 4)
   Z1.200     
   X298.005      Y119.230   
   X298.207      Y119.075   
   X298.362      Y118.873   
   X298.460      Y118.637   
   X298.507      Y118.283   
   Y109.486   
   X298.460      Y109.132   
   X298.362      Y108.896   
   X298.207      Y108.694   
   X298.005      Y108.539   
   X297.769      Y108.441   
   X297.517      Y108.408   
   X297.264      Y108.441   
   X297.028      Y108.539   
   X296.826      Y108.694   
   X296.671      Y108.896   
   X296.573      Y109.132   
   X296.527      Y109.486   
   Y118.283   
   X296.573      Y118.637   
   X296.671      Y118.873   
   X296.826      Y119.075   
   X297.028      Y119.230   
   X297.264      Y119.328   
   X297.517      Y119.361   
   X297.769      Y119.328   
(Pass: 5)
   Z0.700     
   X298.005      Y119.230   
   X298.207      Y119.075   
   X298.362      Y118.873   
   X298.460      Y118.637   
   X298.507      Y118.283   
   Y109.486   
   X298.460      Y109.132   
   X298.362      Y108.896   
   X298.207      Y108.694   
   X298.005      Y108.539   
   X297.769      Y108.441   
   X297.517      Y108.408   
   X297.264      Y108.441   
   X297.028      Y108.539   
   X296.826      Y108.694   
   X296.671      Y108.896   
   X296.573      Y109.132   
   X296.527      Y109.486   
   Y118.283   
   X296.573      Y118.637   
   X296.671      Y118.873   
   X296.826      Y119.075   
   X297.028      Y119.230   
   X297.264      Y119.328   
   X297.517      Y119.361   
   X297.769      Y119.328   
(Pass: 6)
   Z0.200     
   X298.005      Y119.230   
   X298.207      Y119.075   
   X298.362      Y118.873   
   X298.460      Y118.637   
   X298.507      Y118.283   
   Y109.486   
   X298.460      Y109.132   
   X298.362      Y108.896   
   X298.207      Y108.694   
   X298.005      Y108.539   
   X297.769      Y108.441   
   X297.517      Y108.408   
   X297.264      Y108.441   
   X297.028      Y108.539   
   X296.826      Y108.694   
   X296.671      Y108.896   
   X296.573      Y109.132   
   X296.527      Y109.486   
   Y118.283   
   X296.573      Y118.637   
   X296.671      Y118.873   
   X296.826      Y119.075   
   X297.028      Y119.230   
   X297.264      Y119.328   
   X297.517      Y119.361   
   X297.769      Y119.328   
(Pass: 7)
   Z-0.300    
   X298.005      Y119.230   
   X298.207      Y119.075   
   X298.362      Y118.873   
   X298.460      Y118.637   
   X298.507      Y118.283   
   Y109.486   
   X298.460      Y109.132   
   X298.362      Y108.896   
   X298.207      Y108.694   
   X298.005      Y108.539   
   X297.769      Y108.441   
   X297.517      Y108.408   
   X297.264      Y108.441   
   X297.028      Y108.539   
   X296.826      Y108.694   
   X296.671      Y108.896   
   X296.573      Y109.132   
   X296.527      Y109.486   
   Y118.283   
   X296.573      Y118.637   
   X296.671      Y118.873   
   X296.826      Y119.075   
   X297.028      Y119.230   
   X297.264      Y119.328   
   X297.517      Y119.361   
   X297.769      Y119.328   
(Pass: 8)
   Z-0.480    
   X298.005      Y119.230   
   X298.207      Y119.075   
   X298.362      Y118.873   
   X298.460      Y118.637   
   X298.507      Y118.283   
   Y109.486   
   X298.460      Y109.132   
   X298.362      Y108.896   
   X298.207      Y108.694   
   X298.005      Y108.539   
   X297.769      Y108.441   
   X297.517      Y108.408   
   X297.264      Y108.441   
   X297.028      Y108.539   
   X296.826      Y108.694   
   X296.671      Y108.896   
   X296.573      Y109.132   
   X296.527      Y109.486   
   Y118.283   
   X296.573      Y118.637   
   X296.671      Y118.873   
   X296.826      Y119.075   
   X297.028      Y119.230   
   X297.264      Y119.328   
   X297.517      Y119.361   
   X297.769      Y119.328   
(BREAK pass 8)
G0   Z18.200    
(Pass: 1)
   X286.713      Y121.962   
G1   Z2.700      F200 
   X286.620      Y121.736   
   X286.471      Y121.542   
   X286.277      Y121.393   
   X286.051      Y121.299   
   X285.809      Y121.267   
   X285.566      Y121.299   
   X285.340      Y121.393   
   X285.146      Y121.542   
   X284.997      Y121.736   
   X284.904      Y121.962   
   X284.872      Y122.204   
   X284.904      Y122.446   
   X284.997      Y122.672   
   X285.146      Y122.866   
   X285.340      Y123.015   
   X285.566      Y123.109   
   X285.809      Y123.141   
   X286.051      Y123.109   
   X286.277      Y123.015   
   X286.471      Y122.866   
   X286.620      Y122.672   
   X286.713      Y122.446   
   X286.745      Y122.204   
   X286.713      Y121.962   
(Pass: 2)
   Z2.200     
   X286.620      Y121.736   
   X286.471      Y121.542   
   X286.277      Y121.393   
   X286.051      Y121.299   
   X285.809      Y121.267   
   X285.566      Y121.299   
   X285.340      Y121.393   
   X285.146      Y121.542   
   X284.997      Y121.736   
   X284.904      Y121.962   
   X284.872      Y122.204   
   X284.904      Y122.446   
   X284.997      Y122.672   
   X285.146      Y122.866   
   X285.340      Y123.015   
   X285.566      Y123.109   
   X285.809      Y123.141   
   X286.051      Y123.109   
   X286.277      Y123.015   
   X286.471      Y122.866   
   X286.620      Y122.672   
   X286.713      Y122.446   
   X286.745      Y122.204   
   X286.713      Y121.962   
(Pass: 3)
   Z1.700     
   X286.620      Y121.736   
   X286.471      Y121.542   
   X286.277      Y121.393   
   X286.051      Y121.299   
   X285.809      Y121.267   
   X285.566      Y121.299   
   X285.340      Y121.393   
   X285.146      Y121.542   
   X284.997      Y121.736   
   X284.904      Y121.962   
   X284.872      Y122.204   
   X284.904      Y122.446   
   X284.997      Y122.672   
   X285.146      Y122.866   
   X285.340      Y123.015   
   X285.566      Y123.109   
   X285.809      Y123.141   
   X286.051      Y123.109   
   X286.277      Y123.015   
   X286.471      Y122.866   
   X286.620      Y122.672   
   X286.713      Y122.446   
   X286.745      Y122.204   
   X286.713      Y121.962   
(Pass: 4)
   Z1.200     
   X286.620      Y121.736   
   X286.471      Y121.542   
   X286.277      Y121.393   
   X286.051      Y121.299   
   X285.809      Y121.267   
   X285.566      Y121.299   
   X285.340      Y121.393   
   X285.146      Y121.542   
   X284.997      Y121.736   
   X284.904      Y121.962   
   X284.872      Y122.204   
   X284.904      Y122.446   
   X284.997      Y122.672   
   X285.146      Y122.866   
   X285.340      Y123.015   
   X285.566      Y123.109   
   X285.809      Y123.141   
   X286.051      Y123.109   
   X286.277      Y123.015   
   X286.471      Y122.866   
   X286.620      Y122.672   
   X286.713      Y122.446   
   X286.745      Y122.204   
   X286.713      Y121.962   
(Pass: 5)
   Z0.700     
   X286.620      Y121.736   
   X286.471      Y121.542   
   X286.277      Y121.393   
   X286.051      Y121.299   
   X285.809      Y121.267   
   X285.566      Y121.299   
   X285.340      Y121.393   
   X285.146      Y121.542   
   X284.997      Y121.736   
   X284.904      Y121.962   
   X284.872      Y122.204   
   X284.904      Y122.446   
   X284.997      Y122.672   
   X285.146      Y122.866   
   X285.340      Y123.015   
   X285.566      Y123.109   
   X285.809      Y123.141   
   X286.051      Y123.109   
   X286.277      Y123.015   
   X286.471      Y122.866   
   X286.620      Y122.672   
   X286.713      Y122.446   
   X286.745      Y122.204   
   X286.713      Y121.962   
(Pass: 6)
   Z0.200     
   X286.620      Y121.736   
   X286.471      Y121.542   
   X286.277      Y121.393   
   X286.051      Y121.299   
   X285.809      Y121.267   
   X285.566      Y121.299   
   X285.340      Y121.393   
   X285.146      Y121.542   
   X284.997      Y121.736   
   X284.904      Y121.962   
   X284.872      Y122.204   
   X284.904      Y122.446   
   X284.997      Y122.672   
   X285.146      Y122.866   
   X285.340      Y123.015   
   X285.566      Y123.109   
   X285.809      Y123.141   
   X286.051      Y123.109   
   X286.277      Y123.015   
   X286.471      Y122.866   
   X286.620      Y122.672   
   X286.713      Y122.446   
   X286.745      Y122.204   
   X286.713      Y121.962   
(Pass: 7)
   Z-0.300    
   X286.620      Y121.736   
   X286.471      Y121.542   
   X286.277      Y121.393   
   X286.051      Y121.299   
   X285.809      Y121.267   
   X285.566      Y121.299   
   X285.340      Y121.393   
   X285.146      Y121.542   
   X284.997      Y121.736   
   X284.904      Y121.962   
   X284.872      Y122.204   
   X284.904      Y122.446   
   X284.997      Y122.672   
   X285.146      Y122.866   
   X285.340      Y123.015   
   X285.566      Y123.109   
   X285.809      Y123.141   
   X286.051      Y123.109   
   X286.277      Y123.015   
   X286.471      Y122.866   
   X286.620      Y122.672   
   X286.713      Y122.446   
   X286.745      Y122.204   
   X286.713      Y121.962   
(Pass: 8)
   Z-0.480    
   X286.620      Y121.736   
   X286.471      Y121.542   
   X286.277      Y121.393   
   X286.051      Y121.299   
   X285.809      Y121.267   
   X285.566      Y121.299   
   X285.340      Y121.393   
   X285.146      Y121.542   
   X284.997      Y121.736   
   X284.904      Y121.962   
   X284.872      Y122.204   
   X284.904      Y122.446   
   X284.997      Y122.672   
   X285.146      Y122.866   
   X285.340      Y123.015   
   X285.566      Y123.109   
   X285.809      Y123.141   
   X286.051      Y123.109   
   X286.277      Y123.015   
   X286.471      Y122.866   
   X286.620      Y122.672   
   X286.713      Y122.446   
   X286.745      Y122.204   
   X286.713      Y121.962   
(BREAK pass 8)
G0   Z18.200    
(Pass: 1)
   X343.770      Y118.283   
G1   Z2.700      F200 
   X343.817      Y118.637   
   X343.915      Y118.873   
   X344.070      Y119.075   
   X344.272      Y119.230   
   X344.508      Y119.328   
   X344.760      Y119.361   
   X345.013      Y119.328   
   X345.249      Y119.230   
   X345.451      Y119.075   
   X345.606      Y118.873   
   X345.704      Y118.637   
   X345.750      Y118.283   
   Y109.486   
   X345.704      Y109.132   
   X345.606      Y108.896   
   X345.451      Y108.694   
   X345.249      Y108.539   
   X345.013      Y108.441   
   X344.760      Y108.408   
   X344.508      Y108.441   
   X344.272      Y108.539   
   X344.070      Y108.694   
   X343.915      Y108.896   
   X343.817      Y109.132   
   X343.770      Y109.486   
   Y118.283   
(Pass: 2)
   Z2.200     
   X343.817      Y118.637   
   X343.915      Y118.873   
   X344.070      Y119.075   
   X344.272      Y119.230   
   X344.508      Y119.328   
   X344.760      Y119.361   
   X345.013      Y119.328   
   X345.249      Y119.230   
   X345.451      Y119.075   
   X345.606      Y118.873   
   X345.704      Y118.637   
   X345.750      Y118.283   
   Y109.486   
   X345.704      Y109.132   
   X345.606      Y108.896   
   X345.451      Y108.694   
   X345.249      Y108.539   
   X345.013      Y108.441   
   X344.760      Y108.408   
   X344.508      Y108.441   
   X344.272      Y108.539   
   X344.070      Y108.694   
   X343.915      Y108.896   
   X343.817      Y109.132   
   X343.770      Y109.486   
   Y118.283   
(Pass: 3)
   Z1.700     
   X343.817      Y118.637   
   X343.915      Y118.873   
   X344.070      Y119.075   
   X344.272      Y119.230   
   X344.508      Y119.328   
   X344.760      Y119.361   
   X345.013      Y119.328   
   X345.249      Y119.230   
   X345.451      Y119.075   
   X345.606      Y118.873   
   X345.704      Y118.637   
   X345.750      Y118.283   
   Y109.486   
   X345.704      Y109.132   
   X345.606      Y108.896   
   X345.451      Y108.694   
   X345.249      Y108.539   
   X345.013      Y108.441   
   X344.760      Y108.408   
   X344.508      Y108.441   
   X344.272      Y108.539   
   X344.070      Y108.694   
   X343.915      Y108.896   
   X343.817      Y109.132   
   X343.770      Y109.486   
   Y118.283   
(Pass: 4)
   Z1.200     
   X343.817      Y118.637   
   X343.915      Y118.873   
   X344.070      Y119.075   
   X344.272      Y119.230   
   X344.508      Y119.328   
   X344.760      Y119.361   
   X345.013      Y119.328   
   X345.249      Y119.230   
   X345.451      Y119.075   
   X345.606      Y118.873   
   X345.704      Y118.637   
   X345.750      Y118.283   
   Y109.486   
   X345.704      Y109.132   
   X345.606      Y108.896   
   X345.451      Y108.694   
   X345.249      Y108.539   
   X345.013      Y108.441   
   X344.760      Y108.408   
   X344.508      Y108.441   
   X344.272      Y108.539   
   X344.070      Y108.694   
   X343.915      Y108.896   
   X343.817      Y109.132   
   X343.770      Y109.486   
   Y118.283   
(Pass: 5)
   Z0.700     
   X343.817      Y118.637   
   X343.915      Y118.873   
   X344.070      Y119.075   
   X344.272      Y119.230   
   X344.508      Y119.328   
   X344.760      Y119.361   
   X345.013      Y119.328   
   X345.249      Y119.230   
   X345.451      Y119.075   
   X345.606      Y118.873   
   X345.704      Y118.637   
   X345.750      Y118.283   
   Y109.486   
   X345.704      Y109.132   
   X345.606      Y108.896   
   X345.451      Y108.694   
   X345.249      Y108.539   
   X345.013      Y108.441   
   X344.760      Y108.408   
   X344.508      Y108.441   
   X344.272      Y108.539   
   X344.070      Y108.694   
   X343.915      Y108.896   
   X343.817      Y109.132   
   X343.770      Y109.486   
   Y118.283   
(Pass: 6)
   Z0.200     
   X343.817      Y118.637   
   X343.915      Y118.873   
   X344.070      Y119.075   
   X344.272      Y119.230   
   X344.508      Y119.328   
   X344.760      Y119.361   
   X345.013      Y119.328   
   X345.249      Y119.230   
   X345.451      Y119.075   
   X345.606      Y118.873   
   X345.704      Y118.637   
   X345.750      Y118.283   
   Y109.486   
   X345.704      Y109.132   
   X345.606      Y108.896   
   X345.451      Y108.694   
   X345.249      Y108.539   
   X345.013      Y108.441   
   X344.760      Y108.408   
   X344.508      Y108.441   
   X344.272      Y108.539   
   X344.070      Y108.694   
   X343.915      Y108.896   
   X343.817      Y109.132   
   X343.770      Y109.486   
   Y118.283   
(Pass: 7)
   Z-0.300    
   X343.817      Y118.637   
   X343.915      Y118.873   
   X344.070      Y119.075   
   X344.272      Y119.230   
   X344.508      Y119.328   
   X344.760      Y119.361   
   X345.013      Y119.328   
   X345.249      Y119.230   
   X345.451      Y119.075   
   X345.606      Y118.873   
   X345.704      Y118.637   
   X345.750      Y118.283   
   Y109.486   
   X345.704      Y109.132   
   X345.606      Y108.896   
   X345.451      Y108.694   
   X345.249      Y108.539   
   X345.013      Y108.441   
   X344.760      Y108.408   
   X344.508      Y108.441   
   X344.272      Y108.539   
   X344.070      Y108.694   
   X343.915      Y108.896   
   X343.817      Y109.132   
   X343.770      Y109.486   
   Y118.283   
(Pass: 8)
   Z-0.480    
   X343.817      Y118.637   
   X343.915      Y118.873   
   X344.070      Y119.075   
   X344.272      Y119.230   
   X344.508      Y119.328   
   X344.760      Y119.361   
   X345.013      Y119.328   
   X345.249      Y119.230   
   X345.451      Y119.075   
   X345.606      Y118.873   
   X345.704      Y118.637   
   X345.750      Y118.283   
   Y109.486   
   X345.704      Y109.132   
   X345.606      Y108.896   
   X345.451      Y108.694   
   X345.249      Y108.539   
   X345.013      Y108.441   
   X344.760      Y108.408   
   X344.508      Y108.441   
   X344.272      Y108.539   
   X344.070      Y108.694   
   X343.915      Y108.896   
   X343.817      Y109.132   
   X343.770      Y109.486   
   Y118.283   
(BREAK pass 8)
G0   Z18.200    
(Pass: 1)
   X355.637      Y121.736   
G1   Z2.700      F200 
   X355.544      Y121.962   
   X355.512      Y122.204   
   X355.544      Y122.446   
   X355.637      Y122.672   
   X355.786      Y122.866   
   X355.980      Y123.015   
   X356.206      Y123.109   
   X356.449      Y123.141   
   X356.691      Y123.109   
   X356.917      Y123.015   
   X357.111      Y122.866   
   X357.260      Y122.672   
   X357.353      Y122.446   
   X357.385      Y122.204   
   X357.353      Y121.962   
   X357.260      Y121.736   
   X357.111      Y121.542   
   X356.917      Y121.393   
   X356.691      Y121.299   
   X356.449      Y121.267   
   X356.206      Y121.299   
   X355.980      Y121.393   
   X355.786      Y121.542   
   X355.637      Y121.736   
(Pass: 2)
   Z2.200     
   X355.544      Y121.962   
   X355.512      Y122.204   
   X355.544      Y122.446   
   X355.637      Y122.672   
   X355.786      Y122.866   
   X355.980      Y123.015   
   X356.206      Y123.109   
   X356.449      Y123.141   
   X356.691      Y123.109   
   X356.917      Y123.015   
   X357.111      Y122.866   
   X357.260      Y122.672   
   X357.353      Y122.446   
   X357.385      Y122.204   
   X357.353      Y121.962   
   X357.260      Y121.736   
   X357.111      Y121.542   
   X356.917      Y121.393   
   X356.691      Y121.299   
   X356.449      Y121.267   
   X356.206      Y121.299   
   X355.980      Y121.393   
   X355.786      Y121.542   
   X355.637      Y121.736   
(Pass: 3)
   Z1.700     
   X355.544      Y121.962   
   X355.512      Y122.204   
   X355.544      Y122.446   
   X355.637      Y122.672   
   X355.786      Y122.866   
   X355.980      Y123.015   
   X356.206      Y123.109   
   X356.449      Y123.141   
   X356.691      Y123.109   
   X356.917      Y123.015   
   X357.111      Y122.866   
   X357.260      Y122.672   
   X357.353      Y122.446   
   X357.385      Y122.204   
   X357.353      Y121.962   
   X357.260      Y121.736   
   X357.111      Y121.542   
   X356.917      Y121.393   
   X356.691      Y121.299   
   X356.449      Y121.267   
   X356.206      Y121.299   
   X355.980      Y121.393   
   X355.786      Y121.542   
   X355.637      Y121.736   
(Pass: 4)
   Z1.200     
   X355.544      Y121.962   
   X355.512      Y122.204   
   X355.544      Y122.446   
   X355.637      Y122.672   
   X355.786      Y122.866   
   X355.980      Y123.015   
   X356.206      Y123.109   
   X356.449      Y123.141   
   X356.691      Y123.109   
   X356.917      Y123.015   
   X357.111      Y122.866   
   X357.260      Y122.672   
   X357.353      Y122.446   
   X357.385      Y122.204   
   X357.353      Y121.962   
   X357.260      Y121.736   
   X357.111      Y121.542   
   X356.917      Y121.393   
   X356.691      Y121.299   
   X356.449      Y121.267   
   X356.206      Y121.299   
   X355.980      Y121.393   
   X355.786      Y121.542   
   X355.637      Y121.736   
(Pass: 5)
   Z0.700     
   X355.544      Y121.962   
   X355.512      Y122.204   
   X355.544      Y122.446   
   X355.637      Y122.672   
   X355.786      Y122.866   
   X355.980      Y123.015   
   X356.206      Y123.109   
   X356.449      Y123.141   
   X356.691      Y123.109   
   X356.917      Y123.015   
   X357.111      Y122.866   
   X357.260      Y122.672   
   X357.353      Y122.446   
   X357.385      Y122.204   
   X357.353      Y121.962   
   X357.260      Y121.736   
   X357.111      Y121.542   
   X356.917      Y121.393   
   X356.691      Y121.299   
   X356.449      Y121.267   
   X356.206      Y121.299   
   X355.980      Y121.393   
   X355.786      Y121.542   
   X355.637      Y121.736   
(Pass: 6)
   Z0.200     
   X355.544      Y121.962   
   X355.512      Y122.204   
   X355.544      Y122.446   
   X355.637      Y122.672   
   X355.786      Y122.866   
   X355.980      Y123.015   
   X356.206      Y123.109   
   X356.449      Y123.141   
   X356.691      Y123.109   
   X356.917      Y123.015   
   X357.111      Y122.866   
   X357.260      Y122.672   
   X357.353      Y122.446   
   X357.385      Y122.204   
   X357.353      Y121.962   
   X357.260      Y121.736   
   X357.111      Y121.542   
   X356.917      Y121.393   
   X356.691      Y121.299   
   X356.449      Y121.267   
   X356.206      Y121.299   
   X355.980      Y121.393   
   X355.786      Y121.542   
   X355.637      Y121.736   
(Pass: 7)
   Z-0.300    
   X355.544      Y121.962   
   X355.512      Y122.204   
   X355.544      Y122.446   
   X355.637      Y122.672   
   X355.786      Y122.866   
   X355.980      Y123.015   
   X356.206      Y123.109   
   X356.449      Y123.141   
   X356.691      Y123.109   
   X356.917      Y123.015   
   X357.111      Y122.866   
   X357.260      Y122.672   
   X357.353      Y122.446   
   X357.385      Y122.204   
   X357.353      Y121.962   
   X357.260      Y121.736   
   X357.111      Y121.542   
   X356.917      Y121.393   
   X356.691      Y121.299   
   X356.449      Y121.267   
   X356.206      Y121.299   
   X355.980      Y121.393   
   X355.786      Y121.542   
   X355.637      Y121.736   
(Pass: 8)
   Z-0.480    
   X355.544      Y121.962   
   X355.512      Y122.204   
   X355.544      Y122.446   
   X355.637      Y122.672   
   X355.786      Y122.866   
   X355.980      Y123.015   
   X356.206      Y123.109   
   X356.449      Y123.141   
   X356.691      Y123.109   
   X356.917      Y123.015   
   X357.111      Y122.866   
   X357.260      Y122.672   
   X357.353      Y122.446   
   X357.385      Y122.204   
   X357.353      Y121.962   
   X357.260      Y121.736   
   X357.111      Y121.542   
   X356.917      Y121.393   
   X356.691      Y121.299   
   X356.449      Y121.267   
   X356.206      Y121.299   
   X355.980      Y121.393   
   X355.786      Y121.542   
   X355.637      Y121.736   
(BREAK pass 8)
G0   Z18.200    
(Pass: 1)
   X345.249      Y155.783   
G1   Z2.700      F200 
   X345.013      Y155.685   
   X344.760      Y155.652   
   X344.508      Y155.685   
   X344.272      Y155.783   
   X344.070      Y155.938   
   X343.915      Y156.140   
   X343.817      Y156.376   
   X343.770      Y156.730   
   Y165.527   
   X343.817      Y165.881   
   X343.915      Y166.117   
   X344.070      Y166.319   
   X344.272      Y166.474   
   X344.508      Y166.572   
   X344.760      Y166.605   
   X345.013      Y166.572   
   X345.249      Y166.474   
   X345.451      Y166.319   
   X345.606      Y166.117   
   X345.704      Y165.881   
   X345.750      Y165.527   
   Y156.730   
   X345.704      Y156.376   
   X345.606      Y156.140   
   X345.451      Y155.938   
   X345.249      Y155.783   
(Pass: 2)
   Z2.200     
   X345.013      Y155.685   
   X344.760      Y155.652   
   X344.508      Y155.685   
   X344.272      Y155.783   
   X344.070      Y155.938   
   X343.915      Y156.140   
   X343.817      Y156.376   
   X343.770      Y156.730   
   Y165.527   
   X343.817      Y165.881   
   X343.915      Y166.117   
   X344.070      Y166.319   
   X344.272      Y166.474   
   X344.508      Y166.572   
   X344.760      Y166.605   
   X345.013      Y166.572   
   X345.249      Y166.474   
   X345.451      Y166.319   
   X345.606      Y166.117   
   X345.704      Y165.881   
   X345.750      Y165.527   
   Y156.730   
   X345.704      Y156.376   
   X345.606      Y156.140   
   X345.451      Y155.938   
   X345.249      Y155.783   
(Pass: 3)
   Z1.700     
   X345.013      Y155.685   
   X344.760      Y155.652   
   X344.508      Y155.685   
   X344.272      Y155.783   
   X344.070      Y155.938   
   X343.915      Y156.140   
   X343.817      Y156.376   
   X343.770      Y156.730   
   Y165.527   
   X343.817      Y165.881   
   X343.915      Y166.117   
   X344.070      Y166.319   
   X344.272      Y166.474   
   X344.508      Y166.572   
   X344.760      Y166.605   
   X345.013      Y166.572   
   X345.249      Y166.474   
   X345.451      Y166.319   
   X345.606      Y166.117   
   X345.704      Y165.881   
   X345.750      Y165.527   
   Y156.730   
   X345.704      Y156.376   
   X345.606      Y156.140   
   X345.451      Y155.938   
   X345.249      Y155.783   
(Pass: 4)
   Z1.200     
   X345.013      Y155.685   
   X344.760      Y155.652   
   X344.508      Y155.685   
   X344.272      Y155.783   
   X344.070      Y155.938   
   X343.915      Y156.140   
   X343.817      Y156.376   
   X343.770      Y156.730   
   Y165.527   
   X343.817      Y165.881   
   X343.915      Y166.117   
   X344.070      Y166.319   
   X344.272      Y166.474   
   X344.508      Y166.572   
   X344.760      Y166.605   
   X345.013      Y166.572   
   X345.249      Y166.474   
   X345.451      Y166.319   
   X345.606      Y166.117   
   X345.704      Y165.881   
   X345.750      Y165.527   
   Y156.730   
   X345.704      Y156.376   
   X345.606      Y156.140   
   X345.451      Y155.938   
   X345.249      Y155.783   
(Pass: 5)
   Z0.700     
   X345.013      Y155.685   
   X344.760      Y155.652   
   X344.508      Y155.685   
   X344.272      Y155.783   
   X344.070      Y155.938   
   X343.915      Y156.140   
   X343.817      Y156.376   
   X343.770      Y156.730   
   Y165.527   
   X343.817      Y165.881   
   X343.915      Y166.117   
   X344.070      Y166.319   
   X344.272      Y166.474   
   X344.508      Y166.572   
   X344.760      Y166.605   
   X345.013      Y166.572   
   X345.249      Y166.474   
   X345.451      Y166.319   
   X345.606      Y166.117   
   X345.704      Y165.881   
   X345.750      Y165.527   
   Y156.730   
   X345.704      Y156.376   
   X345.606      Y156.140   
   X345.451      Y155.938   
   X345.249      Y155.783   
(Pass: 6)
   Z0.200     
   X345.013      Y155.685   
   X344.760      Y155.652   
   X344.508      Y155.685   
   X344.272      Y155.783   
   X344.070      Y155.938   
   X343.915      Y156.140   
   X343.817      Y156.376   
   X343.770      Y156.730   
   Y165.527   
   X343.817      Y165.881   
   X343.915      Y166.117   
   X344.070      Y166.319   
   X344.272      Y166.474   
   X344.508      Y166.572   
   X344.760      Y166.605   
   X345.013      Y166.572   
   X345.249      Y166.474   
   X345.451      Y166.319   
   X345.606      Y166.117   
   X345.704      Y165.881   
   X345.750      Y165.527   
   Y156.730   
   X345.704      Y156.376   
   X345.606      Y156.140   
   X345.451      Y155.938   
   X345.249      Y155.783   
(Pass: 7)
   Z-0.300    
   X345.013      Y155.685   
   X344.760      Y155.652   
   X344.508      Y155.685   
   X344.272      Y155.783   
   X344.070      Y155.938   
   X343.915      Y156.140   
   X343.817      Y156.376   
   X343.770      Y156.730   
   Y165.527   
   X343.817      Y165.881   
   X343.915      Y166.117   
   X344.070      Y166.319   
   X344.272      Y166.474   
   X344.508      Y166.572   
   X344.760      Y166.605   
   X345.013      Y166.572   
   X345.249      Y166.474   
   X345.451      Y166.319   
   X345.606      Y166.117   
