%
(Generated by SketchUcam {1.2})
(File: Router Plates.skp)
(Bit diameter: 3.2mm)
(Feed rate: 400.0mm/min)
(Plunge Feed rate: 100.0mm/min)
(Material Thickness: 3.2mm)
(Material length: 304.0mm X width: 608.0mm)
(Overhead Gantry: true)
(Retract feed rate NOT limited to plunge feed rate)
(Multipass enabled, Depth = 1.0mm)
(Optimization is ON)
(Z ZERO IS TABLETOP)
(www.PhlatBoyz.com)
G90 G21 G49 
M3 S15000
G0   Z18.200    
(Pass: 1)
   X26.349       Y23.513    
G1   Z2.200      F100 
G17 G3   X26.0380      Y23.9180      R1.9685     F400 
G1   X26.753       Y23.202    
G17 G3   X26.3487      Y23.5131      R1.9685    
G1   X27.225       Y23.007    
G17 G3   X26.7535      Y23.2025      R1.9685    
G1   X27.731       Y22.941    
G17 G3   X27.2249      Y23.0072      R1.9685    
G1   X28.237    
G17 G3   X27.7308      Y22.9406      R1.9685    
G1   X28.708       Y23.202    
G17 G3   X28.2367      Y23.0072      R1.9685    
G1   X29.113       Y23.513    
G17 G3   X28.7082      Y23.2025      R1.9685    
G1   X29.424       Y23.918    
G17 G3   X29.1130      Y23.5131      R1.9685    
G1   X29.619       Y24.389    
G17 G3   X29.4237      Y23.9180      R1.9685    
G1   X29.686       Y24.895    
G17 G3   X29.6189      Y24.3894      R1.9685    
G1   Y25.401    
G17 G3   X29.6855      Y24.8953      R1.9685    
G1   X29.424       Y25.873    
G17 G3   X29.6189      Y25.4012      R1.9685    
G1   X29.113       Y26.277    
G17 G3   X29.4237      Y25.8727      R1.9685    
G1   X28.708       Y26.588    
G17 G3   X29.1130      Y26.2775      R1.9685    
G1   X28.237       Y26.783    
G17 G3   X28.7082      Y26.5881      R1.9685    
G1   X27.731       Y26.850    
G17 G3   X28.2367      Y26.7834      R1.9685    
G1   X27.225    
G17 G3   X27.7308      Y26.8500      R1.9685    
G1   X26.753       Y26.588    
G17 G3   X27.2249      Y26.7834      R1.9685    
G1   X26.349       Y26.277    
G17 G3   X26.7535      Y26.5881      R1.9685    
G1   X26.038       Y25.873    
G17 G3   X26.3487      Y26.2775      R1.9685    
G1   X25.843       Y25.401    
G17 G3   X26.0380      Y25.8727      R1.9685    
G1   X25.776       Y24.895    
G17 G3   X25.8427      Y25.4012      R1.9685    
G1   Y24.389    
G17 G3   X25.7761      Y24.8953      R1.9685    
G1   X26.038       Y23.918    
G17 G3   X25.8427      Y24.3894      R1.9685    
(Pass: 2)
G1   X26.349       Y23.513    
   Z1.200      F100 
G17 G3   X26.0380      Y23.9180      R1.9685     F400 
G1   X26.753       Y23.202    
G17 G3   X26.3487      Y23.5131      R1.9685    
G1   X27.225       Y23.007    
G17 G3   X26.7535      Y23.2025      R1.9685    
G1   X27.731       Y22.941    
G17 G3   X27.2249      Y23.0072      R1.9685    
G1   X28.237    
G17 G3   X27.7308      Y22.9406      R1.9685    
G1   X28.708       Y23.202    
G17 G3   X28.2367      Y23.0072      R1.9685    
G1   X29.113       Y23.513    
G17 G3   X28.7082      Y23.2025      R1.9685    
G1   X29.424       Y23.918    
G17 G3   X29.1130      Y23.5131      R1.9685    
G1   X29.619       Y24.389    
G17 G3   X29.4237      Y23.9180      R1.9685    
G1   X29.686       Y24.895    
G17 G3   X29.6189      Y24.3894      R1.9685    
G1   Y25.401    
G17 G3   X29.6855      Y24.8953      R1.9685    
G1   X29.424       Y25.873    
G17 G3   X29.6189      Y25.4012      R1.9685    
G1   X29.113       Y26.277    
G17 G3   X29.4237      Y25.8727      R1.9685    
G1   X28.708       Y26.588    
G17 G3   X29.1130      Y26.2775      R1.9685    
G1   X28.237       Y26.783    
G17 G3   X28.7082      Y26.5881      R1.9685    
G1   X27.731       Y26.850    
G17 G3   X28.2367      Y26.7834      R1.9685    
G1   X27.225    
G17 G3   X27.7308      Y26.8500      R1.9685    
G1   X26.753       Y26.588    
G17 G3   X27.2249      Y26.7834      R1.9685    
G1   X26.349       Y26.277    
G17 G3   X26.7535      Y26.5881      R1.9685    
G1   X26.038       Y25.873    
G17 G3   X26.3487      Y26.2775      R1.9685    
G1   X25.843       Y25.401    
G17 G3   X26.0380      Y25.8727      R1.9685    
G1   X25.776       Y24.895    
G17 G3   X25.8427      Y25.4012      R1.9685    
G1   Y24.389    
G17 G3   X25.7761      Y24.8953      R1.9685    
G1   X26.038       Y23.918    
G17 G3   X25.8427      Y24.3894      R1.9685    
(Pass: 3)
G1   X26.349       Y23.513    
   Z0.200      F100 
G17 G3   X26.0380      Y23.9180      R1.9685     F400 
G1   X26.753       Y23.202    
G17 G3   X26.3487      Y23.5131      R1.9685    
G1   X27.225       Y23.007    
G17 G3   X26.7535      Y23.2025      R1.9685    
G1   X27.731       Y22.941    
G17 G3   X27.2249      Y23.0072      R1.9685    
G1   X28.237    
G17 G3   X27.7308      Y22.9406      R1.9685    
G1   X28.708       Y23.202    
G17 G3   X28.2367      Y23.0072      R1.9685    
G1   X29.113       Y23.513    
G17 G3   X28.7082      Y23.2025      R1.9685    
G1   X29.424       Y23.918    
G17 G3   X29.1130      Y23.5131      R1.9685    
G1   X29.619       Y24.389    
G17 G3   X29.4237      Y23.9180      R1.9685    
G1   X29.686       Y24.895    
G17 G3   X29.6189      Y24.3894      R1.9685    
G1   Y25.401    
G17 G3   X29.6855      Y24.8953      R1.9685    
G1   X29.424       Y25.873    
G17 G3   X29.6189      Y25.4012      R1.9685    
G1   X29.113       Y26.277    
G17 G3   X29.4237      Y25.8727      R1.9685    
G1   X28.708       Y26.588    
G17 G3   X29.1130      Y26.2775      R1.9685    
G1   X28.237       Y26.783    
G17 G3   X28.7082      Y26.5881      R1.9685    
G1   X27.731       Y26.850    
G17 G3   X28.2367      Y26.7834      R1.9685    
G1   X27.225    
G17 G3   X27.7308      Y26.8500      R1.9685    
G1   X26.753       Y26.588    
G17 G3   X27.2249      Y26.7834      R1.9685    
G1   X26.349       Y26.277    
G17 G3   X26.7535      Y26.5881      R1.9685    
G1   X26.038       Y25.873    
G17 G3   X26.3487      Y26.2775      R1.9685    
G1   X25.843       Y25.401    
G17 G3   X26.0380      Y25.8727      R1.9685    
G1   X25.776       Y24.895    
G17 G3   X25.8427      Y25.4012      R1.9685    
G1   Y24.389    
G17 G3   X25.7761      Y24.8953      R1.9685    
G1   X26.038       Y23.918    
G17 G3   X25.8427      Y24.3894      R1.9685    
(Pass: 4)
G1   X26.349       Y23.513    
   Z-0.800     F100 
G17 G3   X26.0380      Y23.9180      R1.9685     F400 
G1   X26.753       Y23.202    
G17 G3   X26.3487      Y23.5131      R1.9685    
G1   X27.225       Y23.007    
G17 G3   X26.7535      Y23.2025      R1.9685    
G1   X27.731       Y22.941    
G17 G3   X27.2249      Y23.0072      R1.9685    
G1   X28.237    
G17 G3   X27.7308      Y22.9406      R1.9685    
G1   X28.708       Y23.202    
G17 G3   X28.2367      Y23.0072      R1.9685    
G1   X29.113       Y23.513    
G17 G3   X28.7082      Y23.2025      R1.9685    
G1   X29.424       Y23.918    
G17 G3   X29.1130      Y23.5131      R1.9685    
G1   X29.619       Y24.389    
G17 G3   X29.4237      Y23.9180      R1.9685    
G1   X29.686       Y24.895    
G17 G3   X29.6189      Y24.3894      R1.9685    
G1   Y25.401    
G17 G3   X29.6855      Y24.8953      R1.9685    
G1   X29.424       Y25.873    
G17 G3   X29.6189      Y25.4012      R1.9685    
G1   X29.113       Y26.277    
G17 G3   X29.4237      Y25.8727      R1.9685    
G1   X28.708       Y26.588    
G17 G3   X29.1130      Y26.2775      R1.9685    
G1   X28.237       Y26.783    
G17 G3   X28.7082      Y26.5881      R1.9685    
G1   X27.731       Y26.850    
G17 G3   X28.2367      Y26.7834      R1.9685    
G1   X27.225    
G17 G3   X27.7308      Y26.8500      R1.9685    
G1   X26.753       Y26.588    
G17 G3   X27.2249      Y26.7834      R1.9685    
G1   X26.349       Y26.277    
G17 G3   X26.7535      Y26.5881      R1.9685    
G1   X26.038       Y25.873    
G17 G3   X26.3487      Y26.2775      R1.9685    
G1   X25.843       Y25.401    
G17 G3   X26.0380      Y25.8727      R1.9685    
G1   X25.776       Y24.895    
G17 G3   X25.8427      Y25.4012      R1.9685    
G1   Y24.389    
G17 G3   X25.7761      Y24.8953      R1.9685    
G1   X26.038       Y23.918    
G17 G3   X25.8427      Y24.3894      R1.9685    
(Pass: 5)
G1   X26.349       Y23.513    
   Z-0.960     F100 
G17 G3   X26.0380      Y23.9180      R1.9685     F400 
G1   X26.753       Y23.202    
G17 G3   X26.3487      Y23.5131      R1.9685    
G1   X27.225       Y23.007    
G17 G3   X26.7535      Y23.2025      R1.9685    
G1   X27.731       Y22.941    
G17 G3   X27.2249      Y23.0072      R1.9685    
G1   X28.237    
G17 G3   X27.7308      Y22.9406      R1.9685    
G1   X28.708       Y23.202    
G17 G3   X28.2367      Y23.0072      R1.9685    
G1   X29.113       Y23.513    
G17 G3   X28.7082      Y23.2025      R1.9685    
G1   X29.424       Y23.918    
G17 G3   X29.1130      Y23.5131      R1.9685    
G1   X29.619       Y24.389    
G17 G3   X29.4237      Y23.9180      R1.9685    
G1   X29.686       Y24.895    
G17 G3   X29.6189      Y24.3894      R1.9685    
G1   Y25.401    
G17 G3   X29.6855      Y24.8953      R1.9685    
G1   X29.424       Y25.873    
G17 G3   X29.6189      Y25.4012      R1.9685    
G1   X29.113       Y26.277    
G17 G3   X29.4237      Y25.8727      R1.9685    
G1   X28.708       Y26.588    
G17 G3   X29.1130      Y26.2775      R1.9685    
G1   X28.237       Y26.783    
G17 G3   X28.7082      Y26.5881      R1.9685    
G1   X27.731       Y26.850    
G17 G3   X28.2367      Y26.7834      R1.9685    
G1   X27.225    
G17 G3   X27.7308      Y26.8500      R1.9685    
G1   X26.753       Y26.588    
G17 G3   X27.2249      Y26.7834      R1.9685    
G1   X26.349       Y26.277    
G17 G3   X26.7535      Y26.5881      R1.9685    
G1   X26.038       Y25.873    
G17 G3   X26.3487      Y26.2775      R1.9685    
G1   X25.843       Y25.401    
G17 G3   X26.0380      Y25.8727      R1.9685    
G1   X25.776       Y24.895    
G17 G3   X25.8427      Y25.4012      R1.9685    
G1   Y24.389    
G17 G3   X25.7761      Y24.8953      R1.9685    
G1   X26.038       Y23.918    
G17 G3   X25.8427      Y24.3894      R1.9685    
(BREAK pass 5)
G0   Z18.200    
(Pass: 1)
   X18.474       Y34.433    
G1   Z2.200      F100 
G17 G3   X18.2601      Y34.3440      R0.9000     F400 
G1   X18.657       Y34.573    
G17 G3   X18.4738      Y34.4325      R0.9000    
G1   X18.798       Y34.757    
G17 G3   X18.6573      Y34.5734      R0.9000    
G1   X18.887       Y34.971    
G17 G3   X18.7982      Y34.7569      R0.9000    
G1   X18.917       Y35.200    
G17 G3   X18.8867      Y34.9706      R0.9000    
G1   Y35.429    
G17 G3   X18.9169      Y35.2000      R0.9000    
G1   X18.798       Y35.643    
G17 G3   X18.8867      Y35.4294      R0.9000    
G1   X18.657       Y35.827    
G17 G3   X18.7982      Y35.6431      R0.9000    
G1   X18.474       Y35.967    
G17 G3   X18.6573      Y35.8266      R0.9000    
G1   X18.260       Y36.056    
G17 G3   X18.4738      Y35.9675      R0.9000    
G1   X18.031       Y36.086    
G17 G3   X18.2601      Y36.0560      R0.9000    
G1   X17.801    
G17 G3   X18.0307      Y36.0862      R0.9000    
G1   X17.588       Y35.967    
G17 G3   X17.8013      Y36.0560      R0.9000    
G1   X17.404       Y35.827    
G17 G3   X17.5876      Y35.9675      R0.9000    
G1   X17.263       Y35.643    
G17 G3   X17.4041      Y35.8266      R0.9000    
G1   X17.175       Y35.429    
G17 G3   X17.2632      Y35.6431      R0.9000    
G1   X17.144       Y35.200    
G17 G3   X17.1747      Y35.4294      R0.9000    
G1   Y34.971    
G17 G3   X17.1445      Y35.2000      R0.9000    
G1   X17.263       Y34.757    
G17 G3   X17.1747      Y34.9706      R0.9000    
G1   X17.404       Y34.573    
G17 G3   X17.2632      Y34.7569      R0.9000    
G1   X17.588       Y34.433    
G17 G3   X17.4041      Y34.5734      R0.9000    
G1   X17.801       Y34.344    
G17 G3   X17.5876      Y34.4325      R0.9000    
G1   X18.031       Y34.314    
G17 G3   X17.8013      Y34.3440      R0.9000    
G1   X18.260    
G17 G3   X18.0307      Y34.3138      R0.9000    
(Pass: 2)
G1   X18.474       Y34.433    
   Z1.200      F100 
G17 G3   X18.2601      Y34.3440      R0.9000     F400 
G1   X18.657       Y34.573    
G17 G3   X18.4738      Y34.4325      R0.9000    
G1   X18.798       Y34.757    
G17 G3   X18.6573      Y34.5734      R0.9000    
G1   X18.887       Y34.971    
G17 G3   X18.7982      Y34.7569      R0.9000    
G1   X18.917       Y35.200    
G17 G3   X18.8867      Y34.9706      R0.9000    
G1   Y35.429    
G17 G3   X18.9169      Y35.2000      R0.9000    
G1   X18.798       Y35.643    
G17 G3   X18.8867      Y35.4294      R0.9000    
G1   X18.657       Y35.827    
G17 G3   X18.7982      Y35.6431      R0.9000    
G1   X18.474       Y35.967    
G17 G3   X18.6573      Y35.8266      R0.9000    
G1   X18.260       Y36.056    
G17 G3   X18.4738      Y35.9675      R0.9000    
G1   X18.031       Y36.086    
G17 G3   X18.2601      Y36.0560      R0.9000    
G1   X17.801    
G17 G3   X18.0307      Y36.0862      R0.9000    
G1   X17.588       Y35.967    
G17 G3   X17.8013      Y36.0560      R0.9000    
G1   X17.404       Y35.827    
G17 G3   X17.5876      Y35.9675      R0.9000    
G1   X17.263       Y35.643    
G17 G3   X17.4041      Y35.8266      R0.9000    
G1   X17.175       Y35.429    
G17 G3   X17.2632      Y35.6431      R0.9000    
G1   X17.144       Y35.200    
G17 G3   X17.1747      Y35.4294      R0.9000    
G1   Y34.971    
G17 G3   X17.1445      Y35.2000      R0.9000    
G1   X17.263       Y34.757    
G17 G3   X17.1747      Y34.9706      R0.9000    
G1   X17.404       Y34.573    
G17 G3   X17.2632      Y34.7569      R0.9000    
G1   X17.588       Y34.433    
G17 G3   X17.4041      Y34.5734      R0.9000    
G1   X17.801       Y34.344    
G17 G3   X17.5876      Y34.4325      R0.9000    
G1   X18.031       Y34.314    
G17 G3   X17.8013      Y34.3440      R0.9000    
G1   X18.260    
G17 G3   X18.0307      Y34.3138      R0.9000    
(Pass: 3)
G1   X18.474       Y34.433    
   Z0.200      F100 
G17 G3   X18.2601      Y34.3440      R0.9000     F400 
G1   X18.657       Y34.573    
G17 G3   X18.4738      Y34.4325      R0.9000    
G1   X18.798       Y34.757    
G17 G3   X18.6573      Y34.5734      R0.9000    
G1   X18.887       Y34.971    
G17 G3   X18.7982      Y34.7569      R0.9000    
G1   X18.917       Y35.200    
G17 G3   X18.8867      Y34.9706      R0.9000    
G1   Y35.429    
G17 G3   X18.9169      Y35.2000      R0.9000    
G1   X18.798       Y35.643    
G17 G3   X18.8867      Y35.4294      R0.9000    
G1   X18.657       Y35.827    
G17 G3   X18.7982      Y35.6431      R0.9000    
G1   X18.474       Y35.967    
G17 G3   X18.6573      Y35.8266      R0.9000    
G1   X18.260       Y36.056    
G17 G3   X18.4738      Y35.9675      R0.9000    
G1   X18.031       Y36.086    
G17 G3   X18.2601      Y36.0560      R0.9000    
G1   X17.801    
G17 G3   X18.0307      Y36.0862      R0.9000    
G1   X17.588       Y35.967    
G17 G3   X17.8013      Y36.0560      R0.9000    
G1   X17.404       Y35.827    
G17 G3   X17.5876      Y35.9675      R0.9000    
G1   X17.263       Y35.643    
G17 G3   X17.4041      Y35.8266      R0.9000    
G1   X17.175       Y35.429    
G17 G3   X17.2632      Y35.6431      R0.9000    
G1   X17.144       Y35.200    
G17 G3   X17.1747      Y35.4294      R0.9000    
G1   Y34.971    
G17 G3   X17.1445      Y35.2000      R0.9000    
G1   X17.263       Y34.757    
G17 G3   X17.1747      Y34.9706      R0.9000    
G1   X17.404       Y34.573    
G17 G3   X17.2632      Y34.7569      R0.9000    
G1   X17.588       Y34.433    
G17 G3   X17.4041      Y34.5734      R0.9000    
G1   X17.801       Y34.344    
G17 G3   X17.5876      Y34.4325      R0.9000    
G1   X18.031       Y34.314    
G17 G3   X17.8013      Y34.3440      R0.9000    
G1   X18.260    
G17 G3   X18.0307      Y34.3138      R0.9000    
(Pass: 4)
G1   X18.474       Y34.433    
   Z-0.800     F100 
G17 G3   X18.2601      Y34.3440      R0.9000     F400 
G1   X18.657       Y34.573    
G17 G3   X18.4738      Y34.4325      R0.9000    
G1   X18.798       Y34.757    
G17 G3   X18.6573      Y34.5734      R0.9000    
G1   X18.887       Y34.971    
G17 G3   X18.7982      Y34.7569      R0.9000    
G1   X18.917       Y35.200    
G17 G3   X18.8867      Y34.9706      R0.9000    
G1   Y35.429    
G17 G3   X18.9169      Y35.2000      R0.9000    
G1   X18.798       Y35.643    
G17 G3   X18.8867      Y35.4294      R0.9000    
G1   X18.657       Y35.827    
G17 G3   X18.7982      Y35.6431      R0.9000    
G1   X18.474       Y35.967    
G17 G3   X18.6573      Y35.8266      R0.9000    
G1   X18.260       Y36.056    
G17 G3   X18.4738      Y35.9675      R0.9000    
G1   X18.031       Y36.086    
G17 G3   X18.2601      Y36.0560      R0.9000    
G1   X17.801    
G17 G3   X18.0307      Y36.0862      R0.9000    
G1   X17.588       Y35.967    
G17 G3   X17.8013      Y36.0560      R0.9000    
G1   X17.404       Y35.827    
G17 G3   X17.5876      Y35.9675      R0.9000    
G1   X17.263       Y35.643    
G17 G3   X17.4041      Y35.8266      R0.9000    
G1   X17.175       Y35.429    
G17 G3   X17.2632      Y35.6431      R0.9000    
G1   X17.144       Y35.200    
G17 G3   X17.1747      Y35.4294      R0.9000    
G1   Y34.971    
G17 G3   X17.1445      Y35.2000      R0.9000    
G1   X17.263       Y34.757    
G17 G3   X17.1747      Y34.9706      R0.9000    
G1   X17.404       Y34.573    
G17 G3   X17.2632      Y34.7569      R0.9000    
G1   X17.588       Y34.433    
G17 G3   X17.4041      Y34.5734      R0.9000    
G1   X17.801       Y34.344    
G17 G3   X17.5876      Y34.4325      R0.9000    
G1   X18.031       Y34.314    
G17 G3   X17.8013      Y34.3440      R0.9000    
G1   X18.260    
G17 G3   X18.0307      Y34.3138      R0.9000    
(Pass: 5)
G1   X18.474       Y34.433    
   Z-0.960     F100 
G17 G3   X18.2601      Y34.3440      R0.9000     F400 
G1   X18.657       Y34.573    
G17 G3   X18.4738      Y34.4325      R0.9000    
G1   X18.798       Y34.757    
G17 G3   X18.6573      Y34.5734      R0.9000    
G1   X18.887       Y34.971    
G17 G3   X18.7982      Y34.7569      R0.9000    
G1   X18.917       Y35.200    
G17 G3   X18.8867      Y34.9706      R0.9000    
G1   Y35.429    
G17 G3   X18.9169      Y35.2000      R0.9000    
G1   X18.798       Y35.643    
G17 G3   X18.8867      Y35.4294      R0.9000    
G1   X18.657       Y35.827    
G17 G3   X18.7982      Y35.6431      R0.9000    
G1   X18.474       Y35.967    
G17 G3   X18.6573      Y35.8266      R0.9000    
G1   X18.260       Y36.056    
G17 G3   X18.4738      Y35.9675      R0.9000    
G1   X18.031       Y36.086    
G17 G3   X18.2601      Y36.0560      R0.9000    
G1   X17.801    
G17 G3   X18.0307      Y36.0862      R0.9000    
G1   X17.588       Y35.967    
G17 G3   X17.8013      Y36.0560      R0.9000    
G1   X17.404       Y35.827    
G17 G3   X17.5876      Y35.9675      R0.9000    
G1   X17.263       Y35.643    
G17 G3   X17.4041      Y35.8266      R0.9000    
G1   X17.175       Y35.429    
G17 G3   X17.2632      Y35.6431      R0.9000    
G1   X17.144       Y35.200    
G17 G3   X17.1747      Y35.4294      R0.9000    
G1   Y34.971    
G17 G3   X17.1445      Y35.2000      R0.9000    
G1   X17.263       Y34.757    
G17 G3   X17.1747      Y34.9706      R0.9000    
G1   X17.404       Y34.573    
G17 G3   X17.2632      Y34.7569      R0.9000    
G1   X17.588       Y34.433    
G17 G3   X17.4041      Y34.5734      R0.9000    
G1   X17.801       Y34.344    
G17 G3   X17.5876      Y34.4325      R0.9000    
G1   X18.031       Y34.314    
G17 G3   X17.8013      Y34.3440      R0.9000    
G1   X18.260    
G17 G3   X18.0307      Y34.3138      R0.9000    
(BREAK pass 5)
G0   Z18.200    
(Pass: 1)
   Y44.314    
G1   Z2.200      F100 
G17 G3   X17.8013      Y44.3440      R0.9000     F400 
G1   X18.260    
G17 G3   X18.0306      Y44.3138      R0.9000    
G1   X18.474       Y44.433    
G17 G3   X18.2600      Y44.3440      R0.9000    
G1   X18.657       Y44.573    
G17 G3   X18.4737      Y44.4325      R0.9000    
G1   X18.798       Y44.757    
G17 G3   X18.6573      Y44.5734      R0.9000    
G1   X18.887       Y44.971    
G17 G3   X18.7981      Y44.7569      R0.9000    
G1   X18.917       Y45.200    
G17 G3   X18.8866      Y44.9706      R0.9000    
G1   Y45.429    
G17 G3   X18.9168      Y45.2000      R0.9000    
G1   X18.798       Y45.643    
G17 G3   X18.8866      Y45.4294      R0.9000    
G1   X18.657       Y45.827    
G17 G3   X18.7981      Y45.6431      R0.9000    
G1   X18.474       Y45.967    
G17 G3   X18.6573      Y45.8266      R0.9000    
G1   X18.260       Y46.056    
G17 G3   X18.4737      Y45.9675      R0.9000    
G1   X18.031       Y46.086    
G17 G3   X18.2600      Y46.0560      R0.9000    
G1   X17.801    
G17 G3   X18.0306      Y46.0862      R0.9000    
G1   X17.588       Y45.967    
G17 G3   X17.8013      Y46.0560      R0.9000    
G1   X17.404       Y45.827    
G17 G3   X17.5875      Y45.9675      R0.9000    
G1   X17.263       Y45.643    
G17 G3   X17.4040      Y45.8266      R0.9000    
G1   X17.175       Y45.429    
G17 G3   X17.2632      Y45.6431      R0.9000    
G1   X17.144       Y45.200    
G17 G3   X17.1746      Y45.4294      R0.9000    
G1   Y44.971    
G17 G3   X17.1444      Y45.2000      R0.9000    
G1   X17.263       Y44.757    
G17 G3   X17.1746      Y44.9706      R0.9000    
G1   X17.404       Y44.573    
G17 G3   X17.2632      Y44.7569      R0.9000    
G1   X17.588       Y44.433    
G17 G3   X17.4040      Y44.5734      R0.9000    
G1   X17.801       Y44.344    
G17 G3   X17.5875      Y44.4325      R0.9000    
(Pass: 2)
G1   X18.031       Y44.314    
   Z1.200      F100 
G17 G3   X17.8013      Y44.3440      R0.9000     F400 
G1   X18.260    
G17 G3   X18.0306      Y44.3138      R0.9000    
G1   X18.474       Y44.433    
G17 G3   X18.2600      Y44.3440      R0.9000    
G1   X18.657       Y44.573    
G17 G3   X18.4737      Y44.4325      R0.9000    
G1   X18.798       Y44.757    
G17 G3   X18.6573      Y44.5734      R0.9000    
G1   X18.887       Y44.971    
G17 G3   X18.7981      Y44.7569      R0.9000    
G1   X18.917       Y45.200    
G17 G3   X18.8866      Y44.9706      R0.9000    
G1   Y45.429    
G17 G3   X18.9168      Y45.2000      R0.9000    
G1   X18.798       Y45.643    
G17 G3   X18.8866      Y45.4294      R0.9000    
G1   X18.657       Y45.827    
G17 G3   X18.7981      Y45.6431      R0.9000    
G1   X18.474       Y45.967    
G17 G3   X18.6573      Y45.8266      R0.9000    
G1   X18.260       Y46.056    
G17 G3   X18.4737      Y45.9675      R0.9000    
G1   X18.031       Y46.086    
G17 G3   X18.2600      Y46.0560      R0.9000    
G1   X17.801    
G17 G3   X18.0306      Y46.0862      R0.9000    
G1   X17.588       Y45.967    
G17 G3   X17.8013      Y46.0560      R0.9000    
G1   X17.404       Y45.827    
G17 G3   X17.5875      Y45.9675      R0.9000    
G1   X17.263       Y45.643    
G17 G3   X17.4040      Y45.8266      R0.9000    
G1   X17.175       Y45.429    
G17 G3   X17.2632      Y45.6431      R0.9000    
G1   X17.144       Y45.200    
G17 G3   X17.1746      Y45.4294      R0.9000    
G1   Y44.971    
G17 G3   X17.1444      Y45.2000      R0.9000    
G1   X17.263       Y44.757    
G17 G3   X17.1746      Y44.9706      R0.9000    
G1   X17.404       Y44.573    
G17 G3   X17.2632      Y44.7569      R0.9000    
G1   X17.588       Y44.433    
G17 G3   X17.4040      Y44.5734      R0.9000    
G1   X17.801       Y44.344    
G17 G3   X17.5875      Y44.4325      R0.9000    
(Pass: 3)
G1   X18.031       Y44.314    
   Z0.200      F100 
G17 G3   X17.8013      Y44.3440      R0.9000     F400 
G1   X18.260    
G17 G3   X18.0306      Y44.3138      R0.9000    
G1   X18.474       Y44.433    
G17 G3   X18.2600      Y44.3440      R0.9000    
G1   X18.657       Y44.573    
G17 G3   X18.4737      Y44.4325      R0.9000    
G1   X18.798       Y44.757    
G17 G3   X18.6573      Y44.5734      R0.9000    
G1   X18.887       Y44.971    
G17 G3   X18.7981      Y44.7569      R0.9000    
G1   X18.917       Y45.200    
G17 G3   X18.8866      Y44.9706      R0.9000    
G1   Y45.429    
G17 G3   X18.9168      Y45.2000      R0.9000    
G1   X18.798       Y45.643    
G17 G3   X18.8866      Y45.4294      R0.9000    
G1   X18.657       Y45.827    
G17 G3   X18.7981      Y45.6431      R0.9000    
G1   X18.474       Y45.967    
G17 G3   X18.6573      Y45.8266      R0.9000    
G1   X18.260       Y46.056    
G17 G3   X18.4737      Y45.9675      R0.9000    
G1   X18.031       Y46.086    
G17 G3   X18.2600      Y46.0560      R0.9000    
G1   X17.801    
G17 G3   X18.0306      Y46.0862      R0.9000    
G1   X17.588       Y45.967    
G17 G3   X17.8013      Y46.0560      R0.9000    
G1   X17.404       Y45.827    
G17 G3   X17.5875      Y45.9675      R0.9000    
G1   X17.263       Y45.643    
G17 G3   X17.4040      Y45.8266      R0.9000    
G1   X17.175       Y45.429    
G17 G3   X17.2632      Y45.6431      R0.9000    
G1   X17.144       Y45.200    
G17 G3   X17.1746      Y45.4294      R0.9000    
G1   Y44.971    
G17 G3   X17.1444      Y45.2000      R0.9000    
G1   X17.263       Y44.757    
G17 G3   X17.1746      Y44.9706      R0.9000    
G1   X17.404       Y44.573    
G17 G3   X17.2632      Y44.7569      R0.9000    
G1   X17.588       Y44.433    
G17 G3   X17.4040      Y44.5734      R0.9000    
G1   X17.801       Y44.344    
G17 G3   X17.5875      Y44.4325      R0.9000    
(Pass: 4)
G1   X18.031       Y44.314    
   Z-0.800     F100 
G17 G3   X17.8013      Y44.3440      R0.9000     F400 
G1   X18.260    
G17 G3   X18.0306      Y44.3138      R0.9000    
G1   X18.474       Y44.433    
G17 G3   X18.2600      Y44.3440      R0.9000    
G1   X18.657       Y44.573    
G17 G3   X18.4737      Y44.4325      R0.9000    
G1   X18.798       Y44.757    
G17 G3   X18.6573      Y44.5734      R0.9000    
G1   X18.887       Y44.971    
G17 G3   X18.7981      Y44.7569      R0.9000    
G1   X18.917       Y45.200    
G17 G3   X18.8866      Y44.9706      R0.9000    
G1   Y45.429    
G17 G3   X18.9168      Y45.2000      R0.9000    
G1   X18.798       Y45.643    
G17 G3   X18.8866      Y45.4294      R0.9000    
G1   X18.657       Y45.827    
G17 G3   X18.7981      Y45.6431      R0.9000    
G1   X18.474       Y45.967    
G17 G3   X18.6573      Y45.8266      R0.9000    
G1   X18.260       Y46.056    
G17 G3   X18.4737      Y45.9675      R0.9000    
G1   X18.031       Y46.086    
G17 G3   X18.2600      Y46.0560      R0.9000    
G1   X17.801    
G17 G3   X18.0306      Y46.0862      R0.9000    
G1   X17.588       Y45.967    
G17 G3   X17.8013      Y46.0560      R0.9000    
G1   X17.404       Y45.827    
G17 G3   X17.5875      Y45.9675      R0.9000    
G1   X17.263       Y45.643    
G17 G3   X17.4040      Y45.8266      R0.9000    
G1   X17.175       Y45.429    
G17 G3   X17.2632      Y45.6431      R0.9000    
G1   X17.144       Y45.200    
G17 G3   X17.1746      Y45.4294      R0.9000    
G1   Y44.971    
G17 G3   X17.1444      Y45.2000      R0.9000    
G1   X17.263       Y44.757    
G17 G3   X17.1746      Y44.9706      R0.9000    
G1   X17.404       Y44.573    
G17 G3   X17.2632      Y44.7569      R0.9000    
G1   X17.588       Y44.433    
G17 G3   X17.4040      Y44.5734      R0.9000    
G1   X17.801       Y44.344    
G17 G3   X17.5875      Y44.4325      R0.9000    
(Pass: 5)
G1   X18.031       Y44.314    
   Z-0.960     F100 
G17 G3   X17.8013      Y44.3440      R0.9000     F400 
G1   X18.260    
G17 G3   X18.0306      Y44.3138      R0.9000    
G1   X18.474       Y44.433    
G17 G3   X18.2600      Y44.3440      R0.9000    
G1   X18.657       Y44.573    
G17 G3   X18.4737      Y44.4325      R0.9000    
G1   X18.798       Y44.757    
G17 G3   X18.6573      Y44.5734      R0.9000    
G1   X18.887       Y44.971    
G17 G3   X18.7981      Y44.7569      R0.9000    
G1   X18.917       Y45.200    
G17 G3   X18.8866      Y44.9706      R0.9000    
G1   Y45.429    
G17 G3   X18.9168      Y45.2000      R0.9000    
G1   X18.798       Y45.643    
G17 G3   X18.8866      Y45.4294      R0.9000    
G1   X18.657       Y45.827    
G17 G3   X18.7981      Y45.6431      R0.9000    
G1   X18.474       Y45.967    
G17 G3   X18.6573      Y45.8266      R0.9000    
G1   X18.260       Y46.056    
G17 G3   X18.4737      Y45.9675      R0.9000    
G1   X18.031       Y46.086    
G17 G3   X18.2600      Y46.0560      R0.9000    
G1   X17.801    
G17 G3   X18.0306      Y46.0862      R0.9000    
G1   X17.588       Y45.967    
G17 G3   X17.8013      Y46.0560      R0.9000    
G1   X17.404       Y45.827    
G17 G3   X17.5875      Y45.9675      R0.9000    
G1   X17.263       Y45.643    
G17 G3   X17.4040      Y45.8266      R0.9000    
G1   X17.175       Y45.429    
G17 G3   X17.2632      Y45.6431      R0.9000    
G1   X17.144       Y45.200    
G17 G3   X17.1746      Y45.4294      R0.9000    
G1   Y44.971    
G17 G3   X17.1444      Y45.2000      R0.9000    
G1   X17.263       Y44.757    
G17 G3   X17.1746      Y44.9706      R0.9000    
G1   X17.404       Y44.573    
G17 G3   X17.2632      Y44.7569      R0.9000    
G1   X17.588       Y44.433    
G17 G3   X17.4040      Y44.5734      R0.9000    
G1   X17.801       Y44.344    
G17 G3   X17.5875      Y44.4325      R0.9000    
(BREAK pass 5)
G0   Z18.200    
(Pass: 1)
   X45.845       Y45.232    
G1   Z2.200      F100 
G17 G3   X45.8748      Y45.4617      R0.9000     F400 
G1   Y45.003    
G17 G3   X45.8446      Y45.2324      R0.9000    
G1   X45.963       Y44.789    
G17 G3   X45.8748      Y45.0030      R0.9000    
G1   X46.104       Y44.606    
G17 G3   X45.9634      Y44.7893      R0.9000    
G1   X46.288       Y44.465    
G17 G3   X46.1042      Y44.6057      R0.9000    
G1   X46.501       Y44.376    
G17 G3   X46.2877      Y44.4649      R0.9000    
G1   X46.731       Y44.346    
G17 G3   X46.5015      Y44.3764      R0.9000    
G1   X46.960    
G17 G3   X46.7308      Y44.3462      R0.9000    
G1   X47.174       Y44.465    
G17 G3   X46.9602      Y44.3764      R0.9000    
G1   X47.357       Y44.606    
G17 G3   X47.1739      Y44.4649      R0.9000    
G1   X47.498       Y44.789    
G17 G3   X47.3575      Y44.6057      R0.9000    
G1   X47.587       Y45.003    
G17 G3   X47.4983      Y44.7893      R0.9000    
G1   X47.617       Y45.232    
G17 G3   X47.5868      Y45.0030      R0.9000    
G1   Y45.462    
G17 G3   X47.6170      Y45.2324      R0.9000    
G1   X47.498       Y45.675    
G17 G3   X47.5868      Y45.4617      R0.9000    
G1   X47.357       Y45.859    
G17 G3   X47.4983      Y45.6755      R0.9000    
G1   X47.174       Y46.000    
G17 G3   X47.3575      Y45.8590      R0.9000    
G1   X46.960       Y46.088    
G17 G3   X47.1739      Y45.9998      R0.9000    
G1   X46.731       Y46.119    
G17 G3   X46.9602      Y46.0884      R0.9000    
G1   X46.501    
G17 G3   X46.7308      Y46.1185      R0.9000    
G1   X46.288       Y46.000    
G17 G3   X46.5015      Y46.0884      R0.9000    
G1   X46.104       Y45.859    
G17 G3   X46.2877      Y45.9998      R0.9000    
G1   X45.963       Y45.675    
G17 G3   X46.1042      Y45.8590      R0.9000    
G1   X45.875       Y45.462    
G17 G3   X45.9634      Y45.6755      R0.9000    
(Pass: 2)
G1   X45.845       Y45.232    
   Z1.200      F100 
G17 G3   X45.8748      Y45.4617      R0.9000     F400 
G1   Y45.003    
G17 G3   X45.8446      Y45.2324      R0.9000    
G1   X45.963       Y44.789    
G17 G3   X45.8748      Y45.0030      R0.9000    
G1   X46.104       Y44.606    
G17 G3   X45.9634      Y44.7893      R0.9000    
G1   X46.288       Y44.465    
G17 G3   X46.1042      Y44.6057      R0.9000    
G1   X46.501       Y44.376    
G17 G3   X46.2877      Y44.4649      R0.9000    
G1   X46.731       Y44.346    
G17 G3   X46.5015      Y44.3764      R0.9000    
G1   X46.960    
G17 G3   X46.7308      Y44.3462      R0.9000    
G1   X47.174       Y44.465    
G17 G3   X46.9602      Y44.3764      R0.9000    
G1   X47.357       Y44.606    
G17 G3   X47.1739      Y44.4649      R0.9000    
G1   X47.498       Y44.789    
G17 G3   X47.3575      Y44.6057      R0.9000    
G1   X47.587       Y45.003    
G17 G3   X47.4983      Y44.7893      R0.9000    
G1   X47.617       Y45.232    
G17 G3   X47.5868      Y45.0030      R0.9000    
G1   Y45.462    
G17 G3   X47.6170      Y45.2324      R0.9000    
G1   X47.498       Y45.675    
G17 G3   X47.5868      Y45.4617      R0.9000    
G1   X47.357       Y45.859    
G17 G3   X47.4983      Y45.6755      R0.9000    
G1   X47.174       Y46.000    
G17 G3   X47.3575      Y45.8590      R0.9000    
G1   X46.960       Y46.088    
G17 G3   X47.1739      Y45.9998      R0.9000    
G1   X46.731       Y46.119    
G17 G3   X46.9602      Y46.0884      R0.9000    
G1   X46.501    
G17 G3   X46.7308      Y46.1185      R0.9000    
G1   X46.288       Y46.000    
G17 G3   X46.5015      Y46.0884      R0.9000    
G1   X46.104       Y45.859    
G17 G3   X46.2877      Y45.9998      R0.9000    
G1   X45.963       Y45.675    
G17 G3   X46.1042      Y45.8590      R0.9000    
G1   X45.875       Y45.462    
G17 G3   X45.9634      Y45.6755      R0.9000    
(Pass: 3)
G1   X45.845       Y45.232    
   Z0.200      F100 
G17 G3   X45.8748      Y45.4617      R0.9000     F400 
G1   Y45.003    
G17 G3   X45.8446      Y45.2324      R0.9000    
G1   X45.963       Y44.789    
G17 G3   X45.8748      Y45.0030      R0.9000    
G1   X46.104       Y44.606    
G17 G3   X45.9634      Y44.7893      R0.9000    
G1   X46.288       Y44.465    
G17 G3   X46.1042      Y44.6057      R0.9000    
G1   X46.501       Y44.376    
G17 G3   X46.2877      Y44.4649      R0.9000    
G1   X46.731       Y44.346    
G17 G3   X46.5015      Y44.3764      R0.9000    
G1   X46.960    
G17 G3   X46.7308      Y44.3462      R0.9000    
G1   X47.174       Y44.465    
G17 G3   X46.9602      Y44.3764      R0.9000    
G1   X47.357       Y44.606    
G17 G3   X47.1739      Y44.4649      R0.9000    
G1   X47.498       Y44.789    
G17 G3   X47.3575      Y44.6057      R0.9000    
G1   X47.587       Y45.003    
G17 G3   X47.4983      Y44.7893      R0.9000    
G1   X47.617       Y45.232    
G17 G3   X47.5868      Y45.0030      R0.9000    
G1   Y45.462    
G17 G3   X47.6170      Y45.2324      R0.9000    
G1   X47.498       Y45.675    
G17 G3   X47.5868      Y45.4617      R0.9000    
G1   X47.357       Y45.859    
G17 G3   X47.4983      Y45.6755      R0.9000    
G1   X47.174       Y46.000    
G17 G3   X47.3575      Y45.8590      R0.9000    
G1   X46.960       Y46.088    
G17 G3   X47.1739      Y45.9998      R0.9000    
G1   X46.731       Y46.119    
G17 G3   X46.9602      Y46.0884      R0.9000    
G1   X46.501    
G17 G3   X46.7308      Y46.1185      R0.9000    
G1   X46.288       Y46.000    
G17 G3   X46.5015      Y46.0884      R0.9000    
G1   X46.104       Y45.859    
G17 G3   X46.2877      Y45.9998      R0.9000    
G1   X45.963       Y45.675    
G17 G3   X46.1042      Y45.8590      R0.9000    
G1   X45.875       Y45.462    
G17 G3   X45.9634      Y45.6755      R0.9000    
(Pass: 4)
G1   X45.845       Y45.232    
   Z-0.800     F100 
G17 G3   X45.8748      Y45.4617      R0.9000     F400 
G1   Y45.003    
G17 G3   X45.8446      Y45.2324      R0.9000    
G1   X45.963       Y44.789    
G17 G3   X45.8748      Y45.0030      R0.9000    
G1   X46.104       Y44.606    
G17 G3   X45.9634      Y44.7893      R0.9000    
G1   X46.288       Y44.465    
G17 G3   X46.1042      Y44.6057      R0.9000    
G1   X46.501       Y44.376    
G17 G3   X46.2877      Y44.4649      R0.9000    
G1   X46.731       Y44.346    
G17 G3   X46.5015      Y44.3764      R0.9000    
G1   X46.960    
G17 G3   X46.7308      Y44.3462      R0.9000    
G1   X47.174       Y44.465    
G17 G3   X46.9602      Y44.3764      R0.9000    
G1   X47.357       Y44.606    
G17 G3   X47.1739      Y44.4649      R0.9000    
G1   X47.498       Y44.789    
G17 G3   X47.3575      Y44.6057      R0.9000    
G1   X47.587       Y45.003    
G17 G3   X47.4983      Y44.7893      R0.9000    
G1   X47.617       Y45.232    
G17 G3   X47.5868      Y45.0030      R0.9000    
G1   Y45.462    
G17 G3   X47.6170      Y45.2324      R0.9000    
G1   X47.498       Y45.675    
G17 G3   X47.5868      Y45.4617      R0.9000    
G1   X47.357       Y45.859    
G17 G3   X47.4983      Y45.6755      R0.9000    
G1   X47.174       Y46.000    
G17 G3   X47.3575      Y45.8590      R0.9000    
G1   X46.960       Y46.088    
G17 G3   X47.1739      Y45.9998      R0.9000    
G1   X46.731       Y46.119    
G17 G3   X46.9602      Y46.0884      R0.9000    
G1   X46.501    
G17 G3   X46.7308      Y46.1185      R0.9000    
G1   X46.288       Y46.000    
G17 G3   X46.5015      Y46.0884      R0.9000    
G1   X46.104       Y45.859    
G17 G3   X46.2877      Y45.9998      R0.9000    
G1   X45.963       Y45.675    
G17 G3   X46.1042      Y45.8590      R0.9000    
G1   X45.875       Y45.462    
G17 G3   X45.9634      Y45.6755      R0.9000    
(Pass: 5)
G1   X45.845       Y45.232    
   Z-0.960     F100 
G17 G3   X45.8748      Y45.4617      R0.9000     F400 
G1   Y45.003    
G17 G3   X45.8446      Y45.2324      R0.9000    
G1   X45.963       Y44.789    
G17 G3   X45.8748      Y45.0030      R0.9000    
G1   X46.104       Y44.606    
G17 G3   X45.9634      Y44.7893      R0.9000    
G1   X46.288       Y44.465    
G17 G3   X46.1042      Y44.6057      R0.9000    
G1   X46.501       Y44.376    
G17 G3   X46.2877      Y44.4649      R0.9000    
G1   X46.731       Y44.346    
G17 G3   X46.5015      Y44.3764      R0.9000    
G1   X46.960    
G17 G3   X46.7308      Y44.3462      R0.9000    
G1   X47.174       Y44.465    
G17 G3   X46.9602      Y44.3764      R0.9000    
G1   X47.357       Y44.606    
G17 G3   X47.1739      Y44.4649      R0.9000    
G1   X47.498       Y44.789    
G17 G3   X47.3575      Y44.6057      R0.9000    
G1   X47.587       Y45.003    
G17 G3   X47.4983      Y44.7893      R0.9000    
G1   X47.617       Y45.232    
G17 G3   X47.5868      Y45.0030      R0.9000    
G1   Y45.462    
G17 G3   X47.6170      Y45.2324      R0.9000    
G1   X47.498       Y45.675    
G17 G3   X47.5868      Y45.4617      R0.9000    
G1   X47.357       Y45.859    
G17 G3   X47.4983      Y45.6755      R0.9000    
G1   X47.174       Y46.000    
G17 G3   X47.3575      Y45.8590      R0.9000    
G1   X46.960       Y46.088    
G17 G3   X47.1739      Y45.9998      R0.9000    
G1   X46.731       Y46.119    
G17 G3   X46.9602      Y46.0884      R0.9000    
G1   X46.501    
G17 G3   X46.7308      Y46.1185      R0.9000    
G1   X46.288       Y46.000    
G17 G3   X46.5015      Y46.0884      R0.9000    
G1   X46.104       Y45.859    
G17 G3   X46.2877      Y45.9998      R0.9000    
G1   X45.963       Y45.675    
G17 G3   X46.1042      Y45.8590      R0.9000    
G1   X45.875       Y45.462    
G17 G3   X45.9634      Y45.6755      R0.9000    
(BREAK pass 5)
G0   Z18.200    
(Pass: 1)
   X101.358      Y25.873    
G1   Z2.200      F100 
G17 G3   X101.6687     Y26.2775      R1.9685     F400 
G1   X101.163      Y25.401    
G17 G3   X101.3580     Y25.8727      R1.9685    
G1   X101.096      Y24.895    
G17 G3   X101.1627     Y25.4012      R1.9685    
G1   Y24.389    
G17 G3   X101.0961     Y24.8953      R1.9685    
G1   X101.358      Y23.918    
G17 G3   X101.1627     Y24.3894      R1.9685    
G1   X101.669      Y23.513    
G17 G3   X101.3580     Y23.9180      R1.9685    
G1   X102.073      Y23.202    
G17 G3   X101.6687     Y23.5131      R1.9685    
G1   X102.545      Y23.007    
G17 G3   X102.0735     Y23.2025      R1.9685    
G1   X103.051      Y22.941    
G17 G3   X102.5449     Y23.0072      R1.9685    
G1   X103.557   
G17 G3   X103.0508     Y22.9406      R1.9685    
G1   X104.028      Y23.202    
G17 G3   X103.5567     Y23.0072      R1.9685    
G1   X104.433      Y23.513    
G17 G3   X104.0282     Y23.2025      R1.9685    
G1   X104.744      Y23.918    
G17 G3   X104.4330     Y23.5131      R1.9685    
G1   X104.939      Y24.389    
G17 G3   X104.7437     Y23.9180      R1.9685    
G1   X105.006      Y24.895    
G17 G3   X104.9389     Y24.3894      R1.9685    
G1   Y25.401    
G17 G3   X105.0055     Y24.8953      R1.9685    
G1   X104.744      Y25.873    
G17 G3   X104.9389     Y25.4012      R1.9685    
G1   X104.433      Y26.277    
G17 G3   X104.7437     Y25.8727      R1.9685    
G1   X104.028      Y26.588    
G17 G3   X104.4330     Y26.2775      R1.9685    
G1   X103.557      Y26.783    
G17 G3   X104.0282     Y26.5881      R1.9685    
G1   X103.051      Y26.850    
G17 G3   X103.5567     Y26.7834      R1.9685    
G1   X102.545   
G17 G3   X103.0508     Y26.8500      R1.9685    
G1   X102.073      Y26.588    
G17 G3   X102.5449     Y26.7834      R1.9685    
G1   X101.669      Y26.277    
G17 G3   X102.0735     Y26.5881      R1.9685    
(Pass: 2)
G1   X101.358      Y25.873    
   Z1.200      F100 
G17 G3   X101.6687     Y26.2775      R1.9685     F400 
G1   X101.163      Y25.401    
G17 G3   X101.3580     Y25.8727      R1.9685    
G1   X101.096      Y24.895    
G17 G3   X101.1627     Y25.4012      R1.9685    
G1   Y24.389    
G17 G3   X101.0961     Y24.8953      R1.9685    
G1   X101.358      Y23.918    
G17 G3   X101.1627     Y24.3894      R1.9685    
G1   X101.669      Y23.513    
G17 G3   X101.3580     Y23.9180      R1.9685    
G1   X102.073      Y23.202    
G17 G3   X101.6687     Y23.5131      R1.9685    
G1   X102.545      Y23.007    
G17 G3   X102.0735     Y23.2025      R1.9685    
G1   X103.051      Y22.941    
G17 G3   X102.5449     Y23.0072      R1.9685    
G1   X103.557   
G17 G3   X103.0508     Y22.9406      R1.9685    
G1   X104.028      Y23.202    
G17 G3   X103.5567     Y23.0072      R1.9685    
G1   X104.433      Y23.513    
G17 G3   X104.0282     Y23.2025      R1.9685    
G1   X104.744      Y23.918    
G17 G3   X104.4330     Y23.5131      R1.9685    
G1   X104.939      Y24.389    
G17 G3   X104.7437     Y23.9180      R1.9685    
G1   X105.006      Y24.895    
G17 G3   X104.9389     Y24.3894      R1.9685    
G1   Y25.401    
G17 G3   X105.0055     Y24.8953      R1.9685    
G1   X104.744      Y25.873    
G17 G3   X104.9389     Y25.4012      R1.9685    
G1   X104.433      Y26.277    
G17 G3   X104.7437     Y25.8727      R1.9685    
G1   X104.028      Y26.588    
G17 G3   X104.4330     Y26.2775      R1.9685    
G1   X103.557      Y26.783    
G17 G3   X104.0282     Y26.5881      R1.9685    
G1   X103.051      Y26.850    
G17 G3   X103.5567     Y26.7834      R1.9685    
G1   X102.545   
G17 G3   X103.0508     Y26.8500      R1.9685    
G1   X102.073      Y26.588    
G17 G3   X102.5449     Y26.7834      R1.9685    
G1   X101.669      Y26.277    
G17 G3   X102.0735     Y26.5881      R1.9685    
(Pass: 3)
G1   X101.358      Y25.873    
   Z0.200      F100 
G17 G3   X101.6687     Y26.2775      R1.9685     F400 
G1   X101.163      Y25.401    
G17 G3   X101.3580     Y25.8727      R1.9685    
G1   X101.096      Y24.895    
G17 G3   X101.1627     Y25.4012      R1.9685    
G1   Y24.389    
G17 G3   X101.0961     Y24.8953      R1.9685    
G1   X101.358      Y23.918    
G17 G3   X101.1627     Y24.3894      R1.9685    
G1   X101.669      Y23.513    
G17 G3   X101.3580     Y23.9180      R1.9685    
G1   X102.073      Y23.202    
G17 G3   X101.6687     Y23.5131      R1.9685    
G1   X102.545      Y23.007    
G17 G3   X102.0735     Y23.2025      R1.9685    
G1   X103.051      Y22.941    
G17 G3   X102.5449     Y23.0072      R1.9685    
G1   X103.557   
G17 G3   X103.0508     Y22.9406      R1.9685    
G1   X104.028      Y23.202    
G17 G3   X103.5567     Y23.0072      R1.9685    
G1   X104.433      Y23.513    
G17 G3   X104.0282     Y23.2025      R1.9685    
G1   X104.744      Y23.918    
G17 G3   X104.4330     Y23.5131      R1.9685    
G1   X104.939      Y24.389    
G17 G3   X104.7437     Y23.9180      R1.9685    
G1   X105.006      Y24.895    
G17 G3   X104.9389     Y24.3894      R1.9685    
G1   Y25.401    
G17 G3   X105.0055     Y24.8953      R1.9685    
G1   X104.744      Y25.873    
G17 G3   X104.9389     Y25.4012      R1.9685    
G1   X104.433      Y26.277    
G17 G3   X104.7437     Y25.8727      R1.9685    
G1   X104.028      Y26.588    
G17 G3   X104.4330     Y26.2775      R1.9685    
G1   X103.557      Y26.783    
G17 G3   X104.0282     Y26.5881      R1.9685    
G1   X103.051      Y26.850    
G17 G3   X103.5567     Y26.7834      R1.9685    
G1   X102.545   
G17 G3   X103.0508     Y26.8500      R1.9685    
G1   X102.073      Y26.588    
G17 G3   X102.5449     Y26.7834      R1.9685    
G1   X101.669      Y26.277    
G17 G3   X102.0735     Y26.5881      R1.9685    
(Pass: 4)
G1   X101.358      Y25.873    
   Z-0.800     F100 
G17 G3   X101.6687     Y26.2775      R1.9685     F400 
G1   X101.163      Y25.401    
G17 G3   X101.3580     Y25.8727      R1.9685    
G1   X101.096      Y24.895    
G17 G3   X101.1627     Y25.4012      R1.9685    
G1   Y24.389    
G17 G3   X101.0961     Y24.8953      R1.9685    
G1   X101.358      Y23.918    
G17 G3   X101.1627     Y24.3894      R1.9685    
G1   X101.669      Y23.513    
G17 G3   X101.3580     Y23.9180      R1.9685    
G1   X102.073      Y23.202    
G17 G3   X101.6687     Y23.5131      R1.9685    
G1   X102.545      Y23.007    
G17 G3   X102.0735     Y23.2025      R1.9685    
G1   X103.051      Y22.941    
G17 G3   X102.5449     Y23.0072      R1.9685    
G1   X103.557   
G17 G3   X103.0508     Y22.9406      R1.9685    
G1   X104.028      Y23.202    
G17 G3   X103.5567     Y23.0072      R1.9685    
G1   X104.433      Y23.513    
G17 G3   X104.0282     Y23.2025      R1.9685    
G1   X104.744      Y23.918    
G17 G3   X104.4330     Y23.5131      R1.9685    
G1   X104.939      Y24.389    
G17 G3   X104.7437     Y23.9180      R1.9685    
G1   X105.006      Y24.895    
G17 G3   X104.9389     Y24.3894      R1.9685    
G1   Y25.401    
G17 G3   X105.0055     Y24.8953      R1.9685    
G1   X104.744      Y25.873    
G17 G3   X104.9389     Y25.4012      R1.9685    
G1   X104.433      Y26.277    
G17 G3   X104.7437     Y25.8727      R1.9685    
G1   X104.028      Y26.588    
G17 G3   X104.4330     Y26.2775      R1.9685    
G1   X103.557      Y26.783    
G17 G3   X104.0282     Y26.5881      R1.9685    
G1   X103.051      Y26.850    
G17 G3   X103.5567     Y26.7834      R1.9685    
G1   X102.545   
G17 G3   X103.0508     Y26.8500      R1.9685    
G1   X102.073      Y26.588    
G17 G3   X102.5449     Y26.7834      R1.9685    
G1   X101.669      Y26.277    
G17 G3   X102.0735     Y26.5881      R1.9685    
(Pass: 5)
G1   X101.358      Y25.873    
   Z-0.960     F100 
G17 G3   X101.6687     Y26.2775      R1.9685     F400 
G1   X101.163      Y25.401    
G17 G3   X101.3580     Y25.8727      R1.9685    
G1   X101.096      Y24.895    
G17 G3   X101.1627     Y25.4012      R1.9685    
G1   Y24.389    
G17 G3   X101.0961     Y24.8953      R1.9685    
G1   X101.358      Y23.918    
G17 G3   X101.1627     Y24.3894      R1.9685    
G1   X101.669      Y23.513    
G17 G3   X101.3580     Y23.9180      R1.9685    
G1   X102.073      Y23.202    
G17 G3   X101.6687     Y23.5131      R1.9685    
G1   X102.545      Y23.007    
G17 G3   X102.0735     Y23.2025      R1.9685    
G1   X103.051      Y22.941    
G17 G3   X102.5449     Y23.0072      R1.9685    
G1   X103.557   
G17 G3   X103.0508     Y22.9406      R1.9685    
G1   X104.028      Y23.202    
G17 G3   X103.5567     Y23.0072      R1.9685    
G1   X104.433      Y23.513    
G17 G3   X104.0282     Y23.2025      R1.9685    
G1   X104.744      Y23.918    
G17 G3   X104.4330     Y23.5131      R1.9685    
G1   X104.939      Y24.389    
G17 G3   X104.7437     Y23.9180      R1.9685    
G1   X105.006      Y24.895    
G17 G3   X104.9389     Y24.3894      R1.9685    
G1   Y25.401    
G17 G3   X105.0055     Y24.8953      R1.9685    
G1   X104.744      Y25.873    
G17 G3   X104.9389     Y25.4012      R1.9685    
G1   X104.433      Y26.277    
G17 G3   X104.7437     Y25.8727      R1.9685    
G1   X104.028      Y26.588    
G17 G3   X104.4330     Y26.2775      R1.9685    
G1   X103.557      Y26.783    
G17 G3   X104.0282     Y26.5881      R1.9685    
G1   X103.051      Y26.850    
G17 G3   X103.5567     Y26.7834      R1.9685    
G1   X102.545   
G17 G3   X103.0508     Y26.8500      R1.9685    
G1   X102.073      Y26.588    
G17 G3   X102.5449     Y26.7834      R1.9685    
G1   X101.669      Y26.277    
G17 G3   X102.0735     Y26.5881      R1.9685    
(BREAK pass 5)
G0   Z18.200    
(Pass: 1)
   X176.416      Y24.895    
G1   Z2.200      F100 
G17 G3   X176.4827     Y25.4012      R1.9685     F400 
G1   Y24.389    
G17 G3   X176.4161     Y24.8953      R1.9685    
G1   X176.678      Y23.918    
G17 G3   X176.4827     Y24.3894      R1.9685    
G1   X176.989      Y23.513    
G17 G3   X176.6780     Y23.9180      R1.9685    
G1   X177.393      Y23.202    
G17 G3   X176.9887     Y23.5131      R1.9685    
G1   X177.865      Y23.007    
G17 G3   X177.3935     Y23.2025      R1.9685    
G1   X178.371      Y22.941    
G17 G3   X177.8649     Y23.0072      R1.9685    
G1   X178.877   
G17 G3   X178.3708     Y22.9406      R1.9685    
G1   X179.348      Y23.202    
G17 G3   X178.8767     Y23.0072      R1.9685    
G1   X179.753      Y23.513    
G17 G3   X179.3482     Y23.2025      R1.9685    
G1   X180.064      Y23.918    
G17 G3   X179.7530     Y23.5131      R1.9685    
G1   X180.259      Y24.389    
G17 G3   X180.0637     Y23.9180      R1.9685    
G1   X180.326      Y24.895    
G17 G3   X180.2589     Y24.3894      R1.9685    
G1   Y25.401    
G17 G3   X180.3255     Y24.8953      R1.9685    
G1   X180.064      Y25.873    
G17 G3   X180.2589     Y25.4012      R1.9685    
G1   X179.753      Y26.277    
G17 G3   X180.0637     Y25.8727      R1.9685    
G1   X179.348      Y26.588    
G17 G3   X179.7530     Y26.2775      R1.9685    
G1   X178.877      Y26.783    
G17 G3   X179.3482     Y26.5881      R1.9685    
G1   X178.371      Y26.850    
G17 G3   X178.8767     Y26.7834      R1.9685    
G1   X177.865   
G17 G3   X178.3708     Y26.8500      R1.9685    
G1   X177.393      Y26.588    
G17 G3   X177.8649     Y26.7834      R1.9685    
G1   X176.989      Y26.277    
G17 G3   X177.3935     Y26.5881      R1.9685    
G1   X176.678      Y25.873    
G17 G3   X176.9887     Y26.2775      R1.9685    
G1   X176.483      Y25.401    
G17 G3   X176.6780     Y25.8727      R1.9685    
(Pass: 2)
G1   X176.416      Y24.895    
   Z1.200      F100 
G17 G3   X176.4827     Y25.4012      R1.9685     F400 
G1   Y24.389    
G17 G3   X176.4161     Y24.8953      R1.9685    
G1   X176.678      Y23.918    
G17 G3   X176.4827     Y24.3894      R1.9685    
G1   X176.989      Y23.513    
G17 G3   X176.6780     Y23.9180      R1.9685    
G1   X177.393      Y23.202    
G17 G3   X176.9887     Y23.5131      R1.9685    
G1   X177.865      Y23.007    
G17 G3   X177.3935     Y23.2025      R1.9685    
G1   X178.371      Y22.941    
G17 G3   X177.8649     Y23.0072      R1.9685    
G1   X178.877   
G17 G3   X178.3708     Y22.9406      R1.9685    
G1   X179.348      Y23.202    
G17 G3   X178.8767     Y23.0072      R1.9685    
G1   X179.753      Y23.513    
G17 G3   X179.3482     Y23.2025      R1.9685    
G1   X180.064      Y23.918    
G17 G3   X179.7530     Y23.5131      R1.9685    
G1   X180.259      Y24.389    
G17 G3   X180.0637     Y23.9180      R1.9685    
G1   X180.326      Y24.895    
G17 G3   X180.2589     Y24.3894      R1.9685    
G1   Y25.401    
G17 G3   X180.3255     Y24.8953      R1.9685    
G1   X180.064      Y25.873    
G17 G3   X180.2589     Y25.4012      R1.9685    
G1   X179.753      Y26.277    
G17 G3   X180.0637     Y25.8727      R1.9685    
G1   X179.348      Y26.588    
G17 G3   X179.7530     Y26.2775      R1.9685    
G1   X178.877      Y26.783    
G17 G3   X179.3482     Y26.5881      R1.9685    
G1   X178.371      Y26.850    
G17 G3   X178.8767     Y26.7834      R1.9685    
G1   X177.865   
G17 G3   X178.3708     Y26.8500      R1.9685    
G1   X177.393      Y26.588    
G17 G3   X177.8649     Y26.7834      R1.9685    
G1   X176.989      Y26.277    
G17 G3   X177.3935     Y26.5881      R1.9685    
G1   X176.678      Y25.873    
G17 G3   X176.9887     Y26.2775      R1.9685    
G1   X176.483      Y25.401    
G17 G3   X176.6780     Y25.8727      R1.9685    
(Pass: 3)
G1   X176.416      Y24.895    
   Z0.200      F100 
G17 G3   X176.4827     Y25.4012      R1.9685     F400 
G1   Y24.389    
G17 G3   X176.4161     Y24.8953      R1.9685    
G1   X176.678      Y23.918    
G17 G3   X176.4827     Y24.3894      R1.9685    
G1   X176.989      Y23.513    
G17 G3   X176.6780     Y23.9180      R1.9685    
G1   X177.393      Y23.202    
G17 G3   X176.9887     Y23.5131      R1.9685    
G1   X177.865      Y23.007    
G17 G3   X177.3935     Y23.2025      R1.9685    
G1   X178.371      Y22.941    
G17 G3   X177.8649     Y23.0072      R1.9685    
G1   X178.877   
G17 G3   X178.3708     Y22.9406      R1.9685    
G1   X179.348      Y23.202    
G17 G3   X178.8767     Y23.0072      R1.9685    
G1   X179.753      Y23.513    
G17 G3   X179.3482     Y23.2025      R1.9685    
G1   X180.064      Y23.918    
G17 G3   X179.7530     Y23.5131      R1.9685    
G1   X180.259      Y24.389    
G17 G3   X180.0637     Y23.9180      R1.9685    
G1   X180.326      Y24.895    
G17 G3   X180.2589     Y24.3894      R1.9685    
G1   Y25.401    
G17 G3   X180.3255     Y24.8953      R1.9685    
G1   X180.064      Y25.873    
G17 G3   X180.2589     Y25.4012      R1.9685    
G1   X179.753      Y26.277    
G17 G3   X180.0637     Y25.8727      R1.9685    
G1   X179.348      Y26.588    
G17 G3   X179.7530     Y26.2775      R1.9685    
G1   X178.877      Y26.783    
G17 G3   X179.3482     Y26.5881      R1.9685    
G1   X178.371      Y26.850    
G17 G3   X178.8767     Y26.7834      R1.9685    
G1   X177.865   
G17 G3   X178.3708     Y26.8500      R1.9685    
G1   X177.393      Y26.588    
G17 G3   X177.8649     Y26.7834      R1.9685    
G1   X176.989      Y26.277    
G17 G3   X177.3935     Y26.5881      R1.9685    
G1   X176.678      Y25.873    
G17 G3   X176.9887     Y26.2775      R1.9685    
G1   X176.483      Y25.401    
G17 G3   X176.6780     Y25.8727      R1.9685    
(Pass: 4)
G1   X176.416      Y24.895    
   Z-0.800     F100 
G17 G3   X176.4827     Y25.4012      R1.9685     F400 
G1   Y24.389    
G17 G3   X176.4161     Y24.8953      R1.9685    
G1   X176.678      Y23.918    
G17 G3   X176.4827     Y24.3894      R1.9685    
G1   X176.989      Y23.513    
G17 G3   X176.6780     Y23.9180      R1.9685    
G1   X177.393      Y23.202    
G17 G3   X176.9887     Y23.5131      R1.9685    
G1   X177.865      Y23.007    
G17 G3   X177.3935     Y23.2025      R1.9685    
G1   X178.371      Y22.941    
G17 G3   X177.8649     Y23.0072      R1.9685    
G1   X178.877   
G17 G3   X178.3708     Y22.9406      R1.9685    
G1   X179.348      Y23.202    
G17 G3   X178.8767     Y23.0072      R1.9685    
G1   X179.753      Y23.513    
G17 G3   X179.3482     Y23.2025      R1.9685    
G1   X180.064      Y23.918    
G17 G3   X179.7530     Y23.5131      R1.9685    
G1   X180.259      Y24.389    
G17 G3   X180.0637     Y23.9180      R1.9685    
G1   X180.326      Y24.895    
G17 G3   X180.2589     Y24.3894      R1.9685    
G1   Y25.401    
G17 G3   X180.3255     Y24.8953      R1.9685    
G1   X180.064      Y25.873    
G17 G3   X180.2589     Y25.4012      R1.9685    
G1   X179.753      Y26.277    
G17 G3   X180.0637     Y25.8727      R1.9685    
G1   X179.348      Y26.588    
G17 G3   X179.7530     Y26.2775      R1.9685    
G1   X178.877      Y26.783    
G17 G3   X179.3482     Y26.5881      R1.9685    
G1   X178.371      Y26.850    
G17 G3   X178.8767     Y26.7834      R1.9685    
G1   X177.865   
G17 G3   X178.3708     Y26.8500      R1.9685    
G1   X177.393      Y26.588    
G17 G3   X177.8649     Y26.7834      R1.9685    
G1   X176.989      Y26.277    
G17 G3   X177.3935     Y26.5881      R1.9685    
G1   X176.678      Y25.873    
G17 G3   X176.9887     Y26.2775      R1.9685    
G1   X176.483      Y25.401    
G17 G3   X176.6780     Y25.8727      R1.9685    
(Pass: 5)
G1   X176.416      Y24.895    
   Z-0.960     F100 
G17 G3   X176.4827     Y25.4012      R1.9685     F400 
G1   Y24.389    
G17 G3   X176.4161     Y24.8953      R1.9685    
G1   X176.678      Y23.918    
G17 G3   X176.4827     Y24.3894      R1.9685    
G1   X176.989      Y23.513    
G17 G3   X176.6780     Y23.9180      R1.9685    
G1   X177.393      Y23.202    
G17 G3   X176.9887     Y23.5131      R1.9685    
G1   X177.865      Y23.007    
G17 G3   X177.3935     Y23.2025      R1.9685    
G1   X178.371      Y22.941    
G17 G3   X177.8649     Y23.0072      R1.9685    
G1   X178.877   
G17 G3   X178.3708     Y22.9406      R1.9685    
G1   X179.348      Y23.202    
G17 G3   X178.8767     Y23.0072      R1.9685    
G1   X179.753      Y23.513    
G17 G3   X179.3482     Y23.2025      R1.9685    
G1   X180.064      Y23.918    
G17 G3   X179.7530     Y23.5131      R1.9685    
G1   X180.259      Y24.389    
G17 G3   X180.0637     Y23.9180      R1.9685    
G1   X180.326      Y24.895    
G17 G3   X180.2589     Y24.3894      R1.9685    
G1   Y25.401    
G17 G3   X180.3255     Y24.8953      R1.9685    
G1   X180.064      Y25.873    
G17 G3   X180.2589     Y25.4012      R1.9685    
G1   X179.753      Y26.277    
G17 G3   X180.0637     Y25.8727      R1.9685    
G1   X179.348      Y26.588    
G17 G3   X179.7530     Y26.2775      R1.9685    
G1   X178.877      Y26.783    
G17 G3   X179.3482     Y26.5881      R1.9685    
G1   X178.371      Y26.850    
G17 G3   X178.8767     Y26.7834      R1.9685    
G1   X177.865   
G17 G3   X178.3708     Y26.8500      R1.9685    
G1   X177.393      Y26.588    
G17 G3   X177.8649     Y26.7834      R1.9685    
G1   X176.989      Y26.277    
G17 G3   X177.3935     Y26.5881      R1.9685    
G1   X176.678      Y25.873    
G17 G3   X176.9887     Y26.2775      R1.9685    
G1   X176.483      Y25.401    
G17 G3   X176.6780     Y25.8727      R1.9685    
(BREAK pass 5)
G0   Z18.200    
(Pass: 1)
   X187.280      Y34.799    
G1   Z2.200      F100 
G17 G3   X187.2036     Y35.0177      R0.9000     F400 
G1   X187.411      Y34.608    
G17 G3   X187.2803     Y34.7994      R0.9000    
G1   X187.587      Y34.458    
G17 G3   X187.4110     Y34.6085      R0.9000    
G1   X187.795      Y34.358    
G17 G3   X187.5865     Y34.4578      R0.9000    
G1   X188.022      Y34.315    
G17 G3   X187.7951     Y34.3578      R0.9000    
G1   X188.253   
G17 G3   X188.0225     Y34.3151      R0.9000    
G1   X188.471      Y34.410    
G17 G3   X188.2532     Y34.3328      R0.9000    
G1   X188.662      Y34.540    
G17 G3   X188.4714     Y34.4095      R0.9000    
G1   X188.813      Y34.716    
G17 G3   X188.6624     Y34.5401      R0.9000    
G1   X188.913      Y34.924    
G17 G3   X188.8130     Y34.7157      R0.9000    
G1   X188.956      Y35.152    
G17 G3   X188.9130     Y34.9243      R0.9000    
G1   Y35.382    
G17 G3   X188.9557     Y35.1517      R0.9000    
G1   X188.861      Y35.601    
G17 G3   X188.9381     Y35.3823      R0.9000    
G1   X188.731      Y35.792    
G17 G3   X188.8613     Y35.6006      R0.9000    
G1   X188.555      Y35.942    
G17 G3   X188.7307     Y35.7915      R0.9000    
G1   X188.347      Y36.042    
G17 G3   X188.5551     Y35.9422      R0.9000    
G1   X188.119      Y36.085    
G17 G3   X188.3466     Y36.0422      R0.9000    
G1   X188.056      Y36.080    
G17 G3   X188.1192     Y36.0849      R0.9000    
G1   X187.889   
G17 G3   X188.0565     Y36.0801      R0.9000    
G1   X187.670      Y35.990    
G17 G3   X187.8885     Y36.0672      R0.9000    
G1   X187.479      Y35.860    
G17 G3   X187.6703     Y35.9905      R0.9000    
G1   X187.329      Y35.684    
G17 G3   X187.4793     Y35.8599      R0.9000    
G1   X187.229      Y35.476    
G17 G3   X187.3287     Y35.6843      R0.9000    
G1   X187.186      Y35.248    
G17 G3   X187.2286     Y35.4757      R0.9000    
G1   Y35.018    
G17 G3   X187.1860     Y35.2483      R0.9000    
(Pass: 2)
G1   X187.280      Y34.799    
   Z1.200      F100 
G17 G3   X187.2036     Y35.0177      R0.9000     F400 
G1   X187.411      Y34.608    
G17 G3   X187.2803     Y34.7994      R0.9000    
G1   X187.587      Y34.458    
G17 G3   X187.4110     Y34.6085      R0.9000    
G1   X187.795      Y34.358    
G17 G3   X187.5865     Y34.4578      R0.9000    
G1   X188.022      Y34.315    
G17 G3   X187.7951     Y34.3578      R0.9000    
G1   X188.253   
G17 G3   X188.0225     Y34.3151      R0.9000    
G1   X188.471      Y34.410    
G17 G3   X188.2532     Y34.3328      R0.9000    
G1   X188.662      Y34.540    
G17 G3   X188.4714     Y34.4095      R0.9000    
G1   X188.813      Y34.716    
G17 G3   X188.6624     Y34.5401      R0.9000    
G1   X188.913      Y34.924    
G17 G3   X188.8130     Y34.7157      R0.9000    
G1   X188.956      Y35.152    
G17 G3   X188.9130     Y34.9243      R0.9000    
G1   Y35.382    
G17 G3   X188.9557     Y35.1517      R0.9000    
G1   X188.861      Y35.601    
G17 G3   X188.9381     Y35.3823      R0.9000    
G1   X188.731      Y35.792    
G17 G3   X188.8613     Y35.6006      R0.9000    
G1   X188.555      Y35.942    
G17 G3   X188.7307     Y35.7915      R0.9000    
G1   X188.347      Y36.042    
G17 G3   X188.5551     Y35.9422      R0.9000    
G1   X188.119      Y36.085    
G17 G3   X188.3466     Y36.0422      R0.9000    
G1   X188.056      Y36.080    
G17 G3   X188.1192     Y36.0849      R0.9000    
G1   X187.889   
G17 G3   X188.0565     Y36.0801      R0.9000    
G1   X187.670      Y35.990    
G17 G3   X187.8885     Y36.0672      R0.9000    
G1   X187.479      Y35.860    
G17 G3   X187.6703     Y35.9905      R0.9000    
G1   X187.329      Y35.684    
G17 G3   X187.4793     Y35.8599      R0.9000    
G1   X187.229      Y35.476    
G17 G3   X187.3287     Y35.6843      R0.9000    
G1   X187.186      Y35.248    
G17 G3   X187.2286     Y35.4757      R0.9000    
G1   Y35.018    
G17 G3   X187.1860     Y35.2483      R0.9000    
(Pass: 3)
G1   X187.280      Y34.799    
   Z0.200      F100 
G17 G3   X187.2036     Y35.0177      R0.9000     F400 
G1   X187.411      Y34.608    
G17 G3   X187.2803     Y34.7994      R0.9000    
G1   X187.587      Y34.458    
G17 G3   X187.4110     Y34.6085      R0.9000    
G1   X187.795      Y34.358    
G17 G3   X187.5865     Y34.4578      R0.9000    
G1   X188.022      Y34.315    
G17 G3   X187.7951     Y34.3578      R0.9000    
G1   X188.253   
G17 G3   X188.0225     Y34.3151      R0.9000    
G1   X188.471      Y34.410    
G17 G3   X188.2532     Y34.3328      R0.9000    
G1   X188.662      Y34.540    
G17 G3   X188.4714     Y34.4095      R0.9000    
G1   X188.813      Y34.716    
G17 G3   X188.6624     Y34.5401      R0.9000    
G1   X188.913      Y34.924    
G17 G3   X188.8130     Y34.7157      R0.9000    
G1   X188.956      Y35.152    
G17 G3   X188.9130     Y34.9243      R0.9000    
G1   Y35.382    
G17 G3   X188.9557     Y35.1517      R0.9000    
G1   X188.861      Y35.601    
G17 G3   X188.9381     Y35.3823      R0.9000    
G1   X188.731      Y35.792    
G17 G3   X188.8613     Y35.6006      R0.9000    
G1   X188.555      Y35.942    
G17 G3   X188.7307     Y35.7915      R0.9000    
G1   X188.347      Y36.042    
G17 G3   X188.5551     Y35.9422      R0.9000    
G1   X188.119      Y36.085    
G17 G3   X188.3466     Y36.0422      R0.9000    
G1   X188.056      Y36.080    
G17 G3   X188.1192     Y36.0849      R0.9000    
G1   X187.889   
G17 G3   X188.0565     Y36.0801      R0.9000    
G1   X187.670      Y35.990    
G17 G3   X187.8885     Y36.0672      R0.9000    
G1   X187.479      Y35.860    
G17 G3   X187.6703     Y35.9905      R0.9000    
G1   X187.329      Y35.684    
G17 G3   X187.4793     Y35.8599      R0.9000    
G1   X187.229      Y35.476    
G17 G3   X187.3287     Y35.6843      R0.9000    
G1   X187.186      Y35.248    
G17 G3   X187.2286     Y35.4757      R0.9000    
G1   Y35.018    
G17 G3   X187.1860     Y35.2483      R0.9000    
(Pass: 4)
G1   X187.280      Y34.799    
   Z-0.800     F100 
G17 G3   X187.2036     Y35.0177      R0.9000     F400 
G1   X187.411      Y34.608    
G17 G3   X187.2803     Y34.7994      R0.9000    
G1   X187.587      Y34.458    
G17 G3   X187.4110     Y34.6085      R0.9000    
G1   X187.795      Y34.358    
G17 G3   X187.5865     Y34.4578      R0.9000    
G1   X188.022      Y34.315    
G17 G3   X187.7951     Y34.3578      R0.9000    
G1   X188.253   
G17 G3   X188.0225     Y34.3151      R0.9000    
G1   X188.471      Y34.410    
G17 G3   X188.2532     Y34.3328      R0.9000    
G1   X188.662      Y34.540    
G17 G3   X188.4714     Y34.4095      R0.9000    
G1   X188.813      Y34.716    
G17 G3   X188.6624     Y34.5401      R0.9000    
G1   X188.913      Y34.924    
G17 G3   X188.8130     Y34.7157      R0.9000    
G1   X188.956      Y35.152    
G17 G3   X188.9130     Y34.9243      R0.9000    
G1   Y35.382    
G17 G3   X188.9557     Y35.1517      R0.9000    
G1   X188.861      Y35.601    
G17 G3   X188.9381     Y35.3823      R0.9000    
G1   X188.731      Y35.792    
G17 G3   X188.8613     Y35.6006      R0.9000    
G1   X188.555      Y35.942    
G17 G3   X188.7307     Y35.7915      R0.9000    
G1   X188.347      Y36.042    
G17 G3   X188.5551     Y35.9422      R0.9000    
G1   X188.119      Y36.085    
G17 G3   X188.3466     Y36.0422      R0.9000    
G1   X188.056      Y36.080    
G17 G3   X188.1192     Y36.0849      R0.9000    
G1   X187.889   
G17 G3   X188.0565     Y36.0801      R0.9000    
G1   X187.670      Y35.990    
G17 G3   X187.8885     Y36.0672      R0.9000    
G1   X187.479      Y35.860    
G17 G3   X187.6703     Y35.9905      R0.9000    
G1   X187.329      Y35.684    
G17 G3   X187.4793     Y35.8599      R0.9000    
G1   X187.229      Y35.476    
G17 G3   X187.3287     Y35.6843      R0.9000    
G1   X187.186      Y35.248    
G17 G3   X187.2286     Y35.4757      R0.9000    
G1   Y35.018    
G17 G3   X187.1860     Y35.2483      R0.9000    
(Pass: 5)
G1   X187.280      Y34.799    
   Z-0.960     F100 
G17 G3   X187.2036     Y35.0177      R0.9000     F400 
G1   X187.411      Y34.608    
G17 G3   X187.2803     Y34.7994      R0.9000    
G1   X187.587      Y34.458    
G17 G3   X187.4110     Y34.6085      R0.9000    
G1   X187.795      Y34.358    
G17 G3   X187.5865     Y34.4578      R0.9000    
G1   X188.022      Y34.315    
G17 G3   X187.7951     Y34.3578      R0.9000    
G1   X188.253   
G17 G3   X188.0225     Y34.3151      R0.9000    
G1   X188.471      Y34.410    
G17 G3   X188.2532     Y34.3328      R0.9000    
G1   X188.662      Y34.540    
G17 G3   X188.4714     Y34.4095      R0.9000    
G1   X188.813      Y34.716    
G17 G3   X188.6624     Y34.5401      R0.9000    
G1   X188.913      Y34.924    
G17 G3   X188.8130     Y34.7157      R0.9000    
G1   X188.956      Y35.152    
G17 G3   X188.9130     Y34.9243      R0.9000    
G1   Y35.382    
G17 G3   X188.9557     Y35.1517      R0.9000    
G1   X188.861      Y35.601    
G17 G3   X188.9381     Y35.3823      R0.9000    
G1   X188.731      Y35.792    
G17 G3   X188.8613     Y35.6006      R0.9000    
G1   X188.555      Y35.942    
G17 G3   X188.7307     Y35.7915      R0.9000    
G1   X188.347      Y36.042    
G17 G3   X188.5551     Y35.9422      R0.9000    
G1   X188.119      Y36.085    
G17 G3   X188.3466     Y36.0422      R0.9000    
G1   X188.056      Y36.080    
G17 G3   X188.1192     Y36.0849      R0.9000    
G1   X187.889   
G17 G3   X188.0565     Y36.0801      R0.9000    
G1   X187.670      Y35.990    
G17 G3   X187.8885     Y36.0672      R0.9000    
G1   X187.479      Y35.860    
G17 G3   X187.6703     Y35.9905      R0.9000    
G1   X187.329      Y35.684    
G17 G3   X187.4793     Y35.8599      R0.9000    
G1   X187.229      Y35.476    
G17 G3   X187.3287     Y35.6843      R0.9000    
G1   X187.186      Y35.248    
G17 G3   X187.2286     Y35.4757      R0.9000    
G1   Y35.018    
G17 G3   X187.1860     Y35.2483      R0.9000    
(BREAK pass 5)
G0   Z18.200    
(Pass: 1)
   X187.995      Y44.349    
G1   Z2.200      F100 
G17 G3   X187.7692     Y44.3991      R0.9000     F400 
G1   X188.226      Y44.360    
G17 G3   X187.9952     Y44.3494      R0.9000    
G1   X188.447      Y44.430    
G17 G3   X188.2263     Y44.3599      R0.9000    
G1   X188.642      Y44.555    
G17 G3   X188.4468     Y44.4299      R0.9000    
G1   X188.798      Y44.725    
G17 G3   X188.6417     Y44.5545      R0.9000    
G1   X188.904      Y44.931    
G17 G3   X188.7977     Y44.7253      R0.9000    
G1   X188.954      Y45.157    
G17 G3   X188.9041     Y44.9307      R0.9000    
G1   X188.943      Y45.388    
G17 G3   X188.9538     Y45.1567      R0.9000    
G1   X188.873      Y45.608    
G17 G3   X188.9433     Y45.3878      R0.9000    
G1   X188.749      Y45.803    
G17 G3   X188.8733     Y45.6083      R0.9000    
G1   X188.578      Y45.959    
G17 G3   X188.7487     Y45.8032      R0.9000    
G1   X188.372      Y46.066    
G17 G3   X188.5779     Y45.9592      R0.9000    
G1   X188.111      Y46.123    
G17 G3   X188.3725     Y46.0656      R0.9000    
G1   X188.013      Y46.123    
G17 G3   X188.1105     Y46.1232      R0.9000    
G1   X187.956   
G17 G3   X188.0127     Y46.1232      R0.9000    
G1   X187.695      Y46.035    
G17 G3   X187.9559     Y46.1176      R0.9000    
G1   X187.500      Y45.910    
G17 G3   X187.6949     Y46.0349      R0.9000    
G1   X187.344      Y45.739    
G17 G3   X187.5000     Y45.9102      R0.9000    
G1   X187.238      Y45.534    
G17 G3   X187.3440     Y45.7394      R0.9000    
G1   X187.188      Y45.308    
G17 G3   X187.2376     Y45.5340      R0.9000    
G1   X187.198      Y45.077    
G17 G3   X187.1879     Y45.3080      R0.9000    
G1   X187.268      Y44.856    
G17 G3   X187.1984     Y45.0769      R0.9000    
G1   X187.393      Y44.662    
G17 G3   X187.2683     Y44.8564      R0.9000    
G1   X187.564      Y44.506    
G17 G3   X187.3930     Y44.6615      R0.9000    
G1   X187.769      Y44.399    
G17 G3   X187.5638     Y44.5055      R0.9000    
(Pass: 2)
G1   X187.995      Y44.349    
   Z1.200      F100 
G17 G3   X187.7692     Y44.3991      R0.9000     F400 
G1   X188.226      Y44.360    
G17 G3   X187.9952     Y44.3494      R0.9000    
G1   X188.447      Y44.430    
G17 G3   X188.2263     Y44.3599      R0.9000    
G1   X188.642      Y44.555    
G17 G3   X188.4468     Y44.4299      R0.9000    
G1   X188.798      Y44.725    
G17 G3   X188.6417     Y44.5545      R0.9000    
G1   X188.904      Y44.931    
G17 G3   X188.7977     Y44.7253      R0.9000    
G1   X188.954      Y45.157    
G17 G3   X188.9041     Y44.9307      R0.9000    
G1   X188.943      Y45.388    
G17 G3   X188.9538     Y45.1567      R0.9000    
G1   X188.873      Y45.608    
G17 G3   X188.9433     Y45.3878      R0.9000    
G1   X188.749      Y45.803    
G17 G3   X188.8733     Y45.6083      R0.9000    
G1   X188.578      Y45.959    
G17 G3   X188.7487     Y45.8032      R0.9000    
G1   X188.372      Y46.066    
G17 G3   X188.5779     Y45.9592      R0.9000    
G1   X188.111      Y46.123    
G17 G3   X188.3725     Y46.0656      R0.9000    
G1   X188.013      Y46.123    
G17 G3   X188.1105     Y46.1232      R0.9000    
G1   X187.956   
G17 G3   X188.0127     Y46.1232      R0.9000    
G1   X187.695      Y46.035    
G17 G3   X187.9559     Y46.1176      R0.9000    
G1   X187.500      Y45.910    
G17 G3   X187.6949     Y46.0349      R0.9000    
G1   X187.344      Y45.739    
G17 G3   X187.5000     Y45.9102      R0.9000    
G1   X187.238      Y45.534    
G17 G3   X187.3440     Y45.7394      R0.9000    
G1   X187.188      Y45.308    
G17 G3   X187.2376     Y45.5340      R0.9000    
G1   X187.198      Y45.077    
G17 G3   X187.1879     Y45.3080      R0.9000    
G1   X187.268      Y44.856    
G17 G3   X187.1984     Y45.0769      R0.9000    
G1   X187.393      Y44.662    
G17 G3   X187.2683     Y44.8564      R0.9000    
G1   X187.564      Y44.506    
G17 G3   X187.3930     Y44.6615      R0.9000    
G1   X187.769      Y44.399    
G17 G3   X187.5638     Y44.5055      R0.9000    
(Pass: 3)
G1   X187.995      Y44.349    
   Z0.200      F100 
G17 G3   X187.7692     Y44.3991      R0.9000     F400 
G1   X188.226      Y44.360    
G17 G3   X187.9952     Y44.3494      R0.9000    
G1   X188.447      Y44.430    
G17 G3   X188.2263     Y44.3599      R0.9000    
G1   X188.642      Y44.555    
G17 G3   X188.4468     Y44.4299      R0.9000    
G1   X188.798      Y44.725    
G17 G3   X188.6417     Y44.5545      R0.9000    
G1   X188.904      Y44.931    
G17 G3   X188.7977     Y44.7253      R0.9000    
G1   X188.954      Y45.157    
G17 G3   X188.9041     Y44.9307      R0.9000    
G1   X188.943      Y45.388    
G17 G3   X188.9538     Y45.1567      R0.9000    
G1   X188.873      Y45.608    
G17 G3   X188.9433     Y45.3878      R0.9000    
G1   X188.749      Y45.803    
G17 G3   X188.8733     Y45.6083      R0.9000    
G1   X188.578      Y45.959    
G17 G3   X188.7487     Y45.8032      R0.9000    
G1   X188.372      Y46.066    
G17 G3   X188.5779     Y45.9592      R0.9000    
G1   X188.111      Y46.123    
G17 G3   X188.3725     Y46.0656      R0.9000    
G1   X188.013      Y46.123    
G17 G3   X188.1105     Y46.1232      R0.9000    
G1   X187.956   
G17 G3   X188.0127     Y46.1232      R0.9000    
G1   X187.695      Y46.035    
G17 G3   X187.9559     Y46.1176      R0.9000    
G1   X187.500      Y45.910    
G17 G3   X187.6949     Y46.0349      R0.9000    
G1   X187.344      Y45.739    
G17 G3   X187.5000     Y45.9102      R0.9000    
G1   X187.238      Y45.534    
G17 G3   X187.3440     Y45.7394      R0.9000    
G1   X187.188      Y45.308    
G17 G3   X187.2376     Y45.5340      R0.9000    
G1   X187.198      Y45.077    
G17 G3   X187.1879     Y45.3080      R0.9000    
G1   X187.268      Y44.856    
G17 G3   X187.1984     Y45.0769      R0.9000    
G1   X187.393      Y44.662    
G17 G3   X187.2683     Y44.8564      R0.9000    
G1   X187.564      Y44.506    
G17 G3   X187.3930     Y44.6615      R0.9000    
G1   X187.769      Y44.399    
G17 G3   X187.5638     Y44.5055      R0.9000    
(Pass: 4)
G1   X187.995      Y44.349    
   Z-0.800     F100 
G17 G3   X187.7692     Y44.3991      R0.9000     F400 
G1   X188.226      Y44.360    
G17 G3   X187.9952     Y44.3494      R0.9000    
G1   X188.447      Y44.430    
G17 G3   X188.2263     Y44.3599      R0.9000    
G1   X188.642      Y44.555    
G17 G3   X188.4468     Y44.4299      R0.9000    
G1   X188.798      Y44.725    
G17 G3   X188.6417     Y44.5545      R0.9000    
G1   X188.904      Y44.931    
G17 G3   X188.7977     Y44.7253      R0.9000    
G1   X188.954      Y45.157    
G17 G3   X188.9041     Y44.9307      R0.9000    
G1   X188.943      Y45.388    
G17 G3   X188.9538     Y45.1567      R0.9000    
G1   X188.873      Y45.608    
G17 G3   X188.9433     Y45.3878      R0.9000    
G1   X188.749      Y45.803    
G17 G3   X188.8733     Y45.6083      R0.9000    
G1   X188.578      Y45.959    
G17 G3   X188.7487     Y45.8032      R0.9000    
G1   X188.372      Y46.066    
G17 G3   X188.5779     Y45.9592      R0.9000    
G1   X188.111      Y46.123    
G17 G3   X188.3725     Y46.0656      R0.9000    
G1   X188.013      Y46.123    
G17 G3   X188.1105     Y46.1232      R0.9000    
G1   X187.956   
G17 G3   X188.0127     Y46.1232      R0.9000    
G1   X187.695      Y46.035    
G17 G3   X187.9559     Y46.1176      R0.9000    
G1   X187.500      Y45.910    
G17 G3   X187.6949     Y46.0349      R0.9000    
G1   X187.344      Y45.739    
G17 G3   X187.5000     Y45.9102      R0.9000    
G1   X187.238      Y45.534    
G17 G3   X187.3440     Y45.7394      R0.9000    
G1   X187.188      Y45.308    
G17 G3   X187.2376     Y45.5340      R0.9000    
G1   X187.198      Y45.077    
G17 G3   X187.1879     Y45.3080      R0.9000    
G1   X187.268      Y44.856    
G17 G3   X187.1984     Y45.0769      R0.9000    
G1   X187.393      Y44.662    
G17 G3   X187.2683     Y44.8564      R0.9000    
G1   X187.564      Y44.506    
G17 G3   X187.3930     Y44.6615      R0.9000    
G1   X187.769      Y44.399    
G17 G3   X187.5638     Y44.5055      R0.9000    
(Pass: 5)
G1   X187.995      Y44.349    
   Z-0.960     F100 
G17 G3   X187.7692     Y44.3991      R0.9000     F400 
G1   X188.226      Y44.360    
G17 G3   X187.9952     Y44.3494      R0.9000    
G1   X188.447      Y44.430    
G17 G3   X188.2263     Y44.3599      R0.9000    
G1   X188.642      Y44.555    
G17 G3   X188.4468     Y44.4299      R0.9000    
G1   X188.798      Y44.725    
G17 G3   X188.6417     Y44.5545      R0.9000    
G1   X188.904      Y44.931    
G17 G3   X188.7977     Y44.7253      R0.9000    
G1   X188.954      Y45.157    
G17 G3   X188.9041     Y44.9307      R0.9000    
G1   X188.943      Y45.388    
G17 G3   X188.9538     Y45.1567      R0.9000    
G1   X188.873      Y45.608    
G17 G3   X188.9433     Y45.3878      R0.9000    
G1   X188.749      Y45.803    
G17 G3   X188.8733     Y45.6083      R0.9000    
G1   X188.578      Y45.959    
G17 G3   X188.7487     Y45.8032      R0.9000    
G1   X188.372      Y46.066    
G17 G3   X188.5779     Y45.9592      R0.9000    
G1   X188.111      Y46.123    
G17 G3   X188.3725     Y46.0656      R0.9000    
G1   X188.013      Y46.123    
G17 G3   X188.1105     Y46.1232      R0.9000    
G1   X187.956   
G17 G3   X188.0127     Y46.1232      R0.9000    
G1   X187.695      Y46.035    
G17 G3   X187.9559     Y46.1176      R0.9000    
G1   X187.500      Y45.910    
G17 G3   X187.6949     Y46.0349      R0.9000    
G1   X187.344      Y45.739    
G17 G3   X187.5000     Y45.9102      R0.9000    
G1   X187.238      Y45.534    
G17 G3   X187.3440     Y45.7394      R0.9000    
G1   X187.188      Y45.308    
G17 G3   X187.2376     Y45.5340      R0.9000    
G1   X187.198      Y45.077    
G17 G3   X187.1879     Y45.3080      R0.9000    
G1   X187.268      Y44.856    
G17 G3   X187.1984     Y45.0769      R0.9000    
G1   X187.393      Y44.662    
G17 G3   X187.2683     Y44.8564      R0.9000    
G1   X187.564      Y44.506    
G17 G3   X187.3930     Y44.6615      R0.9000    
G1   X187.769      Y44.399    
G17 G3   X187.5638     Y44.5055      R0.9000    
(BREAK pass 5)
G0   Z18.200    
(Pass: 1)
   X178.371      Y124.649   
G1   Z2.200      F100 
G17 G3   X178.1415     Y124.6793     R0.9000     F400 
G1   X178.600   
G17 G3   X178.3708     Y124.6491     R0.9000    
G1   X178.814      Y124.768   
G17 G3   X178.6002     Y124.6793     R0.9000    
G1   X178.997      Y124.909   
G17 G3   X178.8139     Y124.7678     R0.9000    
G1   X179.138      Y125.092   
G17 G3   X178.9975     Y124.9087     R0.9000    
G1   X179.227      Y125.306   
G17 G3   X179.1383     Y125.0922     R0.9000    
G1   X179.257      Y125.535   
G17 G3   X179.2268     Y125.3059     R0.9000    
G1   Y125.765   
G17 G3   X179.2570     Y125.5353     R0.9000    
G1   X179.138      Y125.978   
G17 G3   X179.2268     Y125.7647     R0.9000    
G1   X178.997      Y126.162   
G17 G3   X179.1383     Y125.9784     R0.9000    
G1   X178.814      Y126.303   
G17 G3   X178.9975     Y126.1619     R0.9000    
G1   X178.600      Y126.391   
G17 G3   X178.8139     Y126.3028     R0.9000    
G1   X178.371      Y126.421   
G17 G3   X178.6002     Y126.3913     R0.9000    
G1   X178.141   
G17 G3   X178.3708     Y126.4215     R0.9000    
G1   X177.928      Y126.303   
G17 G3   X178.1415     Y126.3913     R0.9000    
G1   X177.744      Y126.162   
G17 G3   X177.9277     Y126.3028     R0.9000    
G1   X177.603      Y125.978   
G17 G3   X177.7442     Y126.1619     R0.9000    
G1   X177.515      Y125.765   
G17 G3   X177.6034     Y125.9784     R0.9000    
G1   X177.485      Y125.535   
G17 G3   X177.5148     Y125.7647     R0.9000    
G1   Y125.306   
G17 G3   X177.4846     Y125.5353     R0.9000    
G1   X177.603      Y125.092   
G17 G3   X177.5148     Y125.3059     R0.9000    
G1   X177.744      Y124.909   
G17 G3   X177.6034     Y125.0922     R0.9000    
G1   X177.928      Y124.768   
G17 G3   X177.7442     Y124.9087     R0.9000    
G1   X178.141      Y124.679   
G17 G3   X177.9277     Y124.7678     R0.9000    
(Pass: 2)
G1   X178.371      Y124.649   
   Z1.200      F100 
G17 G3   X178.1415     Y124.6793     R0.9000     F400 
G1   X178.600   
G17 G3   X178.3708     Y124.6491     R0.9000    
G1   X178.814      Y124.768   
G17 G3   X178.6002     Y124.6793     R0.9000    
G1   X178.997      Y124.909   
G17 G3   X178.8139     Y124.7678     R0.9000    
G1   X179.138      Y125.092   
G17 G3   X178.9975     Y124.9087     R0.9000    
G1   X179.227      Y125.306   
G17 G3   X179.1383     Y125.0922     R0.9000    
G1   X179.257      Y125.535   
G17 G3   X179.2268     Y125.3059     R0.9000    
G1   Y125.765   
G17 G3   X179.2570     Y125.5353     R0.9000    
G1   X179.138      Y125.978   
G17 G3   X179.2268     Y125.7647     R0.9000    
G1   X178.997      Y126.162   
G17 G3   X179.1383     Y125.9784     R0.9000    
G1   X178.814      Y126.303   
G17 G3   X178.9975     Y126.1619     R0.9000    
G1   X178.600      Y126.391   
G17 G3   X178.8139     Y126.3028     R0.9000    
G1   X178.371      Y126.421   
G17 G3   X178.6002     Y126.3913     R0.9000    
G1   X178.141   
G17 G3   X178.3708     Y126.4215     R0.9000    
G1   X177.928      Y126.303   
G17 G3   X178.1415     Y126.3913     R0.9000    
G1   X177.744      Y126.162   
G17 G3   X177.9277     Y126.3028     R0.9000    
G1   X177.603      Y125.978   
G17 G3   X177.7442     Y126.1619     R0.9000    
G1   X177.515      Y125.765   
G17 G3   X177.6034     Y125.9784     R0.9000    
G1   X177.485      Y125.535   
G17 G3   X177.5148     Y125.7647     R0.9000    
G1   Y125.306   
G17 G3   X177.4846     Y125.5353     R0.9000    
G1   X177.603      Y125.092   
G17 G3   X177.5148     Y125.3059     R0.9000    
G1   X177.744      Y124.909   
G17 G3   X177.6034     Y125.0922     R0.9000    
G1   X177.928      Y124.768   
G17 G3   X177.7442     Y124.9087     R0.9000    
G1   X178.141      Y124.679   
G17 G3   X177.9277     Y124.7678     R0.9000    
(Pass: 3)
G1   X178.371      Y124.649   
   Z0.200      F100 
G17 G3   X178.1415     Y124.6793     R0.9000     F400 
G1   X178.600   
G17 G3   X178.3708     Y124.6491     R0.9000    
G1   X178.814      Y124.768   
G17 G3   X178.6002     Y124.6793     R0.9000    
G1   X178.997      Y124.909   
G17 G3   X178.8139     Y124.7678     R0.9000    
G1   X179.138      Y125.092   
G17 G3   X178.9975     Y124.9087     R0.9000    
G1   X179.227      Y125.306   
G17 G3   X179.1383     Y125.0922     R0.9000    
G1   X179.257      Y125.535   
G17 G3   X179.2268     Y125.3059     R0.9000    
G1   Y125.765   
G17 G3   X179.2570     Y125.5353     R0.9000    
G1   X179.138      Y125.978   
G17 G3   X179.2268     Y125.7647     R0.9000    
G1   X178.997      Y126.162   
G17 G3   X179.1383     Y125.9784     R0.9000    
G1   X178.814      Y126.303   
G17 G3   X178.9975     Y126.1619     R0.9000    
G1   X178.600      Y126.391   
G17 G3   X178.8139     Y126.3028     R0.9000    
G1   X178.371      Y126.421   
G17 G3   X178.6002     Y126.3913     R0.9000    
G1   X178.141   
G17 G3   X178.3708     Y126.4215     R0.9000    
G1   X177.928      Y126.303   
G17 G3   X178.1415     Y126.3913     R0.9000    
G1   X177.744      Y126.162   
G17 G3   X177.9277     Y126.3028     R0.9000    
G1   X177.603      Y125.978   
G17 G3   X177.7442     Y126.1619     R0.9000    
G1   X177.515      Y125.765   
G17 G3   X177.6034     Y125.9784     R0.9000    
G1   X177.485      Y125.535   
G17 G3   X177.5148     Y125.7647     R0.9000    
G1   Y125.306   
G17 G3   X177.4846     Y125.5353     R0.9000    
G1   X177.603      Y125.092   
G17 G3   X177.5148     Y125.3059     R0.9000    
G1   X177.744      Y124.909   
G17 G3   X177.6034     Y125.0922     R0.9000    
G1   X177.928      Y124.768   
G17 G3   X177.7442     Y124.9087     R0.9000    
G1   X178.141      Y124.679   
G17 G3   X177.9277     Y124.7678     R0.9000    
(Pass: 4)
G1   X178.371      Y124.649   
   Z-0.800     F100 
G17 G3   X178.1415     Y124.6793     R0.9000     F400 
G1   X178.600   
G17 G3   X178.3708     Y124.6491     R0.9000    
G1   X178.814      Y124.768   
G17 G3   X178.6002     Y124.6793     R0.9000    
G1   X178.997      Y124.909   
G17 G3   X178.8139     Y124.7678     R0.9000    
G1   X179.138      Y125.092   
G17 G3   X178.9975     Y124.9087     R0.9000    
G1   X179.227      Y125.306   
G17 G3   X179.1383     Y125.0922     R0.9000    
G1   X179.257      Y125.535   
G17 G3   X179.2268     Y125.3059     R0.9000    
G1   Y125.765   
G17 G3   X179.2570     Y125.5353     R0.9000    
G1   X179.138      Y125.978   
G17 G3   X179.2268     Y125.7647     R0.9000    
G1   X178.997      Y126.162   
G17 G3   X179.1383     Y125.9784     R0.9000    
G1   X178.814      Y126.303   
G17 G3   X178.9975     Y126.1619     R0.9000    
G1   X178.600      Y126.391   
G17 G3   X178.8139     Y126.3028     R0.9000    
G1   X178.371      Y126.421   
G17 G3   X178.6002     Y126.3913     R0.9000    
G1   X178.141   
G17 G3   X178.3708     Y126.4215     R0.9000    
G1   X177.928      Y126.303   
G17 G3   X178.1415     Y126.3913     R0.9000    
G1   X177.744      Y126.162   
G17 G3   X177.9277     Y126.3028     R0.9000    
G1   X177.603      Y125.978   
G17 G3   X177.7442     Y126.1619     R0.9000    
G1   X177.515      Y125.765   
G17 G3   X177.6034     Y125.9784     R0.9000    
G1   X177.485      Y125.535   
G17 G3   X177.5148     Y125.7647     R0.9000    
G1   Y125.306   
G17 G3   X177.4846     Y125.5353     R0.9000    
G1   X177.603      Y125.092   
G17 G3   X177.5148     Y125.3059     R0.9000    
G1   X177.744      Y124.909   
G17 G3   X177.6034     Y125.0922     R0.9000    
G1   X177.928      Y124.768   
G17 G3   X177.7442     Y124.9087     R0.9000    
G1   X178.141      Y124.679   
G17 G3   X177.9277     Y124.7678     R0.9000    
(Pass: 5)
G1   X178.371      Y124.649   
   Z-0.960     F100 
G17 G3   X178.1415     Y124.6793     R0.9000     F400 
G1   X178.600   
G17 G3   X178.3708     Y124.6491     R0.9000    
G1   X178.814      Y124.768   
G17 G3   X178.6002     Y124.6793     R0.9000    
G1   X178.997      Y124.909   
G17 G3   X178.8139     Y124.7678     R0.9000    
G1   X179.138      Y125.092   
G17 G3   X178.9975     Y124.9087     R0.9000    
G1   X179.227      Y125.306   
G17 G3   X179.1383     Y125.0922     R0.9000    
G1   X179.257      Y125.535   
G17 G3   X179.2268     Y125.3059     R0.9000    
G1   Y125.765   
G17 G3   X179.2570     Y125.5353     R0.9000    
G1   X179.138      Y125.978   
G17 G3   X179.2268     Y125.7647     R0.9000    
G1   X178.997      Y126.162   
G17 G3   X179.1383     Y125.9784     R0.9000    
G1   X178.814      Y126.303   
G17 G3   X178.9975     Y126.1619     R0.9000    
G1   X178.600      Y126.391   
G17 G3   X178.8139     Y126.3028     R0.9000    
G1   X178.371      Y126.421   
G17 G3   X178.6002     Y126.3913     R0.9000    
G1   X178.141   
G17 G3   X178.3708     Y126.4215     R0.9000    
G1   X177.928      Y126.303   
G17 G3   X178.1415     Y126.3913     R0.9000    
G1   X177.744      Y126.162   
G17 G3   X177.9277     Y126.3028     R0.9000    
G1   X177.603      Y125.978   
G17 G3   X177.7442     Y126.1619     R0.9000    
G1   X177.515      Y125.765   
G17 G3   X177.6034     Y125.9784     R0.9000    
G1   X177.485      Y125.535   
G17 G3   X177.5148     Y125.7647     R0.9000    
G1   Y125.306   
G17 G3   X177.4846     Y125.5353     R0.9000    
G1   X177.603      Y125.092   
G17 G3   X177.5148     Y125.3059     R0.9000    
G1   X177.744      Y124.909   
G17 G3   X177.6034     Y125.0922     R0.9000    
G1   X177.928      Y124.768   
G17 G3   X177.7442     Y124.9087     R0.9000    
G1   X178.141      Y124.679   
G17 G3   X177.9277     Y124.7678     R0.9000    
(BREAK pass 5)
G0   Z18.200    
(Pass: 1)
   X139.257      Y125.535   
G1   Z2.200      F100 
G17 G3   X139.2268     Y125.3059     R0.9000     F400 
G1   Y125.765   
G17 G3   X139.2570     Y125.5353     R0.9000    
G1   X139.138      Y125.978   
G17 G3   X139.2268     Y125.7647     R0.9000    
G1   X138.997      Y126.162   
G17 G3   X139.1383     Y125.9784     R0.9000    
G1   X138.814      Y126.303   
G17 G3   X138.9975     Y126.1619     R0.9000    
G1   X138.600      Y126.391   
G17 G3   X138.8139     Y126.3028     R0.9000    
G1   X138.371      Y126.421   
G17 G3   X138.6002     Y126.3913     R0.9000    
G1   X138.141   
G17 G3   X138.3708     Y126.4215     R0.9000    
G1   X137.928      Y126.303   
G17 G3   X138.1415     Y126.3913     R0.9000    
G1   X137.744      Y126.162   
G17 G3   X137.9277     Y126.3028     R0.9000    
G1   X137.603      Y125.978   
G17 G3   X137.7442     Y126.1619     R0.9000    
G1   X137.515      Y125.765   
G17 G3   X137.6034     Y125.9784     R0.9000    
G1   X137.485      Y125.535   
G17 G3   X137.5148     Y125.7647     R0.9000    
G1   Y125.306   
G17 G3   X137.4846     Y125.5353     R0.9000    
G1   X137.603      Y125.092   
G17 G3   X137.5148     Y125.3059     R0.9000    
G1   X137.744      Y124.909   
G17 G3   X137.6034     Y125.0922     R0.9000    
G1   X137.928      Y124.768   
G17 G3   X137.7442     Y124.9087     R0.9000    
G1   X138.141      Y124.679   
G17 G3   X137.9277     Y124.7678     R0.9000    
G1   X138.371      Y124.649   
G17 G3   X138.1415     Y124.6793     R0.9000    
G1   X138.600   
G17 G3   X138.3708     Y124.6491     R0.9000    
G1   X138.814      Y124.768   
G17 G3   X138.6002     Y124.6793     R0.9000    
G1   X138.997      Y124.909   
G17 G3   X138.8139     Y124.7678     R0.9000    
G1   X139.138      Y125.092   
G17 G3   X138.9975     Y124.9087     R0.9000    
G1   X139.227      Y125.306   
G17 G3   X139.1383     Y125.0922     R0.9000    
(Pass: 2)
G1   X139.257      Y125.535   
   Z1.200      F100 
G17 G3   X139.2268     Y125.3059     R0.9000     F400 
G1   Y125.765   
G17 G3   X139.2570     Y125.5353     R0.9000    
G1   X139.138      Y125.978   
G17 G3   X139.2268     Y125.7647     R0.9000    
G1   X138.997      Y126.162   
G17 G3   X139.1383     Y125.9784     R0.9000    
G1   X138.814      Y126.303   
G17 G3   X138.9975     Y126.1619     R0.9000    
G1   X138.600      Y126.391   
G17 G3   X138.8139     Y126.3028     R0.9000    
G1   X138.371      Y126.421   
G17 G3   X138.6002     Y126.3913     R0.9000    
G1   X138.141   
G17 G3   X138.3708     Y126.4215     R0.9000    
G1   X137.928      Y126.303   
G17 G3   X138.1415     Y126.3913     R0.9000    
G1   X137.744      Y126.162   
G17 G3   X137.9277     Y126.3028     R0.9000    
G1   X137.603      Y125.978   
G17 G3   X137.7442     Y126.1619     R0.9000    
G1   X137.515      Y125.765   
G17 G3   X137.6034     Y125.9784     R0.9000    
G1   X137.485      Y125.535   
G17 G3   X137.5148     Y125.7647     R0.9000    
G1   Y125.306   
G17 G3   X137.4846     Y125.5353     R0.9000    
G1   X137.603      Y125.092   
G17 G3   X137.5148     Y125.3059     R0.9000    
G1   X137.744      Y124.909   
G17 G3   X137.6034     Y125.0922     R0.9000    
G1   X137.928      Y124.768   
G17 G3   X137.7442     Y124.9087     R0.9000    
G1   X138.141      Y124.679   
G17 G3   X137.9277     Y124.7678     R0.9000    
G1   X138.371      Y124.649   
G17 G3   X138.1415     Y124.6793     R0.9000    
G1   X138.600   
G17 G3   X138.3708     Y124.6491     R0.9000    
G1   X138.814      Y124.768   
G17 G3   X138.6002     Y124.6793     R0.9000    
G1   X138.997      Y124.909   
G17 G3   X138.8139     Y124.7678     R0.9000    
G1   X139.138      Y125.092   
G17 G3   X138.9975     Y124.9087     R0.9000    
G1   X139.227      Y125.306   
G17 G3   X139.1383     Y125.0922     R0.9000    
(Pass: 3)
G1   X139.257      Y125.535   
   Z0.200      F100 
G17 G3   X139.2268     Y125.3059     R0.9000     F400 
G1   Y125.765   
G17 G3   X139.2570     Y125.5353     R0.9000    
G1   X139.138      Y125.978   
G17 G3   X139.2268     Y125.7647     R0.9000    
G1   X138.997      Y126.162   
G17 G3   X139.1383     Y125.9784     R0.9000    
G1   X138.814      Y126.303   
G17 G3   X138.9975     Y126.1619     R0.9000    
G1   X138.600      Y126.391   
G17 G3   X138.8139     Y126.3028     R0.9000    
G1   X138.371      Y126.421   
G17 G3   X138.6002     Y126.3913     R0.9000    
G1   X138.141   
G17 G3   X138.3708     Y126.4215     R0.9000    
G1   X137.928      Y126.303   
G17 G3   X138.1415     Y126.3913     R0.9000    
G1   X137.744      Y126.162   
G17 G3   X137.9277     Y126.3028     R0.9000    
G1   X137.603      Y125.978   
G17 G3   X137.7442     Y126.1619     R0.9000    
G1   X137.515      Y125.765   
G17 G3   X137.6034     Y125.9784     R0.9000    
G1   X137.485      Y125.535   
G17 G3   X137.5148     Y125.7647     R0.9000    
G1   Y125.306   
G17 G3   X137.4846     Y125.5353     R0.9000    
G1   X137.603      Y125.092   
G17 G3   X137.5148     Y125.3059     R0.9000    
G1   X137.744      Y124.909   
G17 G3   X137.6034     Y125.0922     R0.9000    
G1   X137.928      Y124.768   
G17 G3   X137.7442     Y124.9087     R0.9000    
G1   X138.141      Y124.679   
G17 G3   X137.9277     Y124.7678     R0.9000    
G1   X138.371      Y124.649   
G17 G3   X138.1415     Y124.6793     R0.9000    
G1   X138.600   
G17 G3   X138.3708     Y124.6491     R0.9000    
G1   X138.814      Y124.768   
G17 G3   X138.6002     Y124.6793     R0.9000    
G1   X138.997      Y124.909   
G17 G3   X138.8139     Y124.7678     R0.9000    
G1   X139.138      Y125.092   
G17 G3   X138.9975     Y124.9087     R0.9000    
G1   X139.227      Y125.306   
G17 G3   X139.1383     Y125.0922     R0.9000    
(Pass: 4)
G1   X139.257      Y125.535   
   Z-0.800     F100 
G17 G3   X139.2268     Y125.3059     R0.9000     F400 
G1   Y125.765   
G17 G3   X139.2570     Y125.5353     R0.9000    
G1   X139.138      Y125.978   
G17 G3   X139.2268     Y125.7647     R0.9000    
G1   X138.997      Y126.162   
G17 G3   X139.1383     Y125.9784     R0.9000    
G1   X138.814      Y126.303   
G17 G3   X138.9975     Y126.1619     R0.9000    
G1   X138.600      Y126.391   
G17 G3   X138.8139     Y126.3028     R0.9000    
G1   X138.371      Y126.421   
G17 G3   X138.6002     Y126.3913     R0.9000    
G1   X138.141   
G17 G3   X138.3708     Y126.4215     R0.9000    
G1   X137.928      Y126.303   
G17 G3   X138.1415     Y126.3913     R0.9000    
G1   X137.744      Y126.162   
G17 G3   X137.9277     Y126.3028     R0.9000    
G1   X137.603      Y125.978   
G17 G3   X137.7442     Y126.1619     R0.9000    
G1   X137.515      Y125.765   
G17 G3   X137.6034     Y125.9784     R0.9000    
G1   X137.485      Y125.535   
G17 G3   X137.5148     Y125.7647     R0.9000    
G1   Y125.306   
G17 G3   X137.4846     Y125.5353     R0.9000    
G1   X137.603      Y125.092   
G17 G3   X137.5148     Y125.3059     R0.9000    
G1   X137.744      Y124.909   
G17 G3   X137.6034     Y125.0922     R0.9000    
G1   X137.928      Y124.768   
G17 G3   X137.7442     Y124.9087     R0.9000    
G1   X138.141      Y124.679   
G17 G3   X137.9277     Y124.7678     R0.9000    
G1   X138.371      Y124.649   
G17 G3   X138.1415     Y124.6793     R0.9000    
G1   X138.600   
G17 G3   X138.3708     Y124.6491     R0.9000    
G1   X138.814      Y124.768   
G17 G3   X138.6002     Y124.6793     R0.9000    
G1   X138.997      Y124.909   
G17 G3   X138.8139     Y124.7678     R0.9000    
G1   X139.138      Y125.092   
G17 G3   X138.9975     Y124.9087     R0.9000    
G1   X139.227      Y125.306   
G17 G3   X139.1383     Y125.0922     R0.9000    
(Pass: 5)
G1   X139.257      Y125.535   
   Z-0.960     F100 
G17 G3   X139.2268     Y125.3059     R0.9000     F400 
G1   Y125.765   
G17 G3   X139.2570     Y125.5353     R0.9000    
G1   X139.138      Y125.978   
G17 G3   X139.2268     Y125.7647     R0.9000    
G1   X138.997      Y126.162   
G17 G3   X139.1383     Y125.9784     R0.9000    
G1   X138.814      Y126.303   
G17 G3   X138.9975     Y126.1619     R0.9000    
G1   X138.600      Y126.391   
G17 G3   X138.8139     Y126.3028     R0.9000    
G1   X138.371      Y126.421   
G17 G3   X138.6002     Y126.3913     R0.9000    
G1   X138.141   
G17 G3   X138.3708     Y126.4215     R0.9000    
G1   X137.928      Y126.303   
G17 G3   X138.1415     Y126.3913     R0.9000    
G1   X137.744      Y126.162   
G17 G3   X137.9277     Y126.3028     R0.9000    
G1   X137.603      Y125.978   
G17 G3   X137.7442     Y126.1619     R0.9000    
G1   X137.515      Y125.765   
G17 G3   X137.6034     Y125.9784     R0.9000    
G1   X137.485      Y125.535   
G17 G3   X137.5148     Y125.7647     R0.9000    
G1   Y125.306   
G17 G3   X137.4846     Y125.5353     R0.9000    
G1   X137.603      Y125.092   
G17 G3   X137.5148     Y125.3059     R0.9000    
G1   X137.744      Y124.909   
G17 G3   X137.6034     Y125.0922     R0.9000    
G1   X137.928      Y124.768   
G17 G3   X137.7442     Y124.9087     R0.9000    
G1   X138.141      Y124.679   
G17 G3   X137.9277     Y124.7678     R0.9000    
G1   X138.371      Y124.649   
G17 G3   X138.1415     Y124.6793     R0.9000    
G1   X138.600   
G17 G3   X138.3708     Y124.6491     R0.9000    
G1   X138.814      Y124.768   
G17 G3   X138.6002     Y124.6793     R0.9000    
G1   X138.997      Y124.909   
G17 G3   X138.8139     Y124.7678     R0.9000    
G1   X139.138      Y125.092   
G17 G3   X138.9975     Y124.9087     R0.9000    
G1   X139.227      Y125.306   
G17 G3   X139.1383     Y125.0922     R0.9000    
(BREAK pass 5)
G0   Z18.200    
(Pass: 1)
   X127.577      Y120.646   
G1   Z2.200      F100 
   X127.623      Y120.301    F400 
   X127.485      Y120.869   
   X127.577      Y120.646   
   X127.338      Y121.061   
   X127.485      Y120.869   
   X127.146      Y121.208   
   X127.338      Y121.061   
   X126.922      Y121.301   
   X127.146      Y121.208   
   X126.683      Y121.332   
   X126.922      Y121.301   
   X126.443   
   X126.683      Y121.332   
   X126.220      Y121.208   
   X126.443      Y121.301   
   X126.028      Y121.061   
   X126.220      Y121.208   
   X125.881      Y120.869   
   X126.028      Y121.061   
   X125.788      Y120.646   
   X125.881      Y120.869   
   X125.743      Y120.301   
   X125.788      Y120.646   
   X125.743      Y111.511   
   Y120.301   
   X125.788      Y111.166   
   X125.743      Y111.511   
   X125.881      Y110.943   
   X125.788      Y111.166   
   X126.028      Y110.751   
   X125.881      Y110.943   
   X126.220      Y110.604   
   X126.028      Y110.751   
   X126.443      Y110.511   
   X126.220      Y110.604   
   X126.683      Y110.480   
   X126.443      Y110.511   
   X126.922   
   X126.683      Y110.480   
   X127.146      Y110.604   
   X126.922      Y110.511   
   X127.338      Y110.751   
   X127.146      Y110.604   
   X127.485      Y110.943   
   X127.338      Y110.751   
   X127.577      Y111.166   
   X127.485      Y110.943   
   X127.623      Y111.511   
   X127.577      Y111.166   
   X127.623      Y120.301   
   Y111.511   
(Pass: 2)
   X127.577      Y120.646   
   Z1.200      F100 
   X127.623      Y120.301    F400 
   X127.485      Y120.869   
   X127.577      Y120.646   
   X127.338      Y121.061   
   X127.485      Y120.869   
   X127.146      Y121.208   
   X127.338      Y121.061   
   X126.922      Y121.301   
   X127.146      Y121.208   
   X126.683      Y121.332   
   X126.922      Y121.301   
   X126.443   
   X126.683      Y121.332   
   X126.220      Y121.208   
   X126.443      Y121.301   
   X126.028      Y121.061   
   X126.220      Y121.208   
   X125.881      Y120.869   
   X126.028      Y121.061   
   X125.788      Y120.646   
   X125.881      Y120.869   
   X125.743      Y120.301   
   X125.788      Y120.646   
   X125.743      Y111.511   
   Y120.301   
   X125.788      Y111.166   
   X125.743      Y111.511   
   X125.881      Y110.943   
   X125.788      Y111.166   
   X126.028      Y110.751   
   X125.881      Y110.943   
   X126.220      Y110.604   
   X126.028      Y110.751   
   X126.443      Y110.511   
   X126.220      Y110.604   
   X126.683      Y110.480   
   X126.443      Y110.511   
   X126.922   
   X126.683      Y110.480   
   X127.146      Y110.604   
   X126.922      Y110.511   
   X127.338      Y110.751   
   X127.146      Y110.604   
   X127.485      Y110.943   
   X127.338      Y110.751   
   X127.577      Y111.166   
   X127.485      Y110.943   
   X127.623      Y111.511   
   X127.577      Y111.166   
   X127.623      Y120.301   
   Y111.511   
(Pass: 3)
   X127.577      Y120.646   
   Z0.200      F100 
   X127.623      Y120.301    F400 
   X127.485      Y120.869   
   X127.577      Y120.646   
   X127.338      Y121.061   
   X127.485      Y120.869   
