%
(Generated by SketchUcam {1.2})
(File: Router Plates.skp)
(Bit diameter: 3.1mm)
(Feed rate: 200.0mm/min)
(Material Thickness: 3.2mm)
(Material length: 304.0mm X width: 608.0mm)
(Overhead Gantry: true)
(Retract feed rate NOT limited to plunge feed rate)
(Multipass enabled, Depth = 0.5mm)
(Optimization is ON)
(Z ZERO IS TABLETOP)
(www.PhlatBoyz.com)
G90 G21 G49 
M3 S15000
G0   Z18.200    
(Pass: 1)
   X23.387       Y21.199    
G1   Z2.700      F200 
   X23.069       Y21.614    
   X22.869       Y22.098    
   X22.800       Y22.616    
   X22.869       Y23.135    
   X23.069       Y23.619    
   X23.387       Y24.034    
   X23.803       Y24.353    
   X24.286       Y24.553    
   X24.805       Y24.622    
   X25.324       Y24.553    
   X25.808       Y24.353    
   X26.223       Y24.034    
   X26.542       Y23.619    
   X26.742       Y23.135    
   X26.810       Y22.616    
   X26.742       Y22.098    
   X26.542       Y21.614    
   X26.223       Y21.199    
   X25.808       Y20.880    
   X25.324       Y20.680    
   X24.805       Y20.611    
   X24.286       Y20.680    
   X23.803       Y20.880    
   X23.387       Y21.199    
(Pass: 2)
   Z2.200     
   X23.069       Y21.614    
   X22.869       Y22.098    
   X22.800       Y22.616    
   X22.869       Y23.135    
   X23.069       Y23.619    
   X23.387       Y24.034    
   X23.803       Y24.353    
   X24.286       Y24.553    
   X24.805       Y24.622    
   X25.324       Y24.553    
   X25.808       Y24.353    
   X26.223       Y24.034    
   X26.542       Y23.619    
   X26.742       Y23.135    
   X26.810       Y22.616    
   X26.742       Y22.098    
   X26.542       Y21.614    
   X26.223       Y21.199    
   X25.808       Y20.880    
   X25.324       Y20.680    
   X24.805       Y20.611    
   X24.286       Y20.680    
   X23.803       Y20.880    
   X23.387       Y21.199    
(Pass: 3)
   Z1.700     
   X23.069       Y21.614    
   X22.869       Y22.098    
   X22.800       Y22.616    
   X22.869       Y23.135    
   X23.069       Y23.619    
   X23.387       Y24.034    
   X23.803       Y24.353    
   X24.286       Y24.553    
   X24.805       Y24.622    
   X25.324       Y24.553    
   X25.808       Y24.353    
   X26.223       Y24.034    
   X26.542       Y23.619    
   X26.742       Y23.135    
   X26.810       Y22.616    
   X26.742       Y22.098    
   X26.542       Y21.614    
   X26.223       Y21.199    
   X25.808       Y20.880    
   X25.324       Y20.680    
   X24.805       Y20.611    
   X24.286       Y20.680    
   X23.803       Y20.880    
   X23.387       Y21.199    
(Pass: 4)
   Z1.200     
   X23.069       Y21.614    
   X22.869       Y22.098    
   X22.800       Y22.616    
   X22.869       Y23.135    
   X23.069       Y23.619    
   X23.387       Y24.034    
   X23.803       Y24.353    
   X24.286       Y24.553    
   X24.805       Y24.622    
   X25.324       Y24.553    
   X25.808       Y24.353    
   X26.223       Y24.034    
   X26.542       Y23.619    
   X26.742       Y23.135    
   X26.810       Y22.616    
   X26.742       Y22.098    
   X26.542       Y21.614    
   X26.223       Y21.199    
   X25.808       Y20.880    
   X25.324       Y20.680    
   X24.805       Y20.611    
   X24.286       Y20.680    
   X23.803       Y20.880    
   X23.387       Y21.199    
(Pass: 5)
   Z0.700     
   X23.069       Y21.614    
   X22.869       Y22.098    
   X22.800       Y22.616    
   X22.869       Y23.135    
   X23.069       Y23.619    
   X23.387       Y24.034    
   X23.803       Y24.353    
   X24.286       Y24.553    
   X24.805       Y24.622    
   X25.324       Y24.553    
   X25.808       Y24.353    
   X26.223       Y24.034    
   X26.542       Y23.619    
   X26.742       Y23.135    
   X26.810       Y22.616    
   X26.742       Y22.098    
   X26.542       Y21.614    
   X26.223       Y21.199    
   X25.808       Y20.880    
   X25.324       Y20.680    
   X24.805       Y20.611    
   X24.286       Y20.680    
   X23.803       Y20.880    
   X23.387       Y21.199    
(Pass: 6)
   Z0.200     
   X23.069       Y21.614    
   X22.869       Y22.098    
   X22.800       Y22.616    
   X22.869       Y23.135    
   X23.069       Y23.619    
   X23.387       Y24.034    
   X23.803       Y24.353    
   X24.286       Y24.553    
   X24.805       Y24.622    
   X25.324       Y24.553    
   X25.808       Y24.353    
   X26.223       Y24.034    
   X26.542       Y23.619    
   X26.742       Y23.135    
   X26.810       Y22.616    
   X26.742       Y22.098    
   X26.542       Y21.614    
   X26.223       Y21.199    
   X25.808       Y20.880    
   X25.324       Y20.680    
   X24.805       Y20.611    
   X24.286       Y20.680    
   X23.803       Y20.880    
   X23.387       Y21.199    
(Pass: 7)
   Z-0.300    
   X23.069       Y21.614    
   X22.869       Y22.098    
   X22.800       Y22.616    
   X22.869       Y23.135    
   X23.069       Y23.619    
   X23.387       Y24.034    
   X23.803       Y24.353    
   X24.286       Y24.553    
   X24.805       Y24.622    
   X25.324       Y24.553    
   X25.808       Y24.353    
   X26.223       Y24.034    
   X26.542       Y23.619    
   X26.742       Y23.135    
   X26.810       Y22.616    
   X26.742       Y22.098    
   X26.542       Y21.614    
   X26.223       Y21.199    
   X25.808       Y20.880    
   X25.324       Y20.680    
   X24.805       Y20.611    
   X24.286       Y20.680    
   X23.803       Y20.880    
   X23.387       Y21.199    
(Pass: 8)
   Z-0.480    
   X23.069       Y21.614    
   X22.869       Y22.098    
   X22.800       Y22.616    
   X22.869       Y23.135    
   X23.069       Y23.619    
   X23.387       Y24.034    
   X23.803       Y24.353    
   X24.286       Y24.553    
   X24.805       Y24.622    
   X25.324       Y24.553    
   X25.808       Y24.353    
   X26.223       Y24.034    
   X26.542       Y23.619    
   X26.742       Y23.135    
   X26.810       Y22.616    
   X26.742       Y22.098    
   X26.542       Y21.614    
   X26.223       Y21.199    
   X25.808       Y20.880    
   X25.324       Y20.680    
   X24.805       Y20.611    
   X24.286       Y20.680    
   X23.803       Y20.880    
   X23.387       Y21.199    
(BREAK pass 8)
G0   Z18.200    
(Pass: 1)
   X16.449       Y28.684    
G1   Z2.700      F200 
G17 G2   X16.3679      Y28.6039      R0.4500    
   X16.2687      Y28.5478      R0.4500    
   X16.1584      Y28.5193      R0.4500    
   X16.0444      Y28.5203      R0.4500    
   X15.9346      Y28.5508      R0.4500    
   X15.8364      Y28.6086      R0.4500    
   X15.7565      Y28.6899      R0.4500    
   X15.7004      Y28.7891      R0.4500    
   X15.6718      Y28.8995      R0.4500    
   X15.6728      Y29.0135      R0.4500    
   X15.7033      Y29.1233      R0.4500    
   X15.7612      Y29.2215      R0.4500    
   X15.8425      Y29.3014      R0.4500    
   X15.9417      Y29.3575      R0.4500    
   X16.0520      Y29.3861      R0.4500    
   X16.1660      Y29.3850      R0.4500    
   X16.2758      Y29.3546      R0.4500    
   X16.3740      Y29.2967      R0.4500    
   X16.4539      Y29.2154      R0.4500    
   X16.5100      Y29.1162      R0.4500    
   X16.5386      Y29.0058      R0.4500    
   X16.5376      Y28.8919      R0.4500    
   X16.5071      Y28.7820      R0.4500    
   X16.4492      Y28.6838      R0.4500    
(Pass: 2)
G1   Z2.200     
G17 G2   X16.3679      Y28.6039      R0.4500    
   X16.2687      Y28.5478      R0.4500    
   X16.1584      Y28.5193      R0.4500    
   X16.0444      Y28.5203      R0.4500    
   X15.9346      Y28.5508      R0.4500    
   X15.8364      Y28.6086      R0.4500    
   X15.7565      Y28.6899      R0.4500    
   X15.7004      Y28.7891      R0.4500    
   X15.6718      Y28.8995      R0.4500    
   X15.6728      Y29.0135      R0.4500    
   X15.7033      Y29.1233      R0.4500    
   X15.7612      Y29.2215      R0.4500    
   X15.8425      Y29.3014      R0.4500    
   X15.9417      Y29.3575      R0.4500    
   X16.0520      Y29.3861      R0.4500    
   X16.1660      Y29.3850      R0.4500    
   X16.2758      Y29.3546      R0.4500    
   X16.3740      Y29.2967      R0.4500    
   X16.4539      Y29.2154      R0.4500    
   X16.5100      Y29.1162      R0.4500    
   X16.5386      Y29.0058      R0.4500    
   X16.5376      Y28.8919      R0.4500    
   X16.5071      Y28.7820      R0.4500    
   X16.4492      Y28.6838      R0.4500    
(Pass: 3)
G1   Z1.700     
G17 G2   X16.3679      Y28.6039      R0.4500    
   X16.2687      Y28.5478      R0.4500    
   X16.1584      Y28.5193      R0.4500    
   X16.0444      Y28.5203      R0.4500    
   X15.9346      Y28.5508      R0.4500    
   X15.8364      Y28.6086      R0.4500    
   X15.7565      Y28.6899      R0.4500    
   X15.7004      Y28.7891      R0.4500    
   X15.6718      Y28.8995      R0.4500    
   X15.6728      Y29.0135      R0.4500    
   X15.7033      Y29.1233      R0.4500    
   X15.7612      Y29.2215      R0.4500    
   X15.8425      Y29.3014      R0.4500    
   X15.9417      Y29.3575      R0.4500    
   X16.0520      Y29.3861      R0.4500    
   X16.1660      Y29.3850      R0.4500    
   X16.2758      Y29.3546      R0.4500    
   X16.3740      Y29.2967      R0.4500    
   X16.4539      Y29.2154      R0.4500    
   X16.5100      Y29.1162      R0.4500    
   X16.5386      Y29.0058      R0.4500    
   X16.5376      Y28.8919      R0.4500    
   X16.5071      Y28.7820      R0.4500    
   X16.4492      Y28.6838      R0.4500    
(Pass: 4)
G1   Z1.200     
G17 G2   X16.3679      Y28.6039      R0.4500    
   X16.2687      Y28.5478      R0.4500    
   X16.1584      Y28.5193      R0.4500    
   X16.0444      Y28.5203      R0.4500    
   X15.9346      Y28.5508      R0.4500    
   X15.8364      Y28.6086      R0.4500    
   X15.7565      Y28.6899      R0.4500    
   X15.7004      Y28.7891      R0.4500    
   X15.6718      Y28.8995      R0.4500    
   X15.6728      Y29.0135      R0.4500    
   X15.7033      Y29.1233      R0.4500    
   X15.7612      Y29.2215      R0.4500    
   X15.8425      Y29.3014      R0.4500    
   X15.9417      Y29.3575      R0.4500    
   X16.0520      Y29.3861      R0.4500    
   X16.1660      Y29.3850      R0.4500    
   X16.2758      Y29.3546      R0.4500    
   X16.3740      Y29.2967      R0.4500    
   X16.4539      Y29.2154      R0.4500    
   X16.5100      Y29.1162      R0.4500    
   X16.5386      Y29.0058      R0.4500    
   X16.5376      Y28.8919      R0.4500    
   X16.5071      Y28.7820      R0.4500    
   X16.4492      Y28.6838      R0.4500    
(Pass: 5)
G1   Z0.700     
G17 G2   X16.3679      Y28.6039      R0.4500    
   X16.2687      Y28.5478      R0.4500    
   X16.1584      Y28.5193      R0.4500    
   X16.0444      Y28.5203      R0.4500    
   X15.9346      Y28.5508      R0.4500    
   X15.8364      Y28.6086      R0.4500    
   X15.7565      Y28.6899      R0.4500    
   X15.7004      Y28.7891      R0.4500    
   X15.6718      Y28.8995      R0.4500    
   X15.6728      Y29.0135      R0.4500    
   X15.7033      Y29.1233      R0.4500    
   X15.7612      Y29.2215      R0.4500    
   X15.8425      Y29.3014      R0.4500    
   X15.9417      Y29.3575      R0.4500    
   X16.0520      Y29.3861      R0.4500    
   X16.1660      Y29.3850      R0.4500    
   X16.2758      Y29.3546      R0.4500    
   X16.3740      Y29.2967      R0.4500    
   X16.4539      Y29.2154      R0.4500    
   X16.5100      Y29.1162      R0.4500    
   X16.5386      Y29.0058      R0.4500    
   X16.5376      Y28.8919      R0.4500    
   X16.5071      Y28.7820      R0.4500    
   X16.4492      Y28.6838      R0.4500    
(Pass: 6)
G1   Z0.200     
G17 G2   X16.3679      Y28.6039      R0.4500    
   X16.2687      Y28.5478      R0.4500    
   X16.1584      Y28.5193      R0.4500    
   X16.0444      Y28.5203      R0.4500    
   X15.9346      Y28.5508      R0.4500    
   X15.8364      Y28.6086      R0.4500    
   X15.7565      Y28.6899      R0.4500    
   X15.7004      Y28.7891      R0.4500    
   X15.6718      Y28.8995      R0.4500    
   X15.6728      Y29.0135      R0.4500    
   X15.7033      Y29.1233      R0.4500    
   X15.7612      Y29.2215      R0.4500    
   X15.8425      Y29.3014      R0.4500    
   X15.9417      Y29.3575      R0.4500    
   X16.0520      Y29.3861      R0.4500    
   X16.1660      Y29.3850      R0.4500    
   X16.2758      Y29.3546      R0.4500    
   X16.3740      Y29.2967      R0.4500    
   X16.4539      Y29.2154      R0.4500    
   X16.5100      Y29.1162      R0.4500    
   X16.5386      Y29.0058      R0.4500    
   X16.5376      Y28.8919      R0.4500    
   X16.5071      Y28.7820      R0.4500    
   X16.4492      Y28.6838      R0.4500    
(Pass: 7)
G1   Z-0.300    
G17 G2   X16.3679      Y28.6039      R0.4500    
   X16.2687      Y28.5478      R0.4500    
   X16.1584      Y28.5193      R0.4500    
   X16.0444      Y28.5203      R0.4500    
   X15.9346      Y28.5508      R0.4500    
   X15.8364      Y28.6086      R0.4500    
   X15.7565      Y28.6899      R0.4500    
   X15.7004      Y28.7891      R0.4500    
   X15.6718      Y28.8995      R0.4500    
   X15.6728      Y29.0135      R0.4500    
   X15.7033      Y29.1233      R0.4500    
   X15.7612      Y29.2215      R0.4500    
   X15.8425      Y29.3014      R0.4500    
   X15.9417      Y29.3575      R0.4500    
   X16.0520      Y29.3861      R0.4500    
   X16.1660      Y29.3850      R0.4500    
   X16.2758      Y29.3546      R0.4500    
   X16.3740      Y29.2967      R0.4500    
   X16.4539      Y29.2154      R0.4500    
   X16.5100      Y29.1162      R0.4500    
   X16.5386      Y29.0058      R0.4500    
   X16.5376      Y28.8919      R0.4500    
   X16.5071      Y28.7820      R0.4500    
   X16.4492      Y28.6838      R0.4500    
(Pass: 8)
G1   Z-0.480    
G17 G2   X16.3679      Y28.6039      R0.4500    
   X16.2687      Y28.5478      R0.4500    
   X16.1584      Y28.5193      R0.4500    
   X16.0444      Y28.5203      R0.4500    
   X15.9346      Y28.5508      R0.4500    
   X15.8364      Y28.6086      R0.4500    
   X15.7565      Y28.6899      R0.4500    
   X15.7004      Y28.7891      R0.4500    
   X15.6718      Y28.8995      R0.4500    
   X15.6728      Y29.0135      R0.4500    
   X15.7033      Y29.1233      R0.4500    
   X15.7612      Y29.2215      R0.4500    
   X15.8425      Y29.3014      R0.4500    
   X15.9417      Y29.3575      R0.4500    
   X16.0520      Y29.3861      R0.4500    
   X16.1660      Y29.3850      R0.4500    
   X16.2758      Y29.3546      R0.4500    
   X16.3740      Y29.2967      R0.4500    
   X16.4539      Y29.2154      R0.4500    
   X16.5100      Y29.1162      R0.4500    
   X16.5386      Y29.0058      R0.4500    
   X16.5376      Y28.8919      R0.4500    
   X16.5071      Y28.7820      R0.4500    
   X16.4492      Y28.6838      R0.4500    
(BREAK pass 8)
G0   Z18.200    
(Pass: 1)
   X15.992       Y38.531    
G1   Z2.700      F200 
G17 G2   X15.8868      Y38.5745      R0.4500    
   X15.7964      Y38.6439      R0.4500    
   X15.7270      Y38.7344      R0.4500    
   X15.6834      Y38.8397      R0.4500    
   X15.6685      Y38.9527      R0.4500    
   X15.6834      Y39.0657      R0.4500    
   X15.7270      Y39.1710      R0.4500    
   X15.7964      Y39.2614      R0.4500    
   X15.8868      Y39.3308      R0.4500    
   X15.9921      Y39.3744      R0.4500    
   X16.1051      Y39.3893      R0.4500    
   X16.2181      Y39.3744      R0.4500    
   X16.3234      Y39.3308      R0.4500    
   X16.4139      Y39.2614      R0.4500    
   X16.4833      Y39.1710      R0.4500    
   X16.5269      Y39.0657      R0.4500    
   X16.5418      Y38.9527      R0.4500    
   X16.5269      Y38.8397      R0.4500    
   X16.4833      Y38.7344      R0.4500    
   X16.4139      Y38.6439      R0.4500    
   X16.3234      Y38.5745      R0.4500    
   X16.2181      Y38.5309      R0.4500    
   X16.1051      Y38.5160      R0.4500    
   X15.9921      Y38.5309      R0.4500    
(Pass: 2)
G1   Z2.200     
G17 G2   X15.8868      Y38.5745      R0.4500    
   X15.7964      Y38.6439      R0.4500    
   X15.7270      Y38.7344      R0.4500    
   X15.6834      Y38.8397      R0.4500    
   X15.6685      Y38.9527      R0.4500    
   X15.6834      Y39.0657      R0.4500    
   X15.7270      Y39.1710      R0.4500    
   X15.7964      Y39.2614      R0.4500    
   X15.8868      Y39.3308      R0.4500    
   X15.9921      Y39.3744      R0.4500    
   X16.1051      Y39.3893      R0.4500    
   X16.2181      Y39.3744      R0.4500    
   X16.3234      Y39.3308      R0.4500    
   X16.4139      Y39.2614      R0.4500    
   X16.4833      Y39.1710      R0.4500    
   X16.5269      Y39.0657      R0.4500    
   X16.5418      Y38.9527      R0.4500    
   X16.5269      Y38.8397      R0.4500    
   X16.4833      Y38.7344      R0.4500    
   X16.4139      Y38.6439      R0.4500    
   X16.3234      Y38.5745      R0.4500    
   X16.2181      Y38.5309      R0.4500    
   X16.1051      Y38.5160      R0.4500    
   X15.9921      Y38.5309      R0.4500    
(Pass: 3)
G1   Z1.700     
G17 G2   X15.8868      Y38.5745      R0.4500    
   X15.7964      Y38.6439      R0.4500    
   X15.7270      Y38.7344      R0.4500    
   X15.6834      Y38.8397      R0.4500    
   X15.6685      Y38.9527      R0.4500    
   X15.6834      Y39.0657      R0.4500    
   X15.7270      Y39.1710      R0.4500    
   X15.7964      Y39.2614      R0.4500    
   X15.8868      Y39.3308      R0.4500    
   X15.9921      Y39.3744      R0.4500    
   X16.1051      Y39.3893      R0.4500    
   X16.2181      Y39.3744      R0.4500    
   X16.3234      Y39.3308      R0.4500    
   X16.4139      Y39.2614      R0.4500    
   X16.4833      Y39.1710      R0.4500    
   X16.5269      Y39.0657      R0.4500    
   X16.5418      Y38.9527      R0.4500    
   X16.5269      Y38.8397      R0.4500    
   X16.4833      Y38.7344      R0.4500    
   X16.4139      Y38.6439      R0.4500    
   X16.3234      Y38.5745      R0.4500    
   X16.2181      Y38.5309      R0.4500    
   X16.1051      Y38.5160      R0.4500    
   X15.9921      Y38.5309      R0.4500    
(Pass: 4)
G1   Z1.200     
G17 G2   X15.8868      Y38.5745      R0.4500    
   X15.7964      Y38.6439      R0.4500    
   X15.7270      Y38.7344      R0.4500    
   X15.6834      Y38.8397      R0.4500    
   X15.6685      Y38.9527      R0.4500    
   X15.6834      Y39.0657      R0.4500    
   X15.7270      Y39.1710      R0.4500    
   X15.7964      Y39.2614      R0.4500    
   X15.8868      Y39.3308      R0.4500    
   X15.9921      Y39.3744      R0.4500    
   X16.1051      Y39.3893      R0.4500    
   X16.2181      Y39.3744      R0.4500    
   X16.3234      Y39.3308      R0.4500    
   X16.4139      Y39.2614      R0.4500    
   X16.4833      Y39.1710      R0.4500    
   X16.5269      Y39.0657      R0.4500    
   X16.5418      Y38.9527      R0.4500    
   X16.5269      Y38.8397      R0.4500    
   X16.4833      Y38.7344      R0.4500    
   X16.4139      Y38.6439      R0.4500    
   X16.3234      Y38.5745      R0.4500    
   X16.2181      Y38.5309      R0.4500    
   X16.1051      Y38.5160      R0.4500    
   X15.9921      Y38.5309      R0.4500    
(Pass: 5)
G1   Z0.700     
G17 G2   X15.8868      Y38.5745      R0.4500    
   X15.7964      Y38.6439      R0.4500    
   X15.7270      Y38.7344      R0.4500    
   X15.6834      Y38.8397      R0.4500    
   X15.6685      Y38.9527      R0.4500    
   X15.6834      Y39.0657      R0.4500    
   X15.7270      Y39.1710      R0.4500    
   X15.7964      Y39.2614      R0.4500    
   X15.8868      Y39.3308      R0.4500    
   X15.9921      Y39.3744      R0.4500    
   X16.1051      Y39.3893      R0.4500    
   X16.2181      Y39.3744      R0.4500    
   X16.3234      Y39.3308      R0.4500    
   X16.4139      Y39.2614      R0.4500    
   X16.4833      Y39.1710      R0.4500    
   X16.5269      Y39.0657      R0.4500    
   X16.5418      Y38.9527      R0.4500    
   X16.5269      Y38.8397      R0.4500    
   X16.4833      Y38.7344      R0.4500    
   X16.4139      Y38.6439      R0.4500    
   X16.3234      Y38.5745      R0.4500    
   X16.2181      Y38.5309      R0.4500    
   X16.1051      Y38.5160      R0.4500    
   X15.9921      Y38.5309      R0.4500    
(Pass: 6)
G1   Z0.200     
G17 G2   X15.8868      Y38.5745      R0.4500    
   X15.7964      Y38.6439      R0.4500    
   X15.7270      Y38.7344      R0.4500    
   X15.6834      Y38.8397      R0.4500    
   X15.6685      Y38.9527      R0.4500    
   X15.6834      Y39.0657      R0.4500    
   X15.7270      Y39.1710      R0.4500    
   X15.7964      Y39.2614      R0.4500    
   X15.8868      Y39.3308      R0.4500    
   X15.9921      Y39.3744      R0.4500    
   X16.1051      Y39.3893      R0.4500    
   X16.2181      Y39.3744      R0.4500    
   X16.3234      Y39.3308      R0.4500    
   X16.4139      Y39.2614      R0.4500    
   X16.4833      Y39.1710      R0.4500    
   X16.5269      Y39.0657      R0.4500    
   X16.5418      Y38.9527      R0.4500    
   X16.5269      Y38.8397      R0.4500    
   X16.4833      Y38.7344      R0.4500    
   X16.4139      Y38.6439      R0.4500    
   X16.3234      Y38.5745      R0.4500    
   X16.2181      Y38.5309      R0.4500    
   X16.1051      Y38.5160      R0.4500    
   X15.9921      Y38.5309      R0.4500    
(Pass: 7)
G1   Z-0.300    
G17 G2   X15.8868      Y38.5745      R0.4500    
   X15.7964      Y38.6439      R0.4500    
   X15.7270      Y38.7344      R0.4500    
   X15.6834      Y38.8397      R0.4500    
   X15.6685      Y38.9527      R0.4500    
   X15.6834      Y39.0657      R0.4500    
   X15.7270      Y39.1710      R0.4500    
   X15.7964      Y39.2614      R0.4500    
   X15.8868      Y39.3308      R0.4500    
   X15.9921      Y39.3744      R0.4500    
   X16.1051      Y39.3893      R0.4500    
   X16.2181      Y39.3744      R0.4500    
   X16.3234      Y39.3308      R0.4500    
   X16.4139      Y39.2614      R0.4500    
   X16.4833      Y39.1710      R0.4500    
   X16.5269      Y39.0657      R0.4500    
   X16.5418      Y38.9527      R0.4500    
   X16.5269      Y38.8397      R0.4500    
   X16.4833      Y38.7344      R0.4500    
   X16.4139      Y38.6439      R0.4500    
   X16.3234      Y38.5745      R0.4500    
   X16.2181      Y38.5309      R0.4500    
   X16.1051      Y38.5160      R0.4500    
   X15.9921      Y38.5309      R0.4500    
(Pass: 8)
G1   Z-0.480    
G17 G2   X15.8868      Y38.5745      R0.4500    
   X15.7964      Y38.6439      R0.4500    
   X15.7270      Y38.7344      R0.4500    
   X15.6834      Y38.8397      R0.4500    
   X15.6685      Y38.9527      R0.4500    
   X15.6834      Y39.0657      R0.4500    
   X15.7270      Y39.1710      R0.4500    
   X15.7964      Y39.2614      R0.4500    
   X15.8868      Y39.3308      R0.4500    
   X15.9921      Y39.3744      R0.4500    
   X16.1051      Y39.3893      R0.4500    
   X16.2181      Y39.3744      R0.4500    
   X16.3234      Y39.3308      R0.4500    
   X16.4139      Y39.2614      R0.4500    
   X16.4833      Y39.1710      R0.4500    
   X16.5269      Y39.0657      R0.4500    
   X16.5418      Y38.9527      R0.4500    
   X16.5269      Y38.8397      R0.4500    
   X16.4833      Y38.7344      R0.4500    
   X16.4139      Y38.6439      R0.4500    
   X16.3234      Y38.5745      R0.4500    
   X16.2181      Y38.5309      R0.4500    
   X16.1051      Y38.5160      R0.4500    
   X15.9921      Y38.5309      R0.4500    
(BREAK pass 8)
G0   Z18.200    
(Pass: 1)
   X24.805       Y121.041   
G1   Z2.700      F200 
   X24.563       Y121.073   
   X24.337       Y121.167   
   X24.143       Y121.316   
   X23.994       Y121.510   
   X23.901       Y121.736   
   X23.869       Y121.978   
   X23.901       Y122.220   
   X23.994       Y122.446   
   X24.143       Y122.640   
   X24.337       Y122.789   
   X24.563       Y122.883   
   X24.805       Y122.915   
   X25.048       Y122.883   
   X25.274       Y122.789   
   X25.468       Y122.640   
   X25.616       Y122.446   
   X25.710       Y122.220   
   X25.742       Y121.978   
   X25.710       Y121.736   
   X25.616       Y121.510   
   X25.468       Y121.316   
   X25.274       Y121.167   
   X25.048       Y121.073   
   X24.805       Y121.041   
(Pass: 2)
   Z2.200     
   X24.563       Y121.073   
   X24.337       Y121.167   
   X24.143       Y121.316   
   X23.994       Y121.510   
   X23.901       Y121.736   
   X23.869       Y121.978   
   X23.901       Y122.220   
   X23.994       Y122.446   
   X24.143       Y122.640   
   X24.337       Y122.789   
   X24.563       Y122.883   
   X24.805       Y122.915   
   X25.048       Y122.883   
   X25.274       Y122.789   
   X25.468       Y122.640   
   X25.616       Y122.446   
   X25.710       Y122.220   
   X25.742       Y121.978   
   X25.710       Y121.736   
   X25.616       Y121.510   
   X25.468       Y121.316   
   X25.274       Y121.167   
   X25.048       Y121.073   
   X24.805       Y121.041   
(Pass: 3)
   Z1.700     
   X24.563       Y121.073   
   X24.337       Y121.167   
   X24.143       Y121.316   
   X23.994       Y121.510   
   X23.901       Y121.736   
   X23.869       Y121.978   
   X23.901       Y122.220   
   X23.994       Y122.446   
   X24.143       Y122.640   
   X24.337       Y122.789   
   X24.563       Y122.883   
   X24.805       Y122.915   
   X25.048       Y122.883   
   X25.274       Y122.789   
   X25.468       Y122.640   
   X25.616       Y122.446   
   X25.710       Y122.220   
   X25.742       Y121.978   
   X25.710       Y121.736   
   X25.616       Y121.510   
   X25.468       Y121.316   
   X25.274       Y121.167   
   X25.048       Y121.073   
   X24.805       Y121.041   
(Pass: 4)
   Z1.200     
   X24.563       Y121.073   
   X24.337       Y121.167   
   X24.143       Y121.316   
   X23.994       Y121.510   
   X23.901       Y121.736   
   X23.869       Y121.978   
   X23.901       Y122.220   
   X23.994       Y122.446   
   X24.143       Y122.640   
   X24.337       Y122.789   
   X24.563       Y122.883   
   X24.805       Y122.915   
   X25.048       Y122.883   
   X25.274       Y122.789   
   X25.468       Y122.640   
   X25.616       Y122.446   
   X25.710       Y122.220   
   X25.742       Y121.978   
   X25.710       Y121.736   
   X25.616       Y121.510   
   X25.468       Y121.316   
   X25.274       Y121.167   
   X25.048       Y121.073   
   X24.805       Y121.041   
(Pass: 5)
   Z0.700     
   X24.563       Y121.073   
   X24.337       Y121.167   
   X24.143       Y121.316   
   X23.994       Y121.510   
   X23.901       Y121.736   
   X23.869       Y121.978   
   X23.901       Y122.220   
   X23.994       Y122.446   
   X24.143       Y122.640   
   X24.337       Y122.789   
   X24.563       Y122.883   
   X24.805       Y122.915   
   X25.048       Y122.883   
   X25.274       Y122.789   
   X25.468       Y122.640   
   X25.616       Y122.446   
   X25.710       Y122.220   
   X25.742       Y121.978   
   X25.710       Y121.736   
   X25.616       Y121.510   
   X25.468       Y121.316   
   X25.274       Y121.167   
   X25.048       Y121.073   
   X24.805       Y121.041   
(Pass: 6)
   Z0.200     
   X24.563       Y121.073   
   X24.337       Y121.167   
   X24.143       Y121.316   
   X23.994       Y121.510   
   X23.901       Y121.736   
   X23.869       Y121.978   
   X23.901       Y122.220   
   X23.994       Y122.446   
   X24.143       Y122.640   
   X24.337       Y122.789   
   X24.563       Y122.883   
   X24.805       Y122.915   
   X25.048       Y122.883   
   X25.274       Y122.789   
   X25.468       Y122.640   
   X25.616       Y122.446   
   X25.710       Y122.220   
   X25.742       Y121.978   
   X25.710       Y121.736   
   X25.616       Y121.510   
   X25.468       Y121.316   
   X25.274       Y121.167   
   X25.048       Y121.073   
   X24.805       Y121.041   
(Pass: 7)
   Z-0.300    
   X24.563       Y121.073   
   X24.337       Y121.167   
   X24.143       Y121.316   
   X23.994       Y121.510   
   X23.901       Y121.736   
   X23.869       Y121.978   
   X23.901       Y122.220   
   X23.994       Y122.446   
   X24.143       Y122.640   
   X24.337       Y122.789   
   X24.563       Y122.883   
   X24.805       Y122.915   
   X25.048       Y122.883   
   X25.274       Y122.789   
   X25.468       Y122.640   
   X25.616       Y122.446   
   X25.710       Y122.220   
   X25.742       Y121.978   
   X25.710       Y121.736   
   X25.616       Y121.510   
   X25.468       Y121.316   
   X25.274       Y121.167   
   X25.048       Y121.073   
   X24.805       Y121.041   
(Pass: 8)
   Z-0.480    
   X24.563       Y121.073   
   X24.337       Y121.167   
   X24.143       Y121.316   
   X23.994       Y121.510   
   X23.901       Y121.736   
   X23.869       Y121.978   
   X23.901       Y122.220   
   X23.994       Y122.446   
   X24.143       Y122.640   
   X24.337       Y122.789   
   X24.563       Y122.883   
   X24.805       Y122.915   
   X25.048       Y122.883   
   X25.274       Y122.789   
   X25.468       Y122.640   
   X25.616       Y122.446   
   X25.710       Y122.220   
   X25.742       Y121.978   
   X25.710       Y121.736   
   X25.616       Y121.510   
   X25.468       Y121.316   
   X25.274       Y121.167   
   X25.048       Y121.073   
   X24.805       Y121.041   
(BREAK pass 8)
G0   Z18.200    
(Pass: 1)
   X26.805       Y153.996   
G1   Z2.700      F200 
   X26.563       Y154.028   
   X26.337       Y154.121   
   X26.143       Y154.270   
   X25.994       Y154.464   
   X25.901       Y154.690   
   X25.869       Y154.932   
   X25.901       Y155.175   
   X25.994       Y155.401   
   X26.143       Y155.595   
   X26.337       Y155.744   
   X26.563       Y155.837   
   X26.805       Y155.869   
   X27.048       Y155.837   
   X27.274       Y155.744   
   X27.468       Y155.595   
   X27.616       Y155.401   
   X27.710       Y155.175   
   X27.742       Y154.932   
   X27.710       Y154.690   
   X27.616       Y154.464   
   X27.468       Y154.270   
   X27.274       Y154.121   
   X27.048       Y154.028   
   X26.805       Y153.996   
(Pass: 2)
   Z2.200     
   X26.563       Y154.028   
   X26.337       Y154.121   
   X26.143       Y154.270   
   X25.994       Y154.464   
   X25.901       Y154.690   
   X25.869       Y154.932   
   X25.901       Y155.175   
   X25.994       Y155.401   
   X26.143       Y155.595   
   X26.337       Y155.744   
   X26.563       Y155.837   
   X26.805       Y155.869   
   X27.048       Y155.837   
   X27.274       Y155.744   
   X27.468       Y155.595   
   X27.616       Y155.401   
   X27.710       Y155.175   
   X27.742       Y154.932   
   X27.710       Y154.690   
   X27.616       Y154.464   
   X27.468       Y154.270   
   X27.274       Y154.121   
   X27.048       Y154.028   
   X26.805       Y153.996   
(Pass: 3)
   Z1.700     
   X26.563       Y154.028   
   X26.337       Y154.121   
   X26.143       Y154.270   
   X25.994       Y154.464   
   X25.901       Y154.690   
   X25.869       Y154.932   
   X25.901       Y155.175   
   X25.994       Y155.401   
   X26.143       Y155.595   
   X26.337       Y155.744   
   X26.563       Y155.837   
   X26.805       Y155.869   
   X27.048       Y155.837   
   X27.274       Y155.744   
   X27.468       Y155.595   
   X27.616       Y155.401   
   X27.710       Y155.175   
   X27.742       Y154.932   
   X27.710       Y154.690   
   X27.616       Y154.464   
   X27.468       Y154.270   
   X27.274       Y154.121   
   X27.048       Y154.028   
   X26.805       Y153.996   
(Pass: 4)
   Z1.200     
   X26.563       Y154.028   
   X26.337       Y154.121   
   X26.143       Y154.270   
   X25.994       Y154.464   
   X25.901       Y154.690   
   X25.869       Y154.932   
   X25.901       Y155.175   
   X25.994       Y155.401   
   X26.143       Y155.595   
   X26.337       Y155.744   
   X26.563       Y155.837   
   X26.805       Y155.869   
   X27.048       Y155.837   
   X27.274       Y155.744   
   X27.468       Y155.595   
   X27.616       Y155.401   
   X27.710       Y155.175   
   X27.742       Y154.932   
   X27.710       Y154.690   
   X27.616       Y154.464   
   X27.468       Y154.270   
   X27.274       Y154.121   
   X27.048       Y154.028   
   X26.805       Y153.996   
(Pass: 5)
   Z0.700     
   X26.563       Y154.028   
   X26.337       Y154.121   
   X26.143       Y154.270   
   X25.994       Y154.464   
   X25.901       Y154.690   
   X25.869       Y154.932   
   X25.901       Y155.175   
   X25.994       Y155.401   
   X26.143       Y155.595   
   X26.337       Y155.744   
   X26.563       Y155.837   
   X26.805       Y155.869   
   X27.048       Y155.837   
   X27.274       Y155.744   
   X27.468       Y155.595   
   X27.616       Y155.401   
   X27.710       Y155.175   
   X27.742       Y154.932   
   X27.710       Y154.690   
   X27.616       Y154.464   
   X27.468       Y154.270   
   X27.274       Y154.121   
   X27.048       Y154.028   
   X26.805       Y153.996   
(Pass: 6)
   Z0.200     
   X26.563       Y154.028   
   X26.337       Y154.121   
   X26.143       Y154.270   
   X25.994       Y154.464   
   X25.901       Y154.690   
   X25.869       Y154.932   
   X25.901       Y155.175   
   X25.994       Y155.401   
   X26.143       Y155.595   
   X26.337       Y155.744   
   X26.563       Y155.837   
   X26.805       Y155.869   
   X27.048       Y155.837   
   X27.274       Y155.744   
   X27.468       Y155.595   
   X27.616       Y155.401   
   X27.710       Y155.175   
   X27.742       Y154.932   
   X27.710       Y154.690   
   X27.616       Y154.464   
   X27.468       Y154.270   
   X27.274       Y154.121   
   X27.048       Y154.028   
   X26.805       Y153.996   
(Pass: 7)
   Z-0.300    
   X26.563       Y154.028   
   X26.337       Y154.121   
   X26.143       Y154.270   
   X25.994       Y154.464   
   X25.901       Y154.690   
   X25.869       Y154.932   
   X25.901       Y155.175   
   X25.994       Y155.401   
   X26.143       Y155.595   
   X26.337       Y155.744   
   X26.563       Y155.837   
   X26.805       Y155.869   
   X27.048       Y155.837   
   X27.274       Y155.744   
   X27.468       Y155.595   
   X27.616       Y155.401   
   X27.710       Y155.175   
   X27.742       Y154.932   
   X27.710       Y154.690   
   X27.616       Y154.464   
   X27.468       Y154.270   
   X27.274       Y154.121   
   X27.048       Y154.028   
   X26.805       Y153.996   
(Pass: 8)
   Z-0.480    
   X26.563       Y154.028   
   X26.337       Y154.121   
   X26.143       Y154.270   
   X25.994       Y154.464   
   X25.901       Y154.690   
   X25.869       Y154.932   
   X25.901       Y155.175   
   X25.994       Y155.401   
   X26.143       Y155.595   
   X26.337       Y155.744   
   X26.563       Y155.837   
   X26.805       Y155.869   
   X27.048       Y155.837   
   X27.274       Y155.744   
   X27.468       Y155.595   
   X27.616       Y155.401   
   X27.710       Y155.175   
   X27.742       Y154.932   
   X27.710       Y154.690   
   X27.616       Y154.464   
   X27.468       Y154.270   
   X27.274       Y154.121   
   X27.048       Y154.028   
   X26.805       Y153.996   
(BREAK pass 8)
G0   Z18.200    
(Pass: 1)
   Y173.996   
G1   Z2.700      F200 
   X26.563       Y174.028   
   X26.337       Y174.121   
   X26.143       Y174.270   
   X25.994       Y174.464   
   X25.901       Y174.690   
   X25.869       Y174.932   
   X25.901       Y175.175   
   X25.994       Y175.401   
   X26.143       Y175.595   
   X26.337       Y175.744   
   X26.563       Y175.837   
   X26.805       Y175.869   
   X27.048       Y175.837   
   X27.274       Y175.744   
   X27.468       Y175.595   
   X27.616       Y175.401   
   X27.710       Y175.175   
   X27.742       Y174.932   
   X27.710       Y174.690   
   X27.616       Y174.464   
   X27.468       Y174.270   
   X27.274       Y174.121   
   X27.048       Y174.028   
   X26.805       Y173.996   
(Pass: 2)
   Z2.200     
   X26.563       Y174.028   
   X26.337       Y174.121   
   X26.143       Y174.270   
   X25.994       Y174.464   
   X25.901       Y174.690   
   X25.869       Y174.932   
   X25.901       Y175.175   
   X25.994       Y175.401   
   X26.143       Y175.595   
   X26.337       Y175.744   
   X26.563       Y175.837   
   X26.805       Y175.869   
   X27.048       Y175.837   
   X27.274       Y175.744   
   X27.468       Y175.595   
   X27.616       Y175.401   
   X27.710       Y175.175   
   X27.742       Y174.932   
   X27.710       Y174.690   
   X27.616       Y174.464   
   X27.468       Y174.270   
   X27.274       Y174.121   
   X27.048       Y174.028   
   X26.805       Y173.996   
(Pass: 3)
   Z1.700     
   X26.563       Y174.028   
   X26.337       Y174.121   
   X26.143       Y174.270   
   X25.994       Y174.464   
   X25.901       Y174.690   
   X25.869       Y174.932   
   X25.901       Y175.175   
   X25.994       Y175.401   
   X26.143       Y175.595   
   X26.337       Y175.744   
   X26.563       Y175.837   
   X26.805       Y175.869   
   X27.048       Y175.837   
   X27.274       Y175.744   
   X27.468       Y175.595   
   X27.616       Y175.401   
   X27.710       Y175.175   
   X27.742       Y174.932   
   X27.710       Y174.690   
   X27.616       Y174.464   
   X27.468       Y174.270   
   X27.274       Y174.121   
   X27.048       Y174.028   
   X26.805       Y173.996   
(Pass: 4)
   Z1.200     
   X26.563       Y174.028   
   X26.337       Y174.121   
   X26.143       Y174.270   
   X25.994       Y174.464   
   X25.901       Y174.690   
   X25.869       Y174.932   
   X25.901       Y175.175   
   X25.994       Y175.401   
   X26.143       Y175.595   
   X26.337       Y175.744   
   X26.563       Y175.837   
   X26.805       Y175.869   
   X27.048       Y175.837   
   X27.274       Y175.744   
   X27.468       Y175.595   
   X27.616       Y175.401   
   X27.710       Y175.175   
   X27.742       Y174.932   
   X27.710       Y174.690   
   X27.616       Y174.464   
   X27.468       Y174.270   
   X27.274       Y174.121   
   X27.048       Y174.028   
   X26.805       Y173.996   
(Pass: 5)
   Z0.700     
   X26.563       Y174.028   
   X26.337       Y174.121   
   X26.143       Y174.270   
   X25.994       Y174.464   
   X25.901       Y174.690   
   X25.869       Y174.932   
   X25.901       Y175.175   
   X25.994       Y175.401   
   X26.143       Y175.595   
   X26.337       Y175.744   
   X26.563       Y175.837   
   X26.805       Y175.869   
   X27.048       Y175.837   
   X27.274       Y175.744   
   X27.468       Y175.595   
   X27.616       Y175.401   
   X27.710       Y175.175   
   X27.742       Y174.932   
   X27.710       Y174.690   
   X27.616       Y174.464   
   X27.468       Y174.270   
   X27.274       Y174.121   
   X27.048       Y174.028   
   X26.805       Y173.996   
(Pass: 6)
   Z0.200     
   X26.563       Y174.028   
   X26.337       Y174.121   
   X26.143       Y174.270   
   X25.994       Y174.464   
   X25.901       Y174.690   
   X25.869       Y174.932   
   X25.901       Y175.175   
   X25.994       Y175.401   
   X26.143       Y175.595   
   X26.337       Y175.744   
   X26.563       Y175.837   
   X26.805       Y175.869   
   X27.048       Y175.837   
   X27.274       Y175.744   
   X27.468       Y175.595   
   X27.616       Y175.401   
   X27.710       Y175.175   
   X27.742       Y174.932   
   X27.710       Y174.690   
   X27.616       Y174.464   
   X27.468       Y174.270   
   X27.274       Y174.121   
   X27.048       Y174.028   
   X26.805       Y173.996   
(Pass: 7)
   Z-0.300    
   X26.563       Y174.028   
   X26.337       Y174.121   
   X26.143       Y174.270   
   X25.994       Y174.464   
   X25.901       Y174.690   
   X25.869       Y174.932   
   X25.901       Y175.175   
   X25.994       Y175.401   
   X26.143       Y175.595   
   X26.337       Y175.744   
   X26.563       Y175.837   
   X26.805       Y175.869   
   X27.048       Y175.837   
   X27.274       Y175.744   
   X27.468       Y175.595   
   X27.616       Y175.401   
   X27.710       Y175.175   
   X27.742       Y174.932   
   X27.710       Y174.690   
   X27.616       Y174.464   
   X27.468       Y174.270   
   X27.274       Y174.121   
   X27.048       Y174.028   
   X26.805       Y173.996   
(Pass: 8)
   Z-0.480    
   X26.563       Y174.028   
   X26.337       Y174.121   
   X26.143       Y174.270   
   X25.994       Y174.464   
   X25.901       Y174.690   
   X25.869       Y174.932   
   X25.901       Y175.175   
   X25.994       Y175.401   
   X26.143       Y175.595   
   X26.337       Y175.744   
   X26.563       Y175.837   
   X26.805       Y175.869   
   X27.048       Y175.837   
   X27.274       Y175.744   
   X27.468       Y175.595   
   X27.616       Y175.401   
   X27.710       Y175.175   
   X27.742       Y174.932   
   X27.710       Y174.690   
   X27.616       Y174.464   
   X27.468       Y174.270   
   X27.274       Y174.121   
   X27.048       Y174.028   
   X26.805       Y173.996   
(BREAK pass 8)
G0   Z18.200    
(Pass: 1)
   X46.211       Y198.080   
G1   Z2.700      F200 
   X46.017       Y198.229   
   X45.869       Y198.423   
   X45.775       Y198.649   
   X45.743       Y198.891   
   X45.775       Y199.134   
   X45.869       Y199.360   
   X46.017       Y199.554   
   X46.211       Y199.702   
   X46.437       Y199.796   
   X46.680       Y199.828   
   X46.922       Y199.796   
   X47.148       Y199.702   
   X47.342       Y199.554   
   X47.491       Y199.360   
   X47.584       Y199.134   
   X47.616       Y198.891   
   X47.584       Y198.649   
   X47.491       Y198.423   
   X47.342       Y198.229   
   X47.148       Y198.080   
   X46.922       Y197.987   
   X46.680       Y197.955   
   X46.437       Y197.987   
   X46.211       Y198.080   
(Pass: 2)
   Z2.200     
   X46.017       Y198.229   
   X45.869       Y198.423   
   X45.775       Y198.649   
   X45.743       Y198.891   
   X45.775       Y199.134   
   X45.869       Y199.360   
   X46.017       Y199.554   
   X46.211       Y199.702   
   X46.437       Y199.796   
   X46.680       Y199.828   
   X46.922       Y199.796   
   X47.148       Y199.702   
   X47.342       Y199.554   
   X47.491       Y199.360   
   X47.584       Y199.134   
   X47.616       Y198.891   
   X47.584       Y198.649   
   X47.491       Y198.423   
   X47.342       Y198.229   
   X47.148       Y198.080   
   X46.922       Y197.987   
   X46.680       Y197.955   
   X46.437       Y197.987   
   X46.211       Y198.080   
(Pass: 3)
   Z1.700     
   X46.017       Y198.229   
   X45.869       Y198.423   
   X45.775       Y198.649   
   X45.743       Y198.891   
   X45.775       Y199.134   
   X45.869       Y199.360   
   X46.017       Y199.554   
   X46.211       Y199.702   
   X46.437       Y199.796   
   X46.680       Y199.828   
   X46.922       Y199.796   
   X47.148       Y199.702   
   X47.342       Y199.554   
   X47.491       Y199.360   
   X47.584       Y199.134   
   X47.616       Y198.891   
   X47.584       Y198.649   
   X47.491       Y198.423   
   X47.342       Y198.229   
   X47.148       Y198.080   
   X46.922       Y197.987   
   X46.680       Y197.955   
   X46.437       Y197.987   
   X46.211       Y198.080   
(Pass: 4)
   Z1.200     
   X46.017       Y198.229   
   X45.869       Y198.423   
   X45.775       Y198.649   
   X45.743       Y198.891   
   X45.775       Y199.134   
   X45.869       Y199.360   
   X46.017       Y199.554   
   X46.211       Y199.702   
   X46.437       Y199.796   
   X46.680       Y199.828   
   X46.922       Y199.796   
   X47.148       Y199.702   
   X47.342       Y199.554   
   X47.491       Y199.360   
   X47.584       Y199.134   
   X47.616       Y198.891   
   X47.584       Y198.649   
   X47.491       Y198.423   
   X47.342       Y198.229   
   X47.148       Y198.080   
   X46.922       Y197.987   
   X46.680       Y197.955   
   X46.437       Y197.987   
   X46.211       Y198.080   
(Pass: 5)
   Z0.700     
   X46.017       Y198.229   
   X45.869       Y198.423   
   X45.775       Y198.649   
   X45.743       Y198.891   
   X45.775       Y199.134   
   X45.869       Y199.360   
   X46.017       Y199.554   
   X46.211       Y199.702   
   X46.437       Y199.796   
   X46.680       Y199.828   
   X46.922       Y199.796   
   X47.148       Y199.702   
   X47.342       Y199.554   
   X47.491       Y199.360   
   X47.584       Y199.134   
   X47.616       Y198.891   
   X47.584       Y198.649   
   X47.491       Y198.423   
   X47.342       Y198.229   
   X47.148       Y198.080   
   X46.922       Y197.987   
   X46.680       Y197.955   
   X46.437       Y197.987   
   X46.211       Y198.080   
(Pass: 6)
   Z0.200     
   X46.017       Y198.229   
   X45.869       Y198.423   
   X45.775       Y198.649   
   X45.743       Y198.891   
   X45.775       Y199.134   
   X45.869       Y199.360   
   X46.017       Y199.554   
   X46.211       Y199.702   
   X46.437       Y199.796   
   X46.680       Y199.828   
   X46.922       Y199.796   
   X47.148       Y199.702   
   X47.342       Y199.554   
   X47.491       Y199.360   
   X47.584       Y199.134   
   X47.616       Y198.891   
   X47.584       Y198.649   
   X47.491       Y198.423   
   X47.342       Y198.229   
   X47.148       Y198.080   
   X46.922       Y197.987   
   X46.680       Y197.955   
   X46.437       Y197.987   
   X46.211       Y198.080   
(Pass: 7)
   Z-0.300    
   X46.017       Y198.229   
   X45.869       Y198.423   
   X45.775       Y198.649   
   X45.743       Y198.891   
   X45.775       Y199.134   
   X45.869       Y199.360   
   X46.017       Y199.554   
   X46.211       Y199.702   
   X46.437       Y199.796   
   X46.680       Y199.828   
   X46.922       Y199.796   
   X47.148       Y199.702   
   X47.342       Y199.554   
   X47.491       Y199.360   
   X47.584       Y199.134   
   X47.616       Y198.891   
   X47.584       Y198.649   
   X47.491       Y198.423   
   X47.342       Y198.229   
   X47.148       Y198.080   
   X46.922       Y197.987   
   X46.680       Y197.955   
   X46.437       Y197.987   
   X46.211       Y198.080   
(Pass: 8)
   Z-0.480    
   X46.017       Y198.229   
   X45.869       Y198.423   
   X45.775       Y198.649   
   X45.743       Y198.891   
   X45.775       Y199.134   
   X45.869       Y199.360   
   X46.017       Y199.554   
   X46.211       Y199.702   
   X46.437       Y199.796   
   X46.680       Y199.828   
   X46.922       Y199.796   
   X47.148       Y199.702   
   X47.342       Y199.554   
   X47.491       Y199.360   
   X47.584       Y199.134   
   X47.616       Y198.891   
   X47.584       Y198.649   
   X47.491       Y198.423   
   X47.342       Y198.229   
   X47.148       Y198.080   
   X46.922       Y197.987   
   X46.680       Y197.955   
   X46.437       Y197.987   
   X46.211       Y198.080   
(BREAK pass 8)
G0   Z18.200    
(Pass: 1)
   X66.153       Y198.724   
G1   Z2.700      F200 
   X66.121       Y198.967   
   X66.153       Y199.209   
   X66.246       Y199.435   
   X66.395       Y199.629   
   X66.589       Y199.778   
   X66.815       Y199.871   
   X67.159       Y199.917   
   X87.956    
   X88.300       Y199.871   
   X88.526       Y199.778   
   X88.720       Y199.629   
   X88.869       Y199.435   
   X88.962       Y199.209   
   X88.994       Y198.967   
   X88.962       Y198.724   
   X88.869       Y198.498   
   X88.720       Y198.304   
   X88.526       Y198.155   
   X88.300       Y198.062   
   X87.956       Y198.017   
   X67.159    
   X66.815       Y198.062   
   X66.589       Y198.155   
   X66.395       Y198.304   
   X66.246       Y198.498   
   X66.153       Y198.724   
(Pass: 2)
   Z2.200     
   X66.121       Y198.967   
   X66.153       Y199.209   
   X66.246       Y199.435   
   X66.395       Y199.629   
   X66.589       Y199.778   
   X66.815       Y199.871   
   X67.159       Y199.917   
   X87.956    
   X88.300       Y199.871   
   X88.526       Y199.778   
   X88.720       Y199.629   
   X88.869       Y199.435   
   X88.962       Y199.209   
   X88.994       Y198.967   
   X88.962       Y198.724   
   X88.869       Y198.498   
   X88.720       Y198.304   
   X88.526       Y198.155   
   X88.300       Y198.062   
   X87.956       Y198.017   
   X67.159    
   X66.815       Y198.062   
   X66.589       Y198.155   
   X66.395       Y198.304   
   X66.246       Y198.498   
   X66.153       Y198.724   
(Pass: 3)
   Z1.700     
   X66.121       Y198.967   
   X66.153       Y199.209   
   X66.246       Y199.435   
   X66.395       Y199.629   
   X66.589       Y199.778   
   X66.815       Y199.871   
   X67.159       Y199.917   
   X87.956    
   X88.300       Y199.871   
   X88.526       Y199.778   
   X88.720       Y199.629   
   X88.869       Y199.435   
   X88.962       Y199.209   
   X88.994       Y198.967   
   X88.962       Y198.724   
   X88.869       Y198.498   
   X88.720       Y198.304   
   X88.526       Y198.155   
   X88.300       Y198.062   
   X87.956       Y198.017   
   X67.159    
   X66.815       Y198.062   
   X66.589       Y198.155   
   X66.395       Y198.304   
   X66.246       Y198.498   
   X66.153       Y198.724   
(Pass: 4)
   Z1.200     
   X66.121       Y198.967   
   X66.153       Y199.209   
   X66.246       Y199.435   
   X66.395       Y199.629   
   X66.589       Y199.778   
   X66.815       Y199.871   
   X67.159       Y199.917   
   X87.956    
   X88.300       Y199.871   
   X88.526       Y199.778   
   X88.720       Y199.629   
   X88.869       Y199.435   
   X88.962       Y199.209   
   X88.994       Y198.967   
   X88.962       Y198.724   
   X88.869       Y198.498   
   X88.720       Y198.304   
   X88.526       Y198.155   
   X88.300       Y198.062   
   X87.956       Y198.017   
   X67.159    
   X66.815       Y198.062   
   X66.589       Y198.155   
   X66.395       Y198.304   
   X66.246       Y198.498   
   X66.153       Y198.724   
(Pass: 5)
   Z0.700     
   X66.121       Y198.967   
   X66.153       Y199.209   
   X66.246       Y199.435   
   X66.395       Y199.629   
   X66.589       Y199.778   
   X66.815       Y199.871   
   X67.159       Y199.917   
   X87.956    
   X88.300       Y199.871   
   X88.526       Y199.778   
   X88.720       Y199.629   
   X88.869       Y199.435   
   X88.962       Y199.209   
   X88.994       Y198.967   
   X88.962       Y198.724   
   X88.869       Y198.498   
   X88.720       Y198.304   
   X88.526       Y198.155   
   X88.300       Y198.062   
   X87.956       Y198.017   
   X67.159    
   X66.815       Y198.062   
   X66.589       Y198.155   
   X66.395       Y198.304   
   X66.246       Y198.498   
   X66.153       Y198.724   
(Pass: 6)
   Z0.200     
   X66.121       Y198.967   
   X66.153       Y199.209   
   X66.246       Y199.435   
   X66.395       Y199.629   
   X66.589       Y199.778   
   X66.815       Y199.871   
   X67.159       Y199.917   
   X87.956    
   X88.300       Y199.871   
   X88.526       Y199.778   
   X88.720       Y199.629   
   X88.869       Y199.435   
   X88.962       Y199.209   
   X88.994       Y198.967   
   X88.962       Y198.724   
   X88.869       Y198.498   
   X88.720       Y198.304   
   X88.526       Y198.155   
   X88.300       Y198.062   
   X87.956       Y198.017   
   X67.159    
   X66.815       Y198.062   
   X66.589       Y198.155   
   X66.395       Y198.304   
   X66.246       Y198.498   
   X66.153       Y198.724   
(Pass: 7)
   Z-0.300    
   X66.121       Y198.967   
   X66.153       Y199.209   
   X66.246       Y199.435   
   X66.395       Y199.629   
   X66.589       Y199.778   
   X66.815       Y199.871   
   X67.159       Y199.917   
   X87.956    
   X88.300       Y199.871   
   X88.526       Y199.778   
   X88.720       Y199.629   
   X88.869       Y199.435   
   X88.962       Y199.209   
   X88.994       Y198.967   
   X88.962       Y198.724   
   X88.869       Y198.498   
   X88.720       Y198.304   
   X88.526       Y198.155   
   X88.300       Y198.062   
   X87.956       Y198.017   
   X67.159    
   X66.815       Y198.062   
   X66.589       Y198.155   
   X66.395       Y198.304   
   X66.246       Y198.498   
   X66.153       Y198.724   
(Pass: 8)
   Z-0.480    
   X66.121       Y198.967   
   X66.153       Y199.209   
   X66.246       Y199.435   
   X66.395       Y199.629   
   X66.589       Y199.778   
   X66.815       Y199.871   
   X67.159       Y199.917   
   X87.956    
   X88.300       Y199.871   
   X88.526       Y199.778   
   X88.720       Y199.629   
   X88.869       Y199.435   
   X88.962       Y199.209   
   X88.994       Y198.967   
   X88.962       Y198.724   
   X88.869       Y198.498   
   X88.720       Y198.304   
   X88.526       Y198.155   
   X88.300       Y198.062   
   X87.956       Y198.017   
   X67.159    
   X66.815       Y198.062   
   X66.589       Y198.155   
   X66.395       Y198.304   
   X66.246       Y198.498   
   X66.153       Y198.724   
(BREAK pass 8)
G0   Z18.200    
(Pass: 1)
   X67.159       Y179.917   
G1   Z2.700      F200 
   X87.956    
   X88.300       Y179.871   
   X88.526       Y179.778   
   X88.720       Y179.629   
   X88.869       Y179.435   
   X88.962       Y179.209   
   X88.994       Y178.967   
   X88.962       Y178.724   
   X88.869       Y178.498   
   X88.720       Y178.304   
   X88.526       Y178.155   
   X88.300       Y178.062   
   X87.956       Y178.017   
   X67.159    
   X66.815       Y178.062   
   X66.589       Y178.155   
   X66.395       Y178.304   
   X66.246       Y178.498   
   X66.153       Y178.724   
   X66.121       Y178.967   
   X66.153       Y179.209   
   X66.246       Y179.435   
   X66.395       Y179.629   
   X66.589       Y179.778   
   X66.815       Y179.871   
   X67.159       Y179.917   
(Pass: 2)
   Z2.200     
   X87.956    
   X88.300       Y179.871   
   X88.526       Y179.778   
   X88.720       Y179.629   
   X88.869       Y179.435   
   X88.962       Y179.209   
   X88.994       Y178.967   
   X88.962       Y178.724   
   X88.869       Y178.498   
   X88.720       Y178.304   
   X88.526       Y178.155   
   X88.300       Y178.062   
   X87.956       Y178.017   
   X67.159    
   X66.815       Y178.062   
   X66.589       Y178.155   
   X66.395       Y178.304   
   X66.246       Y178.498   
   X66.153       Y178.724   
   X66.121       Y178.967   
   X66.153       Y179.209   
   X66.246       Y179.435   
   X66.395       Y179.629   
   X66.589       Y179.778   
   X66.815       Y179.871   
   X67.159       Y179.917   
(Pass: 3)
   Z1.700     
   X87.956    
   X88.300       Y179.871   
   X88.526       Y179.778   
   X88.720       Y179.629   
   X88.869       Y179.435   
   X88.962       Y179.209   
   X88.994       Y178.967   
   X88.962       Y178.724   
   X88.869       Y178.498   
   X88.720       Y178.304   
   X88.526       Y178.155   
   X88.300       Y178.062   
   X87.956       Y178.017   
   X67.159    
   X66.815       Y178.062   
   X66.589       Y178.155   
   X66.395       Y178.304   
   X66.246       Y178.498   
   X66.153       Y178.724   
   X66.121       Y178.967   
   X66.153       Y179.209   
   X66.246       Y179.435   
   X66.395       Y179.629   
   X66.589       Y179.778   
   X66.815       Y179.871   
   X67.159       Y179.917   
(Pass: 4)
   Z1.200     
   X87.956    
   X88.300       Y179.871   
   X88.526       Y179.778   
   X88.720       Y179.629   
   X88.869       Y179.435   
   X88.962       Y179.209   
   X88.994       Y178.967   
   X88.962       Y178.724   
   X88.869       Y178.498   
   X88.720       Y178.304   
   X88.526       Y178.155   
   X88.300       Y178.062   
   X87.956       Y178.017   
   X67.159    
   X66.815       Y178.062   
   X66.589       Y178.155   
   X66.395       Y178.304   
   X66.246       Y178.498   
   X66.153       Y178.724   
   X66.121       Y178.967   
   X66.153       Y179.209   
   X66.246       Y179.435   
   X66.395       Y179.629   
   X66.589       Y179.778   
   X66.815       Y179.871   
   X67.159       Y179.917   
(Pass: 5)
   Z0.700     
   X87.956    
   X88.300       Y179.871   
   X88.526       Y179.778   
   X88.720       Y179.629   
   X88.869       Y179.435   
   X88.962       Y179.209   
   X88.994       Y178.967   
   X88.962       Y178.724   
   X88.869       Y178.498   
   X88.720       Y178.304   
   X88.526       Y178.155   
   X88.300       Y178.062   
   X87.956       Y178.017   
   X67.159    
   X66.815       Y178.062   
   X66.589       Y178.155   
   X66.395       Y178.304   
   X66.246       Y178.498   
   X66.153       Y178.724   
   X66.121       Y178.967   
   X66.153       Y179.209   
   X66.246       Y179.435   
   X66.395       Y179.629   
   X66.589       Y179.778   
   X66.815       Y179.871   
   X67.159       Y179.917   
(Pass: 6)
   Z0.200     
   X87.956    
   X88.300       Y179.871   
   X88.526       Y179.778   
   X88.720       Y179.629   
   X88.869       Y179.435   
   X88.962       Y179.209   
   X88.994       Y178.967   
   X88.962       Y178.724   
   X88.869       Y178.498   
   X88.720       Y178.304   
   X88.526       Y178.155   
   X88.300       Y178.062   
   X87.956       Y178.017   
   X67.159    
   X66.815       Y178.062   
   X66.589       Y178.155   
   X66.395       Y178.304   
   X66.246       Y178.498   
   X66.153       Y178.724   
   X66.121       Y178.967   
   X66.153       Y179.209   
   X66.246       Y179.435   
   X66.395       Y179.629   
   X66.589       Y179.778   
   X66.815       Y179.871   
   X67.159       Y179.917   
(Pass: 7)
   Z-0.300    
   X87.956    
   X88.300       Y179.871   
   X88.526       Y179.778   
   X88.720       Y179.629   
   X88.869       Y179.435   
   X88.962       Y179.209   
   X88.994       Y178.967   
   X88.962       Y178.724   
   X88.869       Y178.498   
   X88.720       Y178.304   
   X88.526       Y178.155   
   X88.300       Y178.062   
   X87.956       Y178.017   
   X67.159    
   X66.815       Y178.062   
   X66.589       Y178.155   
   X66.395       Y178.304   
   X66.246       Y178.498   
   X66.153       Y178.724   
   X66.121       Y178.967   
   X66.153       Y179.209   
   X66.246       Y179.435   
   X66.395       Y179.629   
   X66.589       Y179.778   
   X66.815       Y179.871   
   X67.159       Y179.917   
(Pass: 8)
   Z-0.480    
   X87.956    
   X88.300       Y179.871   
   X88.526       Y179.778   
   X88.720       Y179.629   
   X88.869       Y179.435   
   X88.962       Y179.209   
   X88.994       Y178.967   
   X88.962       Y178.724   
   X88.869       Y178.498   
   X88.720       Y178.304   
   X88.526       Y178.155   
   X88.300       Y178.062   
   X87.956       Y178.017   
   X67.159    
   X66.815       Y178.062   
   X66.589       Y178.155   
   X66.395       Y178.304   
   X66.246       Y178.498   
   X66.153       Y178.724   
   X66.121       Y178.967   
   X66.153       Y179.209   
   X66.246       Y179.435   
   X66.395       Y179.629   
   X66.589       Y179.778   
   X66.815       Y179.871   
   X67.159       Y179.917   
(BREAK pass 8)
G0   Z18.200    
(Pass: 1)
   X75.823       Y166.093   
G1   Z2.700      F200 
   X76.025       Y166.248   
   X76.261       Y166.346   
   X76.513       Y166.379   
   X76.766       Y166.346   
   X77.002       Y166.248   
   X77.204       Y166.093   
   X77.359       Y165.891   
   X77.457       Y165.655   
   X77.503       Y165.301   
   Y156.504   
   X77.457       Y156.150   
   X77.359       Y155.914   
   X77.204       Y155.712   
   X77.002       Y155.557   
   X76.766       Y155.459   
   X76.513       Y155.426   
   X76.261       Y155.459   
   X76.025       Y155.557   
   X75.823       Y155.712   
   X75.668       Y155.914   
   X75.570       Y156.150   
   X75.523       Y156.504   
   Y165.301   
   X75.570       Y165.655   
   X75.668       Y165.891   
   X75.823       Y166.093   
(Pass: 2)
   Z2.200     
   X76.025       Y166.248   
   X76.261       Y166.346   
   X76.513       Y166.379   
   X76.766       Y166.346   
   X77.002       Y166.248   
   X77.204       Y166.093   
   X77.359       Y165.891   
   X77.457       Y165.655   
   X77.503       Y165.301   
   Y156.504   
   X77.457       Y156.150   
   X77.359       Y155.914   
   X77.204       Y155.712   
   X77.002       Y155.557   
   X76.766       Y155.459   
   X76.513       Y155.426   
   X76.261       Y155.459   
   X76.025       Y155.557   
   X75.823       Y155.712   
   X75.668       Y155.914   
   X75.570       Y156.150   
   X75.523       Y156.504   
   Y165.301   
   X75.570       Y165.655   
   X75.668       Y165.891   
   X75.823       Y166.093   
(Pass: 3)
   Z1.700     
   X76.025       Y166.248   
   X76.261       Y166.346   
   X76.513       Y166.379   
   X76.766       Y166.346   
   X77.002       Y166.248   
   X77.204       Y166.093   
   X77.359       Y165.891   
   X77.457       Y165.655   
   X77.503       Y165.301   
   Y156.504   
   X77.457       Y156.150   
   X77.359       Y155.914   
   X77.204       Y155.712   
   X77.002       Y155.557   
   X76.766       Y155.459   
   X76.513       Y155.426   
   X76.261       Y155.459   
   X76.025       Y155.557   
   X75.823       Y155.712   
   X75.668       Y155.914   
   X75.570       Y156.150   
   X75.523       Y156.504   
   Y165.301   
   X75.570       Y165.655   
   X75.668       Y165.891   
   X75.823       Y166.093   
(Pass: 4)
   Z1.200     
   X76.025       Y166.248   
   X76.261       Y166.346   
   X76.513       Y166.379   
   X76.766       Y166.346   
   X77.002       Y166.248   
   X77.204       Y166.093   
   X77.359       Y165.891   
   X77.457       Y165.655   
   X77.503       Y165.301   
   Y156.504   
   X77.457       Y156.150   
   X77.359       Y155.914   
   X77.204       Y155.712   
   X77.002       Y155.557   
   X76.766       Y155.459   
   X76.513       Y155.426   
   X76.261       Y155.459   
   X76.025       Y155.557   
   X75.823       Y155.712   
   X75.668       Y155.914   
   X75.570       Y156.150   
   X75.523       Y156.504   
   Y165.301   
   X75.570       Y165.655   
   X75.668       Y165.891   
   X75.823       Y166.093   
(Pass: 5)
   Z0.700     
   X76.025       Y166.248   
   X76.261       Y166.346   
   X76.513       Y166.379   
   X76.766       Y166.346   
   X77.002       Y166.248   
   X77.204       Y166.093   
   X77.359       Y165.891   
   X77.457       Y165.655   
   X77.503       Y165.301   
   Y156.504   
   X77.457       Y156.150   
   X77.359       Y155.914   
   X77.204       Y155.712   
   X77.002       Y155.557   
   X76.766       Y155.459   
   X76.513       Y155.426   
   X76.261       Y155.459   
   X76.025       Y155.557   
   X75.823       Y155.712   
   X75.668       Y155.914   
   X75.570       Y156.150   
   X75.523       Y156.504   
   Y165.301   
   X75.570       Y165.655   
   X75.668       Y165.891   
   X75.823       Y166.093   
(Pass: 6)
   Z0.200     
   X76.025       Y166.248   
   X76.261       Y166.346   
   X76.513       Y166.379   
   X76.766       Y166.346   
   X77.002       Y166.248   
   X77.204       Y166.093   
   X77.359       Y165.891   
   X77.457       Y165.655   
   X77.503       Y165.301   
   Y156.504   
   X77.457       Y156.150   
   X77.359       Y155.914   
   X77.204       Y155.712   
   X77.002       Y155.557   
   X76.766       Y155.459   
   X76.513       Y155.426   
   X76.261       Y155.459   
   X76.025       Y155.557   
   X75.823       Y155.712   
   X75.668       Y155.914   
   X75.570       Y156.150   
   X75.523       Y156.504   
   Y165.301   
   X75.570       Y165.655   
   X75.668       Y165.891   
   X75.823       Y166.093   
(Pass: 7)
   Z-0.300    
   X76.025       Y166.248   
   X76.261       Y166.346   
   X76.513       Y166.379   
   X76.766       Y166.346   
   X77.002       Y166.248   
   X77.204       Y166.093   
   X77.359       Y165.891   
   X77.457       Y165.655   
   X77.503       Y165.301   
   Y156.504   
   X77.457       Y156.150   
   X77.359       Y155.914   
   X77.204       Y155.712   
   X77.002       Y155.557   
   X76.766       Y155.459   
   X76.513       Y155.426   
   X76.261       Y155.459   
   X76.025       Y155.557   
   X75.823       Y155.712   
   X75.668       Y155.914   
   X75.570       Y156.150   
   X75.523       Y156.504   
   Y165.301   
   X75.570       Y165.655   
   X75.668       Y165.891   
   X75.823       Y166.093   
(Pass: 8)
   Z-0.480    
   X76.025       Y166.248   
   X76.261       Y166.346   
   X76.513       Y166.379   
   X76.766       Y166.346   
   X77.002       Y166.248   
   X77.204       Y166.093   
   X77.359       Y165.891   
   X77.457       Y165.655   
   X77.503       Y165.301   
   Y156.504   
   X77.457       Y156.150   
   X77.359       Y155.914   
   X77.204       Y155.712   
   X77.002       Y155.557   
   X76.766       Y155.459   
   X76.513       Y155.426   
   X76.261       Y155.459   
   X76.025       Y155.557   
   X75.823       Y155.712   
   X75.668       Y155.914   
   X75.570       Y156.150   
   X75.523       Y156.504   
   Y165.301   
   X75.570       Y165.655   
   X75.668       Y165.891   
   X75.823       Y166.093   
(BREAK pass 8)
G0   Z18.200    
(Pass: 1)
   X65.048       Y122.883   
G1   Z2.700      F200 
   X65.274       Y122.789   
   X65.468       Y122.640   
   X65.616       Y122.446   
   X65.710       Y122.220   
   X65.742       Y121.978   
   X65.710       Y121.736   
   X65.616       Y121.510   
   X65.468       Y121.316   
   X65.274       Y121.167   
   X65.048       Y121.073   
   X64.805       Y121.041   
   X64.563       Y121.073   
   X64.337       Y121.167   
   X64.143       Y121.316   
   X63.994       Y121.510   
   X63.901       Y121.736   
   X63.869       Y121.978   
   X63.901       Y122.220   
   X63.994       Y122.446   
   X64.143       Y122.640   
   X64.337       Y122.789   
   X64.563       Y122.883   
   X64.805       Y122.915   
   X65.048       Y122.883   
(Pass: 2)
   Z2.200     
   X65.274       Y122.789   
   X65.468       Y122.640   
   X65.616       Y122.446   
   X65.710       Y122.220   
   X65.742       Y121.978   
   X65.710       Y121.736   
   X65.616       Y121.510   
   X65.468       Y121.316   
   X65.274       Y121.167   
   X65.048       Y121.073   
   X64.805       Y121.041   
   X64.563       Y121.073   
   X64.337       Y121.167   
   X64.143       Y121.316   
   X63.994       Y121.510   
   X63.901       Y121.736   
   X63.869       Y121.978   
   X63.901       Y122.220   
   X63.994       Y122.446   
   X64.143       Y122.640   
   X64.337       Y122.789   
   X64.563       Y122.883   
   X64.805       Y122.915   
   X65.048       Y122.883   
(Pass: 3)
   Z1.700     
   X65.274       Y122.789   
   X65.468       Y122.640   
   X65.616       Y122.446   
   X65.710       Y122.220   
   X65.742       Y121.978   
   X65.710       Y121.736   
   X65.616       Y121.510   
   X65.468       Y121.316   
   X65.274       Y121.167   
   X65.048       Y121.073   
   X64.805       Y121.041   
   X64.563       Y121.073   
   X64.337       Y121.167   
   X64.143       Y121.316   
   X63.994       Y121.510   
   X63.901       Y121.736   
   X63.869       Y121.978   
   X63.901       Y122.220   
   X63.994       Y122.446   
   X64.143       Y122.640   
   X64.337       Y122.789   
   X64.563       Y122.883   
   X64.805       Y122.915   
   X65.048       Y122.883   
(Pass: 4)
   Z1.200     
   X65.274       Y122.789   
   X65.468       Y122.640   
   X65.616       Y122.446   
   X65.710       Y122.220   
   X65.742       Y121.978   
   X65.710       Y121.736   
   X65.616       Y121.510   
   X65.468       Y121.316   
   X65.274       Y121.167   
   X65.048       Y121.073   
   X64.805       Y121.041   
   X64.563       Y121.073   
   X64.337       Y121.167   
   X64.143       Y121.316   
   X63.994       Y121.510   
   X63.901       Y121.736   
   X63.869       Y121.978   
   X63.901       Y122.220   
   X63.994       Y122.446   
   X64.143       Y122.640   
   X64.337       Y122.789   
   X64.563       Y122.883   
   X64.805       Y122.915   
   X65.048       Y122.883   
(Pass: 5)
   Z0.700     
   X65.274       Y122.789   
   X65.468       Y122.640   
   X65.616       Y122.446   
   X65.710       Y122.220   
   X65.742       Y121.978   
   X65.710       Y121.736   
   X65.616       Y121.510   
   X65.468       Y121.316   
   X65.274       Y121.167   
   X65.048       Y121.073   
   X64.805       Y121.041   
   X64.563       Y121.073   
   X64.337       Y121.167   
   X64.143       Y121.316   
   X63.994       Y121.510   
   X63.901       Y121.736   
   X63.869       Y121.978   
   X63.901       Y122.220   
   X63.994       Y122.446   
   X64.143       Y122.640   
   X64.337       Y122.789   
   X64.563       Y122.883   
   X64.805       Y122.915   
   X65.048       Y122.883   
(Pass: 6)
   Z0.200     
   X65.274       Y122.789   
   X65.468       Y122.640   
   X65.616       Y122.446   
   X65.710       Y122.220   
   X65.742       Y121.978   
   X65.710       Y121.736   
   X65.616       Y121.510   
   X65.468       Y121.316   
   X65.274       Y121.167   
   X65.048       Y121.073   
   X64.805       Y121.041   
   X64.563       Y121.073   
   X64.337       Y121.167   
   X64.143       Y121.316   
   X63.994       Y121.510   
   X63.901       Y121.736   
   X63.869       Y121.978   
   X63.901       Y122.220   
   X63.994       Y122.446   
   X64.143       Y122.640   
   X64.337       Y122.789   
   X64.563       Y122.883   
   X64.805       Y122.915   
   X65.048       Y122.883   
(Pass: 7)
   Z-0.300    
   X65.274       Y122.789   
   X65.468       Y122.640   
   X65.616       Y122.446   
   X65.710       Y122.220   
   X65.742       Y121.978   
   X65.710       Y121.736   
   X65.616       Y121.510   
   X65.468       Y121.316   
   X65.274       Y121.167   
   X65.048       Y121.073   
   X64.805       Y121.041   
   X64.563       Y121.073   
   X64.337       Y121.167   
   X64.143       Y121.316   
   X63.994       Y121.510   
   X63.901       Y121.736   
   X63.869       Y121.978   
   X63.901       Y122.220   
   X63.994       Y122.446   
   X64.143       Y122.640   
   X64.337       Y122.789   
   X64.563       Y122.883   
   X64.805       Y122.915   
   X65.048       Y122.883   
(Pass: 8)
   Z-0.480    
   X65.274       Y122.789   
   X65.468       Y122.640   
   X65.616       Y122.446   
   X65.710       Y122.220   
   X65.742       Y121.978   
   X65.710       Y121.736   
   X65.616       Y121.510   
   X65.468       Y121.316   
   X65.274       Y121.167   
   X65.048       Y121.073   
   X64.805       Y121.041   
   X64.563       Y121.073   
   X64.337       Y121.167   
   X64.143       Y121.316   
   X63.994       Y121.510   
   X63.901       Y121.736   
   X63.869       Y121.978   
   X63.901       Y122.220   
   X63.994       Y122.446   
   X64.143       Y122.640   
   X64.337       Y122.789   
   X64.563       Y122.883   
   X64.805       Y122.915   
   X65.048       Y122.883   
(BREAK pass 8)
G0   Z18.200    
(Pass: 1)
   X75.570       Y118.411   
G1   Z2.700      F200 
   X75.668       Y118.647   
   X75.823       Y118.849   
   X76.025       Y119.004   
   X76.261       Y119.102   
   X76.513       Y119.135   
   X76.766       Y119.102   
   X77.002       Y119.004   
   X77.204       Y118.849   
   X77.359       Y118.647   
   X77.457       Y118.411   
   X77.503       Y118.057   
   Y109.260   
   X77.457       Y108.906   
   X77.359       Y108.670   
   X77.204       Y108.468   
   X77.002       Y108.313   
   X76.766       Y108.215   
   X76.513       Y108.182   
   X76.261       Y108.215   
   X76.025       Y108.313   
   X75.823       Y108.468   
   X75.668       Y108.670   
   X75.570       Y108.906   
   X75.523       Y109.260   
   Y118.057   
   X75.570       Y118.411   
(Pass: 2)
   Z2.200     
   X75.668       Y118.647   
   X75.823       Y118.849   
   X76.025       Y119.004   
   X76.261       Y119.102   
   X76.513       Y119.135   
   X76.766       Y119.102   
   X77.002       Y119.004   
   X77.204       Y118.849   
   X77.359       Y118.647   
   X77.457       Y118.411   
   X77.503       Y118.057   
   Y109.260   
   X77.457       Y108.906   
   X77.359       Y108.670   
   X77.204       Y108.468   
   X77.002       Y108.313   
   X76.766       Y108.215   
   X76.513       Y108.182   
   X76.261       Y108.215   
   X76.025       Y108.313   
   X75.823       Y108.468   
   X75.668       Y108.670   
   X75.570       Y108.906   
   X75.523       Y109.260   
   Y118.057   
   X75.570       Y118.411   
(Pass: 3)
   Z1.700     
   X75.668       Y118.647   
   X75.823       Y118.849   
   X76.025       Y119.004   
   X76.261       Y119.102   
   X76.513       Y119.135   
   X76.766       Y119.102   
   X77.002       Y119.004   
   X77.204       Y118.849   
   X77.359       Y118.647   
   X77.457       Y118.411   
   X77.503       Y118.057   
   Y109.260   
   X77.457       Y108.906   
   X77.359       Y108.670   
   X77.204       Y108.468   
   X77.002       Y108.313   
   X76.766       Y108.215   
   X76.513       Y108.182   
   X76.261       Y108.215   
   X76.025       Y108.313   
   X75.823       Y108.468   
   X75.668       Y108.670   
   X75.570       Y108.906   
   X75.523       Y109.260   
   Y118.057   
   X75.570       Y118.411   
(Pass: 4)
   Z1.200     
   X75.668       Y118.647   
   X75.823       Y118.849   
   X76.025       Y119.004   
   X76.261       Y119.102   
   X76.513       Y119.135   
   X76.766       Y119.102   
   X77.002       Y119.004   
   X77.204       Y118.849   
   X77.359       Y118.647   
   X77.457       Y118.411   
   X77.503       Y118.057   
   Y109.260   
   X77.457       Y108.906   
   X77.359       Y108.670   
   X77.204       Y108.468   
   X77.002       Y108.313   
   X76.766       Y108.215   
   X76.513       Y108.182   
   X76.261       Y108.215   
   X76.025       Y108.313   
   X75.823       Y108.468   
   X75.668       Y108.670   
   X75.570       Y108.906   
   X75.523       Y109.260   
   Y118.057   
   X75.570       Y118.411   
(Pass: 5)
   Z0.700     
   X75.668       Y118.647   
   X75.823       Y118.849   
   X76.025       Y119.004   
   X76.261       Y119.102   
   X76.513       Y119.135   
   X76.766       Y119.102   
   X77.002       Y119.004   
   X77.204       Y118.849   
   X77.359       Y118.647   
   X77.457       Y118.411   
   X77.503       Y118.057   
   Y109.260   
   X77.457       Y108.906   
   X77.359       Y108.670   
   X77.204       Y108.468   
   X77.002       Y108.313   
   X76.766       Y108.215   
   X76.513       Y108.182   
   X76.261       Y108.215   
   X76.025       Y108.313   
   X75.823       Y108.468   
   X75.668       Y108.670   
   X75.570       Y108.906   
   X75.523       Y109.260   
   Y118.057   
   X75.570       Y118.411   
(Pass: 6)
   Z0.200     
   X75.668       Y118.647   
   X75.823       Y118.849   
   X76.025       Y119.004   
   X76.261       Y119.102   
   X76.513       Y119.135   
   X76.766       Y119.102   
   X77.002       Y119.004   
   X77.204       Y118.849   
   X77.359       Y118.647   
   X77.457       Y118.411   
   X77.503       Y118.057   
   Y109.260   
   X77.457       Y108.906   
   X77.359       Y108.670   
   X77.204       Y108.468   
   X77.002       Y108.313   
   X76.766       Y108.215   
   X76.513       Y108.182   
   X76.261       Y108.215   
   X76.025       Y108.313   
   X75.823       Y108.468   
   X75.668       Y108.670   
   X75.570       Y108.906   
   X75.523       Y109.260   
   Y118.057   
   X75.570       Y118.411   
(Pass: 7)
   Z-0.300    
   X75.668       Y118.647   
   X75.823       Y118.849   
   X76.025       Y119.004   
   X76.261       Y119.102   
   X76.513       Y119.135   
   X76.766       Y119.102   
   X77.002       Y119.004   
   X77.204       Y118.849   
   X77.359       Y118.647   
   X77.457       Y118.411   
   X77.503       Y118.057   
   Y109.260   
   X77.457       Y108.906   
   X77.359       Y108.670   
   X77.204       Y108.468   
   X77.002       Y108.313   
   X76.766       Y108.215   
   X76.513       Y108.182   
   X76.261       Y108.215   
   X76.025       Y108.313   
   X75.823       Y108.468   
   X75.668       Y108.670   
   X75.570       Y108.906   
   X75.523       Y109.260   
   Y118.057   
   X75.570       Y118.411   
(Pass: 8)
   Z-0.480    
   X75.668       Y118.647   
   X75.823       Y118.849   
   X76.025       Y119.004   
   X76.261       Y119.102   
   X76.513       Y119.135   
   X76.766       Y119.102   
   X77.002       Y119.004   
   X77.204       Y118.849   
   X77.359       Y118.647   
   X77.457       Y118.411   
   X77.503       Y118.057   
   Y109.260   
   X77.457       Y108.906   
   X77.359       Y108.670   
   X77.204       Y108.468   
   X77.002       Y108.313   
   X76.766       Y108.215   
   X76.513       Y108.182   
   X76.261       Y108.215   
   X76.025       Y108.313   
   X75.823       Y108.468   
   X75.668       Y108.670   
   X75.570       Y108.906   
   X75.523       Y109.260   
   Y118.057   
   X75.570       Y118.411   
(BREAK pass 8)
G0   Z18.200    
(Pass: 1)
   X90.674       Y126.805   
G1   Z2.700      F200 
   X89.581       Y129.442   
   X89.195       Y132.374   
   Y142.171   
   X89.581       Y145.103   
   X90.674       Y147.741   
   X92.412       Y150.006   
   X94.677       Y151.744   
   X97.315       Y152.837   
   X100.145      Y153.209   
   X102.976      Y152.837   
   X105.614      Y151.744   
   X107.879      Y150.006   
   X109.617      Y147.741   
   X110.709      Y145.103   
   X111.095      Y142.171   
   Y132.374   
   X110.709      Y129.442   
   X109.617      Y126.805   
   X107.879      Y124.539   
   X105.614      Y122.801   
   X102.976      Y121.709   
   X100.145      Y121.336   
   X97.315       Y121.709   
   X94.677       Y122.801   
   X92.412       Y124.539   
   X90.674       Y126.805   
(Pass: 2)
   Z2.200     
   X89.581       Y129.442   
   X89.195       Y132.374   
   Y142.171   
   X89.581       Y145.103   
   X90.674       Y147.741   
   X92.412       Y150.006   
   X94.677       Y151.744   
   X97.315       Y152.837   
   X100.145      Y153.209   
   X102.976      Y152.837   
   X105.614      Y151.744   
   X107.879      Y150.006   
   X109.617      Y147.741   
   X110.709      Y145.103   
   X111.095      Y142.171   
   Y132.374   
   X110.709      Y129.442   
   X109.617      Y126.805   
   X107.879      Y124.539   
   X105.614      Y122.801   
   X102.976      Y121.709   
   X100.145      Y121.336   
   X97.315       Y121.709   
   X94.677       Y122.801   
   X92.412       Y124.539   
   X90.674       Y126.805   
(Pass: 3)
   Z1.700     
   X89.581       Y129.442   
   X89.195       Y132.374   
   Y142.171   
   X89.581       Y145.103   
   X90.674       Y147.741   
   X92.412       Y150.006   
   X94.677       Y151.744   
   X97.315       Y152.837   
   X100.145      Y153.209   
   X102.976      Y152.837   
   X105.614      Y151.744   
   X107.879      Y150.006   
   X109.617      Y147.741   
   X110.709      Y145.103   
   X111.095      Y142.171   
   Y132.374   
   X110.709      Y129.442   
   X109.617      Y126.805   
   X107.879      Y124.539   
   X105.614      Y122.801   
   X102.976      Y121.709   
   X100.145      Y121.336   
   X97.315       Y121.709   
   X94.677       Y122.801   
   X92.412       Y124.539   
   X90.674       Y126.805   
(Pass: 4)
   Z1.200     
   X89.581       Y129.442   
   X89.195       Y132.374   
   Y142.171   
   X89.581       Y145.103   
   X90.674       Y147.741   
   X92.412       Y150.006   
   X94.677       Y151.744   
   X97.315       Y152.837   
   X100.145      Y153.209   
   X102.976      Y152.837   
   X105.614      Y151.744   
   X107.879      Y150.006   
   X109.617      Y147.741   
   X110.709      Y145.103   
   X111.095      Y142.171   
   Y132.374   
   X110.709      Y129.442   
   X109.617      Y126.805   
   X107.879      Y124.539   
   X105.614      Y122.801   
   X102.976      Y121.709   
   X100.145      Y121.336   
   X97.315       Y121.709   
   X94.677       Y122.801   
   X92.412       Y124.539   
   X90.674       Y126.805   
(Pass: 5)
   Z0.700     
   X89.581       Y129.442   
   X89.195       Y132.374   
   Y142.171   
   X89.581       Y145.103   
   X90.674       Y147.741   
   X92.412       Y150.006   
   X94.677       Y151.744   
   X97.315       Y152.837   
   X100.145      Y153.209   
   X102.976      Y152.837   
   X105.614      Y151.744   
   X107.879      Y150.006   
   X109.617      Y147.741   
   X110.709      Y145.103   
   X111.095      Y142.171   
   Y132.374   
   X110.709      Y129.442   
   X109.617      Y126.805   
   X107.879      Y124.539   
   X105.614      Y122.801   
   X102.976      Y121.709   
   X100.145      Y121.336   
   X97.315       Y121.709   
   X94.677       Y122.801   
   X92.412       Y124.539   
   X90.674       Y126.805   
(Pass: 6)
   Z0.200     
   X89.581       Y129.442   
   X89.195       Y132.374   
   Y142.171   
   X89.581       Y145.103   
   X90.674       Y147.741   
   X92.412       Y150.006   
   X94.677       Y151.744   
   X97.315       Y152.837   
   X100.145      Y153.209   
   X102.976      Y152.837   
   X105.614      Y151.744   
   X107.879      Y150.006   
   X109.617      Y147.741   
   X110.709      Y145.103   
   X111.095      Y142.171   
   Y132.374   
   X110.709      Y129.442   
   X109.617      Y126.805   
   X107.879      Y124.539   
   X105.614      Y122.801   
   X102.976      Y121.709   
   X100.145      Y121.336   
   X97.315       Y121.709   
   X94.677       Y122.801   
   X92.412       Y124.539   
   X90.674       Y126.805   
(Pass: 7)
   Z-0.300    
   X89.581       Y129.442   
   X89.195       Y132.374   
   Y142.171   
   X89.581       Y145.103   
   X90.674       Y147.741   
   X92.412       Y150.006   
   X94.677       Y151.744   
   X97.315       Y152.837   
   X100.145      Y153.209   
   X102.976      Y152.837   
   X105.614      Y151.744   
   X107.879      Y150.006   
   X109.617      Y147.741   
   X110.709      Y145.103   
   X111.095      Y142.171   
   Y132.374   
   X110.709      Y129.442   
   X109.617      Y126.805   
   X107.879      Y124.539   
   X105.614      Y122.801   
   X102.976      Y121.709   
   X100.145      Y121.336   
   X97.315       Y121.709   
   X94.677       Y122.801   
   X92.412       Y124.539   
   X90.674       Y126.805   
(Pass: 8)
   Z-0.480    
   X89.581       Y129.442   
   X89.195       Y132.374   
   Y142.171   
   X89.581       Y145.103   
   X90.674       Y147.741   
   X92.412       Y150.006   
   X94.677       Y151.744   
   X97.315       Y152.837   
   X100.145      Y153.209   
   X102.976      Y152.837   
   X105.614      Y151.744   
   X107.879      Y150.006   
   X109.617      Y147.741   
   X110.709      Y145.103   
   X111.095      Y142.171   
   Y132.374   
   X110.709      Y129.442   
   X109.617      Y126.805   
   X107.879      Y124.539   
   X105.614      Y122.801   
   X102.976      Y121.709   
   X100.145      Y121.336   
   X97.315       Y121.709   
   X94.677       Y122.801   
   X92.412       Y124.539   
   X90.674       Y126.805   
(BREAK pass 8)
G0   Z18.200    
(Pass: 1)
   X122.814      Y118.411   
G1   Z2.700      F200 
   X122.911      Y118.647   
   X123.067      Y118.849   
   X123.269      Y119.004   
   X123.504      Y119.102   
   X123.757      Y119.135   
   X124.010      Y119.102   
   X124.246      Y119.004   
   X124.448      Y118.849   
   X124.603      Y118.647   
   X124.701      Y118.411   
   X124.747      Y118.057   
   Y109.260   
   X124.701      Y108.906   
   X124.603      Y108.670   
   X124.448      Y108.468   
   X124.246      Y108.313   
   X124.010      Y108.215   
   X123.757      Y108.182   
   X123.504      Y108.215   
   X123.269      Y108.313   
   X123.067      Y108.468   
   X122.911      Y108.670   
   X122.814      Y108.906   
   X122.767      Y109.260   
   Y118.057   
   X122.814      Y118.411   
(Pass: 2)
   Z2.200     
   X122.911      Y118.647   
   X123.067      Y118.849   
   X123.269      Y119.004   
   X123.504      Y119.102   
   X123.757      Y119.135   
   X124.010      Y119.102   
   X124.246      Y119.004   
   X124.448      Y118.849   
   X124.603      Y118.647   
   X124.701      Y118.411   
   X124.747      Y118.057   
   Y109.260   
   X124.701      Y108.906   
   X124.603      Y108.670   
   X124.448      Y108.468   
   X124.246      Y108.313   
   X124.010      Y108.215   
   X123.757      Y108.182   
   X123.504      Y108.215   
   X123.269      Y108.313   
   X123.067      Y108.468   
   X122.911      Y108.670   
   X122.814      Y108.906   
   X122.767      Y109.260   
   Y118.057   
   X122.814      Y118.411   
(Pass: 3)
   Z1.700     
   X122.911      Y118.647   
   X123.067      Y118.849   
   X123.269      Y119.004   
   X123.504      Y119.102   
   X123.757      Y119.135   
   X124.010      Y119.102   
   X124.246      Y119.004   
   X124.448      Y118.849   
   X124.603      Y118.647   
   X124.701      Y118.411   
   X124.747      Y118.057   
   Y109.260   
   X124.701      Y108.906   
   X124.603      Y108.670   
   X124.448      Y108.468   
   X124.246      Y108.313   
   X124.010      Y108.215   
   X123.757      Y108.182   
   X123.504      Y108.215   
   X123.269      Y108.313   
   X123.067      Y108.468   
   X122.911      Y108.670   
   X122.814      Y108.906   
   X122.767      Y109.260   
   Y118.057   
   X122.814      Y118.411   
(Pass: 4)
   Z1.200     
   X122.911      Y118.647   
   X123.067      Y118.849   
   X123.269      Y119.004   
   X123.504      Y119.102   
   X123.757      Y119.135   
   X124.010      Y119.102   
   X124.246      Y119.004   
   X124.448      Y118.849   
   X124.603      Y118.647   
   X124.701      Y118.411   
   X124.747      Y118.057   
   Y109.260   
   X124.701      Y108.906   
   X124.603      Y108.670   
   X124.448      Y108.468   
   X124.246      Y108.313   
   X124.010      Y108.215   
   X123.757      Y108.182   
   X123.504      Y108.215   
   X123.269      Y108.313   
   X123.067      Y108.468   
   X122.911      Y108.670   
   X122.814      Y108.906   
   X122.767      Y109.260   
   Y118.057   
   X122.814      Y118.411   
(Pass: 5)
   Z0.700     
   X122.911      Y118.647   
   X123.067      Y118.849   
   X123.269      Y119.004   
   X123.504      Y119.102   
   X123.757      Y119.135   
   X124.010      Y119.102   
   X124.246      Y119.004   
   X124.448      Y118.849   
   X124.603      Y118.647   
   X124.701      Y118.411   
   X124.747      Y118.057   
   Y109.260   
   X124.701      Y108.906   
   X124.603      Y108.670   
   X124.448      Y108.468   
   X124.246      Y108.313   
   X124.010      Y108.215   
   X123.757      Y108.182   
   X123.504      Y108.215   
   X123.269      Y108.313   
   X123.067      Y108.468   
   X122.911      Y108.670   
   X122.814      Y108.906   
   X122.767      Y109.260   
   Y118.057   
   X122.814      Y118.411   
(Pass: 6)
   Z0.200     
   X122.911      Y118.647   
   X123.067      Y118.849   
   X123.269      Y119.004   
   X123.504      Y119.102   
   X123.757      Y119.135   
   X124.010      Y119.102   
   X124.246      Y119.004   
   X124.448      Y118.849   
   X124.603      Y118.647   
   X124.701      Y118.411   
   X124.747      Y118.057   
   Y109.260   
   X124.701      Y108.906   
   X124.603      Y108.670   
   X124.448      Y108.468   
   X124.246      Y108.313   
   X124.010      Y108.215   
   X123.757      Y108.182   
   X123.504      Y108.215   
   X123.269      Y108.313   
   X123.067      Y108.468   
   X122.911      Y108.670   
   X122.814      Y108.906   
   X122.767      Y109.260   
   Y118.057   
   X122.814      Y118.411   
(Pass: 7)
   Z-0.300    
   X122.911      Y118.647   
   X123.067      Y118.849   
   X123.269      Y119.004   
   X123.504      Y119.102   
   X123.757      Y119.135   
   X124.010      Y119.102   
   X124.246      Y119.004   
   X124.448      Y118.849   
   X124.603      Y118.647   
   X124.701      Y118.411   
   X124.747      Y118.057   
   Y109.260   
   X124.701      Y108.906   
   X124.603      Y108.670   
   X124.448      Y108.468   
   X124.246      Y108.313   
   X124.010      Y108.215   
   X123.757      Y108.182   
   X123.504      Y108.215   
   X123.269      Y108.313   
   X123.067      Y108.468   
   X122.911      Y108.670   
   X122.814      Y108.906   
   X122.767      Y109.260   
   Y118.057   
   X122.814      Y118.411   
(Pass: 8)
   Z-0.480    
   X122.911      Y118.647   
   X123.067      Y118.849   
   X123.269      Y119.004   
   X123.504      Y119.102   
   X123.757      Y119.135   
   X124.010      Y119.102   
   X124.246      Y119.004   
   X124.448      Y118.849   
   X124.603      Y118.647   
   X124.701      Y118.411   
   X124.747      Y118.057   
   Y109.260   
   X124.701      Y108.906   
   X124.603      Y108.670   
   X124.448      Y108.468   
   X124.246      Y108.313   
   X124.010      Y108.215   
   X123.757      Y108.182   
   X123.504      Y108.215   
   X123.269      Y108.313   
   X123.067      Y108.468   
   X122.911      Y108.670   
   X122.814      Y108.906   
   X122.767      Y109.260   
   Y118.057   
   X122.814      Y118.411   
(BREAK pass 8)
G0   Z18.200    
(Pass: 1)
   X134.541      Y121.736   
G1   Z2.700      F200 
   X134.509      Y121.978   
   X134.541      Y122.220   
   X134.634      Y122.446   
   X134.783      Y122.640   
   X134.977      Y122.789   
   X135.203      Y122.883   
   X135.445      Y122.915   
   X135.688      Y122.883   
   X135.914      Y122.789   
   X136.108      Y122.640   
   X136.256      Y122.446   
   X136.350      Y122.220   
   X136.382      Y121.978   
   X136.350      Y121.736   
   X136.256      Y121.510   
   X136.108      Y121.316   
   X135.914      Y121.167   
   X135.688      Y121.073   
   X135.445      Y121.041   
   X135.203      Y121.073   
   X134.977      Y121.167   
   X134.783      Y121.316   
   X134.634      Y121.510   
   X134.541      Y121.736   
(Pass: 2)
   Z2.200     
   X134.509      Y121.978   
   X134.541      Y122.220   
   X134.634      Y122.446   
   X134.783      Y122.640   
   X134.977      Y122.789   
   X135.203      Y122.883   
   X135.445      Y122.915   
   X135.688      Y122.883   
   X135.914      Y122.789   
   X136.108      Y122.640   
   X136.256      Y122.446   
   X136.350      Y122.220   
   X136.382      Y121.978   
   X136.350      Y121.736   
   X136.256      Y121.510   
   X136.108      Y121.316   
   X135.914      Y121.167   
   X135.688      Y121.073   
   X135.445      Y121.041   
   X135.203      Y121.073   
   X134.977      Y121.167   
   X134.783      Y121.316   
   X134.634      Y121.510   
   X134.541      Y121.736   
(Pass: 3)
   Z1.700     
   X134.509      Y121.978   
   X134.541      Y122.220   
   X134.634      Y122.446   
   X134.783      Y122.640   
   X134.977      Y122.789   
   X135.203      Y122.883   
   X135.445      Y122.915   
   X135.688      Y122.883   
   X135.914      Y122.789   
   X136.108      Y122.640   
   X136.256      Y122.446   
   X136.350      Y122.220   
   X136.382      Y121.978   
   X136.350      Y121.736   
   X136.256      Y121.510   
   X136.108      Y121.316   
   X135.914      Y121.167   
   X135.688      Y121.073   
   X135.445      Y121.041   
   X135.203      Y121.073   
   X134.977      Y121.167   
   X134.783      Y121.316   
   X134.634      Y121.510   
   X134.541      Y121.736   
(Pass: 4)
   Z1.200     
   X134.509      Y121.978   
   X134.541      Y122.220   
   X134.634      Y122.446   
   X134.783      Y122.640   
   X134.977      Y122.789   
   X135.203      Y122.883   
   X135.445      Y122.915   
   X135.688      Y122.883   
   X135.914      Y122.789   
   X136.108      Y122.640   
   X136.256      Y122.446   
   X136.350      Y122.220   
   X136.382      Y121.978   
   X136.350      Y121.736   
   X136.256      Y121.510   
   X136.108      Y121.316   
   X135.914      Y121.167   
   X135.688      Y121.073   
   X135.445      Y121.041   
   X135.203      Y121.073   
   X134.977      Y121.167   
   X134.783      Y121.316   
   X134.634      Y121.510   
   X134.541      Y121.736   
(Pass: 5)
   Z0.700     
   X134.509      Y121.978   
   X134.541      Y122.220   
   X134.634      Y122.446   
   X134.783      Y122.640   
   X134.977      Y122.789   
   X135.203      Y122.883   
   X135.445      Y122.915   
   X135.688      Y122.883   
   X135.914      Y122.789   
   X136.108      Y122.640   
   X136.256      Y122.446   
   X136.350      Y122.220   
   X136.382      Y121.978   
   X136.350      Y121.736   
   X136.256      Y121.510   
   X136.108      Y121.316   
   X135.914      Y121.167   
   X135.688      Y121.073   
   X135.445      Y121.041   
   X135.203      Y121.073   
   X134.977      Y121.167   
   X134.783      Y121.316   
   X134.634      Y121.510   
   X134.541      Y121.736   
(Pass: 6)
   Z0.200     
   X134.509      Y121.978   
   X134.541      Y122.220   
   X134.634      Y122.446   
   X134.783      Y122.640   
   X134.977      Y122.789   
   X135.203      Y122.883   
   X135.445      Y122.915   
   X135.688      Y122.883   
   X135.914      Y122.789   
   X136.108      Y122.640   
   X136.256      Y122.446   
   X136.350      Y122.220   
   X136.382      Y121.978   
   X136.350      Y121.736   
   X136.256      Y121.510   
   X136.108      Y121.316   
   X135.914      Y121.167   
   X135.688      Y121.073   
   X135.445      Y121.041   
   X135.203      Y121.073   
   X134.977      Y121.167   
   X134.783      Y121.316   
   X134.634      Y121.510   
   X134.541      Y121.736   
(Pass: 7)
   Z-0.300    
   X134.509      Y121.978   
   X134.541      Y122.220   
   X134.634      Y122.446   
   X134.783      Y122.640   
   X134.977      Y122.789   
   X135.203      Y122.883   
   X135.445      Y122.915   
   X135.688      Y122.883   
   X135.914      Y122.789   
   X136.108      Y122.640   
   X136.256      Y122.446   
   X136.350      Y122.220   
   X136.382      Y121.978   
   X136.350      Y121.736   
   X136.256      Y121.510   
   X136.108      Y121.316   
   X135.914      Y121.167   
   X135.688      Y121.073   
   X135.445      Y121.041   
   X135.203      Y121.073   
   X134.977      Y121.167   
   X134.783      Y121.316   
   X134.634      Y121.510   
   X134.541      Y121.736   
(Pass: 8)
   Z-0.480    
   X134.509      Y121.978   
   X134.541      Y122.220   
   X134.634      Y122.446   
   X134.783      Y122.640   
   X134.977      Y122.789   
   X135.203      Y122.883   
   X135.445      Y122.915   
   X135.688      Y122.883   
   X135.914      Y122.789   
   X136.108      Y122.640   
   X136.256      Y122.446   
   X136.350      Y122.220   
   X136.382      Y121.978   
   X136.350      Y121.736   
   X136.256      Y121.510   
   X136.108      Y121.316   
   X135.914      Y121.167   
   X135.688      Y121.073   
   X135.445      Y121.041   
   X135.203      Y121.073   
   X134.977      Y121.167   
   X134.783      Y121.316   
   X134.634      Y121.510   
   X134.541      Y121.736   
(BREAK pass 8)
G0   Z18.200    
(Pass: 1)
   X124.246      Y155.557   
G1   Z2.700      F200 
   X124.010      Y155.459   
   X123.757      Y155.426   
   X123.504      Y155.459   
   X123.269      Y155.557   
   X123.067      Y155.712   
   X122.911      Y155.914   
   X122.814      Y156.150   
   X122.767      Y156.504   
   Y165.301   
   X122.814      Y165.655   
   X122.911      Y165.891   
   X123.067      Y166.093   
   X123.269      Y166.248   
   X123.504      Y166.346   
   X123.757      Y166.379   
   X124.010      Y166.346   
   X124.246      Y166.248   
   X124.448      Y166.093   
   X124.603      Y165.891   
   X124.701      Y165.655   
   X124.747      Y165.301   
   Y156.504   
   X124.701      Y156.150   
   X124.603      Y155.914   
   X124.448      Y155.712   
   X124.246      Y155.557   
(Pass: 2)
   Z2.200     
   X124.010      Y155.459   
   X123.757      Y155.426   
   X123.504      Y155.459   
   X123.269      Y155.557   
   X123.067      Y155.712   
   X122.911      Y155.914   
   X122.814      Y156.150   
   X122.767      Y156.504   
   Y165.301   
   X122.814      Y165.655   
   X122.911      Y165.891   
   X123.067      Y166.093   
   X123.269      Y166.248   
   X123.504      Y166.346   
   X123.757      Y166.379   
   X124.010      Y166.346   
   X124.246      Y166.248   
   X124.448      Y166.093   
   X124.603      Y165.891   
   X124.701      Y165.655   
   X124.747      Y165.301   
   Y156.504   
   X124.701      Y156.150   
   X124.603      Y155.914   
   X124.448      Y155.712   
   X124.246      Y155.557   
(Pass: 3)
   Z1.700     
   X124.010      Y155.459   
   X123.757      Y155.426   
   X123.504      Y155.459   
   X123.269      Y155.557   
   X123.067      Y155.712   
   X122.911      Y155.914   
   X122.814      Y156.150   
   X122.767      Y156.504   
   Y165.301   
   X122.814      Y165.655   
   X122.911      Y165.891   
   X123.067      Y166.093   
   X123.269      Y166.248   
   X123.504      Y166.346   
   X123.757      Y166.379   
   X124.010      Y166.346   
   X124.246      Y166.248   
   X124.448      Y166.093   
   X124.603      Y165.891   
   X124.701      Y165.655   
   X124.747      Y165.301   
   Y156.504   
   X124.701      Y156.150   
   X124.603      Y155.914   
   X124.448      Y155.712   
   X124.246      Y155.557   
(Pass: 4)
   Z1.200     
   X124.010      Y155.459   
   X123.757      Y155.426   
   X123.504      Y155.459   
   X123.269      Y155.557   
   X123.067      Y155.712   
   X122.911      Y155.914   
   X122.814      Y156.150   
   X122.767      Y156.504   
   Y165.301   
   X122.814      Y165.655   
   X122.911      Y165.891   
   X123.067      Y166.093   
   X123.269      Y166.248   
   X123.504      Y166.346   
   X123.757      Y166.379   
   X124.010      Y166.346   
   X124.246      Y166.248   
   X124.448      Y166.093   
   X124.603      Y165.891   
   X124.701      Y165.655   
   X124.747      Y165.301   
   Y156.504   
   X124.701      Y156.150   
   X124.603      Y155.914   
   X124.448      Y155.712   
   X124.246      Y155.557   
(Pass: 5)
   Z0.700     
   X124.010      Y155.459   
   X123.757      Y155.426   
   X123.504      Y155.459   
   X123.269      Y155.557   
   X123.067      Y155.712   
   X122.911      Y155.914   
   X122.814      Y156.150   
   X122.767      Y156.504   
   Y165.301   
   X122.814      Y165.655   
   X122.911      Y165.891   
   X123.067      Y166.093   
   X123.269      Y166.248   
   X123.504      Y166.346   
   X123.757      Y166.379   
   X124.010      Y166.346   
   X124.246      Y166.248   
   X124.448      Y166.093   
   X124.603      Y165.891   
   X124.701      Y165.655   
   X124.747      Y165.301   
   Y156.504   
   X124.701      Y156.150   
   X124.603      Y155.914   
   X124.448      Y155.712   
   X124.246      Y155.557   
(Pass: 6)
   Z0.200     
   X124.010      Y155.459   
   X123.757      Y155.426   
   X123.504      Y155.459   
   X123.269      Y155.557   
   X123.067      Y155.712   
   X122.911      Y155.914   
   X122.814      Y156.150   
   X122.767      Y156.504   
   Y165.301   
   X122.814      Y165.655   
   X122.911      Y165.891   
   X123.067      Y166.093   
   X123.269      Y166.248   
   X123.504      Y166.346   
   X123.757      Y166.379   
   X124.010      Y166.346   
   X124.246      Y166.248   
   X124.448      Y166.093   
   X124.603      Y165.891   
   X124.701      Y165.655   
   X124.747      Y165.301   
   Y156.504   
   X124.701      Y156.150   
   X124.603      Y155.914   
   X124.448      Y155.712   
   X124.246      Y155.557   
(Pass: 7)
   Z-0.300    
   X124.010      Y155.459   
   X123.757      Y155.426   
   X123.504      Y155.459   
   X123.269      Y155.557   
   X123.067      Y155.712   
   X122.911      Y155.914   
   X122.814      Y156.150   
   X122.767      Y156.504   
   Y165.301   
   X122.814      Y165.655   
   X122.911      Y165.891   
   X123.067      Y166.093   
   X123.269      Y166.248   
   X123.504      Y166.346   
   X123.757      Y166.379   
   X124.010      Y166.346   
   X124.246      Y166.248   
   X124.448      Y166.093   
   X124.603      Y165.891   
