%
(Generated by SketchUcam {1.2})
(File: Router Plates.skp)
(Bit diameter: 3.1mm)
(Feed rate: 200.0mm/min)
(Material Thickness: 3.5mm)
(Material length: 304.0mm X width: 608.0mm)
(Overhead Gantry: true)
(Retract feed rate NOT limited to plunge feed rate)
(Multipass enabled, Depth = 0.5mm)
(Optimization is ON)
(www.PhlatBoyz.com)
G90 G21 G49 
M3 S15000
G0   Z15.000    
(Pass: 1)
   X20.642       Y20.500    
G1   Z-0.500     F200 
G17 G2   X20.4127      Y20.7965      R1.4500    
   X20.2679      Y21.1424      R1.4500    
   X20.2176      Y21.5141      R1.4500    
   X20.2653      Y21.8861      R1.4500    
   X20.4075      Y22.2331      R1.4500    
   X20.6348      Y22.5314      R1.4500    
   X20.9315      Y22.7608      R1.4500    
   X21.2775      Y22.9056      R1.4500    
   X21.6491      Y22.9558      R1.4500    
   X22.0211      Y22.9082      R1.4500    
   X22.3681      Y22.7659      R1.4500    
   X22.6665      Y22.5387      R1.4500    
   X22.8958      Y22.2420      R1.4500    
   X23.0406      Y21.8960      R1.4500    
   X23.0909      Y21.5244      R1.4500    
   X23.0432      Y21.1524      R1.4500    
   X22.9010      Y20.8054      R1.4500    
   X22.6737      Y20.5070      R1.4500    
   X22.3770      Y20.2776      R1.4500    
   X22.0310      Y20.1329      R1.4500    
   X21.6594      Y20.0826      R1.4500    
   X21.2874      Y20.1302      R1.4500    
   X20.9404      Y20.2725      R1.4500    
   X20.6420      Y20.4998      R1.4500    
(Pass: 2)
G1   Z-1.000    
G17 G2   X20.4127      Y20.7965      R1.4500    
   X20.2679      Y21.1424      R1.4500    
   X20.2176      Y21.5141      R1.4500    
   X20.2653      Y21.8861      R1.4500    
   X20.4075      Y22.2331      R1.4500    
   X20.6348      Y22.5314      R1.4500    
   X20.9315      Y22.7608      R1.4500    
   X21.2775      Y22.9056      R1.4500    
   X21.6491      Y22.9558      R1.4500    
   X22.0211      Y22.9082      R1.4500    
   X22.3681      Y22.7659      R1.4500    
   X22.6665      Y22.5387      R1.4500    
   X22.8958      Y22.2420      R1.4500    
   X23.0406      Y21.8960      R1.4500    
   X23.0909      Y21.5244      R1.4500    
   X23.0432      Y21.1524      R1.4500    
   X22.9010      Y20.8054      R1.4500    
   X22.6737      Y20.5070      R1.4500    
   X22.3770      Y20.2776      R1.4500    
   X22.0310      Y20.1329      R1.4500    
   X21.6594      Y20.0826      R1.4500    
   X21.2874      Y20.1302      R1.4500    
   X20.9404      Y20.2725      R1.4500    
   X20.6420      Y20.4998      R1.4500    
(Pass: 3)
G1   Z-1.500    
G17 G2   X20.4127      Y20.7965      R1.4500    
   X20.2679      Y21.1424      R1.4500    
   X20.2176      Y21.5141      R1.4500    
   X20.2653      Y21.8861      R1.4500    
   X20.4075      Y22.2331      R1.4500    
   X20.6348      Y22.5314      R1.4500    
   X20.9315      Y22.7608      R1.4500    
   X21.2775      Y22.9056      R1.4500    
   X21.6491      Y22.9558      R1.4500    
   X22.0211      Y22.9082      R1.4500    
   X22.3681      Y22.7659      R1.4500    
   X22.6665      Y22.5387      R1.4500    
   X22.8958      Y22.2420      R1.4500    
   X23.0406      Y21.8960      R1.4500    
   X23.0909      Y21.5244      R1.4500    
   X23.0432      Y21.1524      R1.4500    
   X22.9010      Y20.8054      R1.4500    
   X22.6737      Y20.5070      R1.4500    
   X22.3770      Y20.2776      R1.4500    
   X22.0310      Y20.1329      R1.4500    
   X21.6594      Y20.0826      R1.4500    
   X21.2874      Y20.1302      R1.4500    
   X20.9404      Y20.2725      R1.4500    
   X20.6420      Y20.4998      R1.4500    
(Pass: 4)
G1   Z-2.000    
G17 G2   X20.4127      Y20.7965      R1.4500    
   X20.2679      Y21.1424      R1.4500    
   X20.2176      Y21.5141      R1.4500    
   X20.2653      Y21.8861      R1.4500    
   X20.4075      Y22.2331      R1.4500    
   X20.6348      Y22.5314      R1.4500    
   X20.9315      Y22.7608      R1.4500    
   X21.2775      Y22.9056      R1.4500    
   X21.6491      Y22.9558      R1.4500    
   X22.0211      Y22.9082      R1.4500    
   X22.3681      Y22.7659      R1.4500    
   X22.6665      Y22.5387      R1.4500    
   X22.8958      Y22.2420      R1.4500    
   X23.0406      Y21.8960      R1.4500    
   X23.0909      Y21.5244      R1.4500    
   X23.0432      Y21.1524      R1.4500    
   X22.9010      Y20.8054      R1.4500    
   X22.6737      Y20.5070      R1.4500    
   X22.3770      Y20.2776      R1.4500    
   X22.0310      Y20.1329      R1.4500    
   X21.6594      Y20.0826      R1.4500    
   X21.2874      Y20.1302      R1.4500    
   X20.9404      Y20.2725      R1.4500    
   X20.6420      Y20.4998      R1.4500    
(Pass: 5)
G1   Z-2.500    
G17 G2   X20.4127      Y20.7965      R1.4500    
   X20.2679      Y21.1424      R1.4500    
   X20.2176      Y21.5141      R1.4500    
   X20.2653      Y21.8861      R1.4500    
   X20.4075      Y22.2331      R1.4500    
   X20.6348      Y22.5314      R1.4500    
   X20.9315      Y22.7608      R1.4500    
   X21.2775      Y22.9056      R1.4500    
   X21.6491      Y22.9558      R1.4500    
   X22.0211      Y22.9082      R1.4500    
   X22.3681      Y22.7659      R1.4500    
   X22.6665      Y22.5387      R1.4500    
   X22.8958      Y22.2420      R1.4500    
   X23.0406      Y21.8960      R1.4500    
   X23.0909      Y21.5244      R1.4500    
   X23.0432      Y21.1524      R1.4500    
   X22.9010      Y20.8054      R1.4500    
   X22.6737      Y20.5070      R1.4500    
   X22.3770      Y20.2776      R1.4500    
   X22.0310      Y20.1329      R1.4500    
   X21.6594      Y20.0826      R1.4500    
   X21.2874      Y20.1302      R1.4500    
   X20.9404      Y20.2725      R1.4500    
   X20.6420      Y20.4998      R1.4500    
(Pass: 6)
G1   Z-3.000    
G17 G2   X20.4127      Y20.7965      R1.4500    
   X20.2679      Y21.1424      R1.4500    
   X20.2176      Y21.5141      R1.4500    
   X20.2653      Y21.8861      R1.4500    
   X20.4075      Y22.2331      R1.4500    
   X20.6348      Y22.5314      R1.4500    
   X20.9315      Y22.7608      R1.4500    
   X21.2775      Y22.9056      R1.4500    
   X21.6491      Y22.9558      R1.4500    
   X22.0211      Y22.9082      R1.4500    
   X22.3681      Y22.7659      R1.4500    
   X22.6665      Y22.5387      R1.4500    
   X22.8958      Y22.2420      R1.4500    
   X23.0406      Y21.8960      R1.4500    
   X23.0909      Y21.5244      R1.4500    
   X23.0432      Y21.1524      R1.4500    
   X22.9010      Y20.8054      R1.4500    
   X22.6737      Y20.5070      R1.4500    
   X22.3770      Y20.2776      R1.4500    
   X22.0310      Y20.1329      R1.4500    
   X21.6594      Y20.0826      R1.4500    
   X21.2874      Y20.1302      R1.4500    
   X20.9404      Y20.2725      R1.4500    
   X20.6420      Y20.4998      R1.4500    
(Pass: 7)
G1   Z-3.500    
G17 G2   X20.4127      Y20.7965      R1.4500    
   X20.2679      Y21.1424      R1.4500    
   X20.2176      Y21.5141      R1.4500    
   X20.2653      Y21.8861      R1.4500    
   X20.4075      Y22.2331      R1.4500    
   X20.6348      Y22.5314      R1.4500    
   X20.9315      Y22.7608      R1.4500    
   X21.2775      Y22.9056      R1.4500    
   X21.6491      Y22.9558      R1.4500    
   X22.0211      Y22.9082      R1.4500    
   X22.3681      Y22.7659      R1.4500    
   X22.6665      Y22.5387      R1.4500    
   X22.8958      Y22.2420      R1.4500    
   X23.0406      Y21.8960      R1.4500    
   X23.0909      Y21.5244      R1.4500    
   X23.0432      Y21.1524      R1.4500    
   X22.9010      Y20.8054      R1.4500    
   X22.6737      Y20.5070      R1.4500    
   X22.3770      Y20.2776      R1.4500    
   X22.0310      Y20.1329      R1.4500    
   X21.6594      Y20.0826      R1.4500    
   X21.2874      Y20.1302      R1.4500    
   X20.9404      Y20.2725      R1.4500    
   X20.6420      Y20.4998      R1.4500    
G0   Z15.000    
(Pass: 1)
   X35.721       Y21.445    
G1   Z-0.500     F200 
G17 G2   X35.7333      Y21.6896      R0.9500    
   X35.8087      Y21.9222      R0.9500    
   X35.9419      Y22.1273      R0.9500    
   X36.1235      Y22.2910      R0.9500    
   X36.3413      Y22.4020      R0.9500    
   X36.5805      Y22.4529      R0.9500    
   X36.8247      Y22.4402      R0.9500    
   X37.0572      Y22.3647      R0.9500    
   X37.2623      Y22.2316      R0.9500    
   X37.4260      Y22.0500      R0.9500    
   X37.5371      Y21.8321      R0.9500    
   X37.5880      Y21.5930      R0.9500    
   X37.5752      Y21.3488      R0.9500    
   X37.4998      Y21.1163      R0.9500    
   X37.3666      Y20.9111      R0.9500    
   X37.1850      Y20.7475      R0.9500    
   X36.9672      Y20.6364      R0.9500    
   X36.7280      Y20.5855      R0.9500    
   X36.4838      Y20.5982      R0.9500    
   X36.2513      Y20.6737      R0.9500    
   X36.0462      Y20.8068      R0.9500    
   X35.8825      Y20.9885      R0.9500    
   X35.7714      Y21.2063      R0.9500    
   X35.7205      Y21.4455      R0.9500    
(Pass: 2)
G1   Z-1.000    
G17 G2   X35.7333      Y21.6896      R0.9500    
   X35.8087      Y21.9222      R0.9500    
   X35.9419      Y22.1273      R0.9500    
   X36.1235      Y22.2910      R0.9500    
   X36.3413      Y22.4020      R0.9500    
   X36.5805      Y22.4529      R0.9500    
   X36.8247      Y22.4402      R0.9500    
   X37.0572      Y22.3647      R0.9500    
   X37.2623      Y22.2316      R0.9500    
   X37.4260      Y22.0500      R0.9500    
   X37.5371      Y21.8321      R0.9500    
   X37.5880      Y21.5930      R0.9500    
   X37.5752      Y21.3488      R0.9500    
   X37.4998      Y21.1163      R0.9500    
   X37.3666      Y20.9111      R0.9500    
   X37.1850      Y20.7475      R0.9500    
   X36.9672      Y20.6364      R0.9500    
   X36.7280      Y20.5855      R0.9500    
   X36.4838      Y20.5982      R0.9500    
   X36.2513      Y20.6737      R0.9500    
   X36.0462      Y20.8068      R0.9500    
   X35.8825      Y20.9885      R0.9500    
   X35.7714      Y21.2063      R0.9500    
   X35.7205      Y21.4455      R0.9500    
(Pass: 3)
G1   Z-1.500    
G17 G2   X35.7333      Y21.6896      R0.9500    
   X35.8087      Y21.9222      R0.9500    
   X35.9419      Y22.1273      R0.9500    
   X36.1235      Y22.2910      R0.9500    
   X36.3413      Y22.4020      R0.9500    
   X36.5805      Y22.4529      R0.9500    
   X36.8247      Y22.4402      R0.9500    
   X37.0572      Y22.3647      R0.9500    
   X37.2623      Y22.2316      R0.9500    
   X37.4260      Y22.0500      R0.9500    
   X37.5371      Y21.8321      R0.9500    
   X37.5880      Y21.5930      R0.9500    
   X37.5752      Y21.3488      R0.9500    
   X37.4998      Y21.1163      R0.9500    
   X37.3666      Y20.9111      R0.9500    
   X37.1850      Y20.7475      R0.9500    
   X36.9672      Y20.6364      R0.9500    
   X36.7280      Y20.5855      R0.9500    
   X36.4838      Y20.5982      R0.9500    
   X36.2513      Y20.6737      R0.9500    
   X36.0462      Y20.8068      R0.9500    
   X35.8825      Y20.9885      R0.9500    
   X35.7714      Y21.2063      R0.9500    
   X35.7205      Y21.4455      R0.9500    
(Pass: 4)
G1   Z-2.000    
G17 G2   X35.7333      Y21.6896      R0.9500    
   X35.8087      Y21.9222      R0.9500    
   X35.9419      Y22.1273      R0.9500    
   X36.1235      Y22.2910      R0.9500    
   X36.3413      Y22.4020      R0.9500    
   X36.5805      Y22.4529      R0.9500    
   X36.8247      Y22.4402      R0.9500    
   X37.0572      Y22.3647      R0.9500    
   X37.2623      Y22.2316      R0.9500    
   X37.4260      Y22.0500      R0.9500    
   X37.5371      Y21.8321      R0.9500    
   X37.5880      Y21.5930      R0.9500    
   X37.5752      Y21.3488      R0.9500    
   X37.4998      Y21.1163      R0.9500    
   X37.3666      Y20.9111      R0.9500    
   X37.1850      Y20.7475      R0.9500    
   X36.9672      Y20.6364      R0.9500    
   X36.7280      Y20.5855      R0.9500    
   X36.4838      Y20.5982      R0.9500    
   X36.2513      Y20.6737      R0.9500    
   X36.0462      Y20.8068      R0.9500    
   X35.8825      Y20.9885      R0.9500    
   X35.7714      Y21.2063      R0.9500    
   X35.7205      Y21.4455      R0.9500    
(Pass: 5)
G1   Z-2.500    
G17 G2   X35.7333      Y21.6896      R0.9500    
   X35.8087      Y21.9222      R0.9500    
   X35.9419      Y22.1273      R0.9500    
   X36.1235      Y22.2910      R0.9500    
   X36.3413      Y22.4020      R0.9500    
   X36.5805      Y22.4529      R0.9500    
   X36.8247      Y22.4402      R0.9500    
   X37.0572      Y22.3647      R0.9500    
   X37.2623      Y22.2316      R0.9500    
   X37.4260      Y22.0500      R0.9500    
   X37.5371      Y21.8321      R0.9500    
   X37.5880      Y21.5930      R0.9500    
   X37.5752      Y21.3488      R0.9500    
   X37.4998      Y21.1163      R0.9500    
   X37.3666      Y20.9111      R0.9500    
   X37.1850      Y20.7475      R0.9500    
   X36.9672      Y20.6364      R0.9500    
   X36.7280      Y20.5855      R0.9500    
   X36.4838      Y20.5982      R0.9500    
   X36.2513      Y20.6737      R0.9500    
   X36.0462      Y20.8068      R0.9500    
   X35.8825      Y20.9885      R0.9500    
   X35.7714      Y21.2063      R0.9500    
   X35.7205      Y21.4455      R0.9500    
(Pass: 6)
G1   Z-3.000    
G17 G2   X35.7333      Y21.6896      R0.9500    
   X35.8087      Y21.9222      R0.9500    
   X35.9419      Y22.1273      R0.9500    
   X36.1235      Y22.2910      R0.9500    
   X36.3413      Y22.4020      R0.9500    
   X36.5805      Y22.4529      R0.9500    
   X36.8247      Y22.4402      R0.9500    
   X37.0572      Y22.3647      R0.9500    
   X37.2623      Y22.2316      R0.9500    
   X37.4260      Y22.0500      R0.9500    
   X37.5371      Y21.8321      R0.9500    
   X37.5880      Y21.5930      R0.9500    
   X37.5752      Y21.3488      R0.9500    
   X37.4998      Y21.1163      R0.9500    
   X37.3666      Y20.9111      R0.9500    
   X37.1850      Y20.7475      R0.9500    
   X36.9672      Y20.6364      R0.9500    
   X36.7280      Y20.5855      R0.9500    
   X36.4838      Y20.5982      R0.9500    
   X36.2513      Y20.6737      R0.9500    
   X36.0462      Y20.8068      R0.9500    
   X35.8825      Y20.9885      R0.9500    
   X35.7714      Y21.2063      R0.9500    
   X35.7205      Y21.4455      R0.9500    
(Pass: 7)
G1   Z-3.500    
G17 G2   X35.7333      Y21.6896      R0.9500    
   X35.8087      Y21.9222      R0.9500    
   X35.9419      Y22.1273      R0.9500    
   X36.1235      Y22.2910      R0.9500    
   X36.3413      Y22.4020      R0.9500    
   X36.5805      Y22.4529      R0.9500    
   X36.8247      Y22.4402      R0.9500    
   X37.0572      Y22.3647      R0.9500    
   X37.2623      Y22.2316      R0.9500    
   X37.4260      Y22.0500      R0.9500    
   X37.5371      Y21.8321      R0.9500    
   X37.5880      Y21.5930      R0.9500    
   X37.5752      Y21.3488      R0.9500    
   X37.4998      Y21.1163      R0.9500    
   X37.3666      Y20.9111      R0.9500    
   X37.1850      Y20.7475      R0.9500    
   X36.9672      Y20.6364      R0.9500    
   X36.7280      Y20.5855      R0.9500    
   X36.4838      Y20.5982      R0.9500    
   X36.2513      Y20.6737      R0.9500    
   X36.0462      Y20.8068      R0.9500    
   X35.8825      Y20.9885      R0.9500    
   X35.7714      Y21.2063      R0.9500    
   X35.7205      Y21.4455      R0.9500    
G0   Z15.000    
(Pass: 1)
   X36.782       Y40.591    
G1   Z-0.500     F200 
G17 G2   X36.5380      Y40.5898      R0.9500    
   X36.3014      Y40.6516      R0.9500    
   X36.0889      Y40.7725      R0.9500    
   X35.9149      Y40.9443      R0.9500    
   X35.7912      Y41.1552      R0.9500    
   X35.7264      Y41.3910      R0.9500    
   X35.7249      Y41.6355      R0.9500    
   X35.7866      Y41.8721      R0.9500    
   X35.9075      Y42.0846      R0.9500    
   X36.0793      Y42.2586      R0.9500    
   X36.2902      Y42.3822      R0.9500    
   X36.5260      Y42.4470      R0.9500    
   X36.7705      Y42.4486      R0.9500    
   X37.0071      Y42.3868      R0.9500    
   X37.2196      Y42.2660      R0.9500    
   X37.3936      Y42.0942      R0.9500    
   X37.5173      Y41.8832      R0.9500    
   X37.5821      Y41.6475      R0.9500    
   X37.5836      Y41.4030      R0.9500    
   X37.5219      Y41.1664      R0.9500    
   X37.4010      Y40.9538      R0.9500    
   X37.2292      Y40.7798      R0.9500    
   X37.0183      Y40.6562      R0.9500    
   X36.7825      Y40.5914      R0.9500    
(Pass: 2)
G1   Z-1.000    
G17 G2   X36.5380      Y40.5898      R0.9500    
   X36.3014      Y40.6516      R0.9500    
   X36.0889      Y40.7725      R0.9500    
   X35.9149      Y40.9443      R0.9500    
   X35.7912      Y41.1552      R0.9500    
   X35.7264      Y41.3910      R0.9500    
   X35.7249      Y41.6355      R0.9500    
   X35.7866      Y41.8721      R0.9500    
   X35.9075      Y42.0846      R0.9500    
   X36.0793      Y42.2586      R0.9500    
   X36.2902      Y42.3822      R0.9500    
   X36.5260      Y42.4470      R0.9500    
   X36.7705      Y42.4486      R0.9500    
   X37.0071      Y42.3868      R0.9500    
   X37.2196      Y42.2660      R0.9500    
   X37.3936      Y42.0942      R0.9500    
   X37.5173      Y41.8832      R0.9500    
   X37.5821      Y41.6475      R0.9500    
   X37.5836      Y41.4030      R0.9500    
   X37.5219      Y41.1664      R0.9500    
   X37.4010      Y40.9538      R0.9500    
   X37.2292      Y40.7798      R0.9500    
   X37.0183      Y40.6562      R0.9500    
   X36.7825      Y40.5914      R0.9500    
(Pass: 3)
G1   Z-1.500    
G17 G2   X36.5380      Y40.5898      R0.9500    
   X36.3014      Y40.6516      R0.9500    
   X36.0889      Y40.7725      R0.9500    
   X35.9149      Y40.9443      R0.9500    
   X35.7912      Y41.1552      R0.9500    
   X35.7264      Y41.3910      R0.9500    
   X35.7249      Y41.6355      R0.9500    
   X35.7866      Y41.8721      R0.9500    
   X35.9075      Y42.0846      R0.9500    
   X36.0793      Y42.2586      R0.9500    
   X36.2902      Y42.3822      R0.9500    
   X36.5260      Y42.4470      R0.9500    
   X36.7705      Y42.4486      R0.9500    
   X37.0071      Y42.3868      R0.9500    
   X37.2196      Y42.2660      R0.9500    
   X37.3936      Y42.0942      R0.9500    
   X37.5173      Y41.8832      R0.9500    
   X37.5821      Y41.6475      R0.9500    
   X37.5836      Y41.4030      R0.9500    
   X37.5219      Y41.1664      R0.9500    
   X37.4010      Y40.9538      R0.9500    
   X37.2292      Y40.7798      R0.9500    
   X37.0183      Y40.6562      R0.9500    
   X36.7825      Y40.5914      R0.9500    
(Pass: 4)
G1   Z-2.000    
G17 G2   X36.5380      Y40.5898      R0.9500    
   X36.3014      Y40.6516      R0.9500    
   X36.0889      Y40.7725      R0.9500    
   X35.9149      Y40.9443      R0.9500    
   X35.7912      Y41.1552      R0.9500    
   X35.7264      Y41.3910      R0.9500    
   X35.7249      Y41.6355      R0.9500    
   X35.7866      Y41.8721      R0.9500    
   X35.9075      Y42.0846      R0.9500    
   X36.0793      Y42.2586      R0.9500    
   X36.2902      Y42.3822      R0.9500    
   X36.5260      Y42.4470      R0.9500    
   X36.7705      Y42.4486      R0.9500    
   X37.0071      Y42.3868      R0.9500    
   X37.2196      Y42.2660      R0.9500    
   X37.3936      Y42.0942      R0.9500    
   X37.5173      Y41.8832      R0.9500    
   X37.5821      Y41.6475      R0.9500    
   X37.5836      Y41.4030      R0.9500    
   X37.5219      Y41.1664      R0.9500    
   X37.4010      Y40.9538      R0.9500    
   X37.2292      Y40.7798      R0.9500    
   X37.0183      Y40.6562      R0.9500    
   X36.7825      Y40.5914      R0.9500    
(Pass: 5)
G1   Z-2.500    
G17 G2   X36.5380      Y40.5898      R0.9500    
   X36.3014      Y40.6516      R0.9500    
   X36.0889      Y40.7725      R0.9500    
   X35.9149      Y40.9443      R0.9500    
   X35.7912      Y41.1552      R0.9500    
   X35.7264      Y41.3910      R0.9500    
   X35.7249      Y41.6355      R0.9500    
   X35.7866      Y41.8721      R0.9500    
   X35.9075      Y42.0846      R0.9500    
   X36.0793      Y42.2586      R0.9500    
   X36.2902      Y42.3822      R0.9500    
   X36.5260      Y42.4470      R0.9500    
   X36.7705      Y42.4486      R0.9500    
   X37.0071      Y42.3868      R0.9500    
   X37.2196      Y42.2660      R0.9500    
   X37.3936      Y42.0942      R0.9500    
   X37.5173      Y41.8832      R0.9500    
   X37.5821      Y41.6475      R0.9500    
   X37.5836      Y41.4030      R0.9500    
   X37.5219      Y41.1664      R0.9500    
   X37.4010      Y40.9538      R0.9500    
   X37.2292      Y40.7798      R0.9500    
   X37.0183      Y40.6562      R0.9500    
   X36.7825      Y40.5914      R0.9500    
(Pass: 6)
G1   Z-3.000    
G17 G2   X36.5380      Y40.5898      R0.9500    
   X36.3014      Y40.6516      R0.9500    
   X36.0889      Y40.7725      R0.9500    
   X35.9149      Y40.9443      R0.9500    
   X35.7912      Y41.1552      R0.9500    
   X35.7264      Y41.3910      R0.9500    
   X35.7249      Y41.6355      R0.9500    
   X35.7866      Y41.8721      R0.9500    
   X35.9075      Y42.0846      R0.9500    
   X36.0793      Y42.2586      R0.9500    
   X36.2902      Y42.3822      R0.9500    
   X36.5260      Y42.4470      R0.9500    
   X36.7705      Y42.4486      R0.9500    
   X37.0071      Y42.3868      R0.9500    
   X37.2196      Y42.2660      R0.9500    
   X37.3936      Y42.0942      R0.9500    
   X37.5173      Y41.8832      R0.9500    
   X37.5821      Y41.6475      R0.9500    
   X37.5836      Y41.4030      R0.9500    
   X37.5219      Y41.1664      R0.9500    
   X37.4010      Y40.9538      R0.9500    
   X37.2292      Y40.7798      R0.9500    
   X37.0183      Y40.6562      R0.9500    
   X36.7825      Y40.5914      R0.9500    
(Pass: 7)
G1   Z-3.500    
G17 G2   X36.5380      Y40.5898      R0.9500    
   X36.3014      Y40.6516      R0.9500    
   X36.0889      Y40.7725      R0.9500    
   X35.9149      Y40.9443      R0.9500    
   X35.7912      Y41.1552      R0.9500    
   X35.7264      Y41.3910      R0.9500    
   X35.7249      Y41.6355      R0.9500    
   X35.7866      Y41.8721      R0.9500    
   X35.9075      Y42.0846      R0.9500    
   X36.0793      Y42.2586      R0.9500    
   X36.2902      Y42.3822      R0.9500    
   X36.5260      Y42.4470      R0.9500    
   X36.7705      Y42.4486      R0.9500    
   X37.0071      Y42.3868      R0.9500    
   X37.2196      Y42.2660      R0.9500    
   X37.3936      Y42.0942      R0.9500    
   X37.5173      Y41.8832      R0.9500    
   X37.5821      Y41.6475      R0.9500    
   X37.5836      Y41.4030      R0.9500    
   X37.5219      Y41.1664      R0.9500    
   X37.4010      Y40.9538      R0.9500    
   X37.2292      Y40.7798      R0.9500    
   X37.0183      Y40.6562      R0.9500    
   X36.7825      Y40.5914      R0.9500    
G0   Z15.000    
(Pass: 1)
   X23.081       Y41.689    
G1   Z-0.500     F200 
G17 G2   X23.0761      Y41.3138      R1.4500    
   X22.9745      Y40.9528      R1.4500    
   X22.7829      Y40.6304      R1.4500    
   X22.5144      Y40.3686      R1.4500    
   X22.1873      Y40.1851      R1.4500    
   X21.8238      Y40.0926      R1.4500    
   X21.4488      Y40.0974      R1.4500    
   X21.0878      Y40.1990      R1.4500    
   X20.7654      Y40.3906      R1.4500    
   X20.5036      Y40.6591      R1.4500    
   X20.3202      Y40.9862      R1.4500    
   X20.2277      Y41.3496      R1.4500    
   X20.2324      Y41.7246      R1.4500    
   X20.3340      Y42.0856      R1.4500    
   X20.5256      Y42.4080      R1.4500    
   X20.7941      Y42.6699      R1.4500    
   X21.1212      Y42.8533      R1.4500    
   X21.4847      Y42.9458      R1.4500    
   X21.8597      Y42.9411      R1.4500    
   X22.2207      Y42.8395      R1.4500    
   X22.5431      Y42.6479      R1.4500    
   X22.8049      Y42.3794      R1.4500    
   X22.9883      Y42.0523      R1.4500    
   X23.0808      Y41.6888      R1.4500    
(Pass: 2)
G1   Z-1.000    
G17 G2   X23.0761      Y41.3138      R1.4500    
   X22.9745      Y40.9528      R1.4500    
   X22.7829      Y40.6304      R1.4500    
   X22.5144      Y40.3686      R1.4500    
   X22.1873      Y40.1851      R1.4500    
   X21.8238      Y40.0926      R1.4500    
   X21.4488      Y40.0974      R1.4500    
   X21.0878      Y40.1990      R1.4500    
   X20.7654      Y40.3906      R1.4500    
   X20.5036      Y40.6591      R1.4500    
   X20.3202      Y40.9862      R1.4500    
   X20.2277      Y41.3496      R1.4500    
   X20.2324      Y41.7246      R1.4500    
   X20.3340      Y42.0856      R1.4500    
   X20.5256      Y42.4080      R1.4500    
   X20.7941      Y42.6699      R1.4500    
   X21.1212      Y42.8533      R1.4500    
   X21.4847      Y42.9458      R1.4500    
   X21.8597      Y42.9411      R1.4500    
   X22.2207      Y42.8395      R1.4500    
   X22.5431      Y42.6479      R1.4500    
   X22.8049      Y42.3794      R1.4500    
   X22.9883      Y42.0523      R1.4500    
   X23.0808      Y41.6888      R1.4500    
(Pass: 3)
G1   Z-1.500    
G17 G2   X23.0761      Y41.3138      R1.4500    
   X22.9745      Y40.9528      R1.4500    
   X22.7829      Y40.6304      R1.4500    
   X22.5144      Y40.3686      R1.4500    
   X22.1873      Y40.1851      R1.4500    
   X21.8238      Y40.0926      R1.4500    
   X21.4488      Y40.0974      R1.4500    
   X21.0878      Y40.1990      R1.4500    
   X20.7654      Y40.3906      R1.4500    
   X20.5036      Y40.6591      R1.4500    
   X20.3202      Y40.9862      R1.4500    
   X20.2277      Y41.3496      R1.4500    
   X20.2324      Y41.7246      R1.4500    
   X20.3340      Y42.0856      R1.4500    
   X20.5256      Y42.4080      R1.4500    
   X20.7941      Y42.6699      R1.4500    
   X21.1212      Y42.8533      R1.4500    
   X21.4847      Y42.9458      R1.4500    
   X21.8597      Y42.9411      R1.4500    
   X22.2207      Y42.8395      R1.4500    
   X22.5431      Y42.6479      R1.4500    
   X22.8049      Y42.3794      R1.4500    
   X22.9883      Y42.0523      R1.4500    
   X23.0808      Y41.6888      R1.4500    
(Pass: 4)
G1   Z-2.000    
G17 G2   X23.0761      Y41.3138      R1.4500    
   X22.9745      Y40.9528      R1.4500    
   X22.7829      Y40.6304      R1.4500    
   X22.5144      Y40.3686      R1.4500    
   X22.1873      Y40.1851      R1.4500    
   X21.8238      Y40.0926      R1.4500    
   X21.4488      Y40.0974      R1.4500    
   X21.0878      Y40.1990      R1.4500    
   X20.7654      Y40.3906      R1.4500    
   X20.5036      Y40.6591      R1.4500    
   X20.3202      Y40.9862      R1.4500    
   X20.2277      Y41.3496      R1.4500    
   X20.2324      Y41.7246      R1.4500    
   X20.3340      Y42.0856      R1.4500    
   X20.5256      Y42.4080      R1.4500    
   X20.7941      Y42.6699      R1.4500    
   X21.1212      Y42.8533      R1.4500    
   X21.4847      Y42.9458      R1.4500    
   X21.8597      Y42.9411      R1.4500    
   X22.2207      Y42.8395      R1.4500    
   X22.5431      Y42.6479      R1.4500    
   X22.8049      Y42.3794      R1.4500    
   X22.9883      Y42.0523      R1.4500    
   X23.0808      Y41.6888      R1.4500    
(Pass: 5)
G1   Z-2.500    
G17 G2   X23.0761      Y41.3138      R1.4500    
   X22.9745      Y40.9528      R1.4500    
   X22.7829      Y40.6304      R1.4500    
   X22.5144      Y40.3686      R1.4500    
   X22.1873      Y40.1851      R1.4500    
   X21.8238      Y40.0926      R1.4500    
   X21.4488      Y40.0974      R1.4500    
   X21.0878      Y40.1990      R1.4500    
   X20.7654      Y40.3906      R1.4500    
   X20.5036      Y40.6591      R1.4500    
   X20.3202      Y40.9862      R1.4500    
   X20.2277      Y41.3496      R1.4500    
   X20.2324      Y41.7246      R1.4500    
   X20.3340      Y42.0856      R1.4500    
   X20.5256      Y42.4080      R1.4500    
   X20.7941      Y42.6699      R1.4500    
   X21.1212      Y42.8533      R1.4500    
   X21.4847      Y42.9458      R1.4500    
   X21.8597      Y42.9411      R1.4500    
   X22.2207      Y42.8395      R1.4500    
   X22.5431      Y42.6479      R1.4500    
   X22.8049      Y42.3794      R1.4500    
   X22.9883      Y42.0523      R1.4500    
   X23.0808      Y41.6888      R1.4500    
(Pass: 6)
G1   Z-3.000    
G17 G2   X23.0761      Y41.3138      R1.4500    
   X22.9745      Y40.9528      R1.4500    
   X22.7829      Y40.6304      R1.4500    
   X22.5144      Y40.3686      R1.4500    
   X22.1873      Y40.1851      R1.4500    
   X21.8238      Y40.0926      R1.4500    
   X21.4488      Y40.0974      R1.4500    
   X21.0878      Y40.1990      R1.4500    
   X20.7654      Y40.3906      R1.4500    
   X20.5036      Y40.6591      R1.4500    
   X20.3202      Y40.9862      R1.4500    
   X20.2277      Y41.3496      R1.4500    
   X20.2324      Y41.7246      R1.4500    
   X20.3340      Y42.0856      R1.4500    
   X20.5256      Y42.4080      R1.4500    
   X20.7941      Y42.6699      R1.4500    
   X21.1212      Y42.8533      R1.4500    
   X21.4847      Y42.9458      R1.4500    
   X21.8597      Y42.9411      R1.4500    
   X22.2207      Y42.8395      R1.4500    
   X22.5431      Y42.6479      R1.4500    
   X22.8049      Y42.3794      R1.4500    
   X22.9883      Y42.0523      R1.4500    
   X23.0808      Y41.6888      R1.4500    
(Pass: 7)
G1   Z-3.500    
G17 G2   X23.0761      Y41.3138      R1.4500    
   X22.9745      Y40.9528      R1.4500    
   X22.7829      Y40.6304      R1.4500    
   X22.5144      Y40.3686      R1.4500    
   X22.1873      Y40.1851      R1.4500    
   X21.8238      Y40.0926      R1.4500    
   X21.4488      Y40.0974      R1.4500    
   X21.0878      Y40.1990      R1.4500    
   X20.7654      Y40.3906      R1.4500    
   X20.5036      Y40.6591      R1.4500    
   X20.3202      Y40.9862      R1.4500    
   X20.2277      Y41.3496      R1.4500    
   X20.2324      Y41.7246      R1.4500    
   X20.3340      Y42.0856      R1.4500    
   X20.5256      Y42.4080      R1.4500    
   X20.7941      Y42.6699      R1.4500    
   X21.1212      Y42.8533      R1.4500    
   X21.4847      Y42.9458      R1.4500    
   X21.8597      Y42.9411      R1.4500    
   X22.2207      Y42.8395      R1.4500    
   X22.5431      Y42.6479      R1.4500    
   X22.8049      Y42.3794      R1.4500    
   X22.9883      Y42.0523      R1.4500    
   X23.0808      Y41.6888      R1.4500    
G0   Z15.000    
(Pass: 1)
   X55.718       Y41.519    
G1   Z-0.500     F200 
G17 G2   X55.7495      Y41.7616      R0.9500    
   X55.8431      Y41.9875      R0.9500    
   X55.9920      Y42.1815      R0.9500    
   X56.1859      Y42.3304      R0.9500    
   X56.4118      Y42.4239      R0.9500    
   X56.6542      Y42.4558      R0.9500    
   X56.8967      Y42.4239      R0.9500    
   X57.1226      Y42.3304      R0.9500    
   X57.3165      Y42.1815      R0.9500    
   X57.4654      Y41.9875      R0.9500    
   X57.5590      Y41.7616      R0.9500    
   X57.5909      Y41.5192      R0.9500    
   X57.5590      Y41.2768      R0.9500    
   X57.4654      Y41.0509      R0.9500    
   X57.3165      Y40.8569      R0.9500    
   X57.1226      Y40.7081      R0.9500    
   X56.8967      Y40.6145      R0.9500    
   X56.6542      Y40.5826      R0.9500    
   X56.4118      Y40.6145      R0.9500    
   X56.1859      Y40.7081      R0.9500    
   X55.9920      Y40.8569      R0.9500    
   X55.8431      Y41.0509      R0.9500    
   X55.7495      Y41.2768      R0.9500    
   X55.7176      Y41.5192      R0.9500    
(Pass: 2)
G1   Z-1.000    
G17 G2   X55.7495      Y41.7616      R0.9500    
   X55.8431      Y41.9875      R0.9500    
   X55.9920      Y42.1815      R0.9500    
   X56.1859      Y42.3304      R0.9500    
   X56.4118      Y42.4239      R0.9500    
   X56.6542      Y42.4558      R0.9500    
   X56.8967      Y42.4239      R0.9500    
   X57.1226      Y42.3304      R0.9500    
   X57.3165      Y42.1815      R0.9500    
   X57.4654      Y41.9875      R0.9500    
   X57.5590      Y41.7616      R0.9500    
   X57.5909      Y41.5192      R0.9500    
   X57.5590      Y41.2768      R0.9500    
   X57.4654      Y41.0509      R0.9500    
   X57.3165      Y40.8569      R0.9500    
   X57.1226      Y40.7081      R0.9500    
   X56.8967      Y40.6145      R0.9500    
   X56.6542      Y40.5826      R0.9500    
   X56.4118      Y40.6145      R0.9500    
   X56.1859      Y40.7081      R0.9500    
   X55.9920      Y40.8569      R0.9500    
   X55.8431      Y41.0509      R0.9500    
   X55.7495      Y41.2768      R0.9500    
   X55.7176      Y41.5192      R0.9500    
(Pass: 3)
G1   Z-1.500    
G17 G2   X55.7495      Y41.7616      R0.9500    
   X55.8431      Y41.9875      R0.9500    
   X55.9920      Y42.1815      R0.9500    
   X56.1859      Y42.3304      R0.9500    
   X56.4118      Y42.4239      R0.9500    
   X56.6542      Y42.4558      R0.9500    
   X56.8967      Y42.4239      R0.9500    
   X57.1226      Y42.3304      R0.9500    
   X57.3165      Y42.1815      R0.9500    
   X57.4654      Y41.9875      R0.9500    
   X57.5590      Y41.7616      R0.9500    
   X57.5909      Y41.5192      R0.9500    
   X57.5590      Y41.2768      R0.9500    
   X57.4654      Y41.0509      R0.9500    
   X57.3165      Y40.8569      R0.9500    
   X57.1226      Y40.7081      R0.9500    
   X56.8967      Y40.6145      R0.9500    
   X56.6542      Y40.5826      R0.9500    
   X56.4118      Y40.6145      R0.9500    
   X56.1859      Y40.7081      R0.9500    
   X55.9920      Y40.8569      R0.9500    
   X55.8431      Y41.0509      R0.9500    
   X55.7495      Y41.2768      R0.9500    
   X55.7176      Y41.5192      R0.9500    
(Pass: 4)
G1   Z-2.000    
G17 G2   X55.7495      Y41.7616      R0.9500    
   X55.8431      Y41.9875      R0.9500    
   X55.9920      Y42.1815      R0.9500    
   X56.1859      Y42.3304      R0.9500    
   X56.4118      Y42.4239      R0.9500    
   X56.6542      Y42.4558      R0.9500    
   X56.8967      Y42.4239      R0.9500    
   X57.1226      Y42.3304      R0.9500    
   X57.3165      Y42.1815      R0.9500    
   X57.4654      Y41.9875      R0.9500    
   X57.5590      Y41.7616      R0.9500    
   X57.5909      Y41.5192      R0.9500    
   X57.5590      Y41.2768      R0.9500    
   X57.4654      Y41.0509      R0.9500    
   X57.3165      Y40.8569      R0.9500    
   X57.1226      Y40.7081      R0.9500    
   X56.8967      Y40.6145      R0.9500    
   X56.6542      Y40.5826      R0.9500    
   X56.4118      Y40.6145      R0.9500    
   X56.1859      Y40.7081      R0.9500    
   X55.9920      Y40.8569      R0.9500    
   X55.8431      Y41.0509      R0.9500    
   X55.7495      Y41.2768      R0.9500    
   X55.7176      Y41.5192      R0.9500    
(Pass: 5)
G1   Z-2.500    
G17 G2   X55.7495      Y41.7616      R0.9500    
   X55.8431      Y41.9875      R0.9500    
   X55.9920      Y42.1815      R0.9500    
   X56.1859      Y42.3304      R0.9500    
   X56.4118      Y42.4239      R0.9500    
   X56.6542      Y42.4558      R0.9500    
   X56.8967      Y42.4239      R0.9500    
   X57.1226      Y42.3304      R0.9500    
   X57.3165      Y42.1815      R0.9500    
   X57.4654      Y41.9875      R0.9500    
   X57.5590      Y41.7616      R0.9500    
   X57.5909      Y41.5192      R0.9500    
   X57.5590      Y41.2768      R0.9500    
   X57.4654      Y41.0509      R0.9500    
   X57.3165      Y40.8569      R0.9500    
   X57.1226      Y40.7081      R0.9500    
   X56.8967      Y40.6145      R0.9500    
   X56.6542      Y40.5826      R0.9500    
   X56.4118      Y40.6145      R0.9500    
   X56.1859      Y40.7081      R0.9500    
   X55.9920      Y40.8569      R0.9500    
   X55.8431      Y41.0509      R0.9500    
   X55.7495      Y41.2768      R0.9500    
   X55.7176      Y41.5192      R0.9500    
(Pass: 6)
G1   Z-3.000    
G17 G2   X55.7495      Y41.7616      R0.9500    
   X55.8431      Y41.9875      R0.9500    
   X55.9920      Y42.1815      R0.9500    
   X56.1859      Y42.3304      R0.9500    
   X56.4118      Y42.4239      R0.9500    
   X56.6542      Y42.4558      R0.9500    
   X56.8967      Y42.4239      R0.9500    
   X57.1226      Y42.3304      R0.9500    
   X57.3165      Y42.1815      R0.9500    
   X57.4654      Y41.9875      R0.9500    
   X57.5590      Y41.7616      R0.9500    
   X57.5909      Y41.5192      R0.9500    
   X57.5590      Y41.2768      R0.9500    
   X57.4654      Y41.0509      R0.9500    
   X57.3165      Y40.8569      R0.9500    
   X57.1226      Y40.7081      R0.9500    
   X56.8967      Y40.6145      R0.9500    
   X56.6542      Y40.5826      R0.9500    
   X56.4118      Y40.6145      R0.9500    
   X56.1859      Y40.7081      R0.9500    
   X55.9920      Y40.8569      R0.9500    
   X55.8431      Y41.0509      R0.9500    
   X55.7495      Y41.2768      R0.9500    
   X55.7176      Y41.5192      R0.9500    
(Pass: 7)
G1   Z-3.500    
G17 G2   X55.7495      Y41.7616      R0.9500    
   X55.8431      Y41.9875      R0.9500    
   X55.9920      Y42.1815      R0.9500    
   X56.1859      Y42.3304      R0.9500    
   X56.4118      Y42.4239      R0.9500    
   X56.6542      Y42.4558      R0.9500    
   X56.8967      Y42.4239      R0.9500    
   X57.1226      Y42.3304      R0.9500    
   X57.3165      Y42.1815      R0.9500    
   X57.4654      Y41.9875      R0.9500    
   X57.5590      Y41.7616      R0.9500    
   X57.5909      Y41.5192      R0.9500    
   X57.5590      Y41.2768      R0.9500    
   X57.4654      Y41.0509      R0.9500    
   X57.3165      Y40.8569      R0.9500    
   X57.1226      Y40.7081      R0.9500    
   X56.8967      Y40.6145      R0.9500    
   X56.6542      Y40.5826      R0.9500    
   X56.4118      Y40.6145      R0.9500    
   X56.1859      Y40.7081      R0.9500    
   X55.9920      Y40.8569      R0.9500    
   X55.8431      Y41.0509      R0.9500    
   X55.7495      Y41.2768      R0.9500    
   X55.7176      Y41.5192      R0.9500    
G0   Z15.000    
(Pass: 1)
   X56.468       Y22.437    
G1   Z-0.500     F200 
G17 G2   X56.7118      Y22.4541      R0.9500    
   X56.9518      Y22.4073      R0.9500    
   X57.1715      Y22.3000      R0.9500    
   X57.3560      Y22.1395      R0.9500    
   X57.4926      Y21.9368      R0.9500    
   X57.5722      Y21.7056      R0.9500    
   X57.5891      Y21.4616      R0.9500    
   X57.5423      Y21.2216      R0.9500    
   X57.4351      Y21.0019      R0.9500    
   X57.2746      Y20.8175      R0.9500    
   X57.0718      Y20.6808      R0.9500    
   X56.8406      Y20.6013      R0.9500    
   X56.5967      Y20.5844      R0.9500    
   X56.3567      Y20.6311      R0.9500    
   X56.1370      Y20.7384      R0.9500    
   X55.9525      Y20.8989      R0.9500    
   X55.8159      Y21.1017      R0.9500    
   X55.7363      Y21.3329      R0.9500    
   X55.7194      Y21.5768      R0.9500    
   X55.7662      Y21.8168      R0.9500    
   X55.8734      Y22.0365      R0.9500    
   X56.0339      Y22.2210      R0.9500    
   X56.2367      Y22.3576      R0.9500    
   X56.4679      Y22.4371      R0.9500    
(Pass: 2)
G1   Z-1.000    
G17 G2   X56.7118      Y22.4541      R0.9500    
   X56.9518      Y22.4073      R0.9500    
   X57.1715      Y22.3000      R0.9500    
   X57.3560      Y22.1395      R0.9500    
   X57.4926      Y21.9368      R0.9500    
   X57.5722      Y21.7056      R0.9500    
   X57.5891      Y21.4616      R0.9500    
   X57.5423      Y21.2216      R0.9500    
   X57.4351      Y21.0019      R0.9500    
   X57.2746      Y20.8175      R0.9500    
   X57.0718      Y20.6808      R0.9500    
   X56.8406      Y20.6013      R0.9500    
   X56.5967      Y20.5844      R0.9500    
   X56.3567      Y20.6311      R0.9500    
   X56.1370      Y20.7384      R0.9500    
   X55.9525      Y20.8989      R0.9500    
   X55.8159      Y21.1017      R0.9500    
   X55.7363      Y21.3329      R0.9500    
   X55.7194      Y21.5768      R0.9500    
   X55.7662      Y21.8168      R0.9500    
   X55.8734      Y22.0365      R0.9500    
   X56.0339      Y22.2210      R0.9500    
   X56.2367      Y22.3576      R0.9500    
   X56.4679      Y22.4371      R0.9500    
(Pass: 3)
G1   Z-1.500    
G17 G2   X56.7118      Y22.4541      R0.9500    
   X56.9518      Y22.4073      R0.9500    
   X57.1715      Y22.3000      R0.9500    
   X57.3560      Y22.1395      R0.9500    
   X57.4926      Y21.9368      R0.9500    
   X57.5722      Y21.7056      R0.9500    
   X57.5891      Y21.4616      R0.9500    
   X57.5423      Y21.2216      R0.9500    
   X57.4351      Y21.0019      R0.9500    
   X57.2746      Y20.8175      R0.9500    
   X57.0718      Y20.6808      R0.9500    
   X56.8406      Y20.6013      R0.9500    
   X56.5967      Y20.5844      R0.9500    
   X56.3567      Y20.6311      R0.9500    
   X56.1370      Y20.7384      R0.9500    
   X55.9525      Y20.8989      R0.9500    
   X55.8159      Y21.1017      R0.9500    
   X55.7363      Y21.3329      R0.9500    
   X55.7194      Y21.5768      R0.9500    
   X55.7662      Y21.8168      R0.9500    
   X55.8734      Y22.0365      R0.9500    
   X56.0339      Y22.2210      R0.9500    
   X56.2367      Y22.3576      R0.9500    
   X56.4679      Y22.4371      R0.9500    
(Pass: 4)
G1   Z-2.000    
G17 G2   X56.7118      Y22.4541      R0.9500    
   X56.9518      Y22.4073      R0.9500    
   X57.1715      Y22.3000      R0.9500    
   X57.3560      Y22.1395      R0.9500    
   X57.4926      Y21.9368      R0.9500    
   X57.5722      Y21.7056      R0.9500    
   X57.5891      Y21.4616      R0.9500    
   X57.5423      Y21.2216      R0.9500    
   X57.4351      Y21.0019      R0.9500    
   X57.2746      Y20.8175      R0.9500    
   X57.0718      Y20.6808      R0.9500    
   X56.8406      Y20.6013      R0.9500    
   X56.5967      Y20.5844      R0.9500    
   X56.3567      Y20.6311      R0.9500    
   X56.1370      Y20.7384      R0.9500    
   X55.9525      Y20.8989      R0.9500    
   X55.8159      Y21.1017      R0.9500    
   X55.7363      Y21.3329      R0.9500    
   X55.7194      Y21.5768      R0.9500    
   X55.7662      Y21.8168      R0.9500    
   X55.8734      Y22.0365      R0.9500    
   X56.0339      Y22.2210      R0.9500    
   X56.2367      Y22.3576      R0.9500    
   X56.4679      Y22.4371      R0.9500    
(Pass: 5)
G1   Z-2.500    
G17 G2   X56.7118      Y22.4541      R0.9500    
   X56.9518      Y22.4073      R0.9500    
   X57.1715      Y22.3000      R0.9500    
   X57.3560      Y22.1395      R0.9500    
   X57.4926      Y21.9368      R0.9500    
   X57.5722      Y21.7056      R0.9500    
   X57.5891      Y21.4616      R0.9500    
   X57.5423      Y21.2216      R0.9500    
   X57.4351      Y21.0019      R0.9500    
   X57.2746      Y20.8175      R0.9500    
   X57.0718      Y20.6808      R0.9500    
   X56.8406      Y20.6013      R0.9500    
   X56.5967      Y20.5844      R0.9500    
   X56.3567      Y20.6311      R0.9500    
   X56.1370      Y20.7384      R0.9500    
   X55.9525      Y20.8989      R0.9500    
   X55.8159      Y21.1017      R0.9500    
   X55.7363      Y21.3329      R0.9500    
   X55.7194      Y21.5768      R0.9500    
   X55.7662      Y21.8168      R0.9500    
   X55.8734      Y22.0365      R0.9500    
   X56.0339      Y22.2210      R0.9500    
   X56.2367      Y22.3576      R0.9500    
   X56.4679      Y22.4371      R0.9500    
(Pass: 6)
G1   Z-3.000    
G17 G2   X56.7118      Y22.4541      R0.9500    
   X56.9518      Y22.4073      R0.9500    
   X57.1715      Y22.3000      R0.9500    
   X57.3560      Y22.1395      R0.9500    
   X57.4926      Y21.9368      R0.9500    
   X57.5722      Y21.7056      R0.9500    
   X57.5891      Y21.4616      R0.9500    
   X57.5423      Y21.2216      R0.9500    
   X57.4351      Y21.0019      R0.9500    
   X57.2746      Y20.8175      R0.9500    
   X57.0718      Y20.6808      R0.9500    
   X56.8406      Y20.6013      R0.9500    
   X56.5967      Y20.5844      R0.9500    
   X56.3567      Y20.6311      R0.9500    
   X56.1370      Y20.7384      R0.9500    
   X55.9525      Y20.8989      R0.9500    
   X55.8159      Y21.1017      R0.9500    
   X55.7363      Y21.3329      R0.9500    
   X55.7194      Y21.5768      R0.9500    
   X55.7662      Y21.8168      R0.9500    
   X55.8734      Y22.0365      R0.9500    
   X56.0339      Y22.2210      R0.9500    
   X56.2367      Y22.3576      R0.9500    
   X56.4679      Y22.4371      R0.9500    
(Pass: 7)
G1   Z-3.500    
G17 G2   X56.7118      Y22.4541      R0.9500    
   X56.9518      Y22.4073      R0.9500    
   X57.1715      Y22.3000      R0.9500    
   X57.3560      Y22.1395      R0.9500    
   X57.4926      Y21.9368      R0.9500    
   X57.5722      Y21.7056      R0.9500    
   X57.5891      Y21.4616      R0.9500    
   X57.5423      Y21.2216      R0.9500    
   X57.4351      Y21.0019      R0.9500    
   X57.2746      Y20.8175      R0.9500    
   X57.0718      Y20.6808      R0.9500    
   X56.8406      Y20.6013      R0.9500    
   X56.5967      Y20.5844      R0.9500    
   X56.3567      Y20.6311      R0.9500    
   X56.1370      Y20.7384      R0.9500    
   X55.9525      Y20.8989      R0.9500    
   X55.8159      Y21.1017      R0.9500    
   X55.7363      Y21.3329      R0.9500    
   X55.7194      Y21.5768      R0.9500    
   X55.7662      Y21.8168      R0.9500    
   X55.8734      Y22.0365      R0.9500    
   X56.0339      Y22.2210      R0.9500    
   X56.2367      Y22.3576      R0.9500    
   X56.4679      Y22.4371      R0.9500    
G0   Z15.000    
(Pass: 1)
   X75.731       Y21.361    
G1   Z-0.500     F200 
G17 G2   X75.7216      Y21.6051      R0.9500    
   X75.7756      Y21.8436      R0.9500    
   X75.8895      Y22.0600      R0.9500    
   X76.0555      Y22.2395      R0.9500    
   X76.2623      Y22.3699      R0.9500    
   X76.4958      Y22.4424      R0.9500    
   X76.7402      Y22.4519      R0.9500    
   X76.9786      Y22.3979      R0.9500    
   X77.1950      Y22.2840      R0.9500    
   X77.3745      Y22.1180      R0.9500    
   X77.5049      Y21.9112      R0.9500    
   X77.5774      Y21.6776      R0.9500    
   X77.5869      Y21.4333      R0.9500    
   X77.5329      Y21.1948      R0.9500    
   X77.4190      Y20.9785      R0.9500    
   X77.2530      Y20.7990      R0.9500    
   X77.0462      Y20.6685      R0.9500    
   X76.8127      Y20.5961      R0.9500    
   X76.5683      Y20.5865      R0.9500    
   X76.3299      Y20.6406      R0.9500    
   X76.1135      Y20.7545      R0.9500    
   X75.9340      Y20.9205      R0.9500    
   X75.8036      Y21.1273      R0.9500    
   X75.7311      Y21.3608      R0.9500    
(Pass: 2)
G1   Z-1.000    
G17 G2   X75.7216      Y21.6051      R0.9500    
   X75.7756      Y21.8436      R0.9500    
   X75.8895      Y22.0600      R0.9500    
   X76.0555      Y22.2395      R0.9500    
   X76.2623      Y22.3699      R0.9500    
   X76.4958      Y22.4424      R0.9500    
   X76.7402      Y22.4519      R0.9500    
   X76.9786      Y22.3979      R0.9500    
   X77.1950      Y22.2840      R0.9500    
   X77.3745      Y22.1180      R0.9500    
   X77.5049      Y21.9112      R0.9500    
   X77.5774      Y21.6776      R0.9500    
   X77.5869      Y21.4333      R0.9500    
   X77.5329      Y21.1948      R0.9500    
   X77.4190      Y20.9785      R0.9500    
   X77.2530      Y20.7990      R0.9500    
   X77.0462      Y20.6685      R0.9500    
   X76.8127      Y20.5961      R0.9500    
   X76.5683      Y20.5865      R0.9500    
   X76.3299      Y20.6406      R0.9500    
   X76.1135      Y20.7545      R0.9500    
   X75.9340      Y20.9205      R0.9500    
   X75.8036      Y21.1273      R0.9500    
   X75.7311      Y21.3608      R0.9500    
(Pass: 3)
G1   Z-1.500    
G17 G2   X75.7216      Y21.6051      R0.9500    
   X75.7756      Y21.8436      R0.9500    
   X75.8895      Y22.0600      R0.9500    
   X76.0555      Y22.2395      R0.9500    
   X76.2623      Y22.3699      R0.9500    
   X76.4958      Y22.4424      R0.9500    
   X76.7402      Y22.4519      R0.9500    
   X76.9786      Y22.3979      R0.9500    
   X77.1950      Y22.2840      R0.9500    
   X77.3745      Y22.1180      R0.9500    
   X77.5049      Y21.9112      R0.9500    
   X77.5774      Y21.6776      R0.9500    
   X77.5869      Y21.4333      R0.9500    
   X77.5329      Y21.1948      R0.9500    
   X77.4190      Y20.9785      R0.9500    
   X77.2530      Y20.7990      R0.9500    
   X77.0462      Y20.6685      R0.9500    
   X76.8127      Y20.5961      R0.9500    
   X76.5683      Y20.5865      R0.9500    
   X76.3299      Y20.6406      R0.9500    
   X76.1135      Y20.7545      R0.9500    
   X75.9340      Y20.9205      R0.9500    
   X75.8036      Y21.1273      R0.9500    
   X75.7311      Y21.3608      R0.9500    
(Pass: 4)
G1   Z-2.000    
G17 G2   X75.7216      Y21.6051      R0.9500    
   X75.7756      Y21.8436      R0.9500    
   X75.8895      Y22.0600      R0.9500    
   X76.0555      Y22.2395      R0.9500    
   X76.2623      Y22.3699      R0.9500    
   X76.4958      Y22.4424      R0.9500    
   X76.7402      Y22.4519      R0.9500    
   X76.9786      Y22.3979      R0.9500    
   X77.1950      Y22.2840      R0.9500    
   X77.3745      Y22.1180      R0.9500    
   X77.5049      Y21.9112      R0.9500    
   X77.5774      Y21.6776      R0.9500    
   X77.5869      Y21.4333      R0.9500    
   X77.5329      Y21.1948      R0.9500    
   X77.4190      Y20.9785      R0.9500    
   X77.2530      Y20.7990      R0.9500    
   X77.0462      Y20.6685      R0.9500    
   X76.8127      Y20.5961      R0.9500    
   X76.5683      Y20.5865      R0.9500    
   X76.3299      Y20.6406      R0.9500    
   X76.1135      Y20.7545      R0.9500    
   X75.9340      Y20.9205      R0.9500    
   X75.8036      Y21.1273      R0.9500    
   X75.7311      Y21.3608      R0.9500    
(Pass: 5)
G1   Z-2.500    
G17 G2   X75.7216      Y21.6051      R0.9500    
   X75.7756      Y21.8436      R0.9500    
   X75.8895      Y22.0600      R0.9500    
   X76.0555      Y22.2395      R0.9500    
   X76.2623      Y22.3699      R0.9500    
   X76.4958      Y22.4424      R0.9500    
   X76.7402      Y22.4519      R0.9500    
   X76.9786      Y22.3979      R0.9500    
   X77.1950      Y22.2840      R0.9500    
   X77.3745      Y22.1180      R0.9500    
   X77.5049      Y21.9112      R0.9500    
   X77.5774      Y21.6776      R0.9500    
   X77.5869      Y21.4333      R0.9500    
   X77.5329      Y21.1948      R0.9500    
   X77.4190      Y20.9785      R0.9500    
   X77.2530      Y20.7990      R0.9500    
   X77.0462      Y20.6685      R0.9500    
   X76.8127      Y20.5961      R0.9500    
   X76.5683      Y20.5865      R0.9500    
   X76.3299      Y20.6406      R0.9500    
   X76.1135      Y20.7545      R0.9500    
   X75.9340      Y20.9205      R0.9500    
   X75.8036      Y21.1273      R0.9500    
   X75.7311      Y21.3608      R0.9500    
(Pass: 6)
G1   Z-3.000    
G17 G2   X75.7216      Y21.6051      R0.9500    
   X75.7756      Y21.8436      R0.9500    
   X75.8895      Y22.0600      R0.9500    
   X76.0555      Y22.2395      R0.9500    
   X76.2623      Y22.3699      R0.9500    
   X76.4958      Y22.4424      R0.9500    
   X76.7402      Y22.4519      R0.9500    
   X76.9786      Y22.3979      R0.9500    
   X77.1950      Y22.2840      R0.9500    
   X77.3745      Y22.1180      R0.9500    
   X77.5049      Y21.9112      R0.9500    
   X77.5774      Y21.6776      R0.9500    
   X77.5869      Y21.4333      R0.9500    
   X77.5329      Y21.1948      R0.9500    
   X77.4190      Y20.9785      R0.9500    
   X77.2530      Y20.7990      R0.9500    
   X77.0462      Y20.6685      R0.9500    
   X76.8127      Y20.5961      R0.9500    
   X76.5683      Y20.5865      R0.9500    
   X76.3299      Y20.6406      R0.9500    
   X76.1135      Y20.7545      R0.9500    
   X75.9340      Y20.9205      R0.9500    
   X75.8036      Y21.1273      R0.9500    
   X75.7311      Y21.3608      R0.9500    
(Pass: 7)
G1   Z-3.500    
G17 G2   X75.7216      Y21.6051      R0.9500    
   X75.7756      Y21.8436      R0.9500    
   X75.8895      Y22.0600      R0.9500    
   X76.0555      Y22.2395      R0.9500    
   X76.2623      Y22.3699      R0.9500    
   X76.4958      Y22.4424      R0.9500    
   X76.7402      Y22.4519      R0.9500    
   X76.9786      Y22.3979      R0.9500    
   X77.1950      Y22.2840      R0.9500    
   X77.3745      Y22.1180      R0.9500    
   X77.5049      Y21.9112      R0.9500    
   X77.5774      Y21.6776      R0.9500    
   X77.5869      Y21.4333      R0.9500    
   X77.5329      Y21.1948      R0.9500    
   X77.4190      Y20.9785      R0.9500    
   X77.2530      Y20.7990      R0.9500    
   X77.0462      Y20.6685      R0.9500    
   X76.8127      Y20.5961      R0.9500    
   X76.5683      Y20.5865      R0.9500    
   X76.3299      Y20.6406      R0.9500    
   X76.1135      Y20.7545      R0.9500    
   X75.9340      Y20.9205      R0.9500    
   X75.8036      Y21.1273      R0.9500    
   X75.7311      Y21.3608      R0.9500    
G0   Z15.000    
(Pass: 1)
   X90.228    
G1   Z-0.500     F200 
G17 G2   X90.2321      Y21.7224      R1.4500    
   X90.3331      Y22.0836      R1.4500    
   X90.5242      Y22.4063      R1.4500    
   X90.7923      Y22.6685      R1.4500    
   X91.1191      Y22.8525      R1.4500    
   X91.4824      Y22.9455      R1.4500    
   X91.8575      Y22.9414      R1.4500    
   X92.2186      Y22.8403      R1.4500    
   X92.5413      Y22.6493      R1.4500    
   X92.8036      Y22.3812      R1.4500    
   X92.9875      Y22.0543      R1.4500    
   X93.0806      Y21.6910      R1.4500    
   X93.0764      Y21.3160      R1.4500    
   X92.9754      Y20.9549      R1.4500    
   X92.7843      Y20.6321      R1.4500    
   X92.5162      Y20.3699      R1.4500    
   X92.1894      Y20.1860      R1.4500    
   X91.8261      Y20.0929      R1.4500    
   X91.4510      Y20.0970      R1.4500    
   X91.0899      Y20.1981      R1.4500    
   X90.7672      Y20.3892      R1.4500    
   X90.5049      Y20.6573      R1.4500    
   X90.3210      Y20.9841      R1.4500    
   X90.2279      Y21.3474      R1.4500    
(Pass: 2)
G1   Z-1.000    
G17 G2   X90.2321      Y21.7224      R1.4500    
   X90.3331      Y22.0836      R1.4500    
   X90.5242      Y22.4063      R1.4500    
   X90.7923      Y22.6685      R1.4500    
   X91.1191      Y22.8525      R1.4500    
   X91.4824      Y22.9455      R1.4500    
   X91.8575      Y22.9414      R1.4500    
   X92.2186      Y22.8403      R1.4500    
   X92.5413      Y22.6493      R1.4500    
   X92.8036      Y22.3812      R1.4500    
   X92.9875      Y22.0543      R1.4500    
   X93.0806      Y21.6910      R1.4500    
   X93.0764      Y21.3160      R1.4500    
   X92.9754      Y20.9549      R1.4500    
   X92.7843      Y20.6321      R1.4500    
   X92.5162      Y20.3699      R1.4500    
   X92.1894      Y20.1860      R1.4500    
   X91.8261      Y20.0929      R1.4500    
   X91.4510      Y20.0970      R1.4500    
   X91.0899      Y20.1981      R1.4500    
   X90.7672      Y20.3892      R1.4500    
   X90.5049      Y20.6573      R1.4500    
   X90.3210      Y20.9841      R1.4500    
   X90.2279      Y21.3474      R1.4500    
(Pass: 3)
G1   Z-1.500    
G17 G2   X90.2321      Y21.7224      R1.4500    
   X90.3331      Y22.0836      R1.4500    
   X90.5242      Y22.4063      R1.4500    
   X90.7923      Y22.6685      R1.4500    
   X91.1191      Y22.8525      R1.4500    
   X91.4824      Y22.9455      R1.4500    
   X91.8575      Y22.9414      R1.4500    
   X92.2186      Y22.8403      R1.4500    
   X92.5413      Y22.6493      R1.4500    
   X92.8036      Y22.3812      R1.4500    
   X92.9875      Y22.0543      R1.4500    
   X93.0806      Y21.6910      R1.4500    
   X93.0764      Y21.3160      R1.4500    
   X92.9754      Y20.9549      R1.4500    
   X92.7843      Y20.6321      R1.4500    
   X92.5162      Y20.3699      R1.4500    
   X92.1894      Y20.1860      R1.4500    
   X91.8261      Y20.0929      R1.4500    
   X91.4510      Y20.0970      R1.4500    
   X91.0899      Y20.1981      R1.4500    
   X90.7672      Y20.3892      R1.4500    
   X90.5049      Y20.6573      R1.4500    
   X90.3210      Y20.9841      R1.4500    
   X90.2279      Y21.3474      R1.4500    
(Pass: 4)
G1   Z-2.000    
G17 G2   X90.2321      Y21.7224      R1.4500    
   X90.3331      Y22.0836      R1.4500    
   X90.5242      Y22.4063      R1.4500    
   X90.7923      Y22.6685      R1.4500    
   X91.1191      Y22.8525      R1.4500    
   X91.4824      Y22.9455      R1.4500    
   X91.8575      Y22.9414      R1.4500    
   X92.2186      Y22.8403      R1.4500    
   X92.5413      Y22.6493      R1.4500    
   X92.8036      Y22.3812      R1.4500    
   X92.9875      Y22.0543      R1.4500    
   X93.0806      Y21.6910      R1.4500    
   X93.0764      Y21.3160      R1.4500    
   X92.9754      Y20.9549      R1.4500    
   X92.7843      Y20.6321      R1.4500    
   X92.5162      Y20.3699      R1.4500    
   X92.1894      Y20.1860      R1.4500    
   X91.8261      Y20.0929      R1.4500    
   X91.4510      Y20.0970      R1.4500    
   X91.0899      Y20.1981      R1.4500    
   X90.7672      Y20.3892      R1.4500    
   X90.5049      Y20.6573      R1.4500    
   X90.3210      Y20.9841      R1.4500    
   X90.2279      Y21.3474      R1.4500    
(Pass: 5)
G1   Z-2.500    
G17 G2   X90.2321      Y21.7224      R1.4500    
   X90.3331      Y22.0836      R1.4500    
   X90.5242      Y22.4063      R1.4500    
   X90.7923      Y22.6685      R1.4500    
   X91.1191      Y22.8525      R1.4500    
   X91.4824      Y22.9455      R1.4500    
   X91.8575      Y22.9414      R1.4500    
   X92.2186      Y22.8403      R1.4500    
   X92.5413      Y22.6493      R1.4500    
   X92.8036      Y22.3812      R1.4500    
   X92.9875      Y22.0543      R1.4500    
   X93.0806      Y21.6910      R1.4500    
   X93.0764      Y21.3160      R1.4500    
   X92.9754      Y20.9549      R1.4500    
   X92.7843      Y20.6321      R1.4500    
   X92.5162      Y20.3699      R1.4500    
   X92.1894      Y20.1860      R1.4500    
   X91.8261      Y20.0929      R1.4500    
   X91.4510      Y20.0970      R1.4500    
   X91.0899      Y20.1981      R1.4500    
   X90.7672      Y20.3892      R1.4500    
   X90.5049      Y20.6573      R1.4500    
   X90.3210      Y20.9841      R1.4500    
   X90.2279      Y21.3474      R1.4500    
(Pass: 6)
G1   Z-3.000    
G17 G2   X90.2321      Y21.7224      R1.4500    
   X90.3331      Y22.0836      R1.4500    
   X90.5242      Y22.4063      R1.4500    
   X90.7923      Y22.6685      R1.4500    
   X91.1191      Y22.8525      R1.4500    
   X91.4824      Y22.9455      R1.4500    
   X91.8575      Y22.9414      R1.4500    
   X92.2186      Y22.8403      R1.4500    
   X92.5413      Y22.6493      R1.4500    
   X92.8036      Y22.3812      R1.4500    
   X92.9875      Y22.0543      R1.4500    
   X93.0806      Y21.6910      R1.4500    
   X93.0764      Y21.3160      R1.4500    
   X92.9754      Y20.9549      R1.4500    
   X92.7843      Y20.6321      R1.4500    
   X92.5162      Y20.3699      R1.4500    
   X92.1894      Y20.1860      R1.4500    
   X91.8261      Y20.0929      R1.4500    
   X91.4510      Y20.0970      R1.4500    
   X91.0899      Y20.1981      R1.4500    
   X90.7672      Y20.3892      R1.4500    
   X90.5049      Y20.6573      R1.4500    
   X90.3210      Y20.9841      R1.4500    
   X90.2279      Y21.3474      R1.4500    
(Pass: 7)
G1   Z-3.500    
G17 G2   X90.2321      Y21.7224      R1.4500    
   X90.3331      Y22.0836      R1.4500    
   X90.5242      Y22.4063      R1.4500    
   X90.7923      Y22.6685      R1.4500    
   X91.1191      Y22.8525      R1.4500    
   X91.4824      Y22.9455      R1.4500    
   X91.8575      Y22.9414      R1.4500    
   X92.2186      Y22.8403      R1.4500    
   X92.5413      Y22.6493      R1.4500    
   X92.8036      Y22.3812      R1.4500    
   X92.9875      Y22.0543      R1.4500    
   X93.0806      Y21.6910      R1.4500    
   X93.0764      Y21.3160      R1.4500    
   X92.9754      Y20.9549      R1.4500    
   X92.7843      Y20.6321      R1.4500    
   X92.5162      Y20.3699      R1.4500    
   X92.1894      Y20.1860      R1.4500    
   X91.8261      Y20.0929      R1.4500    
   X91.4510      Y20.0970      R1.4500    
   X91.0899      Y20.1981      R1.4500    
   X90.7672      Y20.3892      R1.4500    
   X90.5049      Y20.6573      R1.4500    
   X90.3210      Y20.9841      R1.4500    
   X90.2279      Y21.3474      R1.4500    
G0   Z15.000    
(Pass: 1)
   X91.654       Y40.083    
G1   Z-0.500     F200 
G17 G2   X91.2824      Y40.1315      R1.4500    
   X90.9359      Y40.2751      R1.4500    
   X90.6384      Y40.5034      R1.4500    
   X90.4101      Y40.8009      R1.4500    
   X90.2666      Y41.1474      R1.4500    
   X90.2176      Y41.5192      R1.4500    
   X90.2666      Y41.8910      R1.4500    
   X90.4101      Y42.2375      R1.4500    
   X90.6384      Y42.5351      R1.4500    
   X90.9359      Y42.7634      R1.4500    
   X91.2824      Y42.9069      R1.4500    
   X91.6542      Y42.9558      R1.4500    
   X92.0261      Y42.9069      R1.4500    
   X92.3726      Y42.7634      R1.4500    
   X92.6701      Y42.5351      R1.4500    
   X92.8984      Y42.2375      R1.4500    
   X93.0419      Y41.8910      R1.4500    
   X93.0909      Y41.5192      R1.4500    
   X93.0419      Y41.1474      R1.4500    
   X92.8984      Y40.8009      R1.4500    
   X92.6701      Y40.5034      R1.4500    
   X92.3726      Y40.2751      R1.4500    
   X92.0261      Y40.1315      R1.4500    
   X91.6542      Y40.0826      R1.4500    
(Pass: 2)
G1   Z-1.000    
G17 G2   X91.2824      Y40.1315      R1.4500    
   X90.9359      Y40.2751      R1.4500    
   X90.6384      Y40.5034      R1.4500    
   X90.4101      Y40.8009      R1.4500    
   X90.2666      Y41.1474      R1.4500    
   X90.2176      Y41.5192      R1.4500    
   X90.2666      Y41.8910      R1.4500    
   X90.4101      Y42.2375      R1.4500    
   X90.6384      Y42.5351      R1.4500    
   X90.9359      Y42.7634      R1.4500    
   X91.2824      Y42.9069      R1.4500    
   X91.6542      Y42.9558      R1.4500    
   X92.0261      Y42.9069      R1.4500    
   X92.3726      Y42.7634      R1.4500    
   X92.6701      Y42.5351      R1.4500    
   X92.8984      Y42.2375      R1.4500    
   X93.0419      Y41.8910      R1.4500    
   X93.0909      Y41.5192      R1.4500    
   X93.0419      Y41.1474      R1.4500    
   X92.8984      Y40.8009      R1.4500    
   X92.6701      Y40.5034      R1.4500    
   X92.3726      Y40.2751      R1.4500    
   X92.0261      Y40.1315      R1.4500    
   X91.6542      Y40.0826      R1.4500    
(Pass: 3)
G1   Z-1.500    
G17 G2   X91.2824      Y40.1315      R1.4500    
   X90.9359      Y40.2751      R1.4500    
   X90.6384      Y40.5034      R1.4500    
   X90.4101      Y40.8009      R1.4500    
   X90.2666      Y41.1474      R1.4500    
   X90.2176      Y41.5192      R1.4500    
   X90.2666      Y41.8910      R1.4500    
   X90.4101      Y42.2375      R1.4500    
   X90.6384      Y42.5351      R1.4500    
   X90.9359      Y42.7634      R1.4500    
   X91.2824      Y42.9069      R1.4500    
   X91.6542      Y42.9558      R1.4500    
   X92.0261      Y42.9069      R1.4500    
   X92.3726      Y42.7634      R1.4500    
   X92.6701      Y42.5351      R1.4500    
   X92.8984      Y42.2375      R1.4500    
   X93.0419      Y41.8910      R1.4500    
   X93.0909      Y41.5192      R1.4500    
   X93.0419      Y41.1474      R1.4500    
   X92.8984      Y40.8009      R1.4500    
   X92.6701      Y40.5034      R1.4500    
   X92.3726      Y40.2751      R1.4500    
   X92.0261      Y40.1315      R1.4500    
   X91.6542      Y40.0826      R1.4500    
(Pass: 4)
G1   Z-2.000    
G17 G2   X91.2824      Y40.1315      R1.4500    
   X90.9359      Y40.2751      R1.4500    
   X90.6384      Y40.5034      R1.4500    
   X90.4101      Y40.8009      R1.4500    
   X90.2666      Y41.1474      R1.4500    
   X90.2176      Y41.5192      R1.4500    
   X90.2666      Y41.8910      R1.4500    
   X90.4101      Y42.2375      R1.4500    
   X90.6384      Y42.5351      R1.4500    
   X90.9359      Y42.7634      R1.4500    
   X91.2824      Y42.9069      R1.4500    
   X91.6542      Y42.9558      R1.4500    
   X92.0261      Y42.9069      R1.4500    
   X92.3726      Y42.7634      R1.4500    
   X92.6701      Y42.5351      R1.4500    
   X92.8984      Y42.2375      R1.4500    
   X93.0419      Y41.8910      R1.4500    
   X93.0909      Y41.5192      R1.4500    
   X93.0419      Y41.1474      R1.4500    
   X92.8984      Y40.8009      R1.4500    
   X92.6701      Y40.5034      R1.4500    
   X92.3726      Y40.2751      R1.4500    
   X92.0261      Y40.1315      R1.4500    
   X91.6542      Y40.0826      R1.4500    
(Pass: 5)
G1   Z-2.500    
G17 G2   X91.2824      Y40.1315      R1.4500    
   X90.9359      Y40.2751      R1.4500    
   X90.6384      Y40.5034      R1.4500    
   X90.4101      Y40.8009      R1.4500    
   X90.2666      Y41.1474      R1.4500    
   X90.2176      Y41.5192      R1.4500    
   X90.2666      Y41.8910      R1.4500    
   X90.4101      Y42.2375      R1.4500    
   X90.6384      Y42.5351      R1.4500    
   X90.9359      Y42.7634      R1.4500    
   X91.2824      Y42.9069      R1.4500    
   X91.6542      Y42.9558      R1.4500    
   X92.0261      Y42.9069      R1.4500    
   X92.3726      Y42.7634      R1.4500    
   X92.6701      Y42.5351      R1.4500    
   X92.8984      Y42.2375      R1.4500    
   X93.0419      Y41.8910      R1.4500    
   X93.0909      Y41.5192      R1.4500    
   X93.0419      Y41.1474      R1.4500    
   X92.8984      Y40.8009      R1.4500    
   X92.6701      Y40.5034      R1.4500    
   X92.3726      Y40.2751      R1.4500    
   X92.0261      Y40.1315      R1.4500    
   X91.6542      Y40.0826      R1.4500    
(Pass: 6)
G1   Z-3.000    
G17 G2   X91.2824      Y40.1315      R1.4500    
   X90.9359      Y40.2751      R1.4500    
   X90.6384      Y40.5034      R1.4500    
   X90.4101      Y40.8009      R1.4500    
   X90.2666      Y41.1474      R1.4500    
   X90.2176      Y41.5192      R1.4500    
   X90.2666      Y41.8910      R1.4500    
   X90.4101      Y42.2375      R1.4500    
   X90.6384      Y42.5351      R1.4500    
   X90.9359      Y42.7634      R1.4500    
   X91.2824      Y42.9069      R1.4500    
   X91.6542      Y42.9558      R1.4500    
   X92.0261      Y42.9069      R1.4500    
   X92.3726      Y42.7634      R1.4500    
   X92.6701      Y42.5351      R1.4500    
   X92.8984      Y42.2375      R1.4500    
   X93.0419      Y41.8910      R1.4500    
   X93.0909      Y41.5192      R1.4500    
   X93.0419      Y41.1474      R1.4500    
   X92.8984      Y40.8009      R1.4500    
   X92.6701      Y40.5034      R1.4500    
   X92.3726      Y40.2751      R1.4500    
   X92.0261      Y40.1315      R1.4500    
   X91.6542      Y40.0826      R1.4500    
(Pass: 7)
G1   Z-3.500    
G17 G2   X91.2824      Y40.1315      R1.4500    
   X90.9359      Y40.2751      R1.4500    
   X90.6384      Y40.5034      R1.4500    
   X90.4101      Y40.8009      R1.4500    
   X90.2666      Y41.1474      R1.4500    
   X90.2176      Y41.5192      R1.4500    
   X90.2666      Y41.8910      R1.4500    
   X90.4101      Y42.2375      R1.4500    
   X90.6384      Y42.5351      R1.4500    
   X90.9359      Y42.7634      R1.4500    
   X91.2824      Y42.9069      R1.4500    
   X91.6542      Y42.9558      R1.4500    
   X92.0261      Y42.9069      R1.4500    
   X92.3726      Y42.7634      R1.4500    
   X92.6701      Y42.5351      R1.4500    
   X92.8984      Y42.2375      R1.4500    
   X93.0419      Y41.8910      R1.4500    
   X93.0909      Y41.5192      R1.4500    
   X93.0419      Y41.1474      R1.4500    
   X92.8984      Y40.8009      R1.4500    
   X92.6701      Y40.5034      R1.4500    
   X92.3726      Y40.2751      R1.4500    
   X92.0261      Y40.1315      R1.4500    
   X91.6542      Y40.0826      R1.4500    
G0   Z15.000    
(Pass: 1)
   X77.586       Y41.419    
G1   Z-0.500     F200 
G17 G2   X77.5279      Y41.1815      R0.9500    
   X77.4107      Y40.9669      R0.9500    
   X77.2420      Y40.7899      R0.9500    
   X77.0332      Y40.6627      R0.9500    
   X76.7986      Y40.5938      R0.9500    
   X76.5541      Y40.5880      R0.9500    
   X76.3165      Y40.6456      R0.9500    
   X76.1019      Y40.7628      R0.9500    
   X75.9250      Y40.9315      R0.9500    
   X75.7977      Y41.1403      R0.9500    
   X75.7288      Y41.3749      R0.9500    
   X75.7230      Y41.6193      R0.9500    
   X75.7806      Y41.8570      R0.9500    
   X75.8978      Y42.0716      R0.9500    
   X76.0665      Y42.2485      R0.9500    
   X76.2753      Y42.3758      R0.9500    
   X76.5099      Y42.4447      R0.9500    
   X76.7544      Y42.4505      R0.9500    
   X76.9920      Y42.3928      R0.9500    
   X77.2066      Y42.2757      R0.9500    
   X77.3835      Y42.1069      R0.9500    
   X77.5108      Y41.8981      R0.9500    
   X77.5797      Y41.6635      R0.9500    
   X77.5855      Y41.4191      R0.9500    
(Pass: 2)
G1   Z-1.000    
G17 G2   X77.5279      Y41.1815      R0.9500    
   X77.4107      Y40.9669      R0.9500    
   X77.2420      Y40.7899      R0.9500    
   X77.0332      Y40.6627      R0.9500    
   X76.7986      Y40.5938      R0.9500    
   X76.5541      Y40.5880      R0.9500    
   X76.3165      Y40.6456      R0.9500    
   X76.1019      Y40.7628      R0.9500    
   X75.9250      Y40.9315      R0.9500    
   X75.7977      Y41.1403      R0.9500    
   X75.7288      Y41.3749      R0.9500    
   X75.7230      Y41.6193      R0.9500    
   X75.7806      Y41.8570      R0.9500    
   X75.8978      Y42.0716      R0.9500    
   X76.0665      Y42.2485      R0.9500    
   X76.2753      Y42.3758      R0.9500    
   X76.5099      Y42.4447      R0.9500    
   X76.7544      Y42.4505      R0.9500    
   X76.9920      Y42.3928      R0.9500    
   X77.2066      Y42.2757      R0.9500    
   X77.3835      Y42.1069      R0.9500    
   X77.5108      Y41.8981      R0.9500    
   X77.5797      Y41.6635      R0.9500    
   X77.5855      Y41.4191      R0.9500    
(Pass: 3)
G1   Z-1.500    
G17 G2   X77.5279      Y41.1815      R0.9500    
   X77.4107      Y40.9669      R0.9500    
   X77.2420      Y40.7899      R0.9500    
   X77.0332      Y40.6627      R0.9500    
   X76.7986      Y40.5938      R0.9500    
   X76.5541      Y40.5880      R0.9500    
   X76.3165      Y40.6456      R0.9500    
   X76.1019      Y40.7628      R0.9500    
   X75.9250      Y40.9315      R0.9500    
   X75.7977      Y41.1403      R0.9500    
   X75.7288      Y41.3749      R0.9500    
   X75.7230      Y41.6193      R0.9500    
   X75.7806      Y41.8570      R0.9500    
   X75.8978      Y42.0716      R0.9500    
   X76.0665      Y42.2485      R0.9500    
   X76.2753      Y42.3758      R0.9500    
   X76.5099      Y42.4447      R0.9500    
   X76.7544      Y42.4505      R0.9500    
   X76.9920      Y42.3928      R0.9500    
   X77.2066      Y42.2757      R0.9500    
   X77.3835      Y42.1069      R0.9500    
   X77.5108      Y41.8981      R0.9500    
   X77.5797      Y41.6635      R0.9500    
   X77.5855      Y41.4191      R0.9500    
(Pass: 4)
G1   Z-2.000    
G17 G2   X77.5279      Y41.1815      R0.9500    
   X77.4107      Y40.9669      R0.9500    
   X77.2420      Y40.7899      R0.9500    
   X77.0332      Y40.6627      R0.9500    
   X76.7986      Y40.5938      R0.9500    
   X76.5541      Y40.5880      R0.9500    
   X76.3165      Y40.6456      R0.9500    
   X76.1019      Y40.7628      R0.9500    
   X75.9250      Y40.9315      R0.9500    
   X75.7977      Y41.1403      R0.9500    
   X75.7288      Y41.3749      R0.9500    
   X75.7230      Y41.6193      R0.9500    
   X75.7806      Y41.8570      R0.9500    
   X75.8978      Y42.0716      R0.9500    
   X76.0665      Y42.2485      R0.9500    
   X76.2753      Y42.3758      R0.9500    
   X76.5099      Y42.4447      R0.9500    
   X76.7544      Y42.4505      R0.9500    
   X76.9920      Y42.3928      R0.9500    
   X77.2066      Y42.2757      R0.9500    
   X77.3835      Y42.1069      R0.9500    
   X77.5108      Y41.8981      R0.9500    
   X77.5797      Y41.6635      R0.9500    
   X77.5855      Y41.4191      R0.9500    
(Pass: 5)
G1   Z-2.500    
G17 G2   X77.5279      Y41.1815      R0.9500    
   X77.4107      Y40.9669      R0.9500    
   X77.2420      Y40.7899      R0.9500    
   X77.0332      Y40.6627      R0.9500    
   X76.7986      Y40.5938      R0.9500    
   X76.5541      Y40.5880      R0.9500    
   X76.3165      Y40.6456      R0.9500    
   X76.1019      Y40.7628      R0.9500    
   X75.9250      Y40.9315      R0.9500    
   X75.7977      Y41.1403      R0.9500    
   X75.7288      Y41.3749      R0.9500    
   X75.7230      Y41.6193      R0.9500    
   X75.7806      Y41.8570      R0.9500    
   X75.8978      Y42.0716      R0.9500    
   X76.0665      Y42.2485      R0.9500    
   X76.2753      Y42.3758      R0.9500    
   X76.5099      Y42.4447      R0.9500    
   X76.7544      Y42.4505      R0.9500    
   X76.9920      Y42.3928      R0.9500    
   X77.2066      Y42.2757      R0.9500    
   X77.3835      Y42.1069      R0.9500    
   X77.5108      Y41.8981      R0.9500    
   X77.5797      Y41.6635      R0.9500    
   X77.5855      Y41.4191      R0.9500    
(Pass: 6)
G1   Z-3.000    
G17 G2   X77.5279      Y41.1815      R0.9500    
   X77.4107      Y40.9669      R0.9500    
   X77.2420      Y40.7899      R0.9500    
   X77.0332      Y40.6627      R0.9500    
   X76.7986      Y40.5938      R0.9500    
   X76.5541      Y40.5880      R0.9500    
   X76.3165      Y40.6456      R0.9500    
   X76.1019      Y40.7628      R0.9500    
   X75.9250      Y40.9315      R0.9500    
   X75.7977      Y41.1403      R0.9500    
   X75.7288      Y41.3749      R0.9500    
   X75.7230      Y41.6193      R0.9500    
   X75.7806      Y41.8570      R0.9500    
   X75.8978      Y42.0716      R0.9500    
   X76.0665      Y42.2485      R0.9500    
   X76.2753      Y42.3758      R0.9500    
   X76.5099      Y42.4447      R0.9500    
   X76.7544      Y42.4505      R0.9500    
   X76.9920      Y42.3928      R0.9500    
   X77.2066      Y42.2757      R0.9500    
   X77.3835      Y42.1069      R0.9500    
   X77.5108      Y41.8981      R0.9500    
   X77.5797      Y41.6635      R0.9500    
   X77.5855      Y41.4191      R0.9500    
(Pass: 7)
G1   Z-3.500    
G17 G2   X77.5279      Y41.1815      R0.9500    
   X77.4107      Y40.9669      R0.9500    
   X77.2420      Y40.7899      R0.9500    
   X77.0332      Y40.6627      R0.9500    
   X76.7986      Y40.5938      R0.9500    
   X76.5541      Y40.5880      R0.9500    
   X76.3165      Y40.6456      R0.9500    
   X76.1019      Y40.7628      R0.9500    
   X75.9250      Y40.9315      R0.9500    
   X75.7977      Y41.1403      R0.9500    
   X75.7288      Y41.3749      R0.9500    
   X75.7230      Y41.6193      R0.9500    
   X75.7806      Y41.8570      R0.9500    
   X75.8978      Y42.0716      R0.9500    
   X76.0665      Y42.2485      R0.9500    
   X76.2753      Y42.3758      R0.9500    
   X76.5099      Y42.4447      R0.9500    
   X76.7544      Y42.4505      R0.9500    
   X76.9920      Y42.3928      R0.9500    
   X77.2066      Y42.2757      R0.9500    
   X77.3835      Y42.1069      R0.9500    
   X77.5108      Y41.8981      R0.9500    
   X77.5797      Y41.6635      R0.9500    
   X77.5855      Y41.4191      R0.9500    
G0   Z15.000    
(Pass: 1)
   X91.705       Y58.069    
G1   Z-0.500     F200 
   X21.604    
G17 G3   X19.4936      Y57.9309      R16.5500   
   X17.3699      Y57.5085      R16.5500   
   X15.3196      Y56.8125      R16.5500   
   X13.3776      Y55.8548      R16.5500   
   X11.5772      Y54.6519      R16.5500   
   X9.9493       Y53.2242      R16.5500   
   X8.5216       Y51.5962      R16.5500   
   X7.3186       Y49.7959      R16.5500   
   X6.3610       Y47.8539      R16.5500   
   X5.6650       Y45.8035      R16.5500   
   X5.2425       Y43.6799      R16.5500   
   X5.1042       Y41.5700      R16.5500   
G1   Y21.468    
G17 G3   X5.2425       Y19.3586      R16.5500   
   X5.6650       Y17.2349      R16.5500   
   X6.3610       Y15.1845      R16.5500   
   X7.3186       Y13.2426      R16.5500   
   X8.5216       Y11.4422      R16.5500   
   X9.9493       Y9.8143       R16.5500   
   X11.5772      Y8.3866       R16.5500   
   X13.3776      Y7.1836       R16.5500   
   X15.3196      Y6.2259       R16.5500   
   X17.3699      Y5.5299       R16.5500   
   X19.4936      Y5.1075       R16.5500   
   X21.6035      Y4.9692       R16.5500   
G1   X91.705    
G17 G3   X93.8149      Y5.1075       R16.5500   
   X95.9386      Y5.5299       R16.5500   
   X97.9889      Y6.2259       R16.5500   
   X99.9309      Y7.1836       R16.5500   
   X101.7313     Y8.3866       R16.5500   
   X103.3592     Y9.8143       R16.5500   
   X104.7869     Y11.4422      R16.5500   
   X105.9899     Y13.2426      R16.5500   
   X106.9475     Y15.1845      R16.5500   
   X107.6435     Y17.2349      R16.5500   
   X108.0660     Y19.3586      R16.5500   
   X108.2042     Y21.4685      R16.5500   
G1   Y41.570    
G17 G3   X108.0660     Y43.6799      R16.5500   
   X107.6435     Y45.8035      R16.5500   
   X106.9475     Y47.8539      R16.5500   
   X105.9899     Y49.7959      R16.5500   
   X104.7869     Y51.5962      R16.5500   
   X103.3592     Y53.2242      R16.5500   
   X101.7313     Y54.6519      R16.5500   
   X99.9309      Y55.8548      R16.5500   
   X97.9889      Y56.8125      R16.5500   
   X95.9386      Y57.5085      R16.5500   
   X93.8149      Y57.9309      R16.5500   
   X91.7050      Y58.0692      R16.5500   
(Pass: 2)
G1   Z-1.000    
   X21.604    
G17 G3   X19.4936      Y57.9309      R16.5500   
   X17.3699      Y57.5085      R16.5500   
   X15.3196      Y56.8125      R16.5500   
   X13.3776      Y55.8548      R16.5500   
   X11.5772      Y54.6519      R16.5500   
   X9.9493       Y53.2242      R16.5500   
   X8.5216       Y51.5962      R16.5500   
   X7.3186       Y49.7959      R16.5500   
   X6.3610       Y47.8539      R16.5500   
   X5.6650       Y45.8035      R16.5500   
   X5.2425       Y43.6799      R16.5500   
   X5.1042       Y41.5700      R16.5500   
G1   Y21.468    
G17 G3   X5.2425       Y19.3586      R16.5500   
   X5.6650       Y17.2349      R16.5500   
   X6.3610       Y15.1845      R16.5500   
   X7.3186       Y13.2426      R16.5500   
   X8.5216       Y11.4422      R16.5500   
   X9.9493       Y9.8143       R16.5500   
   X11.5772      Y8.3866       R16.5500   
   X13.3776      Y7.1836       R16.5500   
   X15.3196      Y6.2259       R16.5500   
   X17.3699      Y5.5299       R16.5500   
   X19.4936      Y5.1075       R16.5500   
   X21.6035      Y4.9692       R16.5500   
G1   X91.705    
G17 G3   X93.8149      Y5.1075       R16.5500   
   X95.9386      Y5.5299       R16.5500   
   X97.9889      Y6.2259       R16.5500   
   X99.9309      Y7.1836       R16.5500   
   X101.7313     Y8.3866       R16.5500   
   X103.3592     Y9.8143       R16.5500   
   X104.7869     Y11.4422      R16.5500   
   X105.9899     Y13.2426      R16.5500   
   X106.9475     Y15.1845      R16.5500   
   X107.6435     Y17.2349      R16.5500   
   X108.0660     Y19.3586      R16.5500   
   X108.2042     Y21.4685      R16.5500   
G1   Y41.570    
G17 G3   X108.0660     Y43.6799      R16.5500   
   X107.6435     Y45.8035      R16.5500   
   X106.9475     Y47.8539      R16.5500   
   X105.9899     Y49.7959      R16.5500   
   X104.7869     Y51.5962      R16.5500   
   X103.3592     Y53.2242      R16.5500   
   X101.7313     Y54.6519      R16.5500   
   X99.9309      Y55.8548      R16.5500   
   X97.9889      Y56.8125      R16.5500   
   X95.9386      Y57.5085      R16.5500   
   X93.8149      Y57.9309      R16.5500   
   X91.7050      Y58.0692      R16.5500   
(Pass: 3)
G1   Z-1.500    
   X21.604    
G17 G3   X19.4936      Y57.9309      R16.5500   
   X17.3699      Y57.5085      R16.5500   
   X15.3196      Y56.8125      R16.5500   
   X13.3776      Y55.8548      R16.5500   
   X11.5772      Y54.6519      R16.5500   
   X9.9493       Y53.2242      R16.5500   
   X8.5216       Y51.5962      R16.5500   
   X7.3186       Y49.7959      R16.5500   
   X6.3610       Y47.8539      R16.5500   
   X5.6650       Y45.8035      R16.5500   
   X5.2425       Y43.6799      R16.5500   
   X5.1042       Y41.5700      R16.5500   
G1   Y21.468    
G17 G3   X5.2425       Y19.3586      R16.5500   
   X5.6650       Y17.2349      R16.5500   
   X6.3610       Y15.1845      R16.5500   
   X7.3186       Y13.2426      R16.5500   
   X8.5216       Y11.4422      R16.5500   
   X9.9493       Y9.8143       R16.5500   
   X11.5772      Y8.3866       R16.5500   
   X13.3776      Y7.1836       R16.5500   
   X15.3196      Y6.2259       R16.5500   
   X17.3699      Y5.5299       R16.5500   
   X19.4936      Y5.1075       R16.5500   
   X21.6035      Y4.9692       R16.5500   
G1   X91.705    
G17 G3   X93.8149      Y5.1075       R16.5500   
   X95.9386      Y5.5299       R16.5500   
   X97.9889      Y6.2259       R16.5500   
   X99.9309      Y7.1836       R16.5500   
   X101.7313     Y8.3866       R16.5500   
   X103.3592     Y9.8143       R16.5500   
   X104.7869     Y11.4422      R16.5500   
   X105.9899     Y13.2426      R16.5500   
   X106.9475     Y15.1845      R16.5500   
   X107.6435     Y17.2349      R16.5500   
   X108.0660     Y19.3586      R16.5500   
   X108.2042     Y21.4685      R16.5500   
G1   Y41.570    
G17 G3   X108.0660     Y43.6799      R16.5500   
   X107.6435     Y45.8035      R16.5500   
   X106.9475     Y47.8539      R16.5500   
   X105.9899     Y49.7959      R16.5500   
   X104.7869     Y51.5962      R16.5500   
   X103.3592     Y53.2242      R16.5500   
   X101.7313     Y54.6519      R16.5500   
   X99.9309      Y55.8548      R16.5500   
   X97.9889      Y56.8125      R16.5500   
   X95.9386      Y57.5085      R16.5500   
   X93.8149      Y57.9309      R16.5500   
   X91.7050      Y58.0692      R16.5500   
(Pass: 4)
G1   Z-2.000    
   X21.604    
G17 G3   X19.4936      Y57.9309      R16.5500   
   X17.3699      Y57.5085      R16.5500   
   X15.3196      Y56.8125      R16.5500   
   X13.3776      Y55.8548      R16.5500   
   X11.5772      Y54.6519      R16.5500   
   X9.9493       Y53.2242      R16.5500   
   X8.5216       Y51.5962      R16.5500   
   X7.3186       Y49.7959      R16.5500   
   X6.3610       Y47.8539      R16.5500   
   X5.6650       Y45.8035      R16.5500   
   X5.2425       Y43.6799      R16.5500   
   X5.1042       Y41.5700      R16.5500   
G1   Y21.468    
G17 G3   X5.2425       Y19.3586      R16.5500   
   X5.6650       Y17.2349      R16.5500   
   X6.3610       Y15.1845      R16.5500   
   X7.3186       Y13.2426      R16.5500   
   X8.5216       Y11.4422      R16.5500   
   X9.9493       Y9.8143       R16.5500   
   X11.5772      Y8.3866       R16.5500   
   X13.3776      Y7.1836       R16.5500   
   X15.3196      Y6.2259       R16.5500   
   X17.3699      Y5.5299       R16.5500   
   X19.4936      Y5.1075       R16.5500   
   X21.6035      Y4.9692       R16.5500   
G1   X91.705    
G17 G3   X93.8149      Y5.1075       R16.5500   
   X95.9386      Y5.5299       R16.5500   
   X97.9889      Y6.2259       R16.5500   
   X99.9309      Y7.1836       R16.5500   
   X101.7313     Y8.3866       R16.5500   
   X103.3592     Y9.8143       R16.5500   
   X104.7869     Y11.4422      R16.5500   
   X105.9899     Y13.2426      R16.5500   
   X106.9475     Y15.1845      R16.5500   
   X107.6435     Y17.2349      R16.5500   
   X108.0660     Y19.3586      R16.5500   
   X108.2042     Y21.4685      R16.5500   
G1   Y41.570    
G17 G3   X108.0660     Y43.6799      R16.5500   
   X107.6435     Y45.8035      R16.5500   
   X106.9475     Y47.8539      R16.5500   
   X105.9899     Y49.7959      R16.5500   
   X104.7869     Y51.5962      R16.5500   
   X103.3592     Y53.2242      R16.5500   
   X101.7313     Y54.6519      R16.5500   
   X99.9309      Y55.8548      R16.5500   
   X97.9889      Y56.8125      R16.5500   
   X95.9386      Y57.5085      R16.5500   
   X93.8149      Y57.9309      R16.5500   
   X91.7050      Y58.0692      R16.5500   
(Pass: 5)
G1   Z-2.500    
   X21.604    
G17 G3   X19.4936      Y57.9309      R16.5500   
   X17.3699      Y57.5085      R16.5500   
   X15.3196      Y56.8125      R16.5500   
   X13.3776      Y55.8548      R16.5500   
   X11.5772      Y54.6519      R16.5500   
   X9.9493       Y53.2242      R16.5500   
   X8.5216       Y51.5962      R16.5500   
   X7.3186       Y49.7959      R16.5500   
   X6.3610       Y47.8539      R16.5500   
   X5.6650       Y45.8035      R16.5500   
   X5.2425       Y43.6799      R16.5500   
   X5.1042       Y41.5700      R16.5500   
G1   Y21.468    
G17 G3   X5.2425       Y19.3586      R16.5500   
   X5.6650       Y17.2349      R16.5500   
   X6.3610       Y15.1845      R16.5500   
   X7.3186       Y13.2426      R16.5500   
   X8.5216       Y11.4422      R16.5500   
   X9.9493       Y9.8143       R16.5500   
   X11.5772      Y8.3866       R16.5500   
   X13.3776      Y7.1836       R16.5500   
   X15.3196      Y6.2259       R16.5500   
   X17.3699      Y5.5299       R16.5500   
   X19.4936      Y5.1075       R16.5500   
   X21.6035      Y4.9692       R16.5500   
G1   X91.705    
G17 G3   X93.8149      Y5.1075       R16.5500   
   X95.9386      Y5.5299       R16.5500   
   X97.9889      Y6.2259       R16.5500   
   X99.9309      Y7.1836       R16.5500   
   X101.7313     Y8.3866       R16.5500   
   X103.3592     Y9.8143       R16.5500   
   X104.7869     Y11.4422      R16.5500   
   X105.9899     Y13.2426      R16.5500   
   X106.9475     Y15.1845      R16.5500   
   X107.6435     Y17.2349      R16.5500   
   X108.0660     Y19.3586      R16.5500   
   X108.2042     Y21.4685      R16.5500   
G1   Y41.570    
G17 G3   X108.0660     Y43.6799      R16.5500   
   X107.6435     Y45.8035      R16.5500   
   X106.9475     Y47.8539      R16.5500   
   X105.9899     Y49.7959      R16.5500   
   X104.7869     Y51.5962      R16.5500   
   X103.3592     Y53.2242      R16.5500   
   X101.7313     Y54.6519      R16.5500   
   X99.9309      Y55.8548      R16.5500   
   X97.9889      Y56.8125      R16.5500   
   X95.9386      Y57.5085      R16.5500   
   X93.8149      Y57.9309      R16.5500   
   X91.7050      Y58.0692      R16.5500   
(Pass: 6)
G1   Z-3.000    
   X21.604    
G17 G3   X19.4936      Y57.9309      R16.5500   
   X17.3699      Y57.5085      R16.5500   
   X15.3196      Y56.8125      R16.5500   
   X13.3776      Y55.8548      R16.5500   
   X11.5772      Y54.6519      R16.5500   
   X9.9493       Y53.2242      R16.5500   
   X8.5216       Y51.5962      R16.5500   
   X7.3186       Y49.7959      R16.5500   
   X6.3610       Y47.8539      R16.5500   
   X5.6650       Y45.8035      R16.5500   
   X5.2425       Y43.6799      R16.5500   
   X5.1042       Y41.5700      R16.5500   
G1   Y21.468    
G17 G3   X5.2425       Y19.3586      R16.5500   
   X5.6650       Y17.2349      R16.5500   
   X6.3610       Y15.1845      R16.5500   
   X7.3186       Y13.2426      R16.5500   
   X8.5216       Y11.4422      R16.5500   
   X9.9493       Y9.8143       R16.5500   
   X11.5772      Y8.3866       R16.5500   
   X13.3776      Y7.1836       R16.5500   
   X15.3196      Y6.2259       R16.5500   
   X17.3699      Y5.5299       R16.5500   
   X19.4936      Y5.1075       R16.5500   
   X21.6035      Y4.9692       R16.5500   
G1   X91.705    
G17 G3   X93.8149      Y5.1075       R16.5500   
   X95.9386      Y5.5299       R16.5500   
   X97.9889      Y6.2259       R16.5500   
   X99.9309      Y7.1836       R16.5500   
   X101.7313     Y8.3866       R16.5500   
   X103.3592     Y9.8143       R16.5500   
   X104.7869     Y11.4422      R16.5500   
   X105.9899     Y13.2426      R16.5500   
   X106.9475     Y15.1845      R16.5500   
   X107.6435     Y17.2349      R16.5500   
   X108.0660     Y19.3586      R16.5500   
   X108.2042     Y21.4685      R16.5500   
G1   Y41.570    
G17 G3   X108.0660     Y43.6799      R16.5500   
   X107.6435     Y45.8035      R16.5500   
   X106.9475     Y47.8539      R16.5500   
   X105.9899     Y49.7959      R16.5500   
   X104.7869     Y51.5962      R16.5500   
   X103.3592     Y53.2242      R16.5500   
   X101.7313     Y54.6519      R16.5500   
   X99.9309      Y55.8548      R16.5500   
   X97.9889      Y56.8125      R16.5500   
   X95.9386      Y57.5085      R16.5500   
   X93.8149      Y57.9309      R16.5500   
   X91.7050      Y58.0692      R16.5500   
(Pass: 7)
G1   Z-3.500    
   X21.604    
G17 G3   X19.4936      Y57.9309      R16.5500   
   X17.3699      Y57.5085      R16.5500   
   X15.3196      Y56.8125      R16.5500   
   X13.3776      Y55.8548      R16.5500   
   X11.5772      Y54.6519      R16.5500   
   X9.9493       Y53.2242      R16.5500   
   X8.5216       Y51.5962      R16.5500   
   X7.3186       Y49.7959      R16.5500   
   X6.3610       Y47.8539      R16.5500   
   X5.6650       Y45.8035      R16.5500   
   X5.2425       Y43.6799      R16.5500   
   X5.1042       Y41.5700      R16.5500   
G1   Y21.468    
G17 G3   X5.2425       Y19.3586      R16.5500   
   X5.6650       Y17.2349      R16.5500   
   X6.3610       Y15.1845      R16.5500   
   X7.3186       Y13.2426      R16.5500   
   X8.5216       Y11.4422      R16.5500   
   X9.9493       Y9.8143       R16.5500   
   X11.5772      Y8.3866       R16.5500   
   X13.3776      Y7.1836       R16.5500   
   X15.3196      Y6.2259       R16.5500   
   X17.3699      Y5.5299       R16.5500   
   X19.4936      Y5.1075       R16.5500   
   X21.6035      Y4.9692       R16.5500   
G1   X91.705    
G17 G3   X93.8149      Y5.1075       R16.5500   
   X95.9386      Y5.5299       R16.5500   
   X97.9889      Y6.2259       R16.5500   
   X99.9309      Y7.1836       R16.5500   
   X101.7313     Y8.3866       R16.5500   
   X103.3592     Y9.8143       R16.5500   
   X104.7869     Y11.4422      R16.5500   
   X105.9899     Y13.2426      R16.5500   
   X106.9475     Y15.1845      R16.5500   
   X107.6435     Y17.2349      R16.5500   
   X108.0660     Y19.3586      R16.5500   
   X108.2042     Y21.4685      R16.5500   
G1   Y41.570    
G17 G3   X108.0660     Y43.6799      R16.5500   
   X107.6435     Y45.8035      R16.5500   
   X106.9475     Y47.8539      R16.5500   
   X105.9899     Y49.7959      R16.5500   
   X104.7869     Y51.5962      R16.5500   
   X103.3592     Y53.2242      R16.5500   
   X101.7313     Y54.6519      R16.5500   
   X99.9309      Y55.8548      R16.5500   
   X97.9889      Y56.8125      R16.5500   
   X95.9386      Y57.5085      R16.5500   
   X93.8149      Y57.9309      R16.5500   
   X91.7050      Y58.0692      R16.5500   
G0   Z15.000    
G0 X0 Y0 (home)
M05
M30
%
