%
(Generated by SketchUcam {1.2})
(File: Router Control Board.skp)
(Bit diameter: 3.0mm)
(Feed rate: 400.0mm/min)
(Plunge Feed rate: 500.0mm/min)
(Material Thickness: 6.5mm)
(Material length: 304.0mm X width: 304.0mm)
(Overhead Gantry: true)
(Retract feed rate NOT limited to plunge feed rate)
(Multipass enabled, Depth = 0.5mm)
(Optimization is ON)
(www.PhlatBoyz.com)
G90 G21 G49 
M3 S10000
G0   Z10.000    
(Pass: 1)
   X180.918      Y66.269    
G1   Z-0.500     F500 
   X180.864      Y66.521     F400 
   Y66.778    
   X180.956      Y67.023    
   X181.096      Y67.240    
   X181.287      Y67.412    
   X181.516      Y67.530    
   X181.768      Y67.584    
   X182.026   
   X182.271      Y67.492    
   X182.487      Y67.352    
   X182.660      Y67.161    
   X182.778      Y66.931    
   X182.832      Y66.679    
   Y66.422    
   X182.739      Y66.177    
   X182.600      Y65.960    
   X182.408      Y65.788    
   X182.179      Y65.670    
   X181.927      Y65.616    
   X181.670   
   X181.425      Y65.708    
   X181.208      Y65.848    
   X181.035      Y66.039    
   X180.918      Y66.269    
(Pass: 2)
   Z-1.000     F500 
   X180.864      Y66.521     F400 
   Y66.778    
   X180.956      Y67.023    
   X181.096      Y67.240    
   X181.287      Y67.412    
   X181.516      Y67.530    
   X181.768      Y67.584    
   X182.026   
   X182.271      Y67.492    
   X182.487      Y67.352    
   X182.660      Y67.161    
   X182.778      Y66.931    
   X182.832      Y66.679    
   Y66.422    
   X182.739      Y66.177    
   X182.600      Y65.960    
   X182.408      Y65.788    
   X182.179      Y65.670    
   X181.927      Y65.616    
   X181.670   
   X181.425      Y65.708    
   X181.208      Y65.848    
   X181.035      Y66.039    
   X180.918      Y66.269    
(Pass: 3)
   Z-1.500     F500 
   X180.864      Y66.521     F400 
   Y66.778    
   X180.956      Y67.023    
   X181.096      Y67.240    
   X181.287      Y67.412    
   X181.516      Y67.530    
   X181.768      Y67.584    
   X182.026   
   X182.271      Y67.492    
   X182.487      Y67.352    
   X182.660      Y67.161    
   X182.778      Y66.931    
   X182.832      Y66.679    
   Y66.422    
   X182.739      Y66.177    
   X182.600      Y65.960    
   X182.408      Y65.788    
   X182.179      Y65.670    
   X181.927      Y65.616    
   X181.670   
   X181.425      Y65.708    
   X181.208      Y65.848    
   X181.035      Y66.039    
   X180.918      Y66.269    
(Pass: 4)
   Z-2.000     F500 
   X180.864      Y66.521     F400 
   Y66.778    
   X180.956      Y67.023    
   X181.096      Y67.240    
   X181.287      Y67.412    
   X181.516      Y67.530    
   X181.768      Y67.584    
   X182.026   
   X182.271      Y67.492    
   X182.487      Y67.352    
   X182.660      Y67.161    
   X182.778      Y66.931    
   X182.832      Y66.679    
   Y66.422    
   X182.739      Y66.177    
   X182.600      Y65.960    
   X182.408      Y65.788    
   X182.179      Y65.670    
   X181.927      Y65.616    
   X181.670   
   X181.425      Y65.708    
   X181.208      Y65.848    
   X181.035      Y66.039    
   X180.918      Y66.269    
(Pass: 5)
   Z-2.500     F500 
   X180.864      Y66.521     F400 
   Y66.778    
   X180.956      Y67.023    
   X181.096      Y67.240    
   X181.287      Y67.412    
   X181.516      Y67.530    
   X181.768      Y67.584    
   X182.026   
   X182.271      Y67.492    
   X182.487      Y67.352    
   X182.660      Y67.161    
   X182.778      Y66.931    
   X182.832      Y66.679    
   Y66.422    
   X182.739      Y66.177    
   X182.600      Y65.960    
   X182.408      Y65.788    
   X182.179      Y65.670    
   X181.927      Y65.616    
   X181.670   
   X181.425      Y65.708    
   X181.208      Y65.848    
   X181.035      Y66.039    
   X180.918      Y66.269    
(Pass: 6)
   Z-3.000     F500 
   X180.864      Y66.521     F400 
   Y66.778    
   X180.956      Y67.023    
   X181.096      Y67.240    
   X181.287      Y67.412    
   X181.516      Y67.530    
   X181.768      Y67.584    
   X182.026   
   X182.271      Y67.492    
   X182.487      Y67.352    
   X182.660      Y67.161    
   X182.778      Y66.931    
   X182.832      Y66.679    
   Y66.422    
   X182.739      Y66.177    
   X182.600      Y65.960    
   X182.408      Y65.788    
   X182.179      Y65.670    
   X181.927      Y65.616    
   X181.670   
   X181.425      Y65.708    
   X181.208      Y65.848    
   X181.035      Y66.039    
   X180.918      Y66.269    
(Pass: 7)
   Z-3.500     F500 
   X180.864      Y66.521     F400 
   Y66.778    
   X180.956      Y67.023    
   X181.096      Y67.240    
   X181.287      Y67.412    
   X181.516      Y67.530    
   X181.768      Y67.584    
   X182.026   
   X182.271      Y67.492    
   X182.487      Y67.352    
   X182.660      Y67.161    
   X182.778      Y66.931    
   X182.832      Y66.679    
   Y66.422    
   X182.739      Y66.177    
   X182.600      Y65.960    
   X182.408      Y65.788    
   X182.179      Y65.670    
   X181.927      Y65.616    
   X181.670   
   X181.425      Y65.708    
   X181.208      Y65.848    
   X181.035      Y66.039    
   X180.918      Y66.269    
(Pass: 8)
   Z-4.000     F500 
   X180.864      Y66.521     F400 
   Y66.778    
   X180.956      Y67.023    
   X181.096      Y67.240    
   X181.287      Y67.412    
   X181.516      Y67.530    
   X181.768      Y67.584    
   X182.026   
   X182.271      Y67.492    
   X182.487      Y67.352    
   X182.660      Y67.161    
   X182.778      Y66.931    
   X182.832      Y66.679    
   Y66.422    
   X182.739      Y66.177    
   X182.600      Y65.960    
   X182.408      Y65.788    
   X182.179      Y65.670    
   X181.927      Y65.616    
   X181.670   
   X181.425      Y65.708    
   X181.208      Y65.848    
   X181.035      Y66.039    
   X180.918      Y66.269    
(Pass: 9)
   Z-4.500     F500 
   X180.864      Y66.521     F400 
   Y66.778    
   X180.956      Y67.023    
   X181.096      Y67.240    
   X181.287      Y67.412    
   X181.516      Y67.530    
   X181.768      Y67.584    
   X182.026   
   X182.271      Y67.492    
   X182.487      Y67.352    
   X182.660      Y67.161    
   X182.778      Y66.931    
   X182.832      Y66.679    
   Y66.422    
   X182.739      Y66.177    
   X182.600      Y65.960    
   X182.408      Y65.788    
   X182.179      Y65.670    
   X181.927      Y65.616    
   X181.670   
   X181.425      Y65.708    
   X181.208      Y65.848    
   X181.035      Y66.039    
   X180.918      Y66.269    
(Pass: 10)
   Z-5.000     F500 
   X180.864      Y66.521     F400 
   Y66.778    
   X180.956      Y67.023    
   X181.096      Y67.240    
   X181.287      Y67.412    
   X181.516      Y67.530    
   X181.768      Y67.584    
   X182.026   
   X182.271      Y67.492    
   X182.487      Y67.352    
   X182.660      Y67.161    
   X182.778      Y66.931    
   X182.832      Y66.679    
   Y66.422    
   X182.739      Y66.177    
   X182.600      Y65.960    
   X182.408      Y65.788    
   X182.179      Y65.670    
   X181.927      Y65.616    
   X181.670   
   X181.425      Y65.708    
   X181.208      Y65.848    
   X181.035      Y66.039    
   X180.918      Y66.269    
(Pass: 11)
   Z-5.500     F500 
   X180.864      Y66.521     F400 
   Y66.778    
   X180.956      Y67.023    
   X181.096      Y67.240    
   X181.287      Y67.412    
   X181.516      Y67.530    
   X181.768      Y67.584    
   X182.026   
   X182.271      Y67.492    
   X182.487      Y67.352    
   X182.660      Y67.161    
   X182.778      Y66.931    
   X182.832      Y66.679    
   Y66.422    
   X182.739      Y66.177    
   X182.600      Y65.960    
   X182.408      Y65.788    
   X182.179      Y65.670    
   X181.927      Y65.616    
   X181.670   
   X181.425      Y65.708    
   X181.208      Y65.848    
   X181.035      Y66.039    
   X180.918      Y66.269    
(Pass: 12)
   Z-6.000     F500 
   X180.864      Y66.521     F400 
   Y66.778    
   X180.956      Y67.023    
   X181.096      Y67.240    
   X181.287      Y67.412    
   X181.516      Y67.530    
   X181.768      Y67.584    
   X182.026   
   X182.271      Y67.492    
   X182.487      Y67.352    
   X182.660      Y67.161    
   X182.778      Y66.931    
   X182.832      Y66.679    
   Y66.422    
   X182.739      Y66.177    
   X182.600      Y65.960    
   X182.408      Y65.788    
   X182.179      Y65.670    
   X181.927      Y65.616    
   X181.670   
   X181.425      Y65.708    
   X181.208      Y65.848    
   X181.035      Y66.039    
   X180.918      Y66.269    
(Pass: 13)
   Z-6.500     F500 
   X180.864      Y66.521     F400 
   Y66.778    
   X180.956      Y67.023    
   X181.096      Y67.240    
   X181.287      Y67.412    
   X181.516      Y67.530    
   X181.768      Y67.584    
   X182.026   
   X182.271      Y67.492    
   X182.487      Y67.352    
   X182.660      Y67.161    
   X182.778      Y66.931    
   X182.832      Y66.679    
   Y66.422    
   X182.739      Y66.177    
   X182.600      Y65.960    
   X182.408      Y65.788    
   X182.179      Y65.670    
   X181.927      Y65.616    
   X181.670   
   X181.425      Y65.708    
   X181.208      Y65.848    
   X181.035      Y66.039    
   X180.918      Y66.269    
G0   Z10.000    
(Pass: 1)
   X181.844      Y105.613   
G1   Z-0.500     F500 
   X181.589      Y105.647    F400 
   X181.351      Y105.747   
   X181.147      Y105.904   
   X180.991      Y106.109   
   X180.893      Y106.348   
   X180.861      Y106.603   
   X180.895      Y106.859   
   X180.995      Y107.096   
   X181.152      Y107.300   
   X181.357      Y107.456   
   X181.595      Y107.554   
   X181.851      Y107.587   
   X182.106      Y107.553   
   X182.344      Y107.453   
   X182.548      Y107.296   
   X182.704      Y107.091   
   X182.802      Y106.852   
   X182.835      Y106.597   
   X182.800      Y106.341   
   X182.701      Y106.104   
   X182.543      Y105.900   
   X182.338      Y105.744   
   X182.100      Y105.646   
   X181.844      Y105.613   
(Pass: 2)
   Z-1.000     F500 
   X181.589      Y105.647    F400 
   X181.351      Y105.747   
   X181.147      Y105.904   
   X180.991      Y106.109   
   X180.893      Y106.348   
   X180.861      Y106.603   
   X180.895      Y106.859   
   X180.995      Y107.096   
   X181.152      Y107.300   
   X181.357      Y107.456   
   X181.595      Y107.554   
   X181.851      Y107.587   
   X182.106      Y107.553   
   X182.344      Y107.453   
   X182.548      Y107.296   
   X182.704      Y107.091   
   X182.802      Y106.852   
   X182.835      Y106.597   
   X182.800      Y106.341   
   X182.701      Y106.104   
   X182.543      Y105.900   
   X182.338      Y105.744   
   X182.100      Y105.646   
   X181.844      Y105.613   
(Pass: 3)
   Z-1.500     F500 
   X181.589      Y105.647    F400 
   X181.351      Y105.747   
   X181.147      Y105.904   
   X180.991      Y106.109   
   X180.893      Y106.348   
   X180.861      Y106.603   
   X180.895      Y106.859   
   X180.995      Y107.096   
   X181.152      Y107.300   
   X181.357      Y107.456   
   X181.595      Y107.554   
   X181.851      Y107.587   
   X182.106      Y107.553   
   X182.344      Y107.453   
   X182.548      Y107.296   
   X182.704      Y107.091   
   X182.802      Y106.852   
   X182.835      Y106.597   
   X182.800      Y106.341   
   X182.701      Y106.104   
   X182.543      Y105.900   
   X182.338      Y105.744   
   X182.100      Y105.646   
   X181.844      Y105.613   
(Pass: 4)
   Z-2.000     F500 
   X181.589      Y105.647    F400 
   X181.351      Y105.747   
   X181.147      Y105.904   
   X180.991      Y106.109   
   X180.893      Y106.348   
   X180.861      Y106.603   
   X180.895      Y106.859   
   X180.995      Y107.096   
   X181.152      Y107.300   
   X181.357      Y107.456   
   X181.595      Y107.554   
   X181.851      Y107.587   
   X182.106      Y107.553   
   X182.344      Y107.453   
   X182.548      Y107.296   
   X182.704      Y107.091   
   X182.802      Y106.852   
   X182.835      Y106.597   
   X182.800      Y106.341   
   X182.701      Y106.104   
   X182.543      Y105.900   
   X182.338      Y105.744   
   X182.100      Y105.646   
   X181.844      Y105.613   
(Pass: 5)
   Z-2.500     F500 
   X181.589      Y105.647    F400 
   X181.351      Y105.747   
   X181.147      Y105.904   
   X180.991      Y106.109   
   X180.893      Y106.348   
   X180.861      Y106.603   
   X180.895      Y106.859   
   X180.995      Y107.096   
   X181.152      Y107.300   
   X181.357      Y107.456   
   X181.595      Y107.554   
   X181.851      Y107.587   
   X182.106      Y107.553   
   X182.344      Y107.453   
   X182.548      Y107.296   
   X182.704      Y107.091   
   X182.802      Y106.852   
   X182.835      Y106.597   
   X182.800      Y106.341   
   X182.701      Y106.104   
   X182.543      Y105.900   
   X182.338      Y105.744   
   X182.100      Y105.646   
   X181.844      Y105.613   
(Pass: 6)
   Z-3.000     F500 
   X181.589      Y105.647    F400 
   X181.351      Y105.747   
   X181.147      Y105.904   
   X180.991      Y106.109   
   X180.893      Y106.348   
   X180.861      Y106.603   
   X180.895      Y106.859   
   X180.995      Y107.096   
   X181.152      Y107.300   
   X181.357      Y107.456   
   X181.595      Y107.554   
   X181.851      Y107.587   
   X182.106      Y107.553   
   X182.344      Y107.453   
   X182.548      Y107.296   
   X182.704      Y107.091   
   X182.802      Y106.852   
   X182.835      Y106.597   
   X182.800      Y106.341   
   X182.701      Y106.104   
   X182.543      Y105.900   
   X182.338      Y105.744   
   X182.100      Y105.646   
   X181.844      Y105.613   
(Pass: 7)
   Z-3.500     F500 
   X181.589      Y105.647    F400 
   X181.351      Y105.747   
   X181.147      Y105.904   
   X180.991      Y106.109   
   X180.893      Y106.348   
   X180.861      Y106.603   
   X180.895      Y106.859   
   X180.995      Y107.096   
   X181.152      Y107.300   
   X181.357      Y107.456   
   X181.595      Y107.554   
   X181.851      Y107.587   
   X182.106      Y107.553   
   X182.344      Y107.453   
   X182.548      Y107.296   
   X182.704      Y107.091   
   X182.802      Y106.852   
   X182.835      Y106.597   
   X182.800      Y106.341   
   X182.701      Y106.104   
   X182.543      Y105.900   
   X182.338      Y105.744   
   X182.100      Y105.646   
   X181.844      Y105.613   
(Pass: 8)
   Z-4.000     F500 
   X181.589      Y105.647    F400 
   X181.351      Y105.747   
   X181.147      Y105.904   
   X180.991      Y106.109   
   X180.893      Y106.348   
   X180.861      Y106.603   
   X180.895      Y106.859   
   X180.995      Y107.096   
   X181.152      Y107.300   
   X181.357      Y107.456   
   X181.595      Y107.554   
   X181.851      Y107.587   
   X182.106      Y107.553   
   X182.344      Y107.453   
   X182.548      Y107.296   
   X182.704      Y107.091   
   X182.802      Y106.852   
   X182.835      Y106.597   
   X182.800      Y106.341   
   X182.701      Y106.104   
   X182.543      Y105.900   
   X182.338      Y105.744   
   X182.100      Y105.646   
   X181.844      Y105.613   
(Pass: 9)
   Z-4.500     F500 
   X181.589      Y105.647    F400 
   X181.351      Y105.747   
   X181.147      Y105.904   
   X180.991      Y106.109   
   X180.893      Y106.348   
   X180.861      Y106.603   
   X180.895      Y106.859   
   X180.995      Y107.096   
   X181.152      Y107.300   
   X181.357      Y107.456   
   X181.595      Y107.554   
   X181.851      Y107.587   
   X182.106      Y107.553   
   X182.344      Y107.453   
   X182.548      Y107.296   
   X182.704      Y107.091   
   X182.802      Y106.852   
   X182.835      Y106.597   
   X182.800      Y106.341   
   X182.701      Y106.104   
   X182.543      Y105.900   
   X182.338      Y105.744   
   X182.100      Y105.646   
   X181.844      Y105.613   
(Pass: 10)
   Z-5.000     F500 
   X181.589      Y105.647    F400 
   X181.351      Y105.747   
   X181.147      Y105.904   
   X180.991      Y106.109   
   X180.893      Y106.348   
   X180.861      Y106.603   
   X180.895      Y106.859   
   X180.995      Y107.096   
   X181.152      Y107.300   
   X181.357      Y107.456   
   X181.595      Y107.554   
   X181.851      Y107.587   
   X182.106      Y107.553   
   X182.344      Y107.453   
   X182.548      Y107.296   
   X182.704      Y107.091   
   X182.802      Y106.852   
   X182.835      Y106.597   
   X182.800      Y106.341   
   X182.701      Y106.104   
   X182.543      Y105.900   
   X182.338      Y105.744   
   X182.100      Y105.646   
   X181.844      Y105.613   
(Pass: 11)
   Z-5.500     F500 
   X181.589      Y105.647    F400 
   X181.351      Y105.747   
   X181.147      Y105.904   
   X180.991      Y106.109   
   X180.893      Y106.348   
   X180.861      Y106.603   
   X180.895      Y106.859   
   X180.995      Y107.096   
   X181.152      Y107.300   
   X181.357      Y107.456   
   X181.595      Y107.554   
   X181.851      Y107.587   
   X182.106      Y107.553   
   X182.344      Y107.453   
   X182.548      Y107.296   
   X182.704      Y107.091   
   X182.802      Y106.852   
   X182.835      Y106.597   
   X182.800      Y106.341   
   X182.701      Y106.104   
   X182.543      Y105.900   
   X182.338      Y105.744   
   X182.100      Y105.646   
   X181.844      Y105.613   
(Pass: 12)
   Z-6.000     F500 
   X181.589      Y105.647    F400 
   X181.351      Y105.747   
   X181.147      Y105.904   
   X180.991      Y106.109   
   X180.893      Y106.348   
   X180.861      Y106.603   
   X180.895      Y106.859   
   X180.995      Y107.096   
   X181.152      Y107.300   
   X181.357      Y107.456   
   X181.595      Y107.554   
   X181.851      Y107.587   
   X182.106      Y107.553   
   X182.344      Y107.453   
   X182.548      Y107.296   
   X182.704      Y107.091   
   X182.802      Y106.852   
   X182.835      Y106.597   
   X182.800      Y106.341   
   X182.701      Y106.104   
   X182.543      Y105.900   
   X182.338      Y105.744   
   X182.100      Y105.646   
   X181.844      Y105.613   
(Pass: 13)
   Z-6.500     F500 
   X181.589      Y105.647    F400 
   X181.351      Y105.747   
   X181.147      Y105.904   
   X180.991      Y106.109   
   X180.893      Y106.348   
   X180.861      Y106.603   
   X180.895      Y106.859   
   X180.995      Y107.096   
   X181.152      Y107.300   
   X181.357      Y107.456   
   X181.595      Y107.554   
   X181.851      Y107.587   
   X182.106      Y107.553   
   X182.344      Y107.453   
   X182.548      Y107.296   
   X182.704      Y107.091   
   X182.802      Y106.852   
   X182.835      Y106.597   
   X182.800      Y106.341   
   X182.701      Y106.104   
   X182.543      Y105.900   
   X182.338      Y105.744   
   X182.100      Y105.646   
   X181.844      Y105.613   
G0   Z10.000    
(Pass: 1)
   X211.553      Y126.111   
G1   Z-0.500     F500 
G17 G2   X211.4552     Y126.3497     R1.0000     F400 
   X211.4230     Y126.6053     R1.0000    
   X211.4580     Y126.8606     R1.0000    
   X211.5579     Y127.0982     R1.0000    
   X211.7158     Y127.3017     R1.0000    
   X211.9211     Y127.4575     R1.0000    
   X212.1597     Y127.5548     R1.0000    
   X212.4153     Y127.5870     R1.0000    
   X212.6706     Y127.5520     R1.0000    
   X212.9082     Y127.4521     R1.0000    
   X213.1117     Y127.2942     R1.0000    
   X213.2675     Y127.0889     R1.0000    
   X213.3648     Y126.8503     R1.0000    
   X213.3970     Y126.5947     R1.0000    
   X213.3620     Y126.3394     R1.0000    
   X213.2621     Y126.1018     R1.0000    
   X213.1042     Y125.8983     R1.0000    
   X212.8989     Y125.7425     R1.0000    
   X212.6603     Y125.6452     R1.0000    
   X212.4047     Y125.6130     R1.0000    
   X212.1494     Y125.6480     R1.0000    
   X211.9118     Y125.7479     R1.0000    
   X211.7083     Y125.9058     R1.0000    
   X211.5525     Y126.1111     R1.0000    
(Pass: 2)
G1   Z-1.000     F500 
G17 G2   X211.4552     Y126.3497     R1.0000     F400 
   X211.4230     Y126.6053     R1.0000    
   X211.4580     Y126.8606     R1.0000    
   X211.5579     Y127.0982     R1.0000    
   X211.7158     Y127.3017     R1.0000    
   X211.9211     Y127.4575     R1.0000    
   X212.1597     Y127.5548     R1.0000    
   X212.4153     Y127.5870     R1.0000    
   X212.6706     Y127.5520     R1.0000    
   X212.9082     Y127.4521     R1.0000    
   X213.1117     Y127.2942     R1.0000    
   X213.2675     Y127.0889     R1.0000    
   X213.3648     Y126.8503     R1.0000    
   X213.3970     Y126.5947     R1.0000    
   X213.3620     Y126.3394     R1.0000    
   X213.2621     Y126.1018     R1.0000    
   X213.1042     Y125.8983     R1.0000    
   X212.8989     Y125.7425     R1.0000    
   X212.6603     Y125.6452     R1.0000    
   X212.4047     Y125.6130     R1.0000    
   X212.1494     Y125.6480     R1.0000    
   X211.9118     Y125.7479     R1.0000    
   X211.7083     Y125.9058     R1.0000    
   X211.5525     Y126.1111     R1.0000    
(Pass: 3)
G1   Z-1.500     F500 
G17 G2   X211.4552     Y126.3497     R1.0000     F400 
   X211.4230     Y126.6053     R1.0000    
   X211.4580     Y126.8606     R1.0000    
   X211.5579     Y127.0982     R1.0000    
   X211.7158     Y127.3017     R1.0000    
   X211.9211     Y127.4575     R1.0000    
   X212.1597     Y127.5548     R1.0000    
   X212.4153     Y127.5870     R1.0000    
   X212.6706     Y127.5520     R1.0000    
   X212.9082     Y127.4521     R1.0000    
   X213.1117     Y127.2942     R1.0000    
   X213.2675     Y127.0889     R1.0000    
   X213.3648     Y126.8503     R1.0000    
   X213.3970     Y126.5947     R1.0000    
   X213.3620     Y126.3394     R1.0000    
   X213.2621     Y126.1018     R1.0000    
   X213.1042     Y125.8983     R1.0000    
   X212.8989     Y125.7425     R1.0000    
   X212.6603     Y125.6452     R1.0000    
   X212.4047     Y125.6130     R1.0000    
   X212.1494     Y125.6480     R1.0000    
   X211.9118     Y125.7479     R1.0000    
   X211.7083     Y125.9058     R1.0000    
   X211.5525     Y126.1111     R1.0000    
(Pass: 4)
G1   Z-2.000     F500 
G17 G2   X211.4552     Y126.3497     R1.0000     F400 
   X211.4230     Y126.6053     R1.0000    
   X211.4580     Y126.8606     R1.0000    
   X211.5579     Y127.0982     R1.0000    
   X211.7158     Y127.3017     R1.0000    
   X211.9211     Y127.4575     R1.0000    
   X212.1597     Y127.5548     R1.0000    
   X212.4153     Y127.5870     R1.0000    
   X212.6706     Y127.5520     R1.0000    
   X212.9082     Y127.4521     R1.0000    
   X213.1117     Y127.2942     R1.0000    
   X213.2675     Y127.0889     R1.0000    
   X213.3648     Y126.8503     R1.0000    
   X213.3970     Y126.5947     R1.0000    
   X213.3620     Y126.3394     R1.0000    
   X213.2621     Y126.1018     R1.0000    
   X213.1042     Y125.8983     R1.0000    
   X212.8989     Y125.7425     R1.0000    
   X212.6603     Y125.6452     R1.0000    
   X212.4047     Y125.6130     R1.0000    
   X212.1494     Y125.6480     R1.0000    
   X211.9118     Y125.7479     R1.0000    
   X211.7083     Y125.9058     R1.0000    
   X211.5525     Y126.1111     R1.0000    
(Pass: 5)
G1   Z-2.500     F500 
G17 G2   X211.4552     Y126.3497     R1.0000     F400 
   X211.4230     Y126.6053     R1.0000    
   X211.4580     Y126.8606     R1.0000    
   X211.5579     Y127.0982     R1.0000    
   X211.7158     Y127.3017     R1.0000    
   X211.9211     Y127.4575     R1.0000    
   X212.1597     Y127.5548     R1.0000    
   X212.4153     Y127.5870     R1.0000    
   X212.6706     Y127.5520     R1.0000    
   X212.9082     Y127.4521     R1.0000    
   X213.1117     Y127.2942     R1.0000    
   X213.2675     Y127.0889     R1.0000    
   X213.3648     Y126.8503     R1.0000    
   X213.3970     Y126.5947     R1.0000    
   X213.3620     Y126.3394     R1.0000    
   X213.2621     Y126.1018     R1.0000    
   X213.1042     Y125.8983     R1.0000    
   X212.8989     Y125.7425     R1.0000    
   X212.6603     Y125.6452     R1.0000    
   X212.4047     Y125.6130     R1.0000    
   X212.1494     Y125.6480     R1.0000    
   X211.9118     Y125.7479     R1.0000    
   X211.7083     Y125.9058     R1.0000    
   X211.5525     Y126.1111     R1.0000    
(Pass: 6)
G1   Z-3.000     F500 
G17 G2   X211.4552     Y126.3497     R1.0000     F400 
   X211.4230     Y126.6053     R1.0000    
   X211.4580     Y126.8606     R1.0000    
   X211.5579     Y127.0982     R1.0000    
   X211.7158     Y127.3017     R1.0000    
   X211.9211     Y127.4575     R1.0000    
   X212.1597     Y127.5548     R1.0000    
   X212.4153     Y127.5870     R1.0000    
   X212.6706     Y127.5520     R1.0000    
   X212.9082     Y127.4521     R1.0000    
   X213.1117     Y127.2942     R1.0000    
   X213.2675     Y127.0889     R1.0000    
   X213.3648     Y126.8503     R1.0000    
   X213.3970     Y126.5947     R1.0000    
   X213.3620     Y126.3394     R1.0000    
   X213.2621     Y126.1018     R1.0000    
   X213.1042     Y125.8983     R1.0000    
   X212.8989     Y125.7425     R1.0000    
   X212.6603     Y125.6452     R1.0000    
   X212.4047     Y125.6130     R1.0000    
   X212.1494     Y125.6480     R1.0000    
   X211.9118     Y125.7479     R1.0000    
   X211.7083     Y125.9058     R1.0000    
   X211.5525     Y126.1111     R1.0000    
(Pass: 7)
G1   Z-3.500     F500 
G17 G2   X211.4552     Y126.3497     R1.0000     F400 
   X211.4230     Y126.6053     R1.0000    
   X211.4580     Y126.8606     R1.0000    
   X211.5579     Y127.0982     R1.0000    
   X211.7158     Y127.3017     R1.0000    
   X211.9211     Y127.4575     R1.0000    
   X212.1597     Y127.5548     R1.0000    
   X212.4153     Y127.5870     R1.0000    
   X212.6706     Y127.5520     R1.0000    
   X212.9082     Y127.4521     R1.0000    
   X213.1117     Y127.2942     R1.0000    
   X213.2675     Y127.0889     R1.0000    
   X213.3648     Y126.8503     R1.0000    
   X213.3970     Y126.5947     R1.0000    
   X213.3620     Y126.3394     R1.0000    
   X213.2621     Y126.1018     R1.0000    
   X213.1042     Y125.8983     R1.0000    
   X212.8989     Y125.7425     R1.0000    
   X212.6603     Y125.6452     R1.0000    
   X212.4047     Y125.6130     R1.0000    
   X212.1494     Y125.6480     R1.0000    
   X211.9118     Y125.7479     R1.0000    
   X211.7083     Y125.9058     R1.0000    
   X211.5525     Y126.1111     R1.0000    
(Pass: 8)
G1   Z-4.000     F500 
G17 G2   X211.4552     Y126.3497     R1.0000     F400 
   X211.4230     Y126.6053     R1.0000    
   X211.4580     Y126.8606     R1.0000    
   X211.5579     Y127.0982     R1.0000    
   X211.7158     Y127.3017     R1.0000    
   X211.9211     Y127.4575     R1.0000    
   X212.1597     Y127.5548     R1.0000    
   X212.4153     Y127.5870     R1.0000    
   X212.6706     Y127.5520     R1.0000    
   X212.9082     Y127.4521     R1.0000    
   X213.1117     Y127.2942     R1.0000    
   X213.2675     Y127.0889     R1.0000    
   X213.3648     Y126.8503     R1.0000    
   X213.3970     Y126.5947     R1.0000    
   X213.3620     Y126.3394     R1.0000    
   X213.2621     Y126.1018     R1.0000    
   X213.1042     Y125.8983     R1.0000    
   X212.8989     Y125.7425     R1.0000    
   X212.6603     Y125.6452     R1.0000    
   X212.4047     Y125.6130     R1.0000    
   X212.1494     Y125.6480     R1.0000    
   X211.9118     Y125.7479     R1.0000    
   X211.7083     Y125.9058     R1.0000    
   X211.5525     Y126.1111     R1.0000    
(Pass: 9)
G1   Z-4.500     F500 
G17 G2   X211.4552     Y126.3497     R1.0000     F400 
   X211.4230     Y126.6053     R1.0000    
   X211.4580     Y126.8606     R1.0000    
   X211.5579     Y127.0982     R1.0000    
   X211.7158     Y127.3017     R1.0000    
   X211.9211     Y127.4575     R1.0000    
   X212.1597     Y127.5548     R1.0000    
   X212.4153     Y127.5870     R1.0000    
   X212.6706     Y127.5520     R1.0000    
   X212.9082     Y127.4521     R1.0000    
   X213.1117     Y127.2942     R1.0000    
   X213.2675     Y127.0889     R1.0000    
   X213.3648     Y126.8503     R1.0000    
   X213.3970     Y126.5947     R1.0000    
   X213.3620     Y126.3394     R1.0000    
   X213.2621     Y126.1018     R1.0000    
   X213.1042     Y125.8983     R1.0000    
   X212.8989     Y125.7425     R1.0000    
   X212.6603     Y125.6452     R1.0000    
   X212.4047     Y125.6130     R1.0000    
   X212.1494     Y125.6480     R1.0000    
   X211.9118     Y125.7479     R1.0000    
   X211.7083     Y125.9058     R1.0000    
   X211.5525     Y126.1111     R1.0000    
(Pass: 10)
G1   Z-5.000     F500 
G17 G2   X211.4552     Y126.3497     R1.0000     F400 
   X211.4230     Y126.6053     R1.0000    
   X211.4580     Y126.8606     R1.0000    
   X211.5579     Y127.0982     R1.0000    
   X211.7158     Y127.3017     R1.0000    
   X211.9211     Y127.4575     R1.0000    
   X212.1597     Y127.5548     R1.0000    
   X212.4153     Y127.5870     R1.0000    
   X212.6706     Y127.5520     R1.0000    
   X212.9082     Y127.4521     R1.0000    
   X213.1117     Y127.2942     R1.0000    
   X213.2675     Y127.0889     R1.0000    
   X213.3648     Y126.8503     R1.0000    
   X213.3970     Y126.5947     R1.0000    
   X213.3620     Y126.3394     R1.0000    
   X213.2621     Y126.1018     R1.0000    
   X213.1042     Y125.8983     R1.0000    
   X212.8989     Y125.7425     R1.0000    
   X212.6603     Y125.6452     R1.0000    
   X212.4047     Y125.6130     R1.0000    
   X212.1494     Y125.6480     R1.0000    
   X211.9118     Y125.7479     R1.0000    
   X211.7083     Y125.9058     R1.0000    
   X211.5525     Y126.1111     R1.0000    
(Pass: 11)
G1   Z-5.500     F500 
G17 G2   X211.4552     Y126.3497     R1.0000     F400 
   X211.4230     Y126.6053     R1.0000    
   X211.4580     Y126.8606     R1.0000    
   X211.5579     Y127.0982     R1.0000    
   X211.7158     Y127.3017     R1.0000    
   X211.9211     Y127.4575     R1.0000    
   X212.1597     Y127.5548     R1.0000    
   X212.4153     Y127.5870     R1.0000    
   X212.6706     Y127.5520     R1.0000    
   X212.9082     Y127.4521     R1.0000    
   X213.1117     Y127.2942     R1.0000    
   X213.2675     Y127.0889     R1.0000    
   X213.3648     Y126.8503     R1.0000    
   X213.3970     Y126.5947     R1.0000    
   X213.3620     Y126.3394     R1.0000    
   X213.2621     Y126.1018     R1.0000    
   X213.1042     Y125.8983     R1.0000    
   X212.8989     Y125.7425     R1.0000    
   X212.6603     Y125.6452     R1.0000    
   X212.4047     Y125.6130     R1.0000    
   X212.1494     Y125.6480     R1.0000    
   X211.9118     Y125.7479     R1.0000    
   X211.7083     Y125.9058     R1.0000    
   X211.5525     Y126.1111     R1.0000    
(Pass: 12)
G1   Z-6.000     F500 
G17 G2   X211.4552     Y126.3497     R1.0000     F400 
   X211.4230     Y126.6053     R1.0000    
   X211.4580     Y126.8606     R1.0000    
   X211.5579     Y127.0982     R1.0000    
   X211.7158     Y127.3017     R1.0000    
   X211.9211     Y127.4575     R1.0000    
   X212.1597     Y127.5548     R1.0000    
   X212.4153     Y127.5870     R1.0000    
   X212.6706     Y127.5520     R1.0000    
   X212.9082     Y127.4521     R1.0000    
   X213.1117     Y127.2942     R1.0000    
   X213.2675     Y127.0889     R1.0000    
   X213.3648     Y126.8503     R1.0000    
   X213.3970     Y126.5947     R1.0000    
   X213.3620     Y126.3394     R1.0000    
   X213.2621     Y126.1018     R1.0000    
   X213.1042     Y125.8983     R1.0000    
   X212.8989     Y125.7425     R1.0000    
   X212.6603     Y125.6452     R1.0000    
   X212.4047     Y125.6130     R1.0000    
   X212.1494     Y125.6480     R1.0000    
   X211.9118     Y125.7479     R1.0000    
   X211.7083     Y125.9058     R1.0000    
   X211.5525     Y126.1111     R1.0000    
(Pass: 13)
G1   Z-6.500     F500 
G17 G2   X211.4552     Y126.3497     R1.0000     F400 
   X211.4230     Y126.6053     R1.0000    
   X211.4580     Y126.8606     R1.0000    
   X211.5579     Y127.0982     R1.0000    
   X211.7158     Y127.3017     R1.0000    
   X211.9211     Y127.4575     R1.0000    
   X212.1597     Y127.5548     R1.0000    
   X212.4153     Y127.5870     R1.0000    
   X212.6706     Y127.5520     R1.0000    
   X212.9082     Y127.4521     R1.0000    
   X213.1117     Y127.2942     R1.0000    
   X213.2675     Y127.0889     R1.0000    
   X213.3648     Y126.8503     R1.0000    
   X213.3970     Y126.5947     R1.0000    
   X213.3620     Y126.3394     R1.0000    
   X213.2621     Y126.1018     R1.0000    
   X213.1042     Y125.8983     R1.0000    
   X212.8989     Y125.7425     R1.0000    
   X212.6603     Y125.6452     R1.0000    
   X212.4047     Y125.6130     R1.0000    
   X212.1494     Y125.6480     R1.0000    
   X211.9118     Y125.7479     R1.0000    
   X211.7083     Y125.9058     R1.0000    
   X211.5525     Y126.1111     R1.0000    
G0   Z10.000    
(Pass: 1)
   X231.426      Y126.524   
G1   Z-0.500     F500 
G17 G2   X231.4398     Y126.7814     R1.0000     F400 
   X231.5198     Y127.0263     R1.0000    
   X231.6604     Y127.2422     R1.0000    
   X231.8522     Y127.4143     R1.0000    
   X232.0820     Y127.5310     R1.0000    
   X232.3341     Y127.5841     R1.0000    
   X232.5914     Y127.5702     R1.0000    
   X232.8363     Y127.4902     R1.0000    
   X233.0522     Y127.3496     R1.0000    
   X233.2243     Y127.1578     R1.0000    
   X233.3410     Y126.9280     R1.0000    
   X233.3941     Y126.6759     R1.0000    
   X233.3802     Y126.4186     R1.0000    
   X233.3002     Y126.1737     R1.0000    
   X233.1596     Y125.9578     R1.0000    
   X232.9678     Y125.7857     R1.0000    
   X232.7380     Y125.6690     R1.0000    
   X232.4859     Y125.6159     R1.0000    
   X232.2286     Y125.6298     R1.0000    
   X231.9837     Y125.7098     R1.0000    
   X231.7678     Y125.8504     R1.0000    
   X231.5957     Y126.0422     R1.0000    
   X231.4790     Y126.2720     R1.0000    
   X231.4259     Y126.5241     R1.0000    
(Pass: 2)
G1   Z-1.000     F500 
G17 G2   X231.4398     Y126.7814     R1.0000     F400 
   X231.5198     Y127.0263     R1.0000    
   X231.6604     Y127.2422     R1.0000    
   X231.8522     Y127.4143     R1.0000    
   X232.0820     Y127.5310     R1.0000    
   X232.3341     Y127.5841     R1.0000    
   X232.5914     Y127.5702     R1.0000    
   X232.8363     Y127.4902     R1.0000    
   X233.0522     Y127.3496     R1.0000    
   X233.2243     Y127.1578     R1.0000    
   X233.3410     Y126.9280     R1.0000    
   X233.3941     Y126.6759     R1.0000    
   X233.3802     Y126.4186     R1.0000    
   X233.3002     Y126.1737     R1.0000    
   X233.1596     Y125.9578     R1.0000    
   X232.9678     Y125.7857     R1.0000    
   X232.7380     Y125.6690     R1.0000    
   X232.4859     Y125.6159     R1.0000    
   X232.2286     Y125.6298     R1.0000    
   X231.9837     Y125.7098     R1.0000    
   X231.7678     Y125.8504     R1.0000    
   X231.5957     Y126.0422     R1.0000    
   X231.4790     Y126.2720     R1.0000    
   X231.4259     Y126.5241     R1.0000    
(Pass: 3)
G1   Z-1.500     F500 
G17 G2   X231.4398     Y126.7814     R1.0000     F400 
   X231.5198     Y127.0263     R1.0000    
   X231.6604     Y127.2422     R1.0000    
   X231.8522     Y127.4143     R1.0000    
   X232.0820     Y127.5310     R1.0000    
   X232.3341     Y127.5841     R1.0000    
   X232.5914     Y127.5702     R1.0000    
   X232.8363     Y127.4902     R1.0000    
   X233.0522     Y127.3496     R1.0000    
   X233.2243     Y127.1578     R1.0000    
   X233.3410     Y126.9280     R1.0000    
   X233.3941     Y126.6759     R1.0000    
   X233.3802     Y126.4186     R1.0000    
   X233.3002     Y126.1737     R1.0000    
   X233.1596     Y125.9578     R1.0000    
   X232.9678     Y125.7857     R1.0000    
   X232.7380     Y125.6690     R1.0000    
   X232.4859     Y125.6159     R1.0000    
   X232.2286     Y125.6298     R1.0000    
   X231.9837     Y125.7098     R1.0000    
   X231.7678     Y125.8504     R1.0000    
   X231.5957     Y126.0422     R1.0000    
   X231.4790     Y126.2720     R1.0000    
   X231.4259     Y126.5241     R1.0000    
(Pass: 4)
G1   Z-2.000     F500 
G17 G2   X231.4398     Y126.7814     R1.0000     F400 
   X231.5198     Y127.0263     R1.0000    
   X231.6604     Y127.2422     R1.0000    
   X231.8522     Y127.4143     R1.0000    
   X232.0820     Y127.5310     R1.0000    
   X232.3341     Y127.5841     R1.0000    
   X232.5914     Y127.5702     R1.0000    
   X232.8363     Y127.4902     R1.0000    
   X233.0522     Y127.3496     R1.0000    
   X233.2243     Y127.1578     R1.0000    
   X233.3410     Y126.9280     R1.0000    
   X233.3941     Y126.6759     R1.0000    
   X233.3802     Y126.4186     R1.0000    
   X233.3002     Y126.1737     R1.0000    
   X233.1596     Y125.9578     R1.0000    
   X232.9678     Y125.7857     R1.0000    
   X232.7380     Y125.6690     R1.0000    
   X232.4859     Y125.6159     R1.0000    
   X232.2286     Y125.6298     R1.0000    
   X231.9837     Y125.7098     R1.0000    
   X231.7678     Y125.8504     R1.0000    
   X231.5957     Y126.0422     R1.0000    
   X231.4790     Y126.2720     R1.0000    
   X231.4259     Y126.5241     R1.0000    
(Pass: 5)
G1   Z-2.500     F500 
G17 G2   X231.4398     Y126.7814     R1.0000     F400 
   X231.5198     Y127.0263     R1.0000    
   X231.6604     Y127.2422     R1.0000    
   X231.8522     Y127.4143     R1.0000    
   X232.0820     Y127.5310     R1.0000    
   X232.3341     Y127.5841     R1.0000    
   X232.5914     Y127.5702     R1.0000    
   X232.8363     Y127.4902     R1.0000    
   X233.0522     Y127.3496     R1.0000    
   X233.2243     Y127.1578     R1.0000    
   X233.3410     Y126.9280     R1.0000    
   X233.3941     Y126.6759     R1.0000    
   X233.3802     Y126.4186     R1.0000    
   X233.3002     Y126.1737     R1.0000    
   X233.1596     Y125.9578     R1.0000    
   X232.9678     Y125.7857     R1.0000    
   X232.7380     Y125.6690     R1.0000    
   X232.4859     Y125.6159     R1.0000    
   X232.2286     Y125.6298     R1.0000    
   X231.9837     Y125.7098     R1.0000    
   X231.7678     Y125.8504     R1.0000    
   X231.5957     Y126.0422     R1.0000    
   X231.4790     Y126.2720     R1.0000    
   X231.4259     Y126.5241     R1.0000    
(Pass: 6)
G1   Z-3.000     F500 
G17 G2   X231.4398     Y126.7814     R1.0000     F400 
   X231.5198     Y127.0263     R1.0000    
   X231.6604     Y127.2422     R1.0000    
   X231.8522     Y127.4143     R1.0000    
   X232.0820     Y127.5310     R1.0000    
   X232.3341     Y127.5841     R1.0000    
   X232.5914     Y127.5702     R1.0000    
   X232.8363     Y127.4902     R1.0000    
   X233.0522     Y127.3496     R1.0000    
   X233.2243     Y127.1578     R1.0000    
   X233.3410     Y126.9280     R1.0000    
   X233.3941     Y126.6759     R1.0000    
   X233.3802     Y126.4186     R1.0000    
   X233.3002     Y126.1737     R1.0000    
   X233.1596     Y125.9578     R1.0000    
   X232.9678     Y125.7857     R1.0000    
   X232.7380     Y125.6690     R1.0000    
   X232.4859     Y125.6159     R1.0000    
   X232.2286     Y125.6298     R1.0000    
   X231.9837     Y125.7098     R1.0000    
   X231.7678     Y125.8504     R1.0000    
   X231.5957     Y126.0422     R1.0000    
   X231.4790     Y126.2720     R1.0000    
   X231.4259     Y126.5241     R1.0000    
(Pass: 7)
G1   Z-3.500     F500 
G17 G2   X231.4398     Y126.7814     R1.0000     F400 
   X231.5198     Y127.0263     R1.0000    
   X231.6604     Y127.2422     R1.0000    
   X231.8522     Y127.4143     R1.0000    
   X232.0820     Y127.5310     R1.0000    
   X232.3341     Y127.5841     R1.0000    
   X232.5914     Y127.5702     R1.0000    
   X232.8363     Y127.4902     R1.0000    
   X233.0522     Y127.3496     R1.0000    
   X233.2243     Y127.1578     R1.0000    
   X233.3410     Y126.9280     R1.0000    
   X233.3941     Y126.6759     R1.0000    
   X233.3802     Y126.4186     R1.0000    
   X233.3002     Y126.1737     R1.0000    
   X233.1596     Y125.9578     R1.0000    
   X232.9678     Y125.7857     R1.0000    
   X232.7380     Y125.6690     R1.0000    
   X232.4859     Y125.6159     R1.0000    
   X232.2286     Y125.6298     R1.0000    
   X231.9837     Y125.7098     R1.0000    
   X231.7678     Y125.8504     R1.0000    
   X231.5957     Y126.0422     R1.0000    
   X231.4790     Y126.2720     R1.0000    
   X231.4259     Y126.5241     R1.0000    
(Pass: 8)
G1   Z-4.000     F500 
G17 G2   X231.4398     Y126.7814     R1.0000     F400 
   X231.5198     Y127.0263     R1.0000    
   X231.6604     Y127.2422     R1.0000    
   X231.8522     Y127.4143     R1.0000    
   X232.0820     Y127.5310     R1.0000    
   X232.3341     Y127.5841     R1.0000    
   X232.5914     Y127.5702     R1.0000    
   X232.8363     Y127.4902     R1.0000    
   X233.0522     Y127.3496     R1.0000    
   X233.2243     Y127.1578     R1.0000    
   X233.3410     Y126.9280     R1.0000    
   X233.3941     Y126.6759     R1.0000    
   X233.3802     Y126.4186     R1.0000    
   X233.3002     Y126.1737     R1.0000    
   X233.1596     Y125.9578     R1.0000    
   X232.9678     Y125.7857     R1.0000    
   X232.7380     Y125.6690     R1.0000    
   X232.4859     Y125.6159     R1.0000    
   X232.2286     Y125.6298     R1.0000    
   X231.9837     Y125.7098     R1.0000    
   X231.7678     Y125.8504     R1.0000    
   X231.5957     Y126.0422     R1.0000    
   X231.4790     Y126.2720     R1.0000    
   X231.4259     Y126.5241     R1.0000    
(Pass: 9)
G1   Z-4.500     F500 
G17 G2   X231.4398     Y126.7814     R1.0000     F400 
   X231.5198     Y127.0263     R1.0000    
   X231.6604     Y127.2422     R1.0000    
   X231.8522     Y127.4143     R1.0000    
   X232.0820     Y127.5310     R1.0000    
   X232.3341     Y127.5841     R1.0000    
   X232.5914     Y127.5702     R1.0000    
   X232.8363     Y127.4902     R1.0000    
   X233.0522     Y127.3496     R1.0000    
   X233.2243     Y127.1578     R1.0000    
   X233.3410     Y126.9280     R1.0000    
   X233.3941     Y126.6759     R1.0000    
   X233.3802     Y126.4186     R1.0000    
   X233.3002     Y126.1737     R1.0000    
   X233.1596     Y125.9578     R1.0000    
   X232.9678     Y125.7857     R1.0000    
   X232.7380     Y125.6690     R1.0000    
   X232.4859     Y125.6159     R1.0000    
   X232.2286     Y125.6298     R1.0000    
   X231.9837     Y125.7098     R1.0000    
   X231.7678     Y125.8504     R1.0000    
   X231.5957     Y126.0422     R1.0000    
   X231.4790     Y126.2720     R1.0000    
   X231.4259     Y126.5241     R1.0000    
(Pass: 10)
G1   Z-5.000     F500 
G17 G2   X231.4398     Y126.7814     R1.0000     F400 
   X231.5198     Y127.0263     R1.0000    
   X231.6604     Y127.2422     R1.0000    
   X231.8522     Y127.4143     R1.0000    
   X232.0820     Y127.5310     R1.0000    
   X232.3341     Y127.5841     R1.0000    
   X232.5914     Y127.5702     R1.0000    
   X232.8363     Y127.4902     R1.0000    
   X233.0522     Y127.3496     R1.0000    
   X233.2243     Y127.1578     R1.0000    
   X233.3410     Y126.9280     R1.0000    
   X233.3941     Y126.6759     R1.0000    
   X233.3802     Y126.4186     R1.0000    
   X233.3002     Y126.1737     R1.0000    
   X233.1596     Y125.9578     R1.0000    
   X232.9678     Y125.7857     R1.0000    
   X232.7380     Y125.6690     R1.0000    
   X232.4859     Y125.6159     R1.0000    
   X232.2286     Y125.6298     R1.0000    
   X231.9837     Y125.7098     R1.0000    
   X231.7678     Y125.8504     R1.0000    
   X231.5957     Y126.0422     R1.0000    
   X231.4790     Y126.2720     R1.0000    
   X231.4259     Y126.5241     R1.0000    
(Pass: 11)
G1   Z-5.500     F500 
G17 G2   X231.4398     Y126.7814     R1.0000     F400 
   X231.5198     Y127.0263     R1.0000    
   X231.6604     Y127.2422     R1.0000    
   X231.8522     Y127.4143     R1.0000    
   X232.0820     Y127.5310     R1.0000    
   X232.3341     Y127.5841     R1.0000    
   X232.5914     Y127.5702     R1.0000    
   X232.8363     Y127.4902     R1.0000    
   X233.0522     Y127.3496     R1.0000    
   X233.2243     Y127.1578     R1.0000    
   X233.3410     Y126.9280     R1.0000    
   X233.3941     Y126.6759     R1.0000    
   X233.3802     Y126.4186     R1.0000    
   X233.3002     Y126.1737     R1.0000    
   X233.1596     Y125.9578     R1.0000    
   X232.9678     Y125.7857     R1.0000    
   X232.7380     Y125.6690     R1.0000    
   X232.4859     Y125.6159     R1.0000    
   X232.2286     Y125.6298     R1.0000    
   X231.9837     Y125.7098     R1.0000    
   X231.7678     Y125.8504     R1.0000    
   X231.5957     Y126.0422     R1.0000    
   X231.4790     Y126.2720     R1.0000    
   X231.4259     Y126.5241     R1.0000    
(Pass: 12)
G1   Z-6.000     F500 
G17 G2   X231.4398     Y126.7814     R1.0000     F400 
   X231.5198     Y127.0263     R1.0000    
   X231.6604     Y127.2422     R1.0000    
   X231.8522     Y127.4143     R1.0000    
   X232.0820     Y127.5310     R1.0000    
   X232.3341     Y127.5841     R1.0000    
   X232.5914     Y127.5702     R1.0000    
   X232.8363     Y127.4902     R1.0000    
   X233.0522     Y127.3496     R1.0000    
   X233.2243     Y127.1578     R1.0000    
   X233.3410     Y126.9280     R1.0000    
   X233.3941     Y126.6759     R1.0000    
   X233.3802     Y126.4186     R1.0000    
   X233.3002     Y126.1737     R1.0000    
   X233.1596     Y125.9578     R1.0000    
   X232.9678     Y125.7857     R1.0000    
   X232.7380     Y125.6690     R1.0000    
   X232.4859     Y125.6159     R1.0000    
   X232.2286     Y125.6298     R1.0000    
   X231.9837     Y125.7098     R1.0000    
   X231.7678     Y125.8504     R1.0000    
   X231.5957     Y126.0422     R1.0000    
   X231.4790     Y126.2720     R1.0000    
   X231.4259     Y126.5241     R1.0000    
(Pass: 13)
G1   Z-6.500     F500 
G17 G2   X231.4398     Y126.7814     R1.0000     F400 
   X231.5198     Y127.0263     R1.0000    
   X231.6604     Y127.2422     R1.0000    
   X231.8522     Y127.4143     R1.0000    
   X232.0820     Y127.5310     R1.0000    
   X232.3341     Y127.5841     R1.0000    
   X232.5914     Y127.5702     R1.0000    
   X232.8363     Y127.4902     R1.0000    
   X233.0522     Y127.3496     R1.0000    
   X233.2243     Y127.1578     R1.0000    
   X233.3410     Y126.9280     R1.0000    
   X233.3941     Y126.6759     R1.0000    
   X233.3802     Y126.4186     R1.0000    
   X233.3002     Y126.1737     R1.0000    
   X233.1596     Y125.9578     R1.0000    
   X232.9678     Y125.7857     R1.0000    
   X232.7380     Y125.6690     R1.0000    
   X232.4859     Y125.6159     R1.0000    
   X232.2286     Y125.6298     R1.0000    
   X231.9837     Y125.7098     R1.0000    
   X231.7678     Y125.8504     R1.0000    
   X231.5957     Y126.0422     R1.0000    
   X231.4790     Y126.2720     R1.0000    
   X231.4259     Y126.5241     R1.0000    
G0   Z10.000    
(Pass: 1)
   X163.788      Y107.505   
G1   Z-0.500     F500 
G17 G2   X163.8769     Y107.0564     R3.5000     F400 
   X163.9100     Y106.5509     R3.5000    
G1   Y15.049    
G17 G2   X163.8769     Y14.5436      R3.5000    
   X163.7876     Y14.0950      R3.5000    
   X163.6406     Y13.6618      R3.5000    
   X163.4383     Y13.2516      R3.5000    
   X163.1842     Y12.8713      R3.5000    
   X162.8826     Y12.5274      R3.5000    
   X162.5387     Y12.2258      R3.5000    
   X162.1584     Y11.9717      R3.5000    
   X161.7482     Y11.7694      R3.5000    
   X161.3150     Y11.6224      R3.5000    
   X160.8664     Y11.5331      R3.5000    
   X160.3609     Y11.5000      R3.5000    
G1   X125.459   
G17 G2   X124.9536     Y11.5331      R3.5000    
   X124.5050     Y11.6224      R3.5000    
   X124.0718     Y11.7694      R3.5000    
   X123.6616     Y11.9717      R3.5000    
   X123.2813     Y12.2258      R3.5000    
   X122.9374     Y12.5274      R3.5000    
   X122.6358     Y12.8713      R3.5000    
   X122.3817     Y13.2516      R3.5000    
   X122.1794     Y13.6618      R3.5000    
   X122.0324     Y14.0950      R3.5000    
   X121.9431     Y14.5436      R3.5000    
   X121.9100     Y15.0491      R3.5000    
G1   Y106.551   
G17 G2   X121.9431     Y107.0564     R3.5000    
   X122.0324     Y107.5050     R3.5000    
   X122.1794     Y107.9382     R3.5000    
   X122.3817     Y108.3484     R3.5000    
   X122.6358     Y108.7287     R3.5000    
   X122.9374     Y109.0726     R3.5000    
   X123.2813     Y109.3742     R3.5000    
   X123.6616     Y109.6283     R3.5000    
   X124.0718     Y109.8306     R3.5000    
   X124.5050     Y109.9776     R3.5000    
   X124.9536     Y110.0669     R3.5000    
   X125.4591     Y110.1000     R3.5000    
G1   X160.361   
G17 G2   X160.8664     Y110.0669     R3.5000    
   X161.3150     Y109.9776     R3.5000    
   X161.7482     Y109.8306     R3.5000    
   X162.1584     Y109.6283     R3.5000    
   X162.5387     Y109.3742     R3.5000    
   X162.8826     Y109.0726     R3.5000    
   X163.1842     Y108.7287     R3.5000    
   X163.4383     Y108.3484     R3.5000    
   X163.6406     Y107.9382     R3.5000    
   X163.7876     Y107.5050     R3.5000    
(Pass: 2)
G1   Z-1.000     F500 
G17 G2   X163.8769     Y107.0564     R3.5000     F400 
   X163.9100     Y106.5509     R3.5000    
G1   Y15.049    
G17 G2   X163.8769     Y14.5436      R3.5000    
   X163.7876     Y14.0950      R3.5000    
   X163.6406     Y13.6618      R3.5000    
   X163.4383     Y13.2516      R3.5000    
   X163.1842     Y12.8713      R3.5000    
   X162.8826     Y12.5274      R3.5000    
   X162.5387     Y12.2258      R3.5000    
   X162.1584     Y11.9717      R3.5000    
   X161.7482     Y11.7694      R3.5000    
   X161.3150     Y11.6224      R3.5000    
   X160.8664     Y11.5331      R3.5000    
   X160.3609     Y11.5000      R3.5000    
G1   X125.459   
G17 G2   X124.9536     Y11.5331      R3.5000    
   X124.5050     Y11.6224      R3.5000    
   X124.0718     Y11.7694      R3.5000    
   X123.6616     Y11.9717      R3.5000    
   X123.2813     Y12.2258      R3.5000    
   X122.9374     Y12.5274      R3.5000    
   X122.6358     Y12.8713      R3.5000    
   X122.3817     Y13.2516      R3.5000    
   X122.1794     Y13.6618      R3.5000    
   X122.0324     Y14.0950      R3.5000    
   X121.9431     Y14.5436      R3.5000    
   X121.9100     Y15.0491      R3.5000    
G1   Y106.551   
G17 G2   X121.9431     Y107.0564     R3.5000    
   X122.0324     Y107.5050     R3.5000    
   X122.1794     Y107.9382     R3.5000    
   X122.3817     Y108.3484     R3.5000    
   X122.6358     Y108.7287     R3.5000    
   X122.9374     Y109.0726     R3.5000    
   X123.2813     Y109.3742     R3.5000    
   X123.6616     Y109.6283     R3.5000    
   X124.0718     Y109.8306     R3.5000    
   X124.5050     Y109.9776     R3.5000    
   X124.9536     Y110.0669     R3.5000    
   X125.4591     Y110.1000     R3.5000    
G1   X160.361   
G17 G2   X160.8664     Y110.0669     R3.5000    
   X161.3150     Y109.9776     R3.5000    
   X161.7482     Y109.8306     R3.5000    
   X162.1584     Y109.6283     R3.5000    
   X162.5387     Y109.3742     R3.5000    
   X162.8826     Y109.0726     R3.5000    
   X163.1842     Y108.7287     R3.5000    
   X163.4383     Y108.3484     R3.5000    
   X163.6406     Y107.9382     R3.5000    
   X163.7876     Y107.5050     R3.5000    
(Pass: 3)
G1   Z-1.500     F500 
G17 G2   X163.8769     Y107.0564     R3.5000     F400 
   X163.9100     Y106.5509     R3.5000    
G1   Y15.049    
G17 G2   X163.8769     Y14.5436      R3.5000    
   X163.7876     Y14.0950      R3.5000    
   X163.6406     Y13.6618      R3.5000    
   X163.4383     Y13.2516      R3.5000    
   X163.1842     Y12.8713      R3.5000    
   X162.8826     Y12.5274      R3.5000    
   X162.5387     Y12.2258      R3.5000    
   X162.1584     Y11.9717      R3.5000    
   X161.7482     Y11.7694      R3.5000    
   X161.3150     Y11.6224      R3.5000    
   X160.8664     Y11.5331      R3.5000    
   X160.3609     Y11.5000      R3.5000    
G1   X125.459   
G17 G2   X124.9536     Y11.5331      R3.5000    
   X124.5050     Y11.6224      R3.5000    
   X124.0718     Y11.7694      R3.5000    
   X123.6616     Y11.9717      R3.5000    
   X123.2813     Y12.2258      R3.5000    
   X122.9374     Y12.5274      R3.5000    
   X122.6358     Y12.8713      R3.5000    
   X122.3817     Y13.2516      R3.5000    
   X122.1794     Y13.6618      R3.5000    
   X122.0324     Y14.0950      R3.5000    
   X121.9431     Y14.5436      R3.5000    
   X121.9100     Y15.0491      R3.5000    
G1   Y106.551   
G17 G2   X121.9431     Y107.0564     R3.5000    
   X122.0324     Y107.5050     R3.5000    
   X122.1794     Y107.9382     R3.5000    
   X122.3817     Y108.3484     R3.5000    
   X122.6358     Y108.7287     R3.5000    
   X122.9374     Y109.0726     R3.5000    
   X123.2813     Y109.3742     R3.5000    
   X123.6616     Y109.6283     R3.5000    
   X124.0718     Y109.8306     R3.5000    
   X124.5050     Y109.9776     R3.5000    
   X124.9536     Y110.0669     R3.5000    
   X125.4591     Y110.1000     R3.5000    
G1   X160.361   
G17 G2   X160.8664     Y110.0669     R3.5000    
   X161.3150     Y109.9776     R3.5000    
   X161.7482     Y109.8306     R3.5000    
   X162.1584     Y109.6283     R3.5000    
   X162.5387     Y109.3742     R3.5000    
   X162.8826     Y109.0726     R3.5000    
   X163.1842     Y108.7287     R3.5000    
   X163.4383     Y108.3484     R3.5000    
   X163.6406     Y107.9382     R3.5000    
   X163.7876     Y107.5050     R3.5000    
(Pass: 4)
G1   Z-2.000     F500 
G17 G2   X163.8769     Y107.0564     R3.5000     F400 
   X163.9100     Y106.5509     R3.5000    
G1   Y15.049    
G17 G2   X163.8769     Y14.5436      R3.5000    
   X163.7876     Y14.0950      R3.5000    
   X163.6406     Y13.6618      R3.5000    
   X163.4383     Y13.2516      R3.5000    
   X163.1842     Y12.8713      R3.5000    
   X162.8826     Y12.5274      R3.5000    
   X162.5387     Y12.2258      R3.5000    
   X162.1584     Y11.9717      R3.5000    
   X161.7482     Y11.7694      R3.5000    
   X161.3150     Y11.6224      R3.5000    
   X160.8664     Y11.5331      R3.5000    
   X160.3609     Y11.5000      R3.5000    
G1   X125.459   
G17 G2   X124.9536     Y11.5331      R3.5000    
   X124.5050     Y11.6224      R3.5000    
   X124.0718     Y11.7694      R3.5000    
   X123.6616     Y11.9717      R3.5000    
   X123.2813     Y12.2258      R3.5000    
   X122.9374     Y12.5274      R3.5000    
   X122.6358     Y12.8713      R3.5000    
   X122.3817     Y13.2516      R3.5000    
   X122.1794     Y13.6618      R3.5000    
   X122.0324     Y14.0950      R3.5000    
   X121.9431     Y14.5436      R3.5000    
   X121.9100     Y15.0491      R3.5000    
G1   Y106.551   
G17 G2   X121.9431     Y107.0564     R3.5000    
   X122.0324     Y107.5050     R3.5000    
   X122.1794     Y107.9382     R3.5000    
   X122.3817     Y108.3484     R3.5000    
   X122.6358     Y108.7287     R3.5000    
   X122.9374     Y109.0726     R3.5000    
   X123.2813     Y109.3742     R3.5000    
   X123.6616     Y109.6283     R3.5000    
   X124.0718     Y109.8306     R3.5000    
   X124.5050     Y109.9776     R3.5000    
   X124.9536     Y110.0669     R3.5000    
   X125.4591     Y110.1000     R3.5000    
G1   X160.361   
G17 G2   X160.8664     Y110.0669     R3.5000    
   X161.3150     Y109.9776     R3.5000    
   X161.7482     Y109.8306     R3.5000    
   X162.1584     Y109.6283     R3.5000    
   X162.5387     Y109.3742     R3.5000    
   X162.8826     Y109.0726     R3.5000    
   X163.1842     Y108.7287     R3.5000    
   X163.4383     Y108.3484     R3.5000    
   X163.6406     Y107.9382     R3.5000    
   X163.7876     Y107.5050     R3.5000    
(Pass: 5)
G1   Z-2.500     F500 
G17 G2   X163.8769     Y107.0564     R3.5000     F400 
   X163.9100     Y106.5509     R3.5000    
G1   Y15.049    
G17 G2   X163.8769     Y14.5436      R3.5000    
   X163.7876     Y14.0950      R3.5000    
   X163.6406     Y13.6618      R3.5000    
   X163.4383     Y13.2516      R3.5000    
   X163.1842     Y12.8713      R3.5000    
   X162.8826     Y12.5274      R3.5000    
   X162.5387     Y12.2258      R3.5000    
   X162.1584     Y11.9717      R3.5000    
   X161.7482     Y11.7694      R3.5000    
   X161.3150     Y11.6224      R3.5000    
   X160.8664     Y11.5331      R3.5000    
   X160.3609     Y11.5000      R3.5000    
G1   X125.459   
G17 G2   X124.9536     Y11.5331      R3.5000    
   X124.5050     Y11.6224      R3.5000    
   X124.0718     Y11.7694      R3.5000    
   X123.6616     Y11.9717      R3.5000    
   X123.2813     Y12.2258      R3.5000    
   X122.9374     Y12.5274      R3.5000    
   X122.6358     Y12.8713      R3.5000    
   X122.3817     Y13.2516      R3.5000    
   X122.1794     Y13.6618      R3.5000    
   X122.0324     Y14.0950      R3.5000    
   X121.9431     Y14.5436      R3.5000    
   X121.9100     Y15.0491      R3.5000    
G1   Y106.551   
G17 G2   X121.9431     Y107.0564     R3.5000    
   X122.0324     Y107.5050     R3.5000    
   X122.1794     Y107.9382     R3.5000    
   X122.3817     Y108.3484     R3.5000    
   X122.6358     Y108.7287     R3.5000    
   X122.9374     Y109.0726     R3.5000    
   X123.2813     Y109.3742     R3.5000    
   X123.6616     Y109.6283     R3.5000    
   X124.0718     Y109.8306     R3.5000    
   X124.5050     Y109.9776     R3.5000    
   X124.9536     Y110.0669     R3.5000    
   X125.4591     Y110.1000     R3.5000    
G1   X160.361   
G17 G2   X160.8664     Y110.0669     R3.5000    
   X161.3150     Y109.9776     R3.5000    
   X161.7482     Y109.8306     R3.5000    
   X162.1584     Y109.6283     R3.5000    
   X162.5387     Y109.3742     R3.5000    
   X162.8826     Y109.0726     R3.5000    
   X163.1842     Y108.7287     R3.5000    
   X163.4383     Y108.3484     R3.5000    
   X163.6406     Y107.9382     R3.5000    
   X163.7876     Y107.5050     R3.5000    
(Pass: 6)
G1   Z-3.000     F500 
G17 G2   X163.8769     Y107.0564     R3.5000     F400 
   X163.9100     Y106.5509     R3.5000    
G1   Y15.049    
G17 G2   X163.8769     Y14.5436      R3.5000    
   X163.7876     Y14.0950      R3.5000    
   X163.6406     Y13.6618      R3.5000    
   X163.4383     Y13.2516      R3.5000    
   X163.1842     Y12.8713      R3.5000    
   X162.8826     Y12.5274      R3.5000    
   X162.5387     Y12.2258      R3.5000    
   X162.1584     Y11.9717      R3.5000    
   X161.7482     Y11.7694      R3.5000    
   X161.3150     Y11.6224      R3.5000    
   X160.8664     Y11.5331      R3.5000    
   X160.3609     Y11.5000      R3.5000    
G1   X125.459   
G17 G2   X124.9536     Y11.5331      R3.5000    
   X124.5050     Y11.6224      R3.5000    
   X124.0718     Y11.7694      R3.5000    
   X123.6616     Y11.9717      R3.5000    
   X123.2813     Y12.2258      R3.5000    
   X122.9374     Y12.5274      R3.5000    
   X122.6358     Y12.8713      R3.5000    
   X122.3817     Y13.2516      R3.5000    
   X122.1794     Y13.6618      R3.5000    
   X122.0324     Y14.0950      R3.5000    
   X121.9431     Y14.5436      R3.5000    
   X121.9100     Y15.0491      R3.5000    
G1   Y106.551   
G17 G2   X121.9431     Y107.0564     R3.5000    
   X122.0324     Y107.5050     R3.5000    
   X122.1794     Y107.9382     R3.5000    
   X122.3817     Y108.3484     R3.5000    
   X122.6358     Y108.7287     R3.5000    
   X122.9374     Y109.0726     R3.5000    
   X123.2813     Y109.3742     R3.5000    
   X123.6616     Y109.6283     R3.5000    
   X124.0718     Y109.8306     R3.5000    
   X124.5050     Y109.9776     R3.5000    
   X124.9536     Y110.0669     R3.5000    
   X125.4591     Y110.1000     R3.5000    
G1   X160.361   
G17 G2   X160.8664     Y110.0669     R3.5000    
   X161.3150     Y109.9776     R3.5000    
   X161.7482     Y109.8306     R3.5000    
   X162.1584     Y109.6283     R3.5000    
   X162.5387     Y109.3742     R3.5000    
   X162.8826     Y109.0726     R3.5000    
   X163.1842     Y108.7287     R3.5000    
   X163.4383     Y108.3484     R3.5000    
   X163.6406     Y107.9382     R3.5000    
   X163.7876     Y107.5050     R3.5000    
(Pass: 7)
G1   Z-3.500     F500 
G17 G2   X163.8769     Y107.0564     R3.5000     F400 
   X163.9100     Y106.5509     R3.5000    
G1   Y15.049    
G17 G2   X163.8769     Y14.5436      R3.5000    
   X163.7876     Y14.0950      R3.5000    
   X163.6406     Y13.6618      R3.5000    
   X163.4383     Y13.2516      R3.5000    
   X163.1842     Y12.8713      R3.5000    
   X162.8826     Y12.5274      R3.5000    
   X162.5387     Y12.2258      R3.5000    
   X162.1584     Y11.9717      R3.5000    
   X161.7482     Y11.7694      R3.5000    
   X161.3150     Y11.6224      R3.5000    
   X160.8664     Y11.5331      R3.5000    
   X160.3609     Y11.5000      R3.5000    
G1   X125.459   
G17 G2   X124.9536     Y11.5331      R3.5000    
   X124.5050     Y11.6224      R3.5000    
   X124.0718     Y11.7694      R3.5000    
   X123.6616     Y11.9717      R3.5000    
   X123.2813     Y12.2258      R3.5000    
   X122.9374     Y12.5274      R3.5000    
   X122.6358     Y12.8713      R3.5000    
   X122.3817     Y13.2516      R3.5000    
   X122.1794     Y13.6618      R3.5000    
   X122.0324     Y14.0950      R3.5000    
   X121.9431     Y14.5436      R3.5000    
   X121.9100     Y15.0491      R3.5000    
G1   Y106.551   
G17 G2   X121.9431     Y107.0564     R3.5000    
   X122.0324     Y107.5050     R3.5000    
   X122.1794     Y107.9382     R3.5000    
   X122.3817     Y108.3484     R3.5000    
   X122.6358     Y108.7287     R3.5000    
   X122.9374     Y109.0726     R3.5000    
   X123.2813     Y109.3742     R3.5000    
   X123.6616     Y109.6283     R3.5000    
   X124.0718     Y109.8306     R3.5000    
   X124.5050     Y109.9776     R3.5000    
   X124.9536     Y110.0669     R3.5000    
   X125.4591     Y110.1000     R3.5000    
G1   X160.361   
G17 G2   X160.8664     Y110.0669     R3.5000    
   X161.3150     Y109.9776     R3.5000    
   X161.7482     Y109.8306     R3.5000    
   X162.1584     Y109.6283     R3.5000    
   X162.5387     Y109.3742     R3.5000    
   X162.8826     Y109.0726     R3.5000    
   X163.1842     Y108.7287     R3.5000    
   X163.4383     Y108.3484     R3.5000    
   X163.6406     Y107.9382     R3.5000    
   X163.7876     Y107.5050     R3.5000    
(Pass: 8)
G1   Z-4.000     F500 
G17 G2   X163.8769     Y107.0564     R3.5000     F400 
   X163.9100     Y106.5509     R3.5000    
G1   Y15.049    
G17 G2   X163.8769     Y14.5436      R3.5000    
   X163.7876     Y14.0950      R3.5000    
   X163.6406     Y13.6618      R3.5000    
   X163.4383     Y13.2516      R3.5000    
   X163.1842     Y12.8713      R3.5000    
   X162.8826     Y12.5274      R3.5000    
   X162.5387     Y12.2258      R3.5000    
   X162.1584     Y11.9717      R3.5000    
   X161.7482     Y11.7694      R3.5000    
   X161.3150     Y11.6224      R3.5000    
   X160.8664     Y11.5331      R3.5000    
   X160.3609     Y11.5000      R3.5000    
G1   X125.459   
G17 G2   X124.9536     Y11.5331      R3.5000    
   X124.5050     Y11.6224      R3.5000    
   X124.0718     Y11.7694      R3.5000    
   X123.6616     Y11.9717      R3.5000    
   X123.2813     Y12.2258      R3.5000    
   X122.9374     Y12.5274      R3.5000    
   X122.6358     Y12.8713      R3.5000    
   X122.3817     Y13.2516      R3.5000    
   X122.1794     Y13.6618      R3.5000    
   X122.0324     Y14.0950      R3.5000    
   X121.9431     Y14.5436      R3.5000    
   X121.9100     Y15.0491      R3.5000    
G1   Y106.551   
G17 G2   X121.9431     Y107.0564     R3.5000    
   X122.0324     Y107.5050     R3.5000    
   X122.1794     Y107.9382     R3.5000    
   X122.3817     Y108.3484     R3.5000    
   X122.6358     Y108.7287     R3.5000    
   X122.9374     Y109.0726     R3.5000    
   X123.2813     Y109.3742     R3.5000    
   X123.6616     Y109.6283     R3.5000    
   X124.0718     Y109.8306     R3.5000    
   X124.5050     Y109.9776     R3.5000    
   X124.9536     Y110.0669     R3.5000    
   X125.4591     Y110.1000     R3.5000    
G1   X160.361   
G17 G2   X160.8664     Y110.0669     R3.5000    
   X161.3150     Y109.9776     R3.5000    
   X161.7482     Y109.8306     R3.5000    
   X162.1584     Y109.6283     R3.5000    
   X162.5387     Y109.3742     R3.5000    
   X162.8826     Y109.0726     R3.5000    
   X163.1842     Y108.7287     R3.5000    
   X163.4383     Y108.3484     R3.5000    
   X163.6406     Y107.9382     R3.5000    
   X163.7876     Y107.5050     R3.5000    
(Pass: 9)
G1   Z-4.500     F500 
G17 G2   X163.8769     Y107.0564     R3.5000     F400 
   X163.9100     Y106.5509     R3.5000    
G1   Y15.049    
G17 G2   X163.8769     Y14.5436      R3.5000    
   X163.7876     Y14.0950      R3.5000    
   X163.6406     Y13.6618      R3.5000    
   X163.4383     Y13.2516      R3.5000    
   X163.1842     Y12.8713      R3.5000    
   X162.8826     Y12.5274      R3.5000    
   X162.5387     Y12.2258      R3.5000    
   X162.1584     Y11.9717      R3.5000    
   X161.7482     Y11.7694      R3.5000    
   X161.3150     Y11.6224      R3.5000    
   X160.8664     Y11.5331      R3.5000    
   X160.3609     Y11.5000      R3.5000    
G1   X125.459   
G17 G2   X124.9536     Y11.5331      R3.5000    
   X124.5050     Y11.6224      R3.5000    
   X124.0718     Y11.7694      R3.5000    
   X123.6616     Y11.9717      R3.5000    
   X123.2813     Y12.2258      R3.5000    
   X122.9374     Y12.5274      R3.5000    
   X122.6358     Y12.8713      R3.5000    
   X122.3817     Y13.2516      R3.5000    
   X122.1794     Y13.6618      R3.5000    
   X122.0324     Y14.0950      R3.5000    
   X121.9431     Y14.5436      R3.5000    
   X121.9100     Y15.0491      R3.5000    
G1   Y106.551   
G17 G2   X121.9431     Y107.0564     R3.5000    
   X122.0324     Y107.5050     R3.5000    
   X122.1794     Y107.9382     R3.5000    
   X122.3817     Y108.3484     R3.5000    
   X122.6358     Y108.7287     R3.5000    
   X122.9374     Y109.0726     R3.5000    
   X123.2813     Y109.3742     R3.5000    
   X123.6616     Y109.6283     R3.5000    
   X124.0718     Y109.8306     R3.5000    
   X124.5050     Y109.9776     R3.5000    
   X124.9536     Y110.0669     R3.5000    
   X125.4591     Y110.1000     R3.5000    
G1   X160.361   
G17 G2   X160.8664     Y110.0669     R3.5000    
   X161.3150     Y109.9776     R3.5000    
   X161.7482     Y109.8306     R3.5000    
   X162.1584     Y109.6283     R3.5000    
   X162.5387     Y109.3742     R3.5000    
   X162.8826     Y109.0726     R3.5000    
   X163.1842     Y108.7287     R3.5000    
   X163.4383     Y108.3484     R3.5000    
   X163.6406     Y107.9382     R3.5000    
   X163.7876     Y107.5050     R3.5000    
(Pass: 10)
G1   Z-5.000     F500 
G17 G2   X163.8769     Y107.0564     R3.5000     F400 
   X163.9100     Y106.5509     R3.5000    
G1   Y15.049    
G17 G2   X163.8769     Y14.5436      R3.5000    
   X163.7876     Y14.0950      R3.5000    
   X163.6406     Y13.6618      R3.5000    
   X163.4383     Y13.2516      R3.5000    
   X163.1842     Y12.8713      R3.5000    
   X162.8826     Y12.5274      R3.5000    
   X162.5387     Y12.2258      R3.5000    
   X162.1584     Y11.9717      R3.5000    
   X161.7482     Y11.7694      R3.5000    
   X161.3150     Y11.6224      R3.5000    
   X160.8664     Y11.5331      R3.5000    
   X160.3609     Y11.5000      R3.5000    
G1   X125.459   
G17 G2   X124.9536     Y11.5331      R3.5000    
   X124.5050     Y11.6224      R3.5000    
   X124.0718     Y11.7694      R3.5000    
   X123.6616     Y11.9717      R3.5000    
   X123.2813     Y12.2258      R3.5000    
   X122.9374     Y12.5274      R3.5000    
   X122.6358     Y12.8713      R3.5000    
   X122.3817     Y13.2516      R3.5000    
   X122.1794     Y13.6618      R3.5000    
   X122.0324     Y14.0950      R3.5000    
   X121.9431     Y14.5436      R3.5000    
   X121.9100     Y15.0491      R3.5000    
G1   Y106.551   
G17 G2   X121.9431     Y107.0564     R3.5000    
   X122.0324     Y107.5050     R3.5000    
   X122.1794     Y107.9382     R3.5000    
   X122.3817     Y108.3484     R3.5000    
   X122.6358     Y108.7287     R3.5000    
   X122.9374     Y109.0726     R3.5000    
   X123.2813     Y109.3742     R3.5000    
   X123.6616     Y109.6283     R3.5000    
   X124.0718     Y109.8306     R3.5000    
   X124.5050     Y109.9776     R3.5000    
   X124.9536     Y110.0669     R3.5000    
   X125.4591     Y110.1000     R3.5000    
G1   X160.361   
G17 G2   X160.8664     Y110.0669     R3.5000    
   X161.3150     Y109.9776     R3.5000    
   X161.7482     Y109.8306     R3.5000    
   X162.1584     Y109.6283     R3.5000    
   X162.5387     Y109.3742     R3.5000    
   X162.8826     Y109.0726     R3.5000    
   X163.1842     Y108.7287     R3.5000    
   X163.4383     Y108.3484     R3.5000    
   X163.6406     Y107.9382     R3.5000    
   X163.7876     Y107.5050     R3.5000    
(Pass: 11)
G1   Z-5.500     F500 
G17 G2   X163.8769     Y107.0564     R3.5000     F400 
   X163.9100     Y106.5509     R3.5000    
G1   Y15.049    
G17 G2   X163.8769     Y14.5436      R3.5000    
   X163.7876     Y14.0950      R3.5000    
   X163.6406     Y13.6618      R3.5000    
   X163.4383     Y13.2516      R3.5000    
   X163.1842     Y12.8713      R3.5000    
   X162.8826     Y12.5274      R3.5000    
   X162.5387     Y12.2258      R3.5000    
   X162.1584     Y11.9717      R3.5000    
   X161.7482     Y11.7694      R3.5000    
   X161.3150     Y11.6224      R3.5000    
   X160.8664     Y11.5331      R3.5000    
   X160.3609     Y11.5000      R3.5000    
G1   X125.459   
G17 G2   X124.9536     Y11.5331      R3.5000    
   X124.5050     Y11.6224      R3.5000    
   X124.0718     Y11.7694      R3.5000    
   X123.6616     Y11.9717      R3.5000    
   X123.2813     Y12.2258      R3.5000    
   X122.9374     Y12.5274      R3.5000    
   X122.6358     Y12.8713      R3.5000    
   X122.3817     Y13.2516      R3.5000    
   X122.1794     Y13.6618      R3.5000    
   X122.0324     Y14.0950      R3.5000    
   X121.9431     Y14.5436      R3.5000    
   X121.9100     Y15.0491      R3.5000    
G1   Y106.551   
G17 G2   X121.9431     Y107.0564     R3.5000    
   X122.0324     Y107.5050     R3.5000    
   X122.1794     Y107.9382     R3.5000    
   X122.3817     Y108.3484     R3.5000    
   X122.6358     Y108.7287     R3.5000    
   X122.9374     Y109.0726     R3.5000    
   X123.2813     Y109.3742     R3.5000    
   X123.6616     Y109.6283     R3.5000    
   X124.0718     Y109.8306     R3.5000    
   X124.5050     Y109.9776     R3.5000    
   X124.9536     Y110.0669     R3.5000    
   X125.4591     Y110.1000     R3.5000    
G1   X160.361   
G17 G2   X160.8664     Y110.0669     R3.5000    
   X161.3150     Y109.9776     R3.5000    
   X161.7482     Y109.8306     R3.5000    
   X162.1584     Y109.6283     R3.5000    
   X162.5387     Y109.3742     R3.5000    
   X162.8826     Y109.0726     R3.5000    
   X163.1842     Y108.7287     R3.5000    
   X163.4383     Y108.3484     R3.5000    
   X163.6406     Y107.9382     R3.5000    
   X163.7876     Y107.5050     R3.5000    
(Pass: 12)
G1   Z-6.000     F500 
G17 G2   X163.8769     Y107.0564     R3.5000     F400 
   X163.9100     Y106.5509     R3.5000    
G1   Y15.049    
G17 G2   X163.8769     Y14.5436      R3.5000    
   X163.7876     Y14.0950      R3.5000    
   X163.6406     Y13.6618      R3.5000    
   X163.4383     Y13.2516      R3.5000    
   X163.1842     Y12.8713      R3.5000    
   X162.8826     Y12.5274      R3.5000    
   X162.5387     Y12.2258      R3.5000    
   X162.1584     Y11.9717      R3.5000    
   X161.7482     Y11.7694      R3.5000    
   X161.3150     Y11.6224      R3.5000    
   X160.8664     Y11.5331      R3.5000    
   X160.3609     Y11.5000      R3.5000    
G1   X125.459   
G17 G2   X124.9536     Y11.5331      R3.5000    
   X124.5050     Y11.6224      R3.5000    
   X124.0718     Y11.7694      R3.5000    
   X123.6616     Y11.9717      R3.5000    
   X123.2813     Y12.2258      R3.5000    
   X122.9374     Y12.5274      R3.5000    
   X122.6358     Y12.8713      R3.5000    
   X122.3817     Y13.2516      R3.5000    
   X122.1794     Y13.6618      R3.5000    
   X122.0324     Y14.0950      R3.5000    
   X121.9431     Y14.5436      R3.5000    
   X121.9100     Y15.0491      R3.5000    
G1   Y106.551   
G17 G2   X121.9431     Y107.0564     R3.5000    
   X122.0324     Y107.5050     R3.5000    
   X122.1794     Y107.9382     R3.5000    
   X122.3817     Y108.3484     R3.5000    
   X122.6358     Y108.7287     R3.5000    
   X122.9374     Y109.0726     R3.5000    
   X123.2813     Y109.3742     R3.5000    
   X123.6616     Y109.6283     R3.5000    
   X124.0718     Y109.8306     R3.5000    
   X124.5050     Y109.9776     R3.5000    
   X124.9536     Y110.0669     R3.5000    
   X125.4591     Y110.1000     R3.5000    
G1   X160.361   
G17 G2   X160.8664     Y110.0669     R3.5000    
   X161.3150     Y109.9776     R3.5000    
   X161.7482     Y109.8306     R3.5000    
   X162.1584     Y109.6283     R3.5000    
   X162.5387     Y109.3742     R3.5000    
   X162.8826     Y109.0726     R3.5000    
   X163.1842     Y108.7287     R3.5000    
   X163.4383     Y108.3484     R3.5000    
   X163.6406     Y107.9382     R3.5000    
   X163.7876     Y107.5050     R3.5000    
(Pass: 13)
G1   Z-6.500     F500 
G17 G2   X163.8769     Y107.0564     R3.5000     F400 
   X163.9100     Y106.5509     R3.5000    
G1   Y15.049    
G17 G2   X163.8769     Y14.5436      R3.5000    
   X163.7876     Y14.0950      R3.5000    
   X163.6406     Y13.6618      R3.5000    
   X163.4383     Y13.2516      R3.5000    
   X163.1842     Y12.8713      R3.5000    
   X162.8826     Y12.5274      R3.5000    
   X162.5387     Y12.2258      R3.5000    
   X162.1584     Y11.9717      R3.5000    
   X161.7482     Y11.7694      R3.5000    
   X161.3150     Y11.6224      R3.5000    
   X160.8664     Y11.5331      R3.5000    
   X160.3609     Y11.5000      R3.5000    
G1   X125.459   
G17 G2   X124.9536     Y11.5331      R3.5000    
   X124.5050     Y11.6224      R3.5000    
   X124.0718     Y11.7694      R3.5000    
   X123.6616     Y11.9717      R3.5000    
   X123.2813     Y12.2258      R3.5000    
   X122.9374     Y12.5274      R3.5000    
   X122.6358     Y12.8713      R3.5000    
   X122.3817     Y13.2516      R3.5000    
   X122.1794     Y13.6618      R3.5000    
   X122.0324     Y14.0950      R3.5000    
   X121.9431     Y14.5436      R3.5000    
   X121.9100     Y15.0491      R3.5000    
G1   Y106.551   
G17 G2   X121.9431     Y107.0564     R3.5000    
   X122.0324     Y107.5050     R3.5000    
   X122.1794     Y107.9382     R3.5000    
   X122.3817     Y108.3484     R3.5000    
   X122.6358     Y108.7287     R3.5000    
   X122.9374     Y109.0726     R3.5000    
   X123.2813     Y109.3742     R3.5000    
   X123.6616     Y109.6283     R3.5000    
   X124.0718     Y109.8306     R3.5000    
   X124.5050     Y109.9776     R3.5000    
   X124.9536     Y110.0669     R3.5000    
   X125.4591     Y110.1000     R3.5000    
G1   X160.361   
G17 G2   X160.8664     Y110.0669     R3.5000    
   X161.3150     Y109.9776     R3.5000    
   X161.7482     Y109.8306     R3.5000    
   X162.1584     Y109.6283     R3.5000    
   X162.5387     Y109.3742     R3.5000    
   X162.8826     Y109.0726     R3.5000    
   X163.1842     Y108.7287     R3.5000    
   X163.4383     Y108.3484     R3.5000    
   X163.6406     Y107.9382     R3.5000    
   X163.7876     Y107.5050     R3.5000    
G0   Z10.000    
(Pass: 1)
   X45.987       Y126.600   
G1   Z-0.500     F500 
G17 G2   X45.9534      Y126.3445     R1.0000     F400 
   X45.8548      Y126.1065     R1.0000    
   X45.6980      Y125.9020     R1.0000    
   X45.4935      Y125.7452     R1.0000    
   X45.2555      Y125.6466     R1.0000    
   X45.0000      Y125.6129     R1.0000    
   X44.7445      Y125.6466     R1.0000    
   X44.5065      Y125.7452     R1.0000    
   X44.3020      Y125.9020     R1.0000    
   X44.1452      Y126.1065     R1.0000    
   X44.0466      Y126.3445     R1.0000    
   X44.0129      Y126.6000     R1.0000    
   X44.0466      Y126.8555     R1.0000    
   X44.1452      Y127.0935     R1.0000    
   X44.3020      Y127.2980     R1.0000    
   X44.5065      Y127.4548     R1.0000    
   X44.7445      Y127.5534     R1.0000    
   X45.0000      Y127.5871     R1.0000    
   X45.2555      Y127.5534     R1.0000    
   X45.4935      Y127.4548     R1.0000    
   X45.6980      Y127.2980     R1.0000    
   X45.8548      Y127.0935     R1.0000    
   X45.9534      Y126.8555     R1.0000    
   X45.9871      Y126.6000     R1.0000    
(Pass: 2)
G1   Z-1.000     F500 
G17 G2   X45.9534      Y126.3445     R1.0000     F400 
   X45.8548      Y126.1065     R1.0000    
   X45.6980      Y125.9020     R1.0000    
   X45.4935      Y125.7452     R1.0000    
   X45.2555      Y125.6466     R1.0000    
   X45.0000      Y125.6129     R1.0000    
   X44.7445      Y125.6466     R1.0000    
   X44.5065      Y125.7452     R1.0000    
   X44.3020      Y125.9020     R1.0000    
   X44.1452      Y126.1065     R1.0000    
   X44.0466      Y126.3445     R1.0000    
   X44.0129      Y126.6000     R1.0000    
   X44.0466      Y126.8555     R1.0000    
   X44.1452      Y127.0935     R1.0000    
   X44.3020      Y127.2980     R1.0000    
   X44.5065      Y127.4548     R1.0000    
   X44.7445      Y127.5534     R1.0000    
   X45.0000      Y127.5871     R1.0000    
   X45.2555      Y127.5534     R1.0000    
   X45.4935      Y127.4548     R1.0000    
   X45.6980      Y127.2980     R1.0000    
   X45.8548      Y127.0935     R1.0000    
   X45.9534      Y126.8555     R1.0000    
   X45.9871      Y126.6000     R1.0000    
(Pass: 3)
G1   Z-1.500     F500 
G17 G2   X45.9534      Y126.3445     R1.0000     F400 
   X45.8548      Y126.1065     R1.0000    
   X45.6980      Y125.9020     R1.0000    
   X45.4935      Y125.7452     R1.0000    
   X45.2555      Y125.6466     R1.0000    
   X45.0000      Y125.6129     R1.0000    
   X44.7445      Y125.6466     R1.0000    
   X44.5065      Y125.7452     R1.0000    
   X44.3020      Y125.9020     R1.0000    
   X44.1452      Y126.1065     R1.0000    
   X44.0466      Y126.3445     R1.0000    
   X44.0129      Y126.6000     R1.0000    
   X44.0466      Y126.8555     R1.0000    
   X44.1452      Y127.0935     R1.0000    
   X44.3020      Y127.2980     R1.0000    
   X44.5065      Y127.4548     R1.0000    
   X44.7445      Y127.5534     R1.0000    
   X45.0000      Y127.5871     R1.0000    
   X45.2555      Y127.5534     R1.0000    
   X45.4935      Y127.4548     R1.0000    
   X45.6980      Y127.2980     R1.0000    
   X45.8548      Y127.0935     R1.0000    
   X45.9534      Y126.8555     R1.0000    
   X45.9871      Y126.6000     R1.0000    
(Pass: 4)
G1   Z-2.000     F500 
G17 G2   X45.9534      Y126.3445     R1.0000     F400 
   X45.8548      Y126.1065     R1.0000    
   X45.6980      Y125.9020     R1.0000    
   X45.4935      Y125.7452     R1.0000    
   X45.2555      Y125.6466     R1.0000    
   X45.0000      Y125.6129     R1.0000    
   X44.7445      Y125.6466     R1.0000    
   X44.5065      Y125.7452     R1.0000    
   X44.3020      Y125.9020     R1.0000    
   X44.1452      Y126.1065     R1.0000    
   X44.0466      Y126.3445     R1.0000    
   X44.0129      Y126.6000     R1.0000    
   X44.0466      Y126.8555     R1.0000    
   X44.1452      Y127.0935     R1.0000    
   X44.3020      Y127.2980     R1.0000    
   X44.5065      Y127.4548     R1.0000    
   X44.7445      Y127.5534     R1.0000    
   X45.0000      Y127.5871     R1.0000    
   X45.2555      Y127.5534     R1.0000    
   X45.4935      Y127.4548     R1.0000    
   X45.6980      Y127.2980     R1.0000    
   X45.8548      Y127.0935     R1.0000    
   X45.9534      Y126.8555     R1.0000    
   X45.9871      Y126.6000     R1.0000    
(Pass: 5)
G1   Z-2.500     F500 
G17 G2   X45.9534      Y126.3445     R1.0000     F400 
   X45.8548      Y126.1065     R1.0000    
   X45.6980      Y125.9020     R1.0000    
   X45.4935      Y125.7452     R1.0000    
   X45.2555      Y125.6466     R1.0000    
   X45.0000      Y125.6129     R1.0000    
   X44.7445      Y125.6466     R1.0000    
   X44.5065      Y125.7452     R1.0000    
   X44.3020      Y125.9020     R1.0000    
   X44.1452      Y126.1065     R1.0000    
   X44.0466      Y126.3445     R1.0000    
   X44.0129      Y126.6000     R1.0000    
   X44.0466      Y126.8555     R1.0000    
   X44.1452      Y127.0935     R1.0000    
   X44.3020      Y127.2980     R1.0000    
   X44.5065      Y127.4548     R1.0000    
   X44.7445      Y127.5534     R1.0000    
   X45.0000      Y127.5871     R1.0000    
   X45.2555      Y127.5534     R1.0000    
   X45.4935      Y127.4548     R1.0000    
   X45.6980      Y127.2980     R1.0000    
   X45.8548      Y127.0935     R1.0000    
   X45.9534      Y126.8555     R1.0000    
   X45.9871      Y126.6000     R1.0000    
(Pass: 6)
G1   Z-3.000     F500 
G17 G2   X45.9534      Y126.3445     R1.0000     F400 
   X45.8548      Y126.1065     R1.0000    
   X45.6980      Y125.9020     R1.0000    
   X45.4935      Y125.7452     R1.0000    
   X45.2555      Y125.6466     R1.0000    
   X45.0000      Y125.6129     R1.0000    
   X44.7445      Y125.6466     R1.0000    
   X44.5065      Y125.7452     R1.0000    
   X44.3020      Y125.9020     R1.0000    
   X44.1452      Y126.1065     R1.0000    
   X44.0466      Y126.3445     R1.0000    
   X44.0129      Y126.6000     R1.0000    
   X44.0466      Y126.8555     R1.0000    
   X44.1452      Y127.0935     R1.0000    
   X44.3020      Y127.2980     R1.0000    
   X44.5065      Y127.4548     R1.0000    
   X44.7445      Y127.5534     R1.0000    
   X45.0000      Y127.5871     R1.0000    
   X45.2555      Y127.5534     R1.0000    
   X45.4935      Y127.4548     R1.0000    
   X45.6980      Y127.2980     R1.0000    
   X45.8548      Y127.0935     R1.0000    
   X45.9534      Y126.8555     R1.0000    
   X45.9871      Y126.6000     R1.0000    
(Pass: 7)
G1   Z-3.500     F500 
G17 G2   X45.9534      Y126.3445     R1.0000     F400 
   X45.8548      Y126.1065     R1.0000    
   X45.6980      Y125.9020     R1.0000    
   X45.4935      Y125.7452     R1.0000    
   X45.2555      Y125.6466     R1.0000    
   X45.0000      Y125.6129     R1.0000    
   X44.7445      Y125.6466     R1.0000    
   X44.5065      Y125.7452     R1.0000    
   X44.3020      Y125.9020     R1.0000    
   X44.1452      Y126.1065     R1.0000    
   X44.0466      Y126.3445     R1.0000    
   X44.0129      Y126.6000     R1.0000    
   X44.0466      Y126.8555     R1.0000    
   X44.1452      Y127.0935     R1.0000    
   X44.3020      Y127.2980     R1.0000    
   X44.5065      Y127.4548     R1.0000    
   X44.7445      Y127.5534     R1.0000    
   X45.0000      Y127.5871     R1.0000    
   X45.2555      Y127.5534     R1.0000    
   X45.4935      Y127.4548     R1.0000    
   X45.6980      Y127.2980     R1.0000    
   X45.8548      Y127.0935     R1.0000    
   X45.9534      Y126.8555     R1.0000    
   X45.9871      Y126.6000     R1.0000    
(Pass: 8)
G1   Z-4.000     F500 
G17 G2   X45.9534      Y126.3445     R1.0000     F400 
   X45.8548      Y126.1065     R1.0000    
   X45.6980      Y125.9020     R1.0000    
   X45.4935      Y125.7452     R1.0000    
   X45.2555      Y125.6466     R1.0000    
   X45.0000      Y125.6129     R1.0000    
   X44.7445      Y125.6466     R1.0000    
   X44.5065      Y125.7452     R1.0000    
   X44.3020      Y125.9020     R1.0000    
   X44.1452      Y126.1065     R1.0000    
   X44.0466      Y126.3445     R1.0000    
   X44.0129      Y126.6000     R1.0000    
   X44.0466      Y126.8555     R1.0000    
   X44.1452      Y127.0935     R1.0000    
   X44.3020      Y127.2980     R1.0000    
   X44.5065      Y127.4548     R1.0000    
   X44.7445      Y127.5534     R1.0000    
   X45.0000      Y127.5871     R1.0000    
   X45.2555      Y127.5534     R1.0000    
   X45.4935      Y127.4548     R1.0000    
   X45.6980      Y127.2980     R1.0000    
   X45.8548      Y127.0935     R1.0000    
   X45.9534      Y126.8555     R1.0000    
   X45.9871      Y126.6000     R1.0000    
(Pass: 9)
G1   Z-4.500     F500 
G17 G2   X45.9534      Y126.3445     R1.0000     F400 
   X45.8548      Y126.1065     R1.0000    
   X45.6980      Y125.9020     R1.0000    
   X45.4935      Y125.7452     R1.0000    
   X45.2555      Y125.6466     R1.0000    
   X45.0000      Y125.6129     R1.0000    
   X44.7445      Y125.6466     R1.0000    
   X44.5065      Y125.7452     R1.0000    
   X44.3020      Y125.9020     R1.0000    
   X44.1452      Y126.1065     R1.0000    
   X44.0466      Y126.3445     R1.0000    
   X44.0129      Y126.6000     R1.0000    
   X44.0466      Y126.8555     R1.0000    
   X44.1452      Y127.0935     R1.0000    
   X44.3020      Y127.2980     R1.0000    
   X44.5065      Y127.4548     R1.0000    
   X44.7445      Y127.5534     R1.0000    
   X45.0000      Y127.5871     R1.0000    
   X45.2555      Y127.5534     R1.0000    
   X45.4935      Y127.4548     R1.0000    
   X45.6980      Y127.2980     R1.0000    
   X45.8548      Y127.0935     R1.0000    
   X45.9534      Y126.8555     R1.0000    
   X45.9871      Y126.6000     R1.0000    
(Pass: 10)
G1   Z-5.000     F500 
G17 G2   X45.9534      Y126.3445     R1.0000     F400 
   X45.8548      Y126.1065     R1.0000    
   X45.6980      Y125.9020     R1.0000    
   X45.4935      Y125.7452     R1.0000    
   X45.2555      Y125.6466     R1.0000    
   X45.0000      Y125.6129     R1.0000    
   X44.7445      Y125.6466     R1.0000    
   X44.5065      Y125.7452     R1.0000    
   X44.3020      Y125.9020     R1.0000    
   X44.1452      Y126.1065     R1.0000    
   X44.0466      Y126.3445     R1.0000    
   X44.0129      Y126.6000     R1.0000    
   X44.0466      Y126.8555     R1.0000    
   X44.1452      Y127.0935     R1.0000    
   X44.3020      Y127.2980     R1.0000    
   X44.5065      Y127.4548     R1.0000    
   X44.7445      Y127.5534     R1.0000    
   X45.0000      Y127.5871     R1.0000    
   X45.2555      Y127.5534     R1.0000    
   X45.4935      Y127.4548     R1.0000    
   X45.6980      Y127.2980     R1.0000    
   X45.8548      Y127.0935     R1.0000    
   X45.9534      Y126.8555     R1.0000    
   X45.9871      Y126.6000     R1.0000    
(Pass: 11)
G1   Z-5.500     F500 
G17 G2   X45.9534      Y126.3445     R1.0000     F400 
   X45.8548      Y126.1065     R1.0000    
   X45.6980      Y125.9020     R1.0000    
   X45.4935      Y125.7452     R1.0000    
   X45.2555      Y125.6466     R1.0000    
   X45.0000      Y125.6129     R1.0000    
   X44.7445      Y125.6466     R1.0000    
   X44.5065      Y125.7452     R1.0000    
   X44.3020      Y125.9020     R1.0000    
   X44.1452      Y126.1065     R1.0000    
   X44.0466      Y126.3445     R1.0000    
   X44.0129      Y126.6000     R1.0000    
   X44.0466      Y126.8555     R1.0000    
   X44.1452      Y127.0935     R1.0000    
   X44.3020      Y127.2980     R1.0000    
   X44.5065      Y127.4548     R1.0000    
   X44.7445      Y127.5534     R1.0000    
   X45.0000      Y127.5871     R1.0000    
   X45.2555      Y127.5534     R1.0000    
   X45.4935      Y127.4548     R1.0000    
   X45.6980      Y127.2980     R1.0000    
   X45.8548      Y127.0935     R1.0000    
   X45.9534      Y126.8555     R1.0000    
   X45.9871      Y126.6000     R1.0000    
(Pass: 12)
G1   Z-6.000     F500 
G17 G2   X45.9534      Y126.3445     R1.0000     F400 
   X45.8548      Y126.1065     R1.0000    
   X45.6980      Y125.9020     R1.0000    
   X45.4935      Y125.7452     R1.0000    
   X45.2555      Y125.6466     R1.0000    
   X45.0000      Y125.6129     R1.0000    
   X44.7445      Y125.6466     R1.0000    
   X44.5065      Y125.7452     R1.0000    
   X44.3020      Y125.9020     R1.0000    
   X44.1452      Y126.1065     R1.0000    
   X44.0466      Y126.3445     R1.0000    
   X44.0129      Y126.6000     R1.0000    
   X44.0466      Y126.8555     R1.0000    
   X44.1452      Y127.0935     R1.0000    
   X44.3020      Y127.2980     R1.0000    
   X44.5065      Y127.4548     R1.0000    
   X44.7445      Y127.5534     R1.0000    
   X45.0000      Y127.5871     R1.0000    
   X45.2555      Y127.5534     R1.0000    
   X45.4935      Y127.4548     R1.0000    
   X45.6980      Y127.2980     R1.0000    
   X45.8548      Y127.0935     R1.0000    
   X45.9534      Y126.8555     R1.0000    
   X45.9871      Y126.6000     R1.0000    
(Pass: 13)
G1   Z-6.500     F500 
G17 G2   X45.9534      Y126.3445     R1.0000     F400 
   X45.8548      Y126.1065     R1.0000    
   X45.6980      Y125.9020     R1.0000    
   X45.4935      Y125.7452     R1.0000    
   X45.2555      Y125.6466     R1.0000    
   X45.0000      Y125.6129     R1.0000    
   X44.7445      Y125.6466     R1.0000    
   X44.5065      Y125.7452     R1.0000    
   X44.3020      Y125.9020     R1.0000    
   X44.1452      Y126.1065     R1.0000    
   X44.0466      Y126.3445     R1.0000    
   X44.0129      Y126.6000     R1.0000    
   X44.0466      Y126.8555     R1.0000    
   X44.1452      Y127.0935     R1.0000    
   X44.3020      Y127.2980     R1.0000    
   X44.5065      Y127.4548     R1.0000    
   X44.7445      Y127.5534     R1.0000    
   X45.0000      Y127.5871     R1.0000    
   X45.2555      Y127.5534     R1.0000    
   X45.4935      Y127.4548     R1.0000    
   X45.6980      Y127.2980     R1.0000    
   X45.8548      Y127.0935     R1.0000    
   X45.9534      Y126.8555     R1.0000    
   X45.9871      Y126.6000     R1.0000    
G0   Z10.000    
(Pass: 1)
   X25.985       Y126.662   
G1   Z-0.500     F500 
G17 G2   X25.9676      Y126.4048     R1.0000     F400 
   X25.8841      Y126.1610     R1.0000    
   X25.7403      Y125.9472     R1.0000    
   X25.5461      Y125.7778     R1.0000    
   X25.3147      Y125.6645     R1.0000    
   X25.0619      Y125.6149     R1.0000    
   X24.8048      Y125.6324     R1.0000    
   X24.5610      Y125.7159     R1.0000    
   X24.3472      Y125.8597     R1.0000    
   X24.1778      Y126.0539     R1.0000    
   X24.0645      Y126.2853     R1.0000    
   X24.0149      Y126.5381     R1.0000    
   X24.0324      Y126.7952     R1.0000    
   X24.1159      Y127.0390     R1.0000    
   X24.2597      Y127.2528     R1.0000    
   X24.4539      Y127.4222     R1.0000    
   X24.6853      Y127.5355     R1.0000    
   X24.9381      Y127.5851     R1.0000    
   X25.1952      Y127.5676     R1.0000    
   X25.4390      Y127.4841     R1.0000    
   X25.6528      Y127.3403     R1.0000    
   X25.8222      Y127.1461     R1.0000    
   X25.9355      Y126.9147     R1.0000    
   X25.9851      Y126.6619     R1.0000    
(Pass: 2)
G1   Z-1.000     F500 
G17 G2   X25.9676      Y126.4048     R1.0000     F400 
   X25.8841      Y126.1610     R1.0000    
   X25.7403      Y125.9472     R1.0000    
   X25.5461      Y125.7778     R1.0000    
   X25.3147      Y125.6645     R1.0000    
   X25.0619      Y125.6149     R1.0000    
   X24.8048      Y125.6324     R1.0000    
   X24.5610      Y125.7159     R1.0000    
   X24.3472      Y125.8597     R1.0000    
   X24.1778      Y126.0539     R1.0000    
   X24.0645      Y126.2853     R1.0000    
   X24.0149      Y126.5381     R1.0000    
   X24.0324      Y126.7952     R1.0000    
   X24.1159      Y127.0390     R1.0000    
   X24.2597      Y127.2528     R1.0000    
   X24.4539      Y127.4222     R1.0000    
   X24.6853      Y127.5355     R1.0000    
   X24.9381      Y127.5851     R1.0000    
   X25.1952      Y127.5676     R1.0000    
   X25.4390      Y127.4841     R1.0000    
   X25.6528      Y127.3403     R1.0000    
   X25.8222      Y127.1461     R1.0000    
   X25.9355      Y126.9147     R1.0000    
   X25.9851      Y126.6619     R1.0000    
(Pass: 3)
G1   Z-1.500     F500 
G17 G2   X25.9676      Y126.4048     R1.0000     F400 
   X25.8841      Y126.1610     R1.0000    
   X25.7403      Y125.9472     R1.0000    
   X25.5461      Y125.7778     R1.0000    
   X25.3147      Y125.6645     R1.0000    
   X25.0619      Y125.6149     R1.0000    
   X24.8048      Y125.6324     R1.0000    
   X24.5610      Y125.7159     R1.0000    
   X24.3472      Y125.8597     R1.0000    
   X24.1778      Y126.0539     R1.0000    
   X24.0645      Y126.2853     R1.0000    
   X24.0149      Y126.5381     R1.0000    
   X24.0324      Y126.7952     R1.0000    
   X24.1159      Y127.0390     R1.0000    
   X24.2597      Y127.2528     R1.0000    
   X24.4539      Y127.4222     R1.0000    
   X24.6853      Y127.5355     R1.0000    
   X24.9381      Y127.5851     R1.0000    
   X25.1952      Y127.5676     R1.0000    
   X25.4390      Y127.4841     R1.0000    
   X25.6528      Y127.3403     R1.0000    
   X25.8222      Y127.1461     R1.0000    
   X25.9355      Y126.9147     R1.0000    
   X25.9851      Y126.6619     R1.0000    
(Pass: 4)
G1   Z-2.000     F500 
G17 G2   X25.9676      Y126.4048     R1.0000     F400 
   X25.8841      Y126.1610     R1.0000    
   X25.7403      Y125.9472     R1.0000    
   X25.5461      Y125.7778     R1.0000    
   X25.3147      Y125.6645     R1.0000    
   X25.0619      Y125.6149     R1.0000    
   X24.8048      Y125.6324     R1.0000    
   X24.5610      Y125.7159     R1.0000    
   X24.3472      Y125.8597     R1.0000    
   X24.1778      Y126.0539     R1.0000    
   X24.0645      Y126.2853     R1.0000    
   X24.0149      Y126.5381     R1.0000    
   X24.0324      Y126.7952     R1.0000    
   X24.1159      Y127.0390     R1.0000    
   X24.2597      Y127.2528     R1.0000    
   X24.4539      Y127.4222     R1.0000    
   X24.6853      Y127.5355     R1.0000    
   X24.9381      Y127.5851     R1.0000    
   X25.1952      Y127.5676     R1.0000    
   X25.4390      Y127.4841     R1.0000    
   X25.6528      Y127.3403     R1.0000    
   X25.8222      Y127.1461     R1.0000    
   X25.9355      Y126.9147     R1.0000    
   X25.9851      Y126.6619     R1.0000    
(Pass: 5)
G1   Z-2.500     F500 
G17 G2   X25.9676      Y126.4048     R1.0000     F400 
   X25.8841      Y126.1610     R1.0000    
   X25.7403      Y125.9472     R1.0000    
   X25.5461      Y125.7778     R1.0000    
   X25.3147      Y125.6645     R1.0000    
   X25.0619      Y125.6149     R1.0000    
   X24.8048      Y125.6324     R1.0000    
   X24.5610      Y125.7159     R1.0000    
   X24.3472      Y125.8597     R1.0000    
   X24.1778      Y126.0539     R1.0000    
   X24.0645      Y126.2853     R1.0000    
   X24.0149      Y126.5381     R1.0000    
   X24.0324      Y126.7952     R1.0000    
   X24.1159      Y127.0390     R1.0000    
   X24.2597      Y127.2528     R1.0000    
   X24.4539      Y127.4222     R1.0000    
   X24.6853      Y127.5355     R1.0000    
   X24.9381      Y127.5851     R1.0000    
   X25.1952      Y127.5676     R1.0000    
   X25.4390      Y127.4841     R1.0000    
   X25.6528      Y127.3403     R1.0000    
   X25.8222      Y127.1461     R1.0000    
   X25.9355      Y126.9147     R1.0000    
   X25.9851      Y126.6619     R1.0000    
(Pass: 6)
G1   Z-3.000     F500 
G17 G2   X25.9676      Y126.4048     R1.0000     F400 
   X25.8841      Y126.1610     R1.0000    
   X25.7403      Y125.9472     R1.0000    
   X25.5461      Y125.7778     R1.0000    
   X25.3147      Y125.6645     R1.0000    
   X25.0619      Y125.6149     R1.0000    
   X24.8048      Y125.6324     R1.0000    
   X24.5610      Y125.7159     R1.0000    
   X24.3472      Y125.8597     R1.0000    
   X24.1778      Y126.0539     R1.0000    
   X24.0645      Y126.2853     R1.0000    
   X24.0149      Y126.5381     R1.0000    
   X24.0324      Y126.7952     R1.0000    
   X24.1159      Y127.0390     R1.0000    
   X24.2597      Y127.2528     R1.0000    
   X24.4539      Y127.4222     R1.0000    
   X24.6853      Y127.5355     R1.0000    
   X24.9381      Y127.5851     R1.0000    
   X25.1952      Y127.5676     R1.0000    
   X25.4390      Y127.4841     R1.0000    
   X25.6528      Y127.3403     R1.0000    
   X25.8222      Y127.1461     R1.0000    
   X25.9355      Y126.9147     R1.0000    
   X25.9851      Y126.6619     R1.0000    
(Pass: 7)
G1   Z-3.500     F500 
G17 G2   X25.9676      Y126.4048     R1.0000     F400 
   X25.8841      Y126.1610     R1.0000    
   X25.7403      Y125.9472     R1.0000    
   X25.5461      Y125.7778     R1.0000    
   X25.3147      Y125.6645     R1.0000    
   X25.0619      Y125.6149     R1.0000    
   X24.8048      Y125.6324     R1.0000    
   X24.5610      Y125.7159     R1.0000    
   X24.3472      Y125.8597     R1.0000    
   X24.1778      Y126.0539     R1.0000    
   X24.0645      Y126.2853     R1.0000    
   X24.0149      Y126.5381     R1.0000    
   X24.0324      Y126.7952     R1.0000    
   X24.1159      Y127.0390     R1.0000    
   X24.2597      Y127.2528     R1.0000    
   X24.4539      Y127.4222     R1.0000    
   X24.6853      Y127.5355     R1.0000    
   X24.9381      Y127.5851     R1.0000    
   X25.1952      Y127.5676     R1.0000    
   X25.4390      Y127.4841     R1.0000    
   X25.6528      Y127.3403     R1.0000    
   X25.8222      Y127.1461     R1.0000    
   X25.9355      Y126.9147     R1.0000    
   X25.9851      Y126.6619     R1.0000    
(Pass: 8)
G1   Z-4.000     F500 
G17 G2   X25.9676      Y126.4048     R1.0000     F400 
   X25.8841      Y126.1610     R1.0000    
   X25.7403      Y125.9472     R1.0000    
   X25.5461      Y125.7778     R1.0000    
   X25.3147      Y125.6645     R1.0000    
   X25.0619      Y125.6149     R1.0000    
   X24.8048      Y125.6324     R1.0000    
   X24.5610      Y125.7159     R1.0000    
   X24.3472      Y125.8597     R1.0000    
   X24.1778      Y126.0539     R1.0000    
   X24.0645      Y126.2853     R1.0000    
   X24.0149      Y126.5381     R1.0000    
   X24.0324      Y126.7952     R1.0000    
   X24.1159      Y127.0390     R1.0000    
   X24.2597      Y127.2528     R1.0000    
   X24.4539      Y127.4222     R1.0000    
   X24.6853      Y127.5355     R1.0000    
   X24.9381      Y127.5851     R1.0000    
   X25.1952      Y127.5676     R1.0000    
   X25.4390      Y127.4841     R1.0000    
   X25.6528      Y127.3403     R1.0000    
   X25.8222      Y127.1461     R1.0000    
   X25.9355      Y126.9147     R1.0000    
   X25.9851      Y126.6619     R1.0000    
(Pass: 9)
G1   Z-4.500     F500 
G17 G2   X25.9676      Y126.4048     R1.0000     F400 
   X25.8841      Y126.1610     R1.0000    
   X25.7403      Y125.9472     R1.0000    
   X25.5461      Y125.7778     R1.0000    
   X25.3147      Y125.6645     R1.0000    
   X25.0619      Y125.6149     R1.0000    
   X24.8048      Y125.6324     R1.0000    
   X24.5610      Y125.7159     R1.0000    
   X24.3472      Y125.8597     R1.0000    
   X24.1778      Y126.0539     R1.0000    
   X24.0645      Y126.2853     R1.0000    
   X24.0149      Y126.5381     R1.0000    
   X24.0324      Y126.7952     R1.0000    
   X24.1159      Y127.0390     R1.0000    
   X24.2597      Y127.2528     R1.0000    
   X24.4539      Y127.4222     R1.0000    
   X24.6853      Y127.5355     R1.0000    
   X24.9381      Y127.5851     R1.0000    
   X25.1952      Y127.5676     R1.0000    
   X25.4390      Y127.4841     R1.0000    
   X25.6528      Y127.3403     R1.0000    
   X25.8222      Y127.1461     R1.0000    
   X25.9355      Y126.9147     R1.0000    
   X25.9851      Y126.6619     R1.0000    
(Pass: 10)
G1   Z-5.000     F500 
G17 G2   X25.9676      Y126.4048     R1.0000     F400 
   X25.8841      Y126.1610     R1.0000    
   X25.7403      Y125.9472     R1.0000    
   X25.5461      Y125.7778     R1.0000    
   X25.3147      Y125.6645     R1.0000    
   X25.0619      Y125.6149     R1.0000    
   X24.8048      Y125.6324     R1.0000    
   X24.5610      Y125.7159     R1.0000    
   X24.3472      Y125.8597     R1.0000    
   X24.1778      Y126.0539     R1.0000    
   X24.0645      Y126.2853     R1.0000    
   X24.0149      Y126.5381     R1.0000    
   X24.0324      Y126.7952     R1.0000    
