%
(Generated by SketchUcam {1.2})
(File: Router Control Board.skp)
(Bit diameter: 2.0mm)
(Feed rate: 400.0mm/min)
(Plunge Feed rate: 500.0mm/min)
(Material Thickness: 6.5mm)
(Material length: 152.0mm X width: 304.0mm)
(Overhead Gantry: true)
(Retract feed rate NOT limited to plunge feed rate)
(Multipass enabled, Depth = 0.5mm)
(Optimization is ON)
(www.PhlatBoyz.com)
G90 G21 G49 
M3 S10000
G0   Z10.000    
(Pass: 1)
   X202.044      Y13.117    
G1   Z-0.500     F500 
G17 G2   X202.0499     Y13.1795      R0.2500     F400 
   X202.0720     Y13.2385      R0.2500    
   X202.1086     Y13.2898      R0.2500    
   X202.1573     Y13.3298      R0.2500    
   X202.2147     Y13.3559      R0.2500    
   X202.2768     Y13.3662      R0.2500    
   X202.3395     Y13.3601      R0.2500    
   X202.3985     Y13.3380      R0.2500    
   X202.4498     Y13.3014      R0.2500    
   X202.4898     Y13.2527      R0.2500    
   X202.5159     Y13.1953      R0.2500    
   X202.5262     Y13.1332      R0.2500    
   X202.5201     Y13.0705      R0.2500    
   X202.4980     Y13.0115      R0.2500    
   X202.4614     Y12.9602      R0.2500    
   X202.4127     Y12.9202      R0.2500    
   X202.3553     Y12.8941      R0.2500    
   X202.2932     Y12.8838      R0.2500    
   X202.2305     Y12.8899      R0.2500    
   X202.1715     Y12.9120      R0.2500    
   X202.1202     Y12.9486      R0.2500    
   X202.0802     Y12.9973      R0.2500    
   X202.0541     Y13.0547      R0.2500    
   X202.0438     Y13.1168      R0.2500    
(Pass: 2)
G1   Z-1.000     F500 
G17 G2   X202.0499     Y13.1795      R0.2500     F400 
   X202.0720     Y13.2385      R0.2500    
   X202.1086     Y13.2898      R0.2500    
   X202.1573     Y13.3298      R0.2500    
   X202.2147     Y13.3559      R0.2500    
   X202.2768     Y13.3662      R0.2500    
   X202.3395     Y13.3601      R0.2500    
   X202.3985     Y13.3380      R0.2500    
   X202.4498     Y13.3014      R0.2500    
   X202.4898     Y13.2527      R0.2500    
   X202.5159     Y13.1953      R0.2500    
   X202.5262     Y13.1332      R0.2500    
   X202.5201     Y13.0705      R0.2500    
   X202.4980     Y13.0115      R0.2500    
   X202.4614     Y12.9602      R0.2500    
   X202.4127     Y12.9202      R0.2500    
   X202.3553     Y12.8941      R0.2500    
   X202.2932     Y12.8838      R0.2500    
   X202.2305     Y12.8899      R0.2500    
   X202.1715     Y12.9120      R0.2500    
   X202.1202     Y12.9486      R0.2500    
   X202.0802     Y12.9973      R0.2500    
   X202.0541     Y13.0547      R0.2500    
   X202.0438     Y13.1168      R0.2500    
(Pass: 3)
G1   Z-1.500     F500 
G17 G2   X202.0499     Y13.1795      R0.2500     F400 
   X202.0720     Y13.2385      R0.2500    
   X202.1086     Y13.2898      R0.2500    
   X202.1573     Y13.3298      R0.2500    
   X202.2147     Y13.3559      R0.2500    
   X202.2768     Y13.3662      R0.2500    
   X202.3395     Y13.3601      R0.2500    
   X202.3985     Y13.3380      R0.2500    
   X202.4498     Y13.3014      R0.2500    
   X202.4898     Y13.2527      R0.2500    
   X202.5159     Y13.1953      R0.2500    
   X202.5262     Y13.1332      R0.2500    
   X202.5201     Y13.0705      R0.2500    
   X202.4980     Y13.0115      R0.2500    
   X202.4614     Y12.9602      R0.2500    
   X202.4127     Y12.9202      R0.2500    
   X202.3553     Y12.8941      R0.2500    
   X202.2932     Y12.8838      R0.2500    
   X202.2305     Y12.8899      R0.2500    
   X202.1715     Y12.9120      R0.2500    
   X202.1202     Y12.9486      R0.2500    
   X202.0802     Y12.9973      R0.2500    
   X202.0541     Y13.0547      R0.2500    
   X202.0438     Y13.1168      R0.2500    
(Pass: 4)
G1   Z-2.000     F500 
G17 G2   X202.0499     Y13.1795      R0.2500     F400 
   X202.0720     Y13.2385      R0.2500    
   X202.1086     Y13.2898      R0.2500    
   X202.1573     Y13.3298      R0.2500    
   X202.2147     Y13.3559      R0.2500    
   X202.2768     Y13.3662      R0.2500    
   X202.3395     Y13.3601      R0.2500    
   X202.3985     Y13.3380      R0.2500    
   X202.4498     Y13.3014      R0.2500    
   X202.4898     Y13.2527      R0.2500    
   X202.5159     Y13.1953      R0.2500    
   X202.5262     Y13.1332      R0.2500    
   X202.5201     Y13.0705      R0.2500    
   X202.4980     Y13.0115      R0.2500    
   X202.4614     Y12.9602      R0.2500    
   X202.4127     Y12.9202      R0.2500    
   X202.3553     Y12.8941      R0.2500    
   X202.2932     Y12.8838      R0.2500    
   X202.2305     Y12.8899      R0.2500    
   X202.1715     Y12.9120      R0.2500    
   X202.1202     Y12.9486      R0.2500    
   X202.0802     Y12.9973      R0.2500    
   X202.0541     Y13.0547      R0.2500    
   X202.0438     Y13.1168      R0.2500    
(Pass: 5)
G1   Z-2.500     F500 
G17 G2   X202.0499     Y13.1795      R0.2500     F400 
   X202.0720     Y13.2385      R0.2500    
   X202.1086     Y13.2898      R0.2500    
   X202.1573     Y13.3298      R0.2500    
   X202.2147     Y13.3559      R0.2500    
   X202.2768     Y13.3662      R0.2500    
   X202.3395     Y13.3601      R0.2500    
   X202.3985     Y13.3380      R0.2500    
   X202.4498     Y13.3014      R0.2500    
   X202.4898     Y13.2527      R0.2500    
   X202.5159     Y13.1953      R0.2500    
   X202.5262     Y13.1332      R0.2500    
   X202.5201     Y13.0705      R0.2500    
   X202.4980     Y13.0115      R0.2500    
   X202.4614     Y12.9602      R0.2500    
   X202.4127     Y12.9202      R0.2500    
   X202.3553     Y12.8941      R0.2500    
   X202.2932     Y12.8838      R0.2500    
   X202.2305     Y12.8899      R0.2500    
   X202.1715     Y12.9120      R0.2500    
   X202.1202     Y12.9486      R0.2500    
   X202.0802     Y12.9973      R0.2500    
   X202.0541     Y13.0547      R0.2500    
   X202.0438     Y13.1168      R0.2500    
(Pass: 6)
G1   Z-3.000     F500 
G17 G2   X202.0499     Y13.1795      R0.2500     F400 
   X202.0720     Y13.2385      R0.2500    
   X202.1086     Y13.2898      R0.2500    
   X202.1573     Y13.3298      R0.2500    
   X202.2147     Y13.3559      R0.2500    
   X202.2768     Y13.3662      R0.2500    
   X202.3395     Y13.3601      R0.2500    
   X202.3985     Y13.3380      R0.2500    
   X202.4498     Y13.3014      R0.2500    
   X202.4898     Y13.2527      R0.2500    
   X202.5159     Y13.1953      R0.2500    
   X202.5262     Y13.1332      R0.2500    
   X202.5201     Y13.0705      R0.2500    
   X202.4980     Y13.0115      R0.2500    
   X202.4614     Y12.9602      R0.2500    
   X202.4127     Y12.9202      R0.2500    
   X202.3553     Y12.8941      R0.2500    
   X202.2932     Y12.8838      R0.2500    
   X202.2305     Y12.8899      R0.2500    
   X202.1715     Y12.9120      R0.2500    
   X202.1202     Y12.9486      R0.2500    
   X202.0802     Y12.9973      R0.2500    
   X202.0541     Y13.0547      R0.2500    
   X202.0438     Y13.1168      R0.2500    
(Pass: 7)
G1   Z-3.500     F500 
G17 G2   X202.0499     Y13.1795      R0.2500     F400 
   X202.0720     Y13.2385      R0.2500    
   X202.1086     Y13.2898      R0.2500    
   X202.1573     Y13.3298      R0.2500    
   X202.2147     Y13.3559      R0.2500    
   X202.2768     Y13.3662      R0.2500    
   X202.3395     Y13.3601      R0.2500    
   X202.3985     Y13.3380      R0.2500    
   X202.4498     Y13.3014      R0.2500    
   X202.4898     Y13.2527      R0.2500    
   X202.5159     Y13.1953      R0.2500    
   X202.5262     Y13.1332      R0.2500    
   X202.5201     Y13.0705      R0.2500    
   X202.4980     Y13.0115      R0.2500    
   X202.4614     Y12.9602      R0.2500    
   X202.4127     Y12.9202      R0.2500    
   X202.3553     Y12.8941      R0.2500    
   X202.2932     Y12.8838      R0.2500    
   X202.2305     Y12.8899      R0.2500    
   X202.1715     Y12.9120      R0.2500    
   X202.1202     Y12.9486      R0.2500    
   X202.0802     Y12.9973      R0.2500    
   X202.0541     Y13.0547      R0.2500    
   X202.0438     Y13.1168      R0.2500    
(Pass: 8)
G1   Z-4.000     F500 
G17 G2   X202.0499     Y13.1795      R0.2500     F400 
   X202.0720     Y13.2385      R0.2500    
   X202.1086     Y13.2898      R0.2500    
   X202.1573     Y13.3298      R0.2500    
   X202.2147     Y13.3559      R0.2500    
   X202.2768     Y13.3662      R0.2500    
   X202.3395     Y13.3601      R0.2500    
   X202.3985     Y13.3380      R0.2500    
   X202.4498     Y13.3014      R0.2500    
   X202.4898     Y13.2527      R0.2500    
   X202.5159     Y13.1953      R0.2500    
   X202.5262     Y13.1332      R0.2500    
   X202.5201     Y13.0705      R0.2500    
   X202.4980     Y13.0115      R0.2500    
   X202.4614     Y12.9602      R0.2500    
   X202.4127     Y12.9202      R0.2500    
   X202.3553     Y12.8941      R0.2500    
   X202.2932     Y12.8838      R0.2500    
   X202.2305     Y12.8899      R0.2500    
   X202.1715     Y12.9120      R0.2500    
   X202.1202     Y12.9486      R0.2500    
   X202.0802     Y12.9973      R0.2500    
   X202.0541     Y13.0547      R0.2500    
   X202.0438     Y13.1168      R0.2500    
(Pass: 9)
G1   Z-4.500     F500 
G17 G2   X202.0499     Y13.1795      R0.2500     F400 
   X202.0720     Y13.2385      R0.2500    
   X202.1086     Y13.2898      R0.2500    
   X202.1573     Y13.3298      R0.2500    
   X202.2147     Y13.3559      R0.2500    
   X202.2768     Y13.3662      R0.2500    
   X202.3395     Y13.3601      R0.2500    
   X202.3985     Y13.3380      R0.2500    
   X202.4498     Y13.3014      R0.2500    
   X202.4898     Y13.2527      R0.2500    
   X202.5159     Y13.1953      R0.2500    
   X202.5262     Y13.1332      R0.2500    
   X202.5201     Y13.0705      R0.2500    
   X202.4980     Y13.0115      R0.2500    
   X202.4614     Y12.9602      R0.2500    
   X202.4127     Y12.9202      R0.2500    
   X202.3553     Y12.8941      R0.2500    
   X202.2932     Y12.8838      R0.2500    
   X202.2305     Y12.8899      R0.2500    
   X202.1715     Y12.9120      R0.2500    
   X202.1202     Y12.9486      R0.2500    
   X202.0802     Y12.9973      R0.2500    
   X202.0541     Y13.0547      R0.2500    
   X202.0438     Y13.1168      R0.2500    
(Pass: 10)
G1   Z-5.000     F500 
G17 G2   X202.0499     Y13.1795      R0.2500     F400 
   X202.0720     Y13.2385      R0.2500    
   X202.1086     Y13.2898      R0.2500    
   X202.1573     Y13.3298      R0.2500    
   X202.2147     Y13.3559      R0.2500    
   X202.2768     Y13.3662      R0.2500    
   X202.3395     Y13.3601      R0.2500    
   X202.3985     Y13.3380      R0.2500    
   X202.4498     Y13.3014      R0.2500    
   X202.4898     Y13.2527      R0.2500    
   X202.5159     Y13.1953      R0.2500    
   X202.5262     Y13.1332      R0.2500    
   X202.5201     Y13.0705      R0.2500    
   X202.4980     Y13.0115      R0.2500    
   X202.4614     Y12.9602      R0.2500    
   X202.4127     Y12.9202      R0.2500    
   X202.3553     Y12.8941      R0.2500    
   X202.2932     Y12.8838      R0.2500    
   X202.2305     Y12.8899      R0.2500    
   X202.1715     Y12.9120      R0.2500    
   X202.1202     Y12.9486      R0.2500    
   X202.0802     Y12.9973      R0.2500    
   X202.0541     Y13.0547      R0.2500    
   X202.0438     Y13.1168      R0.2500    
(Pass: 11)
G1   Z-5.500     F500 
G17 G2   X202.0499     Y13.1795      R0.2500     F400 
   X202.0720     Y13.2385      R0.2500    
   X202.1086     Y13.2898      R0.2500    
   X202.1573     Y13.3298      R0.2500    
   X202.2147     Y13.3559      R0.2500    
   X202.2768     Y13.3662      R0.2500    
   X202.3395     Y13.3601      R0.2500    
   X202.3985     Y13.3380      R0.2500    
   X202.4498     Y13.3014      R0.2500    
   X202.4898     Y13.2527      R0.2500    
   X202.5159     Y13.1953      R0.2500    
   X202.5262     Y13.1332      R0.2500    
   X202.5201     Y13.0705      R0.2500    
   X202.4980     Y13.0115      R0.2500    
   X202.4614     Y12.9602      R0.2500    
   X202.4127     Y12.9202      R0.2500    
   X202.3553     Y12.8941      R0.2500    
   X202.2932     Y12.8838      R0.2500    
   X202.2305     Y12.8899      R0.2500    
   X202.1715     Y12.9120      R0.2500    
   X202.1202     Y12.9486      R0.2500    
   X202.0802     Y12.9973      R0.2500    
   X202.0541     Y13.0547      R0.2500    
   X202.0438     Y13.1168      R0.2500    
(Pass: 12)
G1   Z-6.000     F500 
G17 G2   X202.0499     Y13.1795      R0.2500     F400 
   X202.0720     Y13.2385      R0.2500    
   X202.1086     Y13.2898      R0.2500    
   X202.1573     Y13.3298      R0.2500    
   X202.2147     Y13.3559      R0.2500    
   X202.2768     Y13.3662      R0.2500    
   X202.3395     Y13.3601      R0.2500    
   X202.3985     Y13.3380      R0.2500    
   X202.4498     Y13.3014      R0.2500    
   X202.4898     Y13.2527      R0.2500    
   X202.5159     Y13.1953      R0.2500    
   X202.5262     Y13.1332      R0.2500    
   X202.5201     Y13.0705      R0.2500    
   X202.4980     Y13.0115      R0.2500    
   X202.4614     Y12.9602      R0.2500    
   X202.4127     Y12.9202      R0.2500    
   X202.3553     Y12.8941      R0.2500    
   X202.2932     Y12.8838      R0.2500    
   X202.2305     Y12.8899      R0.2500    
   X202.1715     Y12.9120      R0.2500    
   X202.1202     Y12.9486      R0.2500    
   X202.0802     Y12.9973      R0.2500    
   X202.0541     Y13.0547      R0.2500    
   X202.0438     Y13.1168      R0.2500    
(Pass: 13)
G1   Z-6.500     F500 
G17 G2   X202.0499     Y13.1795      R0.2500     F400 
   X202.0720     Y13.2385      R0.2500    
   X202.1086     Y13.2898      R0.2500    
   X202.1573     Y13.3298      R0.2500    
   X202.2147     Y13.3559      R0.2500    
   X202.2768     Y13.3662      R0.2500    
   X202.3395     Y13.3601      R0.2500    
   X202.3985     Y13.3380      R0.2500    
   X202.4498     Y13.3014      R0.2500    
   X202.4898     Y13.2527      R0.2500    
   X202.5159     Y13.1953      R0.2500    
   X202.5262     Y13.1332      R0.2500    
   X202.5201     Y13.0705      R0.2500    
   X202.4980     Y13.0115      R0.2500    
   X202.4614     Y12.9602      R0.2500    
   X202.4127     Y12.9202      R0.2500    
   X202.3553     Y12.8941      R0.2500    
   X202.2932     Y12.8838      R0.2500    
   X202.2305     Y12.8899      R0.2500    
   X202.1715     Y12.9120      R0.2500    
   X202.1202     Y12.9486      R0.2500    
   X202.0802     Y12.9973      R0.2500    
   X202.0541     Y13.0547      R0.2500    
   X202.0438     Y13.1168      R0.2500    
G0   Z10.000    
(Pass: 1)
   X205.704      Y16.294    
G1   Z-0.500     F500 
   X205.618      Y16.393     F400 
   X205.546      Y16.501    
   X205.488      Y16.618    
   X205.457      Y16.711    
   X205.410      Y17.066    
   Y31.434    
   X205.457      Y31.789    
   X205.488      Y31.882    
   X205.546      Y31.999    
   X205.618      Y32.107    
   X205.704      Y32.206    
   X205.803      Y32.292    
   X205.911      Y32.364    
   X206.028      Y32.422    
   X206.121      Y32.453    
   X206.476      Y32.500    
   X240.344   
   X240.699      Y32.453    
   X240.792      Y32.422    
   X240.909      Y32.364    
   X241.017      Y32.292    
   X241.116      Y32.206    
   X241.202      Y32.107    
   X241.274      Y31.999    
   X241.332      Y31.882    
   X241.363      Y31.789    
   X241.410      Y31.434    
   Y17.066    
   X241.363      Y16.711    
   X241.332      Y16.618    
   X241.274      Y16.501    
   X241.202      Y16.393    
   X241.116      Y16.294    
   X241.017      Y16.208    
   X240.909      Y16.136    
   X240.792      Y16.078    
   X240.699      Y16.047    
   X240.344      Y16.000    
   X206.476   
   X206.121      Y16.047    
   X206.028      Y16.078    
   X205.911      Y16.136    
   X205.803      Y16.208    
   X205.704      Y16.294    
(Pass: 2)
   Z-1.000     F500 
   X205.618      Y16.393     F400 
   X205.546      Y16.501    
   X205.488      Y16.618    
   X205.457      Y16.711    
   X205.410      Y17.066    
   Y31.434    
   X205.457      Y31.789    
   X205.488      Y31.882    
   X205.546      Y31.999    
   X205.618      Y32.107    
   X205.704      Y32.206    
   X205.803      Y32.292    
   X205.911      Y32.364    
   X206.028      Y32.422    
   X206.121      Y32.453    
   X206.476      Y32.500    
   X240.344   
   X240.699      Y32.453    
   X240.792      Y32.422    
   X240.909      Y32.364    
   X241.017      Y32.292    
   X241.116      Y32.206    
   X241.202      Y32.107    
   X241.274      Y31.999    
   X241.332      Y31.882    
   X241.363      Y31.789    
   X241.410      Y31.434    
   Y17.066    
   X241.363      Y16.711    
   X241.332      Y16.618    
   X241.274      Y16.501    
   X241.202      Y16.393    
   X241.116      Y16.294    
   X241.017      Y16.208    
   X240.909      Y16.136    
   X240.792      Y16.078    
   X240.699      Y16.047    
   X240.344      Y16.000    
   X206.476   
   X206.121      Y16.047    
   X206.028      Y16.078    
   X205.911      Y16.136    
   X205.803      Y16.208    
   X205.704      Y16.294    
(Pass: 3)
   Z-1.500     F500 
   X205.618      Y16.393     F400 
   X205.546      Y16.501    
   X205.488      Y16.618    
   X205.457      Y16.711    
   X205.410      Y17.066    
   Y31.434    
   X205.457      Y31.789    
   X205.488      Y31.882    
   X205.546      Y31.999    
   X205.618      Y32.107    
   X205.704      Y32.206    
   X205.803      Y32.292    
   X205.911      Y32.364    
   X206.028      Y32.422    
   X206.121      Y32.453    
   X206.476      Y32.500    
   X240.344   
   X240.699      Y32.453    
   X240.792      Y32.422    
   X240.909      Y32.364    
   X241.017      Y32.292    
   X241.116      Y32.206    
   X241.202      Y32.107    
   X241.274      Y31.999    
   X241.332      Y31.882    
   X241.363      Y31.789    
   X241.410      Y31.434    
   Y17.066    
   X241.363      Y16.711    
   X241.332      Y16.618    
   X241.274      Y16.501    
   X241.202      Y16.393    
   X241.116      Y16.294    
   X241.017      Y16.208    
   X240.909      Y16.136    
   X240.792      Y16.078    
   X240.699      Y16.047    
   X240.344      Y16.000    
   X206.476   
   X206.121      Y16.047    
   X206.028      Y16.078    
   X205.911      Y16.136    
   X205.803      Y16.208    
   X205.704      Y16.294    
(Pass: 4)
   Z-2.000     F500 
   X205.618      Y16.393     F400 
   X205.546      Y16.501    
   X205.488      Y16.618    
   X205.457      Y16.711    
   X205.410      Y17.066    
   Y31.434    
   X205.457      Y31.789    
   X205.488      Y31.882    
   X205.546      Y31.999    
   X205.618      Y32.107    
   X205.704      Y32.206    
   X205.803      Y32.292    
   X205.911      Y32.364    
   X206.028      Y32.422    
   X206.121      Y32.453    
   X206.476      Y32.500    
   X240.344   
   X240.699      Y32.453    
   X240.792      Y32.422    
   X240.909      Y32.364    
   X241.017      Y32.292    
   X241.116      Y32.206    
   X241.202      Y32.107    
   X241.274      Y31.999    
   X241.332      Y31.882    
   X241.363      Y31.789    
   X241.410      Y31.434    
   Y17.066    
   X241.363      Y16.711    
   X241.332      Y16.618    
   X241.274      Y16.501    
   X241.202      Y16.393    
   X241.116      Y16.294    
   X241.017      Y16.208    
   X240.909      Y16.136    
   X240.792      Y16.078    
   X240.699      Y16.047    
   X240.344      Y16.000    
   X206.476   
   X206.121      Y16.047    
   X206.028      Y16.078    
   X205.911      Y16.136    
   X205.803      Y16.208    
   X205.704      Y16.294    
(Pass: 5)
   Z-2.500     F500 
   X205.618      Y16.393     F400 
   X205.546      Y16.501    
   X205.488      Y16.618    
   X205.457      Y16.711    
   X205.410      Y17.066    
   Y31.434    
   X205.457      Y31.789    
   X205.488      Y31.882    
   X205.546      Y31.999    
   X205.618      Y32.107    
   X205.704      Y32.206    
   X205.803      Y32.292    
   X205.911      Y32.364    
   X206.028      Y32.422    
   X206.121      Y32.453    
   X206.476      Y32.500    
   X240.344   
   X240.699      Y32.453    
   X240.792      Y32.422    
   X240.909      Y32.364    
   X241.017      Y32.292    
   X241.116      Y32.206    
   X241.202      Y32.107    
   X241.274      Y31.999    
   X241.332      Y31.882    
   X241.363      Y31.789    
   X241.410      Y31.434    
   Y17.066    
   X241.363      Y16.711    
   X241.332      Y16.618    
   X241.274      Y16.501    
   X241.202      Y16.393    
   X241.116      Y16.294    
   X241.017      Y16.208    
   X240.909      Y16.136    
   X240.792      Y16.078    
   X240.699      Y16.047    
   X240.344      Y16.000    
   X206.476   
   X206.121      Y16.047    
   X206.028      Y16.078    
   X205.911      Y16.136    
   X205.803      Y16.208    
   X205.704      Y16.294    
(Pass: 6)
   Z-3.000     F500 
   X205.618      Y16.393     F400 
   X205.546      Y16.501    
   X205.488      Y16.618    
   X205.457      Y16.711    
   X205.410      Y17.066    
   Y31.434    
   X205.457      Y31.789    
   X205.488      Y31.882    
   X205.546      Y31.999    
   X205.618      Y32.107    
   X205.704      Y32.206    
   X205.803      Y32.292    
   X205.911      Y32.364    
   X206.028      Y32.422    
   X206.121      Y32.453    
   X206.476      Y32.500    
   X240.344   
   X240.699      Y32.453    
   X240.792      Y32.422    
   X240.909      Y32.364    
   X241.017      Y32.292    
   X241.116      Y32.206    
   X241.202      Y32.107    
   X241.274      Y31.999    
   X241.332      Y31.882    
   X241.363      Y31.789    
   X241.410      Y31.434    
   Y17.066    
   X241.363      Y16.711    
   X241.332      Y16.618    
   X241.274      Y16.501    
   X241.202      Y16.393    
   X241.116      Y16.294    
   X241.017      Y16.208    
   X240.909      Y16.136    
   X240.792      Y16.078    
   X240.699      Y16.047    
   X240.344      Y16.000    
   X206.476   
   X206.121      Y16.047    
   X206.028      Y16.078    
   X205.911      Y16.136    
   X205.803      Y16.208    
   X205.704      Y16.294    
(Pass: 7)
   Z-3.500     F500 
   X205.618      Y16.393     F400 
   X205.546      Y16.501    
   X205.488      Y16.618    
   X205.457      Y16.711    
   X205.410      Y17.066    
   Y31.434    
   X205.457      Y31.789    
   X205.488      Y31.882    
   X205.546      Y31.999    
   X205.618      Y32.107    
   X205.704      Y32.206    
   X205.803      Y32.292    
   X205.911      Y32.364    
   X206.028      Y32.422    
   X206.121      Y32.453    
   X206.476      Y32.500    
   X240.344   
   X240.699      Y32.453    
   X240.792      Y32.422    
   X240.909      Y32.364    
   X241.017      Y32.292    
   X241.116      Y32.206    
   X241.202      Y32.107    
   X241.274      Y31.999    
   X241.332      Y31.882    
   X241.363      Y31.789    
   X241.410      Y31.434    
   Y17.066    
   X241.363      Y16.711    
   X241.332      Y16.618    
   X241.274      Y16.501    
   X241.202      Y16.393    
   X241.116      Y16.294    
   X241.017      Y16.208    
   X240.909      Y16.136    
   X240.792      Y16.078    
   X240.699      Y16.047    
   X240.344      Y16.000    
   X206.476   
   X206.121      Y16.047    
   X206.028      Y16.078    
   X205.911      Y16.136    
   X205.803      Y16.208    
   X205.704      Y16.294    
(Pass: 8)
   Z-4.000     F500 
   X205.618      Y16.393     F400 
   X205.546      Y16.501    
   X205.488      Y16.618    
   X205.457      Y16.711    
   X205.410      Y17.066    
   Y31.434    
   X205.457      Y31.789    
   X205.488      Y31.882    
   X205.546      Y31.999    
   X205.618      Y32.107    
   X205.704      Y32.206    
   X205.803      Y32.292    
   X205.911      Y32.364    
   X206.028      Y32.422    
   X206.121      Y32.453    
   X206.476      Y32.500    
   X240.344   
   X240.699      Y32.453    
   X240.792      Y32.422    
   X240.909      Y32.364    
   X241.017      Y32.292    
   X241.116      Y32.206    
   X241.202      Y32.107    
   X241.274      Y31.999    
   X241.332      Y31.882    
   X241.363      Y31.789    
   X241.410      Y31.434    
   Y17.066    
   X241.363      Y16.711    
   X241.332      Y16.618    
   X241.274      Y16.501    
   X241.202      Y16.393    
   X241.116      Y16.294    
   X241.017      Y16.208    
   X240.909      Y16.136    
   X240.792      Y16.078    
   X240.699      Y16.047    
   X240.344      Y16.000    
   X206.476   
   X206.121      Y16.047    
   X206.028      Y16.078    
   X205.911      Y16.136    
   X205.803      Y16.208    
   X205.704      Y16.294    
(Pass: 9)
   Z-4.500     F500 
   X205.618      Y16.393     F400 
   X205.546      Y16.501    
   X205.488      Y16.618    
   X205.457      Y16.711    
   X205.410      Y17.066    
   Y31.434    
   X205.457      Y31.789    
   X205.488      Y31.882    
   X205.546      Y31.999    
   X205.618      Y32.107    
   X205.704      Y32.206    
   X205.803      Y32.292    
   X205.911      Y32.364    
   X206.028      Y32.422    
   X206.121      Y32.453    
   X206.476      Y32.500    
   X240.344   
   X240.699      Y32.453    
   X240.792      Y32.422    
   X240.909      Y32.364    
   X241.017      Y32.292    
   X241.116      Y32.206    
   X241.202      Y32.107    
   X241.274      Y31.999    
   X241.332      Y31.882    
   X241.363      Y31.789    
   X241.410      Y31.434    
   Y17.066    
   X241.363      Y16.711    
   X241.332      Y16.618    
   X241.274      Y16.501    
   X241.202      Y16.393    
   X241.116      Y16.294    
   X241.017      Y16.208    
   X240.909      Y16.136    
   X240.792      Y16.078    
   X240.699      Y16.047    
   X240.344      Y16.000    
   X206.476   
   X206.121      Y16.047    
   X206.028      Y16.078    
   X205.911      Y16.136    
   X205.803      Y16.208    
   X205.704      Y16.294    
(Pass: 10)
   Z-5.000     F500 
   X205.618      Y16.393     F400 
   X205.546      Y16.501    
   X205.488      Y16.618    
   X205.457      Y16.711    
   X205.410      Y17.066    
   Y31.434    
   X205.457      Y31.789    
   X205.488      Y31.882    
   X205.546      Y31.999    
   X205.618      Y32.107    
   X205.704      Y32.206    
   X205.803      Y32.292    
   X205.911      Y32.364    
   X206.028      Y32.422    
   X206.121      Y32.453    
   X206.476      Y32.500    
   X240.344   
   X240.699      Y32.453    
   X240.792      Y32.422    
   X240.909      Y32.364    
   X241.017      Y32.292    
   X241.116      Y32.206    
   X241.202      Y32.107    
   X241.274      Y31.999    
   X241.332      Y31.882    
   X241.363      Y31.789    
   X241.410      Y31.434    
   Y17.066    
   X241.363      Y16.711    
   X241.332      Y16.618    
   X241.274      Y16.501    
   X241.202      Y16.393    
   X241.116      Y16.294    
   X241.017      Y16.208    
   X240.909      Y16.136    
   X240.792      Y16.078    
   X240.699      Y16.047    
   X240.344      Y16.000    
   X206.476   
   X206.121      Y16.047    
   X206.028      Y16.078    
   X205.911      Y16.136    
   X205.803      Y16.208    
   X205.704      Y16.294    
(Pass: 11)
   Z-5.500     F500 
   X205.618      Y16.393     F400 
   X205.546      Y16.501    
   X205.488      Y16.618    
   X205.457      Y16.711    
   X205.410      Y17.066    
   Y31.434    
   X205.457      Y31.789    
   X205.488      Y31.882    
   X205.546      Y31.999    
   X205.618      Y32.107    
   X205.704      Y32.206    
   X205.803      Y32.292    
   X205.911      Y32.364    
   X206.028      Y32.422    
   X206.121      Y32.453    
   X206.476      Y32.500    
   X240.344   
   X240.699      Y32.453    
   X240.792      Y32.422    
   X240.909      Y32.364    
   X241.017      Y32.292    
   X241.116      Y32.206    
   X241.202      Y32.107    
   X241.274      Y31.999    
   X241.332      Y31.882    
   X241.363      Y31.789    
   X241.410      Y31.434    
   Y17.066    
   X241.363      Y16.711    
   X241.332      Y16.618    
   X241.274      Y16.501    
   X241.202      Y16.393    
   X241.116      Y16.294    
   X241.017      Y16.208    
   X240.909      Y16.136    
   X240.792      Y16.078    
   X240.699      Y16.047    
   X240.344      Y16.000    
   X206.476   
   X206.121      Y16.047    
   X206.028      Y16.078    
   X205.911      Y16.136    
   X205.803      Y16.208    
   X205.704      Y16.294    
(Pass: 12)
   Z-6.000     F500 
   X205.618      Y16.393     F400 
   X205.546      Y16.501    
   X205.488      Y16.618    
   X205.457      Y16.711    
   X205.410      Y17.066    
   Y31.434    
   X205.457      Y31.789    
   X205.488      Y31.882    
   X205.546      Y31.999    
   X205.618      Y32.107    
   X205.704      Y32.206    
   X205.803      Y32.292    
   X205.911      Y32.364    
   X206.028      Y32.422    
   X206.121      Y32.453    
   X206.476      Y32.500    
   X240.344   
   X240.699      Y32.453    
   X240.792      Y32.422    
   X240.909      Y32.364    
   X241.017      Y32.292    
   X241.116      Y32.206    
   X241.202      Y32.107    
   X241.274      Y31.999    
   X241.332      Y31.882    
   X241.363      Y31.789    
   X241.410      Y31.434    
   Y17.066    
   X241.363      Y16.711    
   X241.332      Y16.618    
   X241.274      Y16.501    
   X241.202      Y16.393    
   X241.116      Y16.294    
   X241.017      Y16.208    
   X240.909      Y16.136    
   X240.792      Y16.078    
   X240.699      Y16.047    
   X240.344      Y16.000    
   X206.476   
   X206.121      Y16.047    
   X206.028      Y16.078    
   X205.911      Y16.136    
   X205.803      Y16.208    
   X205.704      Y16.294    
(Pass: 13)
   Z-6.500     F500 
   X205.618      Y16.393     F400 
   X205.546      Y16.501    
   X205.488      Y16.618    
   X205.457      Y16.711    
   X205.410      Y17.066    
   Y31.434    
   X205.457      Y31.789    
   X205.488      Y31.882    
   X205.546      Y31.999    
   X205.618      Y32.107    
   X205.704      Y32.206    
   X205.803      Y32.292    
   X205.911      Y32.364    
   X206.028      Y32.422    
   X206.121      Y32.453    
   X206.476      Y32.500    
   X240.344   
   X240.699      Y32.453    
   X240.792      Y32.422    
   X240.909      Y32.364    
   X241.017      Y32.292    
   X241.116      Y32.206    
   X241.202      Y32.107    
   X241.274      Y31.999    
   X241.332      Y31.882    
   X241.363      Y31.789    
   X241.410      Y31.434    
   Y17.066    
   X241.363      Y16.711    
   X241.332      Y16.618    
   X241.274      Y16.501    
   X241.202      Y16.393    
   X241.116      Y16.294    
   X241.017      Y16.208    
   X240.909      Y16.136    
   X240.792      Y16.078    
   X240.699      Y16.047    
   X240.344      Y16.000    
   X206.476   
   X206.121      Y16.047    
   X206.028      Y16.078    
   X205.911      Y16.136    
   X205.803      Y16.208    
   X205.704      Y16.294    
G0   Z10.000    
(Pass: 1)
   X202.406      Y35.166    
G1   Z-0.500     F500 
G17 G2   X202.3475     Y35.1419      R0.2500     F400 
   X202.2850     Y35.1336      R0.2500    
   X202.2225     Y35.1419      R0.2500    
   X202.1643     Y35.1660      R0.2500    
   X202.1143     Y35.2043      R0.2500    
   X202.0760     Y35.2543      R0.2500    
   X202.0519     Y35.3125      R0.2500    
   X202.0436     Y35.3750      R0.2500    
   X202.0519     Y35.4375      R0.2500    
   X202.0760     Y35.4957      R0.2500    
   X202.1143     Y35.5457      R0.2500    
   X202.1643     Y35.5840      R0.2500    
   X202.2225     Y35.6081      R0.2500    
   X202.2850     Y35.6164      R0.2500    
   X202.3475     Y35.6081      R0.2500    
   X202.4057     Y35.5840      R0.2500    
   X202.4557     Y35.5457      R0.2500    
   X202.4940     Y35.4957      R0.2500    
   X202.5181     Y35.4375      R0.2500    
   X202.5264     Y35.3750      R0.2500    
   X202.5181     Y35.3125      R0.2500    
   X202.4940     Y35.2543      R0.2500    
   X202.4557     Y35.2043      R0.2500    
   X202.4057     Y35.1660      R0.2500    
(Pass: 2)
G1   Z-1.000     F500 
G17 G2   X202.3475     Y35.1419      R0.2500     F400 
   X202.2850     Y35.1336      R0.2500    
   X202.2225     Y35.1419      R0.2500    
   X202.1643     Y35.1660      R0.2500    
   X202.1143     Y35.2043      R0.2500    
   X202.0760     Y35.2543      R0.2500    
   X202.0519     Y35.3125      R0.2500    
   X202.0436     Y35.3750      R0.2500    
   X202.0519     Y35.4375      R0.2500    
   X202.0760     Y35.4957      R0.2500    
   X202.1143     Y35.5457      R0.2500    
   X202.1643     Y35.5840      R0.2500    
   X202.2225     Y35.6081      R0.2500    
   X202.2850     Y35.6164      R0.2500    
   X202.3475     Y35.6081      R0.2500    
   X202.4057     Y35.5840      R0.2500    
   X202.4557     Y35.5457      R0.2500    
   X202.4940     Y35.4957      R0.2500    
   X202.5181     Y35.4375      R0.2500    
   X202.5264     Y35.3750      R0.2500    
   X202.5181     Y35.3125      R0.2500    
   X202.4940     Y35.2543      R0.2500    
   X202.4557     Y35.2043      R0.2500    
   X202.4057     Y35.1660      R0.2500    
(Pass: 3)
G1   Z-1.500     F500 
G17 G2   X202.3475     Y35.1419      R0.2500     F400 
   X202.2850     Y35.1336      R0.2500    
   X202.2225     Y35.1419      R0.2500    
   X202.1643     Y35.1660      R0.2500    
   X202.1143     Y35.2043      R0.2500    
   X202.0760     Y35.2543      R0.2500    
   X202.0519     Y35.3125      R0.2500    
   X202.0436     Y35.3750      R0.2500    
   X202.0519     Y35.4375      R0.2500    
   X202.0760     Y35.4957      R0.2500    
   X202.1143     Y35.5457      R0.2500    
   X202.1643     Y35.5840      R0.2500    
   X202.2225     Y35.6081      R0.2500    
   X202.2850     Y35.6164      R0.2500    
   X202.3475     Y35.6081      R0.2500    
   X202.4057     Y35.5840      R0.2500    
   X202.4557     Y35.5457      R0.2500    
   X202.4940     Y35.4957      R0.2500    
   X202.5181     Y35.4375      R0.2500    
   X202.5264     Y35.3750      R0.2500    
   X202.5181     Y35.3125      R0.2500    
   X202.4940     Y35.2543      R0.2500    
   X202.4557     Y35.2043      R0.2500    
   X202.4057     Y35.1660      R0.2500    
(Pass: 4)
G1   Z-2.000     F500 
G17 G2   X202.3475     Y35.1419      R0.2500     F400 
   X202.2850     Y35.1336      R0.2500    
   X202.2225     Y35.1419      R0.2500    
   X202.1643     Y35.1660      R0.2500    
   X202.1143     Y35.2043      R0.2500    
   X202.0760     Y35.2543      R0.2500    
   X202.0519     Y35.3125      R0.2500    
   X202.0436     Y35.3750      R0.2500    
   X202.0519     Y35.4375      R0.2500    
   X202.0760     Y35.4957      R0.2500    
   X202.1143     Y35.5457      R0.2500    
   X202.1643     Y35.5840      R0.2500    
   X202.2225     Y35.6081      R0.2500    
   X202.2850     Y35.6164      R0.2500    
   X202.3475     Y35.6081      R0.2500    
   X202.4057     Y35.5840      R0.2500    
   X202.4557     Y35.5457      R0.2500    
   X202.4940     Y35.4957      R0.2500    
   X202.5181     Y35.4375      R0.2500    
   X202.5264     Y35.3750      R0.2500    
   X202.5181     Y35.3125      R0.2500    
   X202.4940     Y35.2543      R0.2500    
   X202.4557     Y35.2043      R0.2500    
   X202.4057     Y35.1660      R0.2500    
(Pass: 5)
G1   Z-2.500     F500 
G17 G2   X202.3475     Y35.1419      R0.2500     F400 
   X202.2850     Y35.1336      R0.2500    
   X202.2225     Y35.1419      R0.2500    
   X202.1643     Y35.1660      R0.2500    
   X202.1143     Y35.2043      R0.2500    
   X202.0760     Y35.2543      R0.2500    
   X202.0519     Y35.3125      R0.2500    
   X202.0436     Y35.3750      R0.2500    
   X202.0519     Y35.4375      R0.2500    
   X202.0760     Y35.4957      R0.2500    
   X202.1143     Y35.5457      R0.2500    
   X202.1643     Y35.5840      R0.2500    
   X202.2225     Y35.6081      R0.2500    
   X202.2850     Y35.6164      R0.2500    
   X202.3475     Y35.6081      R0.2500    
   X202.4057     Y35.5840      R0.2500    
   X202.4557     Y35.5457      R0.2500    
   X202.4940     Y35.4957      R0.2500    
   X202.5181     Y35.4375      R0.2500    
   X202.5264     Y35.3750      R0.2500    
   X202.5181     Y35.3125      R0.2500    
   X202.4940     Y35.2543      R0.2500    
   X202.4557     Y35.2043      R0.2500    
   X202.4057     Y35.1660      R0.2500    
(Pass: 6)
G1   Z-3.000     F500 
G17 G2   X202.3475     Y35.1419      R0.2500     F400 
   X202.2850     Y35.1336      R0.2500    
   X202.2225     Y35.1419      R0.2500    
   X202.1643     Y35.1660      R0.2500    
   X202.1143     Y35.2043      R0.2500    
   X202.0760     Y35.2543      R0.2500    
   X202.0519     Y35.3125      R0.2500    
   X202.0436     Y35.3750      R0.2500    
   X202.0519     Y35.4375      R0.2500    
   X202.0760     Y35.4957      R0.2500    
   X202.1143     Y35.5457      R0.2500    
   X202.1643     Y35.5840      R0.2500    
   X202.2225     Y35.6081      R0.2500    
   X202.2850     Y35.6164      R0.2500    
   X202.3475     Y35.6081      R0.2500    
   X202.4057     Y35.5840      R0.2500    
   X202.4557     Y35.5457      R0.2500    
   X202.4940     Y35.4957      R0.2500    
   X202.5181     Y35.4375      R0.2500    
   X202.5264     Y35.3750      R0.2500    
   X202.5181     Y35.3125      R0.2500    
   X202.4940     Y35.2543      R0.2500    
   X202.4557     Y35.2043      R0.2500    
   X202.4057     Y35.1660      R0.2500    
(Pass: 7)
G1   Z-3.500     F500 
G17 G2   X202.3475     Y35.1419      R0.2500     F400 
   X202.2850     Y35.1336      R0.2500    
   X202.2225     Y35.1419      R0.2500    
   X202.1643     Y35.1660      R0.2500    
   X202.1143     Y35.2043      R0.2500    
   X202.0760     Y35.2543      R0.2500    
   X202.0519     Y35.3125      R0.2500    
   X202.0436     Y35.3750      R0.2500    
   X202.0519     Y35.4375      R0.2500    
   X202.0760     Y35.4957      R0.2500    
   X202.1143     Y35.5457      R0.2500    
   X202.1643     Y35.5840      R0.2500    
   X202.2225     Y35.6081      R0.2500    
   X202.2850     Y35.6164      R0.2500    
   X202.3475     Y35.6081      R0.2500    
   X202.4057     Y35.5840      R0.2500    
   X202.4557     Y35.5457      R0.2500    
   X202.4940     Y35.4957      R0.2500    
   X202.5181     Y35.4375      R0.2500    
   X202.5264     Y35.3750      R0.2500    
   X202.5181     Y35.3125      R0.2500    
   X202.4940     Y35.2543      R0.2500    
   X202.4557     Y35.2043      R0.2500    
   X202.4057     Y35.1660      R0.2500    
(Pass: 8)
G1   Z-4.000     F500 
G17 G2   X202.3475     Y35.1419      R0.2500     F400 
   X202.2850     Y35.1336      R0.2500    
   X202.2225     Y35.1419      R0.2500    
   X202.1643     Y35.1660      R0.2500    
   X202.1143     Y35.2043      R0.2500    
   X202.0760     Y35.2543      R0.2500    
   X202.0519     Y35.3125      R0.2500    
   X202.0436     Y35.3750      R0.2500    
   X202.0519     Y35.4375      R0.2500    
   X202.0760     Y35.4957      R0.2500    
   X202.1143     Y35.5457      R0.2500    
   X202.1643     Y35.5840      R0.2500    
   X202.2225     Y35.6081      R0.2500    
   X202.2850     Y35.6164      R0.2500    
   X202.3475     Y35.6081      R0.2500    
   X202.4057     Y35.5840      R0.2500    
   X202.4557     Y35.5457      R0.2500    
   X202.4940     Y35.4957      R0.2500    
   X202.5181     Y35.4375      R0.2500    
   X202.5264     Y35.3750      R0.2500    
   X202.5181     Y35.3125      R0.2500    
   X202.4940     Y35.2543      R0.2500    
   X202.4557     Y35.2043      R0.2500    
   X202.4057     Y35.1660      R0.2500    
(Pass: 9)
G1   Z-4.500     F500 
G17 G2   X202.3475     Y35.1419      R0.2500     F400 
   X202.2850     Y35.1336      R0.2500    
   X202.2225     Y35.1419      R0.2500    
   X202.1643     Y35.1660      R0.2500    
   X202.1143     Y35.2043      R0.2500    
   X202.0760     Y35.2543      R0.2500    
   X202.0519     Y35.3125      R0.2500    
   X202.0436     Y35.3750      R0.2500    
   X202.0519     Y35.4375      R0.2500    
   X202.0760     Y35.4957      R0.2500    
   X202.1143     Y35.5457      R0.2500    
   X202.1643     Y35.5840      R0.2500    
   X202.2225     Y35.6081      R0.2500    
   X202.2850     Y35.6164      R0.2500    
   X202.3475     Y35.6081      R0.2500    
   X202.4057     Y35.5840      R0.2500    
   X202.4557     Y35.5457      R0.2500    
   X202.4940     Y35.4957      R0.2500    
   X202.5181     Y35.4375      R0.2500    
   X202.5264     Y35.3750      R0.2500    
   X202.5181     Y35.3125      R0.2500    
   X202.4940     Y35.2543      R0.2500    
   X202.4557     Y35.2043      R0.2500    
   X202.4057     Y35.1660      R0.2500    
(Pass: 10)
G1   Z-5.000     F500 
G17 G2   X202.3475     Y35.1419      R0.2500     F400 
   X202.2850     Y35.1336      R0.2500    
   X202.2225     Y35.1419      R0.2500    
   X202.1643     Y35.1660      R0.2500    
   X202.1143     Y35.2043      R0.2500    
   X202.0760     Y35.2543      R0.2500    
   X202.0519     Y35.3125      R0.2500    
   X202.0436     Y35.3750      R0.2500    
   X202.0519     Y35.4375      R0.2500    
   X202.0760     Y35.4957      R0.2500    
   X202.1143     Y35.5457      R0.2500    
   X202.1643     Y35.5840      R0.2500    
   X202.2225     Y35.6081      R0.2500    
   X202.2850     Y35.6164      R0.2500    
   X202.3475     Y35.6081      R0.2500    
   X202.4057     Y35.5840      R0.2500    
   X202.4557     Y35.5457      R0.2500    
   X202.4940     Y35.4957      R0.2500    
   X202.5181     Y35.4375      R0.2500    
   X202.5264     Y35.3750      R0.2500    
   X202.5181     Y35.3125      R0.2500    
   X202.4940     Y35.2543      R0.2500    
   X202.4557     Y35.2043      R0.2500    
   X202.4057     Y35.1660      R0.2500    
(Pass: 11)
G1   Z-5.500     F500 
G17 G2   X202.3475     Y35.1419      R0.2500     F400 
   X202.2850     Y35.1336      R0.2500    
   X202.2225     Y35.1419      R0.2500    
   X202.1643     Y35.1660      R0.2500    
   X202.1143     Y35.2043      R0.2500    
   X202.0760     Y35.2543      R0.2500    
   X202.0519     Y35.3125      R0.2500    
   X202.0436     Y35.3750      R0.2500    
   X202.0519     Y35.4375      R0.2500    
   X202.0760     Y35.4957      R0.2500    
   X202.1143     Y35.5457      R0.2500    
   X202.1643     Y35.5840      R0.2500    
   X202.2225     Y35.6081      R0.2500    
   X202.2850     Y35.6164      R0.2500    
   X202.3475     Y35.6081      R0.2500    
   X202.4057     Y35.5840      R0.2500    
   X202.4557     Y35.5457      R0.2500    
   X202.4940     Y35.4957      R0.2500    
   X202.5181     Y35.4375      R0.2500    
   X202.5264     Y35.3750      R0.2500    
   X202.5181     Y35.3125      R0.2500    
   X202.4940     Y35.2543      R0.2500    
   X202.4557     Y35.2043      R0.2500    
   X202.4057     Y35.1660      R0.2500    
(Pass: 12)
G1   Z-6.000     F500 
G17 G2   X202.3475     Y35.1419      R0.2500     F400 
   X202.2850     Y35.1336      R0.2500    
   X202.2225     Y35.1419      R0.2500    
   X202.1643     Y35.1660      R0.2500    
   X202.1143     Y35.2043      R0.2500    
   X202.0760     Y35.2543      R0.2500    
   X202.0519     Y35.3125      R0.2500    
   X202.0436     Y35.3750      R0.2500    
   X202.0519     Y35.4375      R0.2500    
   X202.0760     Y35.4957      R0.2500    
   X202.1143     Y35.5457      R0.2500    
   X202.1643     Y35.5840      R0.2500    
   X202.2225     Y35.6081      R0.2500    
   X202.2850     Y35.6164      R0.2500    
   X202.3475     Y35.6081      R0.2500    
   X202.4057     Y35.5840      R0.2500    
   X202.4557     Y35.5457      R0.2500    
   X202.4940     Y35.4957      R0.2500    
   X202.5181     Y35.4375      R0.2500    
   X202.5264     Y35.3750      R0.2500    
   X202.5181     Y35.3125      R0.2500    
   X202.4940     Y35.2543      R0.2500    
   X202.4557     Y35.2043      R0.2500    
   X202.4057     Y35.1660      R0.2500    
(Pass: 13)
G1   Z-6.500     F500 
G17 G2   X202.3475     Y35.1419      R0.2500     F400 
   X202.2850     Y35.1336      R0.2500    
   X202.2225     Y35.1419      R0.2500    
   X202.1643     Y35.1660      R0.2500    
   X202.1143     Y35.2043      R0.2500    
   X202.0760     Y35.2543      R0.2500    
   X202.0519     Y35.3125      R0.2500    
   X202.0436     Y35.3750      R0.2500    
   X202.0519     Y35.4375      R0.2500    
   X202.0760     Y35.4957      R0.2500    
   X202.1143     Y35.5457      R0.2500    
   X202.1643     Y35.5840      R0.2500    
   X202.2225     Y35.6081      R0.2500    
   X202.2850     Y35.6164      R0.2500    
   X202.3475     Y35.6081      R0.2500    
   X202.4057     Y35.5840      R0.2500    
   X202.4557     Y35.5457      R0.2500    
   X202.4940     Y35.4957      R0.2500    
   X202.5181     Y35.4375      R0.2500    
   X202.5264     Y35.3750      R0.2500    
   X202.5181     Y35.3125      R0.2500    
   X202.4940     Y35.2543      R0.2500    
   X202.4557     Y35.2043      R0.2500    
   X202.4057     Y35.1660      R0.2500    
G0   Z10.000    
(Pass: 1)
   X244.044      Y35.375    
G1   Z-0.500     F500 
G17 G2   X244.0519     Y35.4375      R0.2500     F400 
   X244.0760     Y35.4957      R0.2500    
   X244.1143     Y35.5457      R0.2500    
   X244.1643     Y35.5840      R0.2500    
   X244.2225     Y35.6081      R0.2500    
   X244.2850     Y35.6164      R0.2500    
   X244.3475     Y35.6081      R0.2500    
   X244.4057     Y35.5840      R0.2500    
   X244.4557     Y35.5457      R0.2500    
   X244.4940     Y35.4957      R0.2500    
   X244.5181     Y35.4375      R0.2500    
   X244.5264     Y35.3750      R0.2500    
   X244.5181     Y35.3125      R0.2500    
   X244.4940     Y35.2543      R0.2500    
   X244.4557     Y35.2043      R0.2500    
   X244.4057     Y35.1660      R0.2500    
   X244.3475     Y35.1419      R0.2500    
   X244.2850     Y35.1336      R0.2500    
   X244.2225     Y35.1419      R0.2500    
   X244.1643     Y35.1660      R0.2500    
   X244.1143     Y35.2043      R0.2500    
   X244.0760     Y35.2543      R0.2500    
   X244.0519     Y35.3125      R0.2500    
   X244.0436     Y35.3750      R0.2500    
(Pass: 2)
G1   Z-1.000     F500 
G17 G2   X244.0519     Y35.4375      R0.2500     F400 
   X244.0760     Y35.4957      R0.2500    
   X244.1143     Y35.5457      R0.2500    
   X244.1643     Y35.5840      R0.2500    
   X244.2225     Y35.6081      R0.2500    
   X244.2850     Y35.6164      R0.2500    
   X244.3475     Y35.6081      R0.2500    
   X244.4057     Y35.5840      R0.2500    
   X244.4557     Y35.5457      R0.2500    
   X244.4940     Y35.4957      R0.2500    
   X244.5181     Y35.4375      R0.2500    
   X244.5264     Y35.3750      R0.2500    
   X244.5181     Y35.3125      R0.2500    
   X244.4940     Y35.2543      R0.2500    
   X244.4557     Y35.2043      R0.2500    
   X244.4057     Y35.1660      R0.2500    
   X244.3475     Y35.1419      R0.2500    
   X244.2850     Y35.1336      R0.2500    
   X244.2225     Y35.1419      R0.2500    
   X244.1643     Y35.1660      R0.2500    
   X244.1143     Y35.2043      R0.2500    
   X244.0760     Y35.2543      R0.2500    
   X244.0519     Y35.3125      R0.2500    
   X244.0436     Y35.3750      R0.2500    
(Pass: 3)
G1   Z-1.500     F500 
G17 G2   X244.0519     Y35.4375      R0.2500     F400 
   X244.0760     Y35.4957      R0.2500    
   X244.1143     Y35.5457      R0.2500    
   X244.1643     Y35.5840      R0.2500    
   X244.2225     Y35.6081      R0.2500    
   X244.2850     Y35.6164      R0.2500    
   X244.3475     Y35.6081      R0.2500    
   X244.4057     Y35.5840      R0.2500    
   X244.4557     Y35.5457      R0.2500    
   X244.4940     Y35.4957      R0.2500    
   X244.5181     Y35.4375      R0.2500    
   X244.5264     Y35.3750      R0.2500    
   X244.5181     Y35.3125      R0.2500    
   X244.4940     Y35.2543      R0.2500    
   X244.4557     Y35.2043      R0.2500    
   X244.4057     Y35.1660      R0.2500    
   X244.3475     Y35.1419      R0.2500    
   X244.2850     Y35.1336      R0.2500    
   X244.2225     Y35.1419      R0.2500    
   X244.1643     Y35.1660      R0.2500    
   X244.1143     Y35.2043      R0.2500    
   X244.0760     Y35.2543      R0.2500    
   X244.0519     Y35.3125      R0.2500    
   X244.0436     Y35.3750      R0.2500    
(Pass: 4)
G1   Z-2.000     F500 
G17 G2   X244.0519     Y35.4375      R0.2500     F400 
   X244.0760     Y35.4957      R0.2500    
   X244.1143     Y35.5457      R0.2500    
   X244.1643     Y35.5840      R0.2500    
   X244.2225     Y35.6081      R0.2500    
   X244.2850     Y35.6164      R0.2500    
   X244.3475     Y35.6081      R0.2500    
   X244.4057     Y35.5840      R0.2500    
   X244.4557     Y35.5457      R0.2500    
   X244.4940     Y35.4957      R0.2500    
   X244.5181     Y35.4375      R0.2500    
   X244.5264     Y35.3750      R0.2500    
   X244.5181     Y35.3125      R0.2500    
   X244.4940     Y35.2543      R0.2500    
   X244.4557     Y35.2043      R0.2500    
   X244.4057     Y35.1660      R0.2500    
   X244.3475     Y35.1419      R0.2500    
   X244.2850     Y35.1336      R0.2500    
   X244.2225     Y35.1419      R0.2500    
   X244.1643     Y35.1660      R0.2500    
   X244.1143     Y35.2043      R0.2500    
   X244.0760     Y35.2543      R0.2500    
   X244.0519     Y35.3125      R0.2500    
   X244.0436     Y35.3750      R0.2500    
(Pass: 5)
G1   Z-2.500     F500 
G17 G2   X244.0519     Y35.4375      R0.2500     F400 
   X244.0760     Y35.4957      R0.2500    
   X244.1143     Y35.5457      R0.2500    
   X244.1643     Y35.5840      R0.2500    
   X244.2225     Y35.6081      R0.2500    
   X244.2850     Y35.6164      R0.2500    
   X244.3475     Y35.6081      R0.2500    
   X244.4057     Y35.5840      R0.2500    
   X244.4557     Y35.5457      R0.2500    
   X244.4940     Y35.4957      R0.2500    
   X244.5181     Y35.4375      R0.2500    
   X244.5264     Y35.3750      R0.2500    
   X244.5181     Y35.3125      R0.2500    
   X244.4940     Y35.2543      R0.2500    
   X244.4557     Y35.2043      R0.2500    
   X244.4057     Y35.1660      R0.2500    
   X244.3475     Y35.1419      R0.2500    
   X244.2850     Y35.1336      R0.2500    
   X244.2225     Y35.1419      R0.2500    
   X244.1643     Y35.1660      R0.2500    
   X244.1143     Y35.2043      R0.2500    
   X244.0760     Y35.2543      R0.2500    
   X244.0519     Y35.3125      R0.2500    
   X244.0436     Y35.3750      R0.2500    
(Pass: 6)
G1   Z-3.000     F500 
G17 G2   X244.0519     Y35.4375      R0.2500     F400 
   X244.0760     Y35.4957      R0.2500    
   X244.1143     Y35.5457      R0.2500    
   X244.1643     Y35.5840      R0.2500    
   X244.2225     Y35.6081      R0.2500    
   X244.2850     Y35.6164      R0.2500    
   X244.3475     Y35.6081      R0.2500    
   X244.4057     Y35.5840      R0.2500    
   X244.4557     Y35.5457      R0.2500    
   X244.4940     Y35.4957      R0.2500    
   X244.5181     Y35.4375      R0.2500    
   X244.5264     Y35.3750      R0.2500    
   X244.5181     Y35.3125      R0.2500    
   X244.4940     Y35.2543      R0.2500    
   X244.4557     Y35.2043      R0.2500    
   X244.4057     Y35.1660      R0.2500    
   X244.3475     Y35.1419      R0.2500    
   X244.2850     Y35.1336      R0.2500    
   X244.2225     Y35.1419      R0.2500    
   X244.1643     Y35.1660      R0.2500    
   X244.1143     Y35.2043      R0.2500    
   X244.0760     Y35.2543      R0.2500    
   X244.0519     Y35.3125      R0.2500    
   X244.0436     Y35.3750      R0.2500    
(Pass: 7)
G1   Z-3.500     F500 
G17 G2   X244.0519     Y35.4375      R0.2500     F400 
   X244.0760     Y35.4957      R0.2500    
   X244.1143     Y35.5457      R0.2500    
   X244.1643     Y35.5840      R0.2500    
   X244.2225     Y35.6081      R0.2500    
   X244.2850     Y35.6164      R0.2500    
   X244.3475     Y35.6081      R0.2500    
   X244.4057     Y35.5840      R0.2500    
   X244.4557     Y35.5457      R0.2500    
   X244.4940     Y35.4957      R0.2500    
   X244.5181     Y35.4375      R0.2500    
   X244.5264     Y35.3750      R0.2500    
   X244.5181     Y35.3125      R0.2500    
   X244.4940     Y35.2543      R0.2500    
   X244.4557     Y35.2043      R0.2500    
   X244.4057     Y35.1660      R0.2500    
   X244.3475     Y35.1419      R0.2500    
   X244.2850     Y35.1336      R0.2500    
   X244.2225     Y35.1419      R0.2500    
   X244.1643     Y35.1660      R0.2500    
   X244.1143     Y35.2043      R0.2500    
   X244.0760     Y35.2543      R0.2500    
   X244.0519     Y35.3125      R0.2500    
   X244.0436     Y35.3750      R0.2500    
(Pass: 8)
G1   Z-4.000     F500 
G17 G2   X244.0519     Y35.4375      R0.2500     F400 
   X244.0760     Y35.4957      R0.2500    
   X244.1143     Y35.5457      R0.2500    
   X244.1643     Y35.5840      R0.2500    
   X244.2225     Y35.6081      R0.2500    
   X244.2850     Y35.6164      R0.2500    
   X244.3475     Y35.6081      R0.2500    
   X244.4057     Y35.5840      R0.2500    
   X244.4557     Y35.5457      R0.2500    
   X244.4940     Y35.4957      R0.2500    
   X244.5181     Y35.4375      R0.2500    
   X244.5264     Y35.3750      R0.2500    
   X244.5181     Y35.3125      R0.2500    
   X244.4940     Y35.2543      R0.2500    
   X244.4557     Y35.2043      R0.2500    
   X244.4057     Y35.1660      R0.2500    
   X244.3475     Y35.1419      R0.2500    
   X244.2850     Y35.1336      R0.2500    
   X244.2225     Y35.1419      R0.2500    
   X244.1643     Y35.1660      R0.2500    
   X244.1143     Y35.2043      R0.2500    
   X244.0760     Y35.2543      R0.2500    
   X244.0519     Y35.3125      R0.2500    
   X244.0436     Y35.3750      R0.2500    
(Pass: 9)
G1   Z-4.500     F500 
G17 G2   X244.0519     Y35.4375      R0.2500     F400 
   X244.0760     Y35.4957      R0.2500    
   X244.1143     Y35.5457      R0.2500    
   X244.1643     Y35.5840      R0.2500    
   X244.2225     Y35.6081      R0.2500    
   X244.2850     Y35.6164      R0.2500    
   X244.3475     Y35.6081      R0.2500    
   X244.4057     Y35.5840      R0.2500    
   X244.4557     Y35.5457      R0.2500    
   X244.4940     Y35.4957      R0.2500    
   X244.5181     Y35.4375      R0.2500    
   X244.5264     Y35.3750      R0.2500    
   X244.5181     Y35.3125      R0.2500    
   X244.4940     Y35.2543      R0.2500    
   X244.4557     Y35.2043      R0.2500    
   X244.4057     Y35.1660      R0.2500    
   X244.3475     Y35.1419      R0.2500    
   X244.2850     Y35.1336      R0.2500    
   X244.2225     Y35.1419      R0.2500    
   X244.1643     Y35.1660      R0.2500    
   X244.1143     Y35.2043      R0.2500    
   X244.0760     Y35.2543      R0.2500    
   X244.0519     Y35.3125      R0.2500    
   X244.0436     Y35.3750      R0.2500    
(Pass: 10)
G1   Z-5.000     F500 
G17 G2   X244.0519     Y35.4375      R0.2500     F400 
   X244.0760     Y35.4957      R0.2500    
   X244.1143     Y35.5457      R0.2500    
   X244.1643     Y35.5840      R0.2500    
   X244.2225     Y35.6081      R0.2500    
   X244.2850     Y35.6164      R0.2500    
   X244.3475     Y35.6081      R0.2500    
   X244.4057     Y35.5840      R0.2500    
   X244.4557     Y35.5457      R0.2500    
   X244.4940     Y35.4957      R0.2500    
   X244.5181     Y35.4375      R0.2500    
   X244.5264     Y35.3750      R0.2500    
   X244.5181     Y35.3125      R0.2500    
   X244.4940     Y35.2543      R0.2500    
   X244.4557     Y35.2043      R0.2500    
   X244.4057     Y35.1660      R0.2500    
   X244.3475     Y35.1419      R0.2500    
   X244.2850     Y35.1336      R0.2500    
   X244.2225     Y35.1419      R0.2500    
   X244.1643     Y35.1660      R0.2500    
   X244.1143     Y35.2043      R0.2500    
   X244.0760     Y35.2543      R0.2500    
   X244.0519     Y35.3125      R0.2500    
   X244.0436     Y35.3750      R0.2500    
(Pass: 11)
G1   Z-5.500     F500 
G17 G2   X244.0519     Y35.4375      R0.2500     F400 
   X244.0760     Y35.4957      R0.2500    
   X244.1143     Y35.5457      R0.2500    
   X244.1643     Y35.5840      R0.2500    
   X244.2225     Y35.6081      R0.2500    
   X244.2850     Y35.6164      R0.2500    
   X244.3475     Y35.6081      R0.2500    
   X244.4057     Y35.5840      R0.2500    
   X244.4557     Y35.5457      R0.2500    
   X244.4940     Y35.4957      R0.2500    
   X244.5181     Y35.4375      R0.2500    
   X244.5264     Y35.3750      R0.2500    
   X244.5181     Y35.3125      R0.2500    
   X244.4940     Y35.2543      R0.2500    
   X244.4557     Y35.2043      R0.2500    
   X244.4057     Y35.1660      R0.2500    
   X244.3475     Y35.1419      R0.2500    
   X244.2850     Y35.1336      R0.2500    
   X244.2225     Y35.1419      R0.2500    
   X244.1643     Y35.1660      R0.2500    
   X244.1143     Y35.2043      R0.2500    
   X244.0760     Y35.2543      R0.2500    
   X244.0519     Y35.3125      R0.2500    
   X244.0436     Y35.3750      R0.2500    
(Pass: 12)
G1   Z-6.000     F500 
G17 G2   X244.0519     Y35.4375      R0.2500     F400 
   X244.0760     Y35.4957      R0.2500    
   X244.1143     Y35.5457      R0.2500    
   X244.1643     Y35.5840      R0.2500    
   X244.2225     Y35.6081      R0.2500    
   X244.2850     Y35.6164      R0.2500    
   X244.3475     Y35.6081      R0.2500    
   X244.4057     Y35.5840      R0.2500    
   X244.4557     Y35.5457      R0.2500    
   X244.4940     Y35.4957      R0.2500    
   X244.5181     Y35.4375      R0.2500    
   X244.5264     Y35.3750      R0.2500    
   X244.5181     Y35.3125      R0.2500    
   X244.4940     Y35.2543      R0.2500    
   X244.4557     Y35.2043      R0.2500    
   X244.4057     Y35.1660      R0.2500    
   X244.3475     Y35.1419      R0.2500    
   X244.2850     Y35.1336      R0.2500    
   X244.2225     Y35.1419      R0.2500    
   X244.1643     Y35.1660      R0.2500    
   X244.1143     Y35.2043      R0.2500    
   X244.0760     Y35.2543      R0.2500    
   X244.0519     Y35.3125      R0.2500    
   X244.0436     Y35.3750      R0.2500    
(Pass: 13)
G1   Z-6.500     F500 
G17 G2   X244.0519     Y35.4375      R0.2500     F400 
   X244.0760     Y35.4957      R0.2500    
   X244.1143     Y35.5457      R0.2500    
   X244.1643     Y35.5840      R0.2500    
   X244.2225     Y35.6081      R0.2500    
   X244.2850     Y35.6164      R0.2500    
   X244.3475     Y35.6081      R0.2500    
   X244.4057     Y35.5840      R0.2500    
   X244.4557     Y35.5457      R0.2500    
   X244.4940     Y35.4957      R0.2500    
   X244.5181     Y35.4375      R0.2500    
   X244.5264     Y35.3750      R0.2500    
   X244.5181     Y35.3125      R0.2500    
   X244.4940     Y35.2543      R0.2500    
   X244.4557     Y35.2043      R0.2500    
   X244.4057     Y35.1660      R0.2500    
   X244.3475     Y35.1419      R0.2500    
   X244.2850     Y35.1336      R0.2500    
   X244.2225     Y35.1419      R0.2500    
   X244.1643     Y35.1660      R0.2500    
   X244.1143     Y35.2043      R0.2500    
   X244.0760     Y35.2543      R0.2500    
   X244.0519     Y35.3125      R0.2500    
   X244.0436     Y35.3750      R0.2500    
G0   Z10.000    
(Pass: 1)
   X244.190      Y13.347    
G1   Z-0.500     F500 
G17 G2   X244.2511     Y13.3640      R0.2500     F400 
   X244.3141     Y13.3646      R0.2500    
   X244.3751     Y13.3489      R0.2500    
   X244.4300     Y13.3180      R0.2500    
   X244.4750     Y13.2739      R0.2500    
   X244.5071     Y13.2196      R0.2500    
   X244.5240     Y13.1589      R0.2500    
   X244.5246     Y13.0959      R0.2500    
   X244.5089     Y13.0349      R0.2500    
   X244.4780     Y12.9800      R0.2500    
   X244.4339     Y12.9350      R0.2500    
   X244.3796     Y12.9029      R0.2500    
   X244.3189     Y12.8860      R0.2500    
   X244.2559     Y12.8854      R0.2500    
   X244.1949     Y12.9011      R0.2500    
   X244.1400     Y12.9320      R0.2500    
   X244.0950     Y12.9761      R0.2500    
   X244.0629     Y13.0304      R0.2500    
   X244.0460     Y13.0911      R0.2500    
   X244.0454     Y13.1541      R0.2500    
   X244.0611     Y13.2151      R0.2500    
   X244.0920     Y13.2700      R0.2500    
   X244.1361     Y13.3150      R0.2500    
   X244.1904     Y13.3471      R0.2500    
(Pass: 2)
G1   Z-1.000     F500 
G17 G2   X244.2511     Y13.3640      R0.2500     F400 
   X244.3141     Y13.3646      R0.2500    
   X244.3751     Y13.3489      R0.2500    
   X244.4300     Y13.3180      R0.2500    
   X244.4750     Y13.2739      R0.2500    
   X244.5071     Y13.2196      R0.2500    
   X244.5240     Y13.1589      R0.2500    
   X244.5246     Y13.0959      R0.2500    
   X244.5089     Y13.0349      R0.2500    
   X244.4780     Y12.9800      R0.2500    
   X244.4339     Y12.9350      R0.2500    
   X244.3796     Y12.9029      R0.2500    
   X244.3189     Y12.8860      R0.2500    
   X244.2559     Y12.8854      R0.2500    
   X244.1949     Y12.9011      R0.2500    
   X244.1400     Y12.9320      R0.2500    
   X244.0950     Y12.9761      R0.2500    
   X244.0629     Y13.0304      R0.2500    
   X244.0460     Y13.0911      R0.2500    
   X244.0454     Y13.1541      R0.2500    
   X244.0611     Y13.2151      R0.2500    
   X244.0920     Y13.2700      R0.2500    
   X244.1361     Y13.3150      R0.2500    
   X244.1904     Y13.3471      R0.2500    
(Pass: 3)
G1   Z-1.500     F500 
G17 G2   X244.2511     Y13.3640      R0.2500     F400 
   X244.3141     Y13.3646      R0.2500    
   X244.3751     Y13.3489      R0.2500    
   X244.4300     Y13.3180      R0.2500    
   X244.4750     Y13.2739      R0.2500    
   X244.5071     Y13.2196      R0.2500    
   X244.5240     Y13.1589      R0.2500    
   X244.5246     Y13.0959      R0.2500    
   X244.5089     Y13.0349      R0.2500    
   X244.4780     Y12.9800      R0.2500    
   X244.4339     Y12.9350      R0.2500    
   X244.3796     Y12.9029      R0.2500    
   X244.3189     Y12.8860      R0.2500    
   X244.2559     Y12.8854      R0.2500    
   X244.1949     Y12.9011      R0.2500    
   X244.1400     Y12.9320      R0.2500    
   X244.0950     Y12.9761      R0.2500    
   X244.0629     Y13.0304      R0.2500    
   X244.0460     Y13.0911      R0.2500    
   X244.0454     Y13.1541      R0.2500    
   X244.0611     Y13.2151      R0.2500    
   X244.0920     Y13.2700      R0.2500    
   X244.1361     Y13.3150      R0.2500    
   X244.1904     Y13.3471      R0.2500    
(Pass: 4)
G1   Z-2.000     F500 
G17 G2   X244.2511     Y13.3640      R0.2500     F400 
   X244.3141     Y13.3646      R0.2500    
   X244.3751     Y13.3489      R0.2500    
   X244.4300     Y13.3180      R0.2500    
   X244.4750     Y13.2739      R0.2500    
   X244.5071     Y13.2196      R0.2500    
   X244.5240     Y13.1589      R0.2500    
   X244.5246     Y13.0959      R0.2500    
   X244.5089     Y13.0349      R0.2500    
   X244.4780     Y12.9800      R0.2500    
   X244.4339     Y12.9350      R0.2500    
   X244.3796     Y12.9029      R0.2500    
   X244.3189     Y12.8860      R0.2500    
   X244.2559     Y12.8854      R0.2500    
   X244.1949     Y12.9011      R0.2500    
   X244.1400     Y12.9320      R0.2500    
   X244.0950     Y12.9761      R0.2500    
   X244.0629     Y13.0304      R0.2500    
   X244.0460     Y13.0911      R0.2500    
   X244.0454     Y13.1541      R0.2500    
   X244.0611     Y13.2151      R0.2500    
   X244.0920     Y13.2700      R0.2500    
   X244.1361     Y13.3150      R0.2500    
   X244.1904     Y13.3471      R0.2500    
(Pass: 5)
G1   Z-2.500     F500 
G17 G2   X244.2511     Y13.3640      R0.2500     F400 
   X244.3141     Y13.3646      R0.2500    
   X244.3751     Y13.3489      R0.2500    
   X244.4300     Y13.3180      R0.2500    
   X244.4750     Y13.2739      R0.2500    
   X244.5071     Y13.2196      R0.2500    
   X244.5240     Y13.1589      R0.2500    
   X244.5246     Y13.0959      R0.2500    
   X244.5089     Y13.0349      R0.2500    
   X244.4780     Y12.9800      R0.2500    
   X244.4339     Y12.9350      R0.2500    
   X244.3796     Y12.9029      R0.2500    
   X244.3189     Y12.8860      R0.2500    
   X244.2559     Y12.8854      R0.2500    
   X244.1949     Y12.9011      R0.2500    
   X244.1400     Y12.9320      R0.2500    
   X244.0950     Y12.9761      R0.2500    
   X244.0629     Y13.0304      R0.2500    
   X244.0460     Y13.0911      R0.2500    
   X244.0454     Y13.1541      R0.2500    
   X244.0611     Y13.2151      R0.2500    
   X244.0920     Y13.2700      R0.2500    
   X244.1361     Y13.3150      R0.2500    
   X244.1904     Y13.3471      R0.2500    
(Pass: 6)
G1   Z-3.000     F500 
G17 G2   X244.2511     Y13.3640      R0.2500     F400 
   X244.3141     Y13.3646      R0.2500    
   X244.3751     Y13.3489      R0.2500    
   X244.4300     Y13.3180      R0.2500    
   X244.4750     Y13.2739      R0.2500    
   X244.5071     Y13.2196      R0.2500    
   X244.5240     Y13.1589      R0.2500    
   X244.5246     Y13.0959      R0.2500    
   X244.5089     Y13.0349      R0.2500    
   X244.4780     Y12.9800      R0.2500    
   X244.4339     Y12.9350      R0.2500    
   X244.3796     Y12.9029      R0.2500    
   X244.3189     Y12.8860      R0.2500    
   X244.2559     Y12.8854      R0.2500    
   X244.1949     Y12.9011      R0.2500    
   X244.1400     Y12.9320      R0.2500    
   X244.0950     Y12.9761      R0.2500    
   X244.0629     Y13.0304      R0.2500    
   X244.0460     Y13.0911      R0.2500    
   X244.0454     Y13.1541      R0.2500    
   X244.0611     Y13.2151      R0.2500    
   X244.0920     Y13.2700      R0.2500    
   X244.1361     Y13.3150      R0.2500    
   X244.1904     Y13.3471      R0.2500    
(Pass: 7)
G1   Z-3.500     F500 
G17 G2   X244.2511     Y13.3640      R0.2500     F400 
   X244.3141     Y13.3646      R0.2500    
   X244.3751     Y13.3489      R0.2500    
   X244.4300     Y13.3180      R0.2500    
   X244.4750     Y13.2739      R0.2500    
   X244.5071     Y13.2196      R0.2500    
   X244.5240     Y13.1589      R0.2500    
   X244.5246     Y13.0959      R0.2500    
   X244.5089     Y13.0349      R0.2500    
   X244.4780     Y12.9800      R0.2500    
   X244.4339     Y12.9350      R0.2500    
   X244.3796     Y12.9029      R0.2500    
   X244.3189     Y12.8860      R0.2500    
   X244.2559     Y12.8854      R0.2500    
   X244.1949     Y12.9011      R0.2500    
   X244.1400     Y12.9320      R0.2500    
   X244.0950     Y12.9761      R0.2500    
   X244.0629     Y13.0304      R0.2500    
   X244.0460     Y13.0911      R0.2500    
   X244.0454     Y13.1541      R0.2500    
   X244.0611     Y13.2151      R0.2500    
   X244.0920     Y13.2700      R0.2500    
   X244.1361     Y13.3150      R0.2500    
   X244.1904     Y13.3471      R0.2500    
(Pass: 8)
G1   Z-4.000     F500 
G17 G2   X244.2511     Y13.3640      R0.2500     F400 
   X244.3141     Y13.3646      R0.2500    
   X244.3751     Y13.3489      R0.2500    
   X244.4300     Y13.3180      R0.2500    
   X244.4750     Y13.2739      R0.2500    
   X244.5071     Y13.2196      R0.2500    
   X244.5240     Y13.1589      R0.2500    
   X244.5246     Y13.0959      R0.2500    
   X244.5089     Y13.0349      R0.2500    
   X244.4780     Y12.9800      R0.2500    
   X244.4339     Y12.9350      R0.2500    
   X244.3796     Y12.9029      R0.2500    
   X244.3189     Y12.8860      R0.2500    
   X244.2559     Y12.8854      R0.2500    
   X244.1949     Y12.9011      R0.2500    
   X244.1400     Y12.9320      R0.2500    
   X244.0950     Y12.9761      R0.2500    
   X244.0629     Y13.0304      R0.2500    
   X244.0460     Y13.0911      R0.2500    
   X244.0454     Y13.1541      R0.2500    
   X244.0611     Y13.2151      R0.2500    
   X244.0920     Y13.2700      R0.2500    
   X244.1361     Y13.3150      R0.2500    
   X244.1904     Y13.3471      R0.2500    
(Pass: 9)
G1   Z-4.500     F500 
G17 G2   X244.2511     Y13.3640      R0.2500     F400 
   X244.3141     Y13.3646      R0.2500    
   X244.3751     Y13.3489      R0.2500    
   X244.4300     Y13.3180      R0.2500    
   X244.4750     Y13.2739      R0.2500    
   X244.5071     Y13.2196      R0.2500    
   X244.5240     Y13.1589      R0.2500    
   X244.5246     Y13.0959      R0.2500    
   X244.5089     Y13.0349      R0.2500    
   X244.4780     Y12.9800      R0.2500    
   X244.4339     Y12.9350      R0.2500    
   X244.3796     Y12.9029      R0.2500    
   X244.3189     Y12.8860      R0.2500    
   X244.2559     Y12.8854      R0.2500    
   X244.1949     Y12.9011      R0.2500    
   X244.1400     Y12.9320      R0.2500    
   X244.0950     Y12.9761      R0.2500    
   X244.0629     Y13.0304      R0.2500    
   X244.0460     Y13.0911      R0.2500    
   X244.0454     Y13.1541      R0.2500    
   X244.0611     Y13.2151      R0.2500    
   X244.0920     Y13.2700      R0.2500    
   X244.1361     Y13.3150      R0.2500    
   X244.1904     Y13.3471      R0.2500    
(Pass: 10)
G1   Z-5.000     F500 
G17 G2   X244.2511     Y13.3640      R0.2500     F400 
   X244.3141     Y13.3646      R0.2500    
   X244.3751     Y13.3489      R0.2500    
   X244.4300     Y13.3180      R0.2500    
   X244.4750     Y13.2739      R0.2500    
   X244.5071     Y13.2196      R0.2500    
   X244.5240     Y13.1589      R0.2500    
   X244.5246     Y13.0959      R0.2500    
   X244.5089     Y13.0349      R0.2500    
   X244.4780     Y12.9800      R0.2500    
   X244.4339     Y12.9350      R0.2500    
   X244.3796     Y12.9029      R0.2500    
   X244.3189     Y12.8860      R0.2500    
   X244.2559     Y12.8854      R0.2500    
   X244.1949     Y12.9011      R0.2500    
   X244.1400     Y12.9320      R0.2500    
   X244.0950     Y12.9761      R0.2500    
   X244.0629     Y13.0304      R0.2500    
   X244.0460     Y13.0911      R0.2500    
   X244.0454     Y13.1541      R0.2500    
   X244.0611     Y13.2151      R0.2500    
   X244.0920     Y13.2700      R0.2500    
   X244.1361     Y13.3150      R0.2500    
   X244.1904     Y13.3471      R0.2500    
(Pass: 11)
G1   Z-5.500     F500 
G17 G2   X244.2511     Y13.3640      R0.2500     F400 
   X244.3141     Y13.3646      R0.2500    
   X244.3751     Y13.3489      R0.2500    
   X244.4300     Y13.3180      R0.2500    
   X244.4750     Y13.2739      R0.2500    
   X244.5071     Y13.2196      R0.2500    
   X244.5240     Y13.1589      R0.2500    
   X244.5246     Y13.0959      R0.2500    
   X244.5089     Y13.0349      R0.2500    
   X244.4780     Y12.9800      R0.2500    
   X244.4339     Y12.9350      R0.2500    
   X244.3796     Y12.9029      R0.2500    
   X244.3189     Y12.8860      R0.2500    
   X244.2559     Y12.8854      R0.2500    
   X244.1949     Y12.9011      R0.2500    
   X244.1400     Y12.9320      R0.2500    
   X244.0950     Y12.9761      R0.2500    
   X244.0629     Y13.0304      R0.2500    
   X244.0460     Y13.0911      R0.2500    
   X244.0454     Y13.1541      R0.2500    
   X244.0611     Y13.2151      R0.2500    
   X244.0920     Y13.2700      R0.2500    
   X244.1361     Y13.3150      R0.2500    
   X244.1904     Y13.3471      R0.2500    
(Pass: 12)
G1   Z-6.000     F500 
G17 G2   X244.2511     Y13.3640      R0.2500     F400 
   X244.3141     Y13.3646      R0.2500    
   X244.3751     Y13.3489      R0.2500    
   X244.4300     Y13.3180      R0.2500    
   X244.4750     Y13.2739      R0.2500    
   X244.5071     Y13.2196      R0.2500    
   X244.5240     Y13.1589      R0.2500    
   X244.5246     Y13.0959      R0.2500    
   X244.5089     Y13.0349      R0.2500    
   X244.4780     Y12.9800      R0.2500    
   X244.4339     Y12.9350      R0.2500    
   X244.3796     Y12.9029      R0.2500    
   X244.3189     Y12.8860      R0.2500    
   X244.2559     Y12.8854      R0.2500    
   X244.1949     Y12.9011      R0.2500    
   X244.1400     Y12.9320      R0.2500    
   X244.0950     Y12.9761      R0.2500    
   X244.0629     Y13.0304      R0.2500    
   X244.0460     Y13.0911      R0.2500    
   X244.0454     Y13.1541      R0.2500    
   X244.0611     Y13.2151      R0.2500    
   X244.0920     Y13.2700      R0.2500    
   X244.1361     Y13.3150      R0.2500    
   X244.1904     Y13.3471      R0.2500    
(Pass: 13)
G1   Z-6.500     F500 
G17 G2   X244.2511     Y13.3640      R0.2500     F400 
   X244.3141     Y13.3646      R0.2500    
   X244.3751     Y13.3489      R0.2500    
   X244.4300     Y13.3180      R0.2500    
   X244.4750     Y13.2739      R0.2500    
   X244.5071     Y13.2196      R0.2500    
   X244.5240     Y13.1589      R0.2500    
   X244.5246     Y13.0959      R0.2500    
   X244.5089     Y13.0349      R0.2500    
   X244.4780     Y12.9800      R0.2500    
   X244.4339     Y12.9350      R0.2500    
   X244.3796     Y12.9029      R0.2500    
   X244.3189     Y12.8860      R0.2500    
   X244.2559     Y12.8854      R0.2500    
   X244.1949     Y12.9011      R0.2500    
   X244.1400     Y12.9320      R0.2500    
   X244.0950     Y12.9761      R0.2500    
   X244.0629     Y13.0304      R0.2500    
   X244.0460     Y13.0911      R0.2500    
   X244.0454     Y13.1541      R0.2500    
   X244.0611     Y13.2151      R0.2500    
   X244.0920     Y13.2700      R0.2500    
   X244.1361     Y13.3150      R0.2500    
   X244.1904     Y13.3471      R0.2500    
G0   Z10.000    
G0 X0 Y0 (home)
M05
M30
%
