%
(Generated by SketchUcam {1.2})
(File: Router Plates.skp)
(Bit diameter: 3.2mm)
(Feed rate: 400.0mm/min)
(Plunge Feed rate: 100.0mm/min)
(Material Thickness: 6.3mm)
(Material length: 304.0mm X width: 608.0mm)
(Overhead Gantry: true)
(Retract feed rate NOT limited to plunge feed rate)
(Multipass enabled, Depth = 1.0mm)
(Optimization is ON)
(Z ZERO IS TABLETOP)
(www.PhlatBoyz.com)
G90 G21 G49 
M3 S15000
G0   Z21.300    
(Pass: 1)
   X26.438       Y14.318    
G1   Z5.300      F100 
G17 G3   X26.2427      Y14.7894      R1.9685     F400 
G1   X26.749       Y13.913    
G17 G3   X26.4380      Y14.3180      R1.9685    
G1   X27.153       Y13.602    
G17 G3   X26.7487      Y13.9131      R1.9685    
G1   X27.625       Y13.407    
G17 G3   X27.1535      Y13.6025      R1.9685    
G1   X28.131       Y13.341    
G17 G3   X27.6249      Y13.4072      R1.9685    
G1   X28.637    
G17 G3   X28.1308      Y13.3406      R1.9685    
G1   X29.108       Y13.602    
G17 G3   X28.6367      Y13.4072      R1.9685    
G1   X29.513       Y13.913    
G17 G3   X29.1082      Y13.6025      R1.9685    
G1   X29.824       Y14.318    
G17 G3   X29.5130      Y13.9131      R1.9685    
G1   X30.019       Y14.789    
G17 G3   X29.8237      Y14.3180      R1.9685    
G1   X30.086       Y15.295    
G17 G3   X30.0189      Y14.7894      R1.9685    
G1   Y15.801    
G17 G3   X30.0855      Y15.2953      R1.9685    
G1   X29.824       Y16.273    
G17 G3   X30.0189      Y15.8012      R1.9685    
G1   X29.513       Y16.677    
G17 G3   X29.8237      Y16.2727      R1.9685    
G1   X29.108       Y16.988    
G17 G3   X29.5130      Y16.6775      R1.9685    
G1   X28.637       Y17.183    
G17 G3   X29.1082      Y16.9881      R1.9685    
G1   X28.131       Y17.250    
G17 G3   X28.6367      Y17.1834      R1.9685    
G1   X27.625    
G17 G3   X28.1308      Y17.2500      R1.9685    
G1   X27.153       Y16.988    
G17 G3   X27.6249      Y17.1834      R1.9685    
G1   X26.749       Y16.677    
G17 G3   X27.1535      Y16.9881      R1.9685    
G1   X26.438       Y16.273    
G17 G3   X26.7487      Y16.6775      R1.9685    
G1   X26.243       Y15.801    
G17 G3   X26.4380      Y16.2727      R1.9685    
G1   X26.176       Y15.295    
G17 G3   X26.2427      Y15.8012      R1.9685    
G1   Y14.789    
G17 G3   X26.1761      Y15.2953      R1.9685    
(Pass: 2)
G1   X26.438       Y14.318    
   Z4.300      F100 
G17 G3   X26.2427      Y14.7894      R1.9685     F400 
G1   X26.749       Y13.913    
G17 G3   X26.4380      Y14.3180      R1.9685    
G1   X27.153       Y13.602    
G17 G3   X26.7487      Y13.9131      R1.9685    
G1   X27.625       Y13.407    
G17 G3   X27.1535      Y13.6025      R1.9685    
G1   X28.131       Y13.341    
G17 G3   X27.6249      Y13.4072      R1.9685    
G1   X28.637    
G17 G3   X28.1308      Y13.3406      R1.9685    
G1   X29.108       Y13.602    
G17 G3   X28.6367      Y13.4072      R1.9685    
G1   X29.513       Y13.913    
G17 G3   X29.1082      Y13.6025      R1.9685    
G1   X29.824       Y14.318    
G17 G3   X29.5130      Y13.9131      R1.9685    
G1   X30.019       Y14.789    
G17 G3   X29.8237      Y14.3180      R1.9685    
G1   X30.086       Y15.295    
G17 G3   X30.0189      Y14.7894      R1.9685    
G1   Y15.801    
G17 G3   X30.0855      Y15.2953      R1.9685    
G1   X29.824       Y16.273    
G17 G3   X30.0189      Y15.8012      R1.9685    
G1   X29.513       Y16.677    
G17 G3   X29.8237      Y16.2727      R1.9685    
G1   X29.108       Y16.988    
G17 G3   X29.5130      Y16.6775      R1.9685    
G1   X28.637       Y17.183    
G17 G3   X29.1082      Y16.9881      R1.9685    
G1   X28.131       Y17.250    
G17 G3   X28.6367      Y17.1834      R1.9685    
G1   X27.625    
G17 G3   X28.1308      Y17.2500      R1.9685    
G1   X27.153       Y16.988    
G17 G3   X27.6249      Y17.1834      R1.9685    
G1   X26.749       Y16.677    
G17 G3   X27.1535      Y16.9881      R1.9685    
G1   X26.438       Y16.273    
G17 G3   X26.7487      Y16.6775      R1.9685    
G1   X26.243       Y15.801    
G17 G3   X26.4380      Y16.2727      R1.9685    
G1   X26.176       Y15.295    
G17 G3   X26.2427      Y15.8012      R1.9685    
G1   Y14.789    
G17 G3   X26.1761      Y15.2953      R1.9685    
(Pass: 3)
G1   X26.438       Y14.318    
   Z3.300      F100 
G17 G3   X26.2427      Y14.7894      R1.9685     F400 
G1   X26.749       Y13.913    
G17 G3   X26.4380      Y14.3180      R1.9685    
G1   X27.153       Y13.602    
G17 G3   X26.7487      Y13.9131      R1.9685    
G1   X27.625       Y13.407    
G17 G3   X27.1535      Y13.6025      R1.9685    
G1   X28.131       Y13.341    
G17 G3   X27.6249      Y13.4072      R1.9685    
G1   X28.637    
G17 G3   X28.1308      Y13.3406      R1.9685    
G1   X29.108       Y13.602    
G17 G3   X28.6367      Y13.4072      R1.9685    
G1   X29.513       Y13.913    
G17 G3   X29.1082      Y13.6025      R1.9685    
G1   X29.824       Y14.318    
G17 G3   X29.5130      Y13.9131      R1.9685    
G1   X30.019       Y14.789    
G17 G3   X29.8237      Y14.3180      R1.9685    
G1   X30.086       Y15.295    
G17 G3   X30.0189      Y14.7894      R1.9685    
G1   Y15.801    
G17 G3   X30.0855      Y15.2953      R1.9685    
G1   X29.824       Y16.273    
G17 G3   X30.0189      Y15.8012      R1.9685    
G1   X29.513       Y16.677    
G17 G3   X29.8237      Y16.2727      R1.9685    
G1   X29.108       Y16.988    
G17 G3   X29.5130      Y16.6775      R1.9685    
G1   X28.637       Y17.183    
G17 G3   X29.1082      Y16.9881      R1.9685    
G1   X28.131       Y17.250    
G17 G3   X28.6367      Y17.1834      R1.9685    
G1   X27.625    
G17 G3   X28.1308      Y17.2500      R1.9685    
G1   X27.153       Y16.988    
G17 G3   X27.6249      Y17.1834      R1.9685    
G1   X26.749       Y16.677    
G17 G3   X27.1535      Y16.9881      R1.9685    
G1   X26.438       Y16.273    
G17 G3   X26.7487      Y16.6775      R1.9685    
G1   X26.243       Y15.801    
G17 G3   X26.4380      Y16.2727      R1.9685    
G1   X26.176       Y15.295    
G17 G3   X26.2427      Y15.8012      R1.9685    
G1   Y14.789    
G17 G3   X26.1761      Y15.2953      R1.9685    
(Pass: 4)
G1   X26.438       Y14.318    
   Z2.300      F100 
G17 G3   X26.2427      Y14.7894      R1.9685     F400 
G1   X26.749       Y13.913    
G17 G3   X26.4380      Y14.3180      R1.9685    
G1   X27.153       Y13.602    
G17 G3   X26.7487      Y13.9131      R1.9685    
G1   X27.625       Y13.407    
G17 G3   X27.1535      Y13.6025      R1.9685    
G1   X28.131       Y13.341    
G17 G3   X27.6249      Y13.4072      R1.9685    
G1   X28.637    
G17 G3   X28.1308      Y13.3406      R1.9685    
G1   X29.108       Y13.602    
G17 G3   X28.6367      Y13.4072      R1.9685    
G1   X29.513       Y13.913    
G17 G3   X29.1082      Y13.6025      R1.9685    
G1   X29.824       Y14.318    
G17 G3   X29.5130      Y13.9131      R1.9685    
G1   X30.019       Y14.789    
G17 G3   X29.8237      Y14.3180      R1.9685    
G1   X30.086       Y15.295    
G17 G3   X30.0189      Y14.7894      R1.9685    
G1   Y15.801    
G17 G3   X30.0855      Y15.2953      R1.9685    
G1   X29.824       Y16.273    
G17 G3   X30.0189      Y15.8012      R1.9685    
G1   X29.513       Y16.677    
G17 G3   X29.8237      Y16.2727      R1.9685    
G1   X29.108       Y16.988    
G17 G3   X29.5130      Y16.6775      R1.9685    
G1   X28.637       Y17.183    
G17 G3   X29.1082      Y16.9881      R1.9685    
G1   X28.131       Y17.250    
G17 G3   X28.6367      Y17.1834      R1.9685    
G1   X27.625    
G17 G3   X28.1308      Y17.2500      R1.9685    
G1   X27.153       Y16.988    
G17 G3   X27.6249      Y17.1834      R1.9685    
G1   X26.749       Y16.677    
G17 G3   X27.1535      Y16.9881      R1.9685    
G1   X26.438       Y16.273    
G17 G3   X26.7487      Y16.6775      R1.9685    
G1   X26.243       Y15.801    
G17 G3   X26.4380      Y16.2727      R1.9685    
G1   X26.176       Y15.295    
G17 G3   X26.2427      Y15.8012      R1.9685    
G1   Y14.789    
G17 G3   X26.1761      Y15.2953      R1.9685    
(Pass: 5)
G1   X26.438       Y14.318    
   Z1.300      F100 
G17 G3   X26.2427      Y14.7894      R1.9685     F400 
G1   X26.749       Y13.913    
G17 G3   X26.4380      Y14.3180      R1.9685    
G1   X27.153       Y13.602    
G17 G3   X26.7487      Y13.9131      R1.9685    
G1   X27.625       Y13.407    
G17 G3   X27.1535      Y13.6025      R1.9685    
G1   X28.131       Y13.341    
G17 G3   X27.6249      Y13.4072      R1.9685    
G1   X28.637    
G17 G3   X28.1308      Y13.3406      R1.9685    
G1   X29.108       Y13.602    
G17 G3   X28.6367      Y13.4072      R1.9685    
G1   X29.513       Y13.913    
G17 G3   X29.1082      Y13.6025      R1.9685    
G1   X29.824       Y14.318    
G17 G3   X29.5130      Y13.9131      R1.9685    
G1   X30.019       Y14.789    
G17 G3   X29.8237      Y14.3180      R1.9685    
G1   X30.086       Y15.295    
G17 G3   X30.0189      Y14.7894      R1.9685    
G1   Y15.801    
G17 G3   X30.0855      Y15.2953      R1.9685    
G1   X29.824       Y16.273    
G17 G3   X30.0189      Y15.8012      R1.9685    
G1   X29.513       Y16.677    
G17 G3   X29.8237      Y16.2727      R1.9685    
G1   X29.108       Y16.988    
G17 G3   X29.5130      Y16.6775      R1.9685    
G1   X28.637       Y17.183    
G17 G3   X29.1082      Y16.9881      R1.9685    
G1   X28.131       Y17.250    
G17 G3   X28.6367      Y17.1834      R1.9685    
G1   X27.625    
G17 G3   X28.1308      Y17.2500      R1.9685    
G1   X27.153       Y16.988    
G17 G3   X27.6249      Y17.1834      R1.9685    
G1   X26.749       Y16.677    
G17 G3   X27.1535      Y16.9881      R1.9685    
G1   X26.438       Y16.273    
G17 G3   X26.7487      Y16.6775      R1.9685    
G1   X26.243       Y15.801    
G17 G3   X26.4380      Y16.2727      R1.9685    
G1   X26.176       Y15.295    
G17 G3   X26.2427      Y15.8012      R1.9685    
G1   Y14.789    
G17 G3   X26.1761      Y15.2953      R1.9685    
(Pass: 6)
G1   X26.438       Y14.318    
   Z0.300      F100 
G17 G3   X26.2427      Y14.7894      R1.9685     F400 
G1   X26.749       Y13.913    
G17 G3   X26.4380      Y14.3180      R1.9685    
G1   X27.153       Y13.602    
G17 G3   X26.7487      Y13.9131      R1.9685    
G1   X27.625       Y13.407    
G17 G3   X27.1535      Y13.6025      R1.9685    
G1   X28.131       Y13.341    
G17 G3   X27.6249      Y13.4072      R1.9685    
G1   X28.637    
G17 G3   X28.1308      Y13.3406      R1.9685    
G1   X29.108       Y13.602    
G17 G3   X28.6367      Y13.4072      R1.9685    
G1   X29.513       Y13.913    
G17 G3   X29.1082      Y13.6025      R1.9685    
G1   X29.824       Y14.318    
G17 G3   X29.5130      Y13.9131      R1.9685    
G1   X30.019       Y14.789    
G17 G3   X29.8237      Y14.3180      R1.9685    
G1   X30.086       Y15.295    
G17 G3   X30.0189      Y14.7894      R1.9685    
G1   Y15.801    
G17 G3   X30.0855      Y15.2953      R1.9685    
G1   X29.824       Y16.273    
G17 G3   X30.0189      Y15.8012      R1.9685    
G1   X29.513       Y16.677    
G17 G3   X29.8237      Y16.2727      R1.9685    
G1   X29.108       Y16.988    
G17 G3   X29.5130      Y16.6775      R1.9685    
G1   X28.637       Y17.183    
G17 G3   X29.1082      Y16.9881      R1.9685    
G1   X28.131       Y17.250    
G17 G3   X28.6367      Y17.1834      R1.9685    
G1   X27.625    
G17 G3   X28.1308      Y17.2500      R1.9685    
G1   X27.153       Y16.988    
G17 G3   X27.6249      Y17.1834      R1.9685    
G1   X26.749       Y16.677    
G17 G3   X27.1535      Y16.9881      R1.9685    
G1   X26.438       Y16.273    
G17 G3   X26.7487      Y16.6775      R1.9685    
G1   X26.243       Y15.801    
G17 G3   X26.4380      Y16.2727      R1.9685    
G1   X26.176       Y15.295    
G17 G3   X26.2427      Y15.8012      R1.9685    
G1   Y14.789    
G17 G3   X26.1761      Y15.2953      R1.9685    
(Pass: 7)
G1   X26.438       Y14.318    
   Z0.000      F100 
G17 G3   X26.2427      Y14.7894      R1.9685     F400 
G1   X26.749       Y13.913    
G17 G3   X26.4380      Y14.3180      R1.9685    
G1   X27.153       Y13.602    
G17 G3   X26.7487      Y13.9131      R1.9685    
G1   X27.625       Y13.407    
G17 G3   X27.1535      Y13.6025      R1.9685    
G1   X28.131       Y13.341    
G17 G3   X27.6249      Y13.4072      R1.9685    
G1   X28.637    
G17 G3   X28.1308      Y13.3406      R1.9685    
G1   X29.108       Y13.602    
G17 G3   X28.6367      Y13.4072      R1.9685    
G1   X29.513       Y13.913    
G17 G3   X29.1082      Y13.6025      R1.9685    
G1   X29.824       Y14.318    
G17 G3   X29.5130      Y13.9131      R1.9685    
G1   X30.019       Y14.789    
G17 G3   X29.8237      Y14.3180      R1.9685    
G1   X30.086       Y15.295    
G17 G3   X30.0189      Y14.7894      R1.9685    
G1   Y15.801    
G17 G3   X30.0855      Y15.2953      R1.9685    
G1   X29.824       Y16.273    
G17 G3   X30.0189      Y15.8012      R1.9685    
G1   X29.513       Y16.677    
G17 G3   X29.8237      Y16.2727      R1.9685    
G1   X29.108       Y16.988    
G17 G3   X29.5130      Y16.6775      R1.9685    
G1   X28.637       Y17.183    
G17 G3   X29.1082      Y16.9881      R1.9685    
G1   X28.131       Y17.250    
G17 G3   X28.6367      Y17.1834      R1.9685    
G1   X27.625    
G17 G3   X28.1308      Y17.2500      R1.9685    
G1   X27.153       Y16.988    
G17 G3   X27.6249      Y17.1834      R1.9685    
G1   X26.749       Y16.677    
G17 G3   X27.1535      Y16.9881      R1.9685    
G1   X26.438       Y16.273    
G17 G3   X26.7487      Y16.6775      R1.9685    
G1   X26.243       Y15.801    
G17 G3   X26.4380      Y16.2727      R1.9685    
G1   X26.176       Y15.295    
G17 G3   X26.2427      Y15.8012      R1.9685    
G1   Y14.789    
G17 G3   X26.1761      Y15.2953      R1.9685    
G0   Z21.300    
(Pass: 1)
   X18.874       Y24.833    
G1   Z5.300      F100 
G17 G3   X18.6601      Y24.7440      R0.9000     F400 
G1   X19.057       Y24.973    
G17 G3   X18.8738      Y24.8325      R0.9000    
G1   X19.198       Y25.157    
G17 G3   X19.0573      Y24.9734      R0.9000    
G1   X19.287       Y25.371    
G17 G3   X19.1982      Y25.1569      R0.9000    
G1   X19.317       Y25.600    
G17 G3   X19.2867      Y25.3706      R0.9000    
G1   Y25.829    
G17 G3   X19.3169      Y25.6000      R0.9000    
G1   X19.198       Y26.043    
G17 G3   X19.2867      Y25.8294      R0.9000    
G1   X19.057       Y26.227    
G17 G3   X19.1982      Y26.0431      R0.9000    
G1   X18.874       Y26.367    
G17 G3   X19.0573      Y26.2266      R0.9000    
G1   X18.660       Y26.456    
G17 G3   X18.8738      Y26.3675      R0.9000    
G1   X18.431       Y26.486    
G17 G3   X18.6601      Y26.4560      R0.9000    
G1   X18.201    
G17 G3   X18.4307      Y26.4862      R0.9000    
G1   X17.988       Y26.367    
G17 G3   X18.2013      Y26.4560      R0.9000    
G1   X17.804       Y26.227    
G17 G3   X17.9876      Y26.3675      R0.9000    
G1   X17.663       Y26.043    
G17 G3   X17.8041      Y26.2266      R0.9000    
G1   X17.575       Y25.829    
G17 G3   X17.6632      Y26.0431      R0.9000    
G1   X17.544       Y25.600    
G17 G3   X17.5747      Y25.8294      R0.9000    
G1   Y25.371    
G17 G3   X17.5445      Y25.6000      R0.9000    
G1   X17.663       Y25.157    
G17 G3   X17.5747      Y25.3706      R0.9000    
G1   X17.804       Y24.973    
G17 G3   X17.6632      Y25.1569      R0.9000    
G1   X17.988       Y24.833    
G17 G3   X17.8041      Y24.9734      R0.9000    
G1   X18.201       Y24.744    
G17 G3   X17.9876      Y24.8325      R0.9000    
G1   X18.431       Y24.714    
G17 G3   X18.2013      Y24.7440      R0.9000    
G1   X18.660    
G17 G3   X18.4307      Y24.7138      R0.9000    
(Pass: 2)
G1   X18.874       Y24.833    
   Z4.300      F100 
G17 G3   X18.6601      Y24.7440      R0.9000     F400 
G1   X19.057       Y24.973    
G17 G3   X18.8738      Y24.8325      R0.9000    
G1   X19.198       Y25.157    
G17 G3   X19.0573      Y24.9734      R0.9000    
G1   X19.287       Y25.371    
G17 G3   X19.1982      Y25.1569      R0.9000    
G1   X19.317       Y25.600    
G17 G3   X19.2867      Y25.3706      R0.9000    
G1   Y25.829    
G17 G3   X19.3169      Y25.6000      R0.9000    
G1   X19.198       Y26.043    
G17 G3   X19.2867      Y25.8294      R0.9000    
G1   X19.057       Y26.227    
G17 G3   X19.1982      Y26.0431      R0.9000    
G1   X18.874       Y26.367    
G17 G3   X19.0573      Y26.2266      R0.9000    
G1   X18.660       Y26.456    
G17 G3   X18.8738      Y26.3675      R0.9000    
G1   X18.431       Y26.486    
G17 G3   X18.6601      Y26.4560      R0.9000    
G1   X18.201    
G17 G3   X18.4307      Y26.4862      R0.9000    
G1   X17.988       Y26.367    
G17 G3   X18.2013      Y26.4560      R0.9000    
G1   X17.804       Y26.227    
G17 G3   X17.9876      Y26.3675      R0.9000    
G1   X17.663       Y26.043    
G17 G3   X17.8041      Y26.2266      R0.9000    
G1   X17.575       Y25.829    
G17 G3   X17.6632      Y26.0431      R0.9000    
G1   X17.544       Y25.600    
G17 G3   X17.5747      Y25.8294      R0.9000    
G1   Y25.371    
G17 G3   X17.5445      Y25.6000      R0.9000    
G1   X17.663       Y25.157    
G17 G3   X17.5747      Y25.3706      R0.9000    
G1   X17.804       Y24.973    
G17 G3   X17.6632      Y25.1569      R0.9000    
G1   X17.988       Y24.833    
G17 G3   X17.8041      Y24.9734      R0.9000    
G1   X18.201       Y24.744    
G17 G3   X17.9876      Y24.8325      R0.9000    
G1   X18.431       Y24.714    
G17 G3   X18.2013      Y24.7440      R0.9000    
G1   X18.660    
G17 G3   X18.4307      Y24.7138      R0.9000    
(Pass: 3)
G1   X18.874       Y24.833    
   Z3.300      F100 
G17 G3   X18.6601      Y24.7440      R0.9000     F400 
G1   X19.057       Y24.973    
G17 G3   X18.8738      Y24.8325      R0.9000    
G1   X19.198       Y25.157    
G17 G3   X19.0573      Y24.9734      R0.9000    
G1   X19.287       Y25.371    
G17 G3   X19.1982      Y25.1569      R0.9000    
G1   X19.317       Y25.600    
G17 G3   X19.2867      Y25.3706      R0.9000    
G1   Y25.829    
G17 G3   X19.3169      Y25.6000      R0.9000    
G1   X19.198       Y26.043    
G17 G3   X19.2867      Y25.8294      R0.9000    
G1   X19.057       Y26.227    
G17 G3   X19.1982      Y26.0431      R0.9000    
G1   X18.874       Y26.367    
G17 G3   X19.0573      Y26.2266      R0.9000    
G1   X18.660       Y26.456    
G17 G3   X18.8738      Y26.3675      R0.9000    
G1   X18.431       Y26.486    
G17 G3   X18.6601      Y26.4560      R0.9000    
G1   X18.201    
G17 G3   X18.4307      Y26.4862      R0.9000    
G1   X17.988       Y26.367    
G17 G3   X18.2013      Y26.4560      R0.9000    
G1   X17.804       Y26.227    
G17 G3   X17.9876      Y26.3675      R0.9000    
G1   X17.663       Y26.043    
G17 G3   X17.8041      Y26.2266      R0.9000    
G1   X17.575       Y25.829    
G17 G3   X17.6632      Y26.0431      R0.9000    
G1   X17.544       Y25.600    
G17 G3   X17.5747      Y25.8294      R0.9000    
G1   Y25.371    
G17 G3   X17.5445      Y25.6000      R0.9000    
G1   X17.663       Y25.157    
G17 G3   X17.5747      Y25.3706      R0.9000    
G1   X17.804       Y24.973    
G17 G3   X17.6632      Y25.1569      R0.9000    
G1   X17.988       Y24.833    
G17 G3   X17.8041      Y24.9734      R0.9000    
G1   X18.201       Y24.744    
G17 G3   X17.9876      Y24.8325      R0.9000    
G1   X18.431       Y24.714    
G17 G3   X18.2013      Y24.7440      R0.9000    
G1   X18.660    
G17 G3   X18.4307      Y24.7138      R0.9000    
(Pass: 4)
G1   X18.874       Y24.833    
   Z2.300      F100 
G17 G3   X18.6601      Y24.7440      R0.9000     F400 
G1   X19.057       Y24.973    
G17 G3   X18.8738      Y24.8325      R0.9000    
G1   X19.198       Y25.157    
G17 G3   X19.0573      Y24.9734      R0.9000    
G1   X19.287       Y25.371    
G17 G3   X19.1982      Y25.1569      R0.9000    
G1   X19.317       Y25.600    
G17 G3   X19.2867      Y25.3706      R0.9000    
G1   Y25.829    
G17 G3   X19.3169      Y25.6000      R0.9000    
G1   X19.198       Y26.043    
G17 G3   X19.2867      Y25.8294      R0.9000    
G1   X19.057       Y26.227    
G17 G3   X19.1982      Y26.0431      R0.9000    
G1   X18.874       Y26.367    
G17 G3   X19.0573      Y26.2266      R0.9000    
G1   X18.660       Y26.456    
G17 G3   X18.8738      Y26.3675      R0.9000    
G1   X18.431       Y26.486    
G17 G3   X18.6601      Y26.4560      R0.9000    
G1   X18.201    
G17 G3   X18.4307      Y26.4862      R0.9000    
G1   X17.988       Y26.367    
G17 G3   X18.2013      Y26.4560      R0.9000    
G1   X17.804       Y26.227    
G17 G3   X17.9876      Y26.3675      R0.9000    
G1   X17.663       Y26.043    
G17 G3   X17.8041      Y26.2266      R0.9000    
G1   X17.575       Y25.829    
G17 G3   X17.6632      Y26.0431      R0.9000    
G1   X17.544       Y25.600    
G17 G3   X17.5747      Y25.8294      R0.9000    
G1   Y25.371    
G17 G3   X17.5445      Y25.6000      R0.9000    
G1   X17.663       Y25.157    
G17 G3   X17.5747      Y25.3706      R0.9000    
G1   X17.804       Y24.973    
G17 G3   X17.6632      Y25.1569      R0.9000    
G1   X17.988       Y24.833    
G17 G3   X17.8041      Y24.9734      R0.9000    
G1   X18.201       Y24.744    
G17 G3   X17.9876      Y24.8325      R0.9000    
G1   X18.431       Y24.714    
G17 G3   X18.2013      Y24.7440      R0.9000    
G1   X18.660    
G17 G3   X18.4307      Y24.7138      R0.9000    
(Pass: 5)
G1   X18.874       Y24.833    
   Z1.300      F100 
G17 G3   X18.6601      Y24.7440      R0.9000     F400 
G1   X19.057       Y24.973    
G17 G3   X18.8738      Y24.8325      R0.9000    
G1   X19.198       Y25.157    
G17 G3   X19.0573      Y24.9734      R0.9000    
G1   X19.287       Y25.371    
G17 G3   X19.1982      Y25.1569      R0.9000    
G1   X19.317       Y25.600    
G17 G3   X19.2867      Y25.3706      R0.9000    
G1   Y25.829    
G17 G3   X19.3169      Y25.6000      R0.9000    
G1   X19.198       Y26.043    
G17 G3   X19.2867      Y25.8294      R0.9000    
G1   X19.057       Y26.227    
G17 G3   X19.1982      Y26.0431      R0.9000    
G1   X18.874       Y26.367    
G17 G3   X19.0573      Y26.2266      R0.9000    
G1   X18.660       Y26.456    
G17 G3   X18.8738      Y26.3675      R0.9000    
G1   X18.431       Y26.486    
G17 G3   X18.6601      Y26.4560      R0.9000    
G1   X18.201    
G17 G3   X18.4307      Y26.4862      R0.9000    
G1   X17.988       Y26.367    
G17 G3   X18.2013      Y26.4560      R0.9000    
G1   X17.804       Y26.227    
G17 G3   X17.9876      Y26.3675      R0.9000    
G1   X17.663       Y26.043    
G17 G3   X17.8041      Y26.2266      R0.9000    
G1   X17.575       Y25.829    
G17 G3   X17.6632      Y26.0431      R0.9000    
G1   X17.544       Y25.600    
G17 G3   X17.5747      Y25.8294      R0.9000    
G1   Y25.371    
G17 G3   X17.5445      Y25.6000      R0.9000    
G1   X17.663       Y25.157    
G17 G3   X17.5747      Y25.3706      R0.9000    
G1   X17.804       Y24.973    
G17 G3   X17.6632      Y25.1569      R0.9000    
G1   X17.988       Y24.833    
G17 G3   X17.8041      Y24.9734      R0.9000    
G1   X18.201       Y24.744    
G17 G3   X17.9876      Y24.8325      R0.9000    
G1   X18.431       Y24.714    
G17 G3   X18.2013      Y24.7440      R0.9000    
G1   X18.660    
G17 G3   X18.4307      Y24.7138      R0.9000    
(Pass: 6)
G1   X18.874       Y24.833    
   Z0.300      F100 
G17 G3   X18.6601      Y24.7440      R0.9000     F400 
G1   X19.057       Y24.973    
G17 G3   X18.8738      Y24.8325      R0.9000    
G1   X19.198       Y25.157    
G17 G3   X19.0573      Y24.9734      R0.9000    
G1   X19.287       Y25.371    
G17 G3   X19.1982      Y25.1569      R0.9000    
G1   X19.317       Y25.600    
G17 G3   X19.2867      Y25.3706      R0.9000    
G1   Y25.829    
G17 G3   X19.3169      Y25.6000      R0.9000    
G1   X19.198       Y26.043    
G17 G3   X19.2867      Y25.8294      R0.9000    
G1   X19.057       Y26.227    
G17 G3   X19.1982      Y26.0431      R0.9000    
G1   X18.874       Y26.367    
G17 G3   X19.0573      Y26.2266      R0.9000    
G1   X18.660       Y26.456    
G17 G3   X18.8738      Y26.3675      R0.9000    
G1   X18.431       Y26.486    
G17 G3   X18.6601      Y26.4560      R0.9000    
G1   X18.201    
G17 G3   X18.4307      Y26.4862      R0.9000    
G1   X17.988       Y26.367    
G17 G3   X18.2013      Y26.4560      R0.9000    
G1   X17.804       Y26.227    
G17 G3   X17.9876      Y26.3675      R0.9000    
G1   X17.663       Y26.043    
G17 G3   X17.8041      Y26.2266      R0.9000    
G1   X17.575       Y25.829    
G17 G3   X17.6632      Y26.0431      R0.9000    
G1   X17.544       Y25.600    
G17 G3   X17.5747      Y25.8294      R0.9000    
G1   Y25.371    
G17 G3   X17.5445      Y25.6000      R0.9000    
G1   X17.663       Y25.157    
G17 G3   X17.5747      Y25.3706      R0.9000    
G1   X17.804       Y24.973    
G17 G3   X17.6632      Y25.1569      R0.9000    
G1   X17.988       Y24.833    
G17 G3   X17.8041      Y24.9734      R0.9000    
G1   X18.201       Y24.744    
G17 G3   X17.9876      Y24.8325      R0.9000    
G1   X18.431       Y24.714    
G17 G3   X18.2013      Y24.7440      R0.9000    
G1   X18.660    
G17 G3   X18.4307      Y24.7138      R0.9000    
(Pass: 7)
G1   X18.874       Y24.833    
   Z0.000      F100 
G17 G3   X18.6601      Y24.7440      R0.9000     F400 
G1   X19.057       Y24.973    
G17 G3   X18.8738      Y24.8325      R0.9000    
G1   X19.198       Y25.157    
G17 G3   X19.0573      Y24.9734      R0.9000    
G1   X19.287       Y25.371    
G17 G3   X19.1982      Y25.1569      R0.9000    
G1   X19.317       Y25.600    
G17 G3   X19.2867      Y25.3706      R0.9000    
G1   Y25.829    
G17 G3   X19.3169      Y25.6000      R0.9000    
G1   X19.198       Y26.043    
G17 G3   X19.2867      Y25.8294      R0.9000    
G1   X19.057       Y26.227    
G17 G3   X19.1982      Y26.0431      R0.9000    
G1   X18.874       Y26.367    
G17 G3   X19.0573      Y26.2266      R0.9000    
G1   X18.660       Y26.456    
G17 G3   X18.8738      Y26.3675      R0.9000    
G1   X18.431       Y26.486    
G17 G3   X18.6601      Y26.4560      R0.9000    
G1   X18.201    
G17 G3   X18.4307      Y26.4862      R0.9000    
G1   X17.988       Y26.367    
G17 G3   X18.2013      Y26.4560      R0.9000    
G1   X17.804       Y26.227    
G17 G3   X17.9876      Y26.3675      R0.9000    
G1   X17.663       Y26.043    
G17 G3   X17.8041      Y26.2266      R0.9000    
G1   X17.575       Y25.829    
G17 G3   X17.6632      Y26.0431      R0.9000    
G1   X17.544       Y25.600    
G17 G3   X17.5747      Y25.8294      R0.9000    
G1   Y25.371    
G17 G3   X17.5445      Y25.6000      R0.9000    
G1   X17.663       Y25.157    
G17 G3   X17.5747      Y25.3706      R0.9000    
G1   X17.804       Y24.973    
G17 G3   X17.6632      Y25.1569      R0.9000    
G1   X17.988       Y24.833    
G17 G3   X17.8041      Y24.9734      R0.9000    
G1   X18.201       Y24.744    
G17 G3   X17.9876      Y24.8325      R0.9000    
G1   X18.431       Y24.714    
G17 G3   X18.2013      Y24.7440      R0.9000    
G1   X18.660    
G17 G3   X18.4307      Y24.7138      R0.9000    
G0   Z21.300    
(Pass: 1)
   Y34.714    
G1   Z5.300      F100 
G17 G3   X18.2013      Y34.7440      R0.9000     F400 
G1   X18.660    
G17 G3   X18.4306      Y34.7138      R0.9000    
G1   X18.874       Y34.833    
G17 G3   X18.6600      Y34.7440      R0.9000    
G1   X19.057       Y34.973    
G17 G3   X18.8737      Y34.8325      R0.9000    
G1   X19.198       Y35.157    
G17 G3   X19.0573      Y34.9734      R0.9000    
G1   X19.287       Y35.371    
G17 G3   X19.1981      Y35.1569      R0.9000    
G1   X19.317       Y35.600    
G17 G3   X19.2866      Y35.3706      R0.9000    
G1   Y35.829    
G17 G3   X19.3168      Y35.6000      R0.9000    
G1   X19.198       Y36.043    
G17 G3   X19.2866      Y35.8294      R0.9000    
G1   X19.057       Y36.227    
G17 G3   X19.1981      Y36.0431      R0.9000    
G1   X18.874       Y36.367    
G17 G3   X19.0573      Y36.2266      R0.9000    
G1   X18.660       Y36.456    
G17 G3   X18.8737      Y36.3675      R0.9000    
G1   X18.431       Y36.486    
G17 G3   X18.6600      Y36.4560      R0.9000    
G1   X18.201    
G17 G3   X18.4306      Y36.4862      R0.9000    
G1   X17.988       Y36.367    
G17 G3   X18.2013      Y36.4560      R0.9000    
G1   X17.804       Y36.227    
G17 G3   X17.9875      Y36.3675      R0.9000    
G1   X17.663       Y36.043    
G17 G3   X17.8040      Y36.2266      R0.9000    
G1   X17.575       Y35.829    
G17 G3   X17.6632      Y36.0431      R0.9000    
G1   X17.544       Y35.600    
G17 G3   X17.5746      Y35.8294      R0.9000    
G1   Y35.371    
G17 G3   X17.5444      Y35.6000      R0.9000    
G1   X17.663       Y35.157    
G17 G3   X17.5746      Y35.3706      R0.9000    
G1   X17.804       Y34.973    
G17 G3   X17.6632      Y35.1569      R0.9000    
G1   X17.988       Y34.833    
G17 G3   X17.8040      Y34.9734      R0.9000    
G1   X18.201       Y34.744    
G17 G3   X17.9875      Y34.8325      R0.9000    
(Pass: 2)
G1   X18.431       Y34.714    
   Z4.300      F100 
G17 G3   X18.2013      Y34.7440      R0.9000     F400 
G1   X18.660    
G17 G3   X18.4306      Y34.7138      R0.9000    
G1   X18.874       Y34.833    
G17 G3   X18.6600      Y34.7440      R0.9000    
G1   X19.057       Y34.973    
G17 G3   X18.8737      Y34.8325      R0.9000    
G1   X19.198       Y35.157    
G17 G3   X19.0573      Y34.9734      R0.9000    
G1   X19.287       Y35.371    
G17 G3   X19.1981      Y35.1569      R0.9000    
G1   X19.317       Y35.600    
G17 G3   X19.2866      Y35.3706      R0.9000    
G1   Y35.829    
G17 G3   X19.3168      Y35.6000      R0.9000    
G1   X19.198       Y36.043    
G17 G3   X19.2866      Y35.8294      R0.9000    
G1   X19.057       Y36.227    
G17 G3   X19.1981      Y36.0431      R0.9000    
G1   X18.874       Y36.367    
G17 G3   X19.0573      Y36.2266      R0.9000    
G1   X18.660       Y36.456    
G17 G3   X18.8737      Y36.3675      R0.9000    
G1   X18.431       Y36.486    
G17 G3   X18.6600      Y36.4560      R0.9000    
G1   X18.201    
G17 G3   X18.4306      Y36.4862      R0.9000    
G1   X17.988       Y36.367    
G17 G3   X18.2013      Y36.4560      R0.9000    
G1   X17.804       Y36.227    
G17 G3   X17.9875      Y36.3675      R0.9000    
G1   X17.663       Y36.043    
G17 G3   X17.8040      Y36.2266      R0.9000    
G1   X17.575       Y35.829    
G17 G3   X17.6632      Y36.0431      R0.9000    
G1   X17.544       Y35.600    
G17 G3   X17.5746      Y35.8294      R0.9000    
G1   Y35.371    
G17 G3   X17.5444      Y35.6000      R0.9000    
G1   X17.663       Y35.157    
G17 G3   X17.5746      Y35.3706      R0.9000    
G1   X17.804       Y34.973    
G17 G3   X17.6632      Y35.1569      R0.9000    
G1   X17.988       Y34.833    
G17 G3   X17.8040      Y34.9734      R0.9000    
G1   X18.201       Y34.744    
G17 G3   X17.9875      Y34.8325      R0.9000    
(Pass: 3)
G1   X18.431       Y34.714    
   Z3.300      F100 
G17 G3   X18.2013      Y34.7440      R0.9000     F400 
G1   X18.660    
G17 G3   X18.4306      Y34.7138      R0.9000    
G1   X18.874       Y34.833    
G17 G3   X18.6600      Y34.7440      R0.9000    
G1   X19.057       Y34.973    
G17 G3   X18.8737      Y34.8325      R0.9000    
G1   X19.198       Y35.157    
G17 G3   X19.0573      Y34.9734      R0.9000    
G1   X19.287       Y35.371    
G17 G3   X19.1981      Y35.1569      R0.9000    
G1   X19.317       Y35.600    
G17 G3   X19.2866      Y35.3706      R0.9000    
G1   Y35.829    
G17 G3   X19.3168      Y35.6000      R0.9000    
G1   X19.198       Y36.043    
G17 G3   X19.2866      Y35.8294      R0.9000    
G1   X19.057       Y36.227    
G17 G3   X19.1981      Y36.0431      R0.9000    
G1   X18.874       Y36.367    
G17 G3   X19.0573      Y36.2266      R0.9000    
G1   X18.660       Y36.456    
G17 G3   X18.8737      Y36.3675      R0.9000    
G1   X18.431       Y36.486    
G17 G3   X18.6600      Y36.4560      R0.9000    
G1   X18.201    
G17 G3   X18.4306      Y36.4862      R0.9000    
G1   X17.988       Y36.367    
G17 G3   X18.2013      Y36.4560      R0.9000    
G1   X17.804       Y36.227    
G17 G3   X17.9875      Y36.3675      R0.9000    
G1   X17.663       Y36.043    
G17 G3   X17.8040      Y36.2266      R0.9000    
G1   X17.575       Y35.829    
G17 G3   X17.6632      Y36.0431      R0.9000    
G1   X17.544       Y35.600    
G17 G3   X17.5746      Y35.8294      R0.9000    
G1   Y35.371    
G17 G3   X17.5444      Y35.6000      R0.9000    
G1   X17.663       Y35.157    
G17 G3   X17.5746      Y35.3706      R0.9000    
G1   X17.804       Y34.973    
G17 G3   X17.6632      Y35.1569      R0.9000    
G1   X17.988       Y34.833    
G17 G3   X17.8040      Y34.9734      R0.9000    
G1   X18.201       Y34.744    
G17 G3   X17.9875      Y34.8325      R0.9000    
(Pass: 4)
G1   X18.431       Y34.714    
   Z2.300      F100 
G17 G3   X18.2013      Y34.7440      R0.9000     F400 
G1   X18.660    
G17 G3   X18.4306      Y34.7138      R0.9000    
G1   X18.874       Y34.833    
G17 G3   X18.6600      Y34.7440      R0.9000    
G1   X19.057       Y34.973    
G17 G3   X18.8737      Y34.8325      R0.9000    
G1   X19.198       Y35.157    
G17 G3   X19.0573      Y34.9734      R0.9000    
G1   X19.287       Y35.371    
G17 G3   X19.1981      Y35.1569      R0.9000    
G1   X19.317       Y35.600    
G17 G3   X19.2866      Y35.3706      R0.9000    
G1   Y35.829    
G17 G3   X19.3168      Y35.6000      R0.9000    
G1   X19.198       Y36.043    
G17 G3   X19.2866      Y35.8294      R0.9000    
G1   X19.057       Y36.227    
G17 G3   X19.1981      Y36.0431      R0.9000    
G1   X18.874       Y36.367    
G17 G3   X19.0573      Y36.2266      R0.9000    
G1   X18.660       Y36.456    
G17 G3   X18.8737      Y36.3675      R0.9000    
G1   X18.431       Y36.486    
G17 G3   X18.6600      Y36.4560      R0.9000    
G1   X18.201    
G17 G3   X18.4306      Y36.4862      R0.9000    
G1   X17.988       Y36.367    
G17 G3   X18.2013      Y36.4560      R0.9000    
G1   X17.804       Y36.227    
G17 G3   X17.9875      Y36.3675      R0.9000    
G1   X17.663       Y36.043    
G17 G3   X17.8040      Y36.2266      R0.9000    
G1   X17.575       Y35.829    
G17 G3   X17.6632      Y36.0431      R0.9000    
G1   X17.544       Y35.600    
G17 G3   X17.5746      Y35.8294      R0.9000    
G1   Y35.371    
G17 G3   X17.5444      Y35.6000      R0.9000    
G1   X17.663       Y35.157    
G17 G3   X17.5746      Y35.3706      R0.9000    
G1   X17.804       Y34.973    
G17 G3   X17.6632      Y35.1569      R0.9000    
G1   X17.988       Y34.833    
G17 G3   X17.8040      Y34.9734      R0.9000    
G1   X18.201       Y34.744    
G17 G3   X17.9875      Y34.8325      R0.9000    
(Pass: 5)
G1   X18.431       Y34.714    
   Z1.300      F100 
G17 G3   X18.2013      Y34.7440      R0.9000     F400 
G1   X18.660    
G17 G3   X18.4306      Y34.7138      R0.9000    
G1   X18.874       Y34.833    
G17 G3   X18.6600      Y34.7440      R0.9000    
G1   X19.057       Y34.973    
G17 G3   X18.8737      Y34.8325      R0.9000    
G1   X19.198       Y35.157    
G17 G3   X19.0573      Y34.9734      R0.9000    
G1   X19.287       Y35.371    
G17 G3   X19.1981      Y35.1569      R0.9000    
G1   X19.317       Y35.600    
G17 G3   X19.2866      Y35.3706      R0.9000    
G1   Y35.829    
G17 G3   X19.3168      Y35.6000      R0.9000    
G1   X19.198       Y36.043    
G17 G3   X19.2866      Y35.8294      R0.9000    
G1   X19.057       Y36.227    
G17 G3   X19.1981      Y36.0431      R0.9000    
G1   X18.874       Y36.367    
G17 G3   X19.0573      Y36.2266      R0.9000    
G1   X18.660       Y36.456    
G17 G3   X18.8737      Y36.3675      R0.9000    
G1   X18.431       Y36.486    
G17 G3   X18.6600      Y36.4560      R0.9000    
G1   X18.201    
G17 G3   X18.4306      Y36.4862      R0.9000    
G1   X17.988       Y36.367    
G17 G3   X18.2013      Y36.4560      R0.9000    
G1   X17.804       Y36.227    
G17 G3   X17.9875      Y36.3675      R0.9000    
G1   X17.663       Y36.043    
G17 G3   X17.8040      Y36.2266      R0.9000    
G1   X17.575       Y35.829    
G17 G3   X17.6632      Y36.0431      R0.9000    
G1   X17.544       Y35.600    
G17 G3   X17.5746      Y35.8294      R0.9000    
G1   Y35.371    
G17 G3   X17.5444      Y35.6000      R0.9000    
G1   X17.663       Y35.157    
G17 G3   X17.5746      Y35.3706      R0.9000    
G1   X17.804       Y34.973    
G17 G3   X17.6632      Y35.1569      R0.9000    
G1   X17.988       Y34.833    
G17 G3   X17.8040      Y34.9734      R0.9000    
G1   X18.201       Y34.744    
G17 G3   X17.9875      Y34.8325      R0.9000    
(Pass: 6)
G1   X18.431       Y34.714    
   Z0.300      F100 
G17 G3   X18.2013      Y34.7440      R0.9000     F400 
G1   X18.660    
G17 G3   X18.4306      Y34.7138      R0.9000    
G1   X18.874       Y34.833    
G17 G3   X18.6600      Y34.7440      R0.9000    
G1   X19.057       Y34.973    
G17 G3   X18.8737      Y34.8325      R0.9000    
G1   X19.198       Y35.157    
G17 G3   X19.0573      Y34.9734      R0.9000    
G1   X19.287       Y35.371    
G17 G3   X19.1981      Y35.1569      R0.9000    
G1   X19.317       Y35.600    
G17 G3   X19.2866      Y35.3706      R0.9000    
G1   Y35.829    
G17 G3   X19.3168      Y35.6000      R0.9000    
G1   X19.198       Y36.043    
G17 G3   X19.2866      Y35.8294      R0.9000    
G1   X19.057       Y36.227    
G17 G3   X19.1981      Y36.0431      R0.9000    
G1   X18.874       Y36.367    
G17 G3   X19.0573      Y36.2266      R0.9000    
G1   X18.660       Y36.456    
G17 G3   X18.8737      Y36.3675      R0.9000    
G1   X18.431       Y36.486    
G17 G3   X18.6600      Y36.4560      R0.9000    
G1   X18.201    
G17 G3   X18.4306      Y36.4862      R0.9000    
G1   X17.988       Y36.367    
G17 G3   X18.2013      Y36.4560      R0.9000    
G1   X17.804       Y36.227    
G17 G3   X17.9875      Y36.3675      R0.9000    
G1   X17.663       Y36.043    
G17 G3   X17.8040      Y36.2266      R0.9000    
G1   X17.575       Y35.829    
G17 G3   X17.6632      Y36.0431      R0.9000    
G1   X17.544       Y35.600    
G17 G3   X17.5746      Y35.8294      R0.9000    
G1   Y35.371    
G17 G3   X17.5444      Y35.6000      R0.9000    
G1   X17.663       Y35.157    
G17 G3   X17.5746      Y35.3706      R0.9000    
G1   X17.804       Y34.973    
G17 G3   X17.6632      Y35.1569      R0.9000    
G1   X17.988       Y34.833    
G17 G3   X17.8040      Y34.9734      R0.9000    
G1   X18.201       Y34.744    
G17 G3   X17.9875      Y34.8325      R0.9000    
(Pass: 7)
G1   X18.431       Y34.714    
   Z0.000      F100 
G17 G3   X18.2013      Y34.7440      R0.9000     F400 
G1   X18.660    
G17 G3   X18.4306      Y34.7138      R0.9000    
G1   X18.874       Y34.833    
G17 G3   X18.6600      Y34.7440      R0.9000    
G1   X19.057       Y34.973    
G17 G3   X18.8737      Y34.8325      R0.9000    
G1   X19.198       Y35.157    
G17 G3   X19.0573      Y34.9734      R0.9000    
G1   X19.287       Y35.371    
G17 G3   X19.1981      Y35.1569      R0.9000    
G1   X19.317       Y35.600    
G17 G3   X19.2866      Y35.3706      R0.9000    
G1   Y35.829    
G17 G3   X19.3168      Y35.6000      R0.9000    
G1   X19.198       Y36.043    
G17 G3   X19.2866      Y35.8294      R0.9000    
G1   X19.057       Y36.227    
G17 G3   X19.1981      Y36.0431      R0.9000    
G1   X18.874       Y36.367    
G17 G3   X19.0573      Y36.2266      R0.9000    
G1   X18.660       Y36.456    
G17 G3   X18.8737      Y36.3675      R0.9000    
G1   X18.431       Y36.486    
G17 G3   X18.6600      Y36.4560      R0.9000    
G1   X18.201    
G17 G3   X18.4306      Y36.4862      R0.9000    
G1   X17.988       Y36.367    
G17 G3   X18.2013      Y36.4560      R0.9000    
G1   X17.804       Y36.227    
G17 G3   X17.9875      Y36.3675      R0.9000    
G1   X17.663       Y36.043    
G17 G3   X17.8040      Y36.2266      R0.9000    
G1   X17.575       Y35.829    
G17 G3   X17.6632      Y36.0431      R0.9000    
G1   X17.544       Y35.600    
G17 G3   X17.5746      Y35.8294      R0.9000    
G1   Y35.371    
G17 G3   X17.5444      Y35.6000      R0.9000    
G1   X17.663       Y35.157    
G17 G3   X17.5746      Y35.3706      R0.9000    
G1   X17.804       Y34.973    
G17 G3   X17.6632      Y35.1569      R0.9000    
G1   X17.988       Y34.833    
G17 G3   X17.8040      Y34.9734      R0.9000    
G1   X18.201       Y34.744    
G17 G3   X17.9875      Y34.8325      R0.9000    
G0   Z21.300    
(Pass: 1)
   X46.245       Y35.632    
G1   Z5.300      F100 
G17 G3   X46.2748      Y35.8617      R0.9000     F400 
G1   Y35.403    
G17 G3   X46.2446      Y35.6324      R0.9000    
G1   X46.363       Y35.189    
G17 G3   X46.2748      Y35.4030      R0.9000    
G1   X46.504       Y35.006    
G17 G3   X46.3634      Y35.1893      R0.9000    
G1   X46.688       Y34.865    
G17 G3   X46.5042      Y35.0057      R0.9000    
G1   X46.901       Y34.776    
G17 G3   X46.6877      Y34.8649      R0.9000    
G1   X47.131       Y34.746    
G17 G3   X46.9015      Y34.7764      R0.9000    
G1   X47.360    
G17 G3   X47.1308      Y34.7462      R0.9000    
G1   X47.574       Y34.865    
G17 G3   X47.3602      Y34.7764      R0.9000    
G1   X47.757       Y35.006    
G17 G3   X47.5739      Y34.8649      R0.9000    
G1   X47.898       Y35.189    
G17 G3   X47.7575      Y35.0057      R0.9000    
G1   X47.987       Y35.403    
G17 G3   X47.8983      Y35.1893      R0.9000    
G1   X48.017       Y35.632    
G17 G3   X47.9868      Y35.4030      R0.9000    
G1   Y35.862    
G17 G3   X48.0170      Y35.6324      R0.9000    
G1   X47.898       Y36.075    
G17 G3   X47.9868      Y35.8617      R0.9000    
G1   X47.757       Y36.259    
G17 G3   X47.8983      Y36.0755      R0.9000    
G1   X47.574       Y36.400    
G17 G3   X47.7575      Y36.2590      R0.9000    
G1   X47.360       Y36.488    
G17 G3   X47.5739      Y36.3998      R0.9000    
G1   X47.131       Y36.519    
G17 G3   X47.3602      Y36.4884      R0.9000    
G1   X46.901    
G17 G3   X47.1308      Y36.5185      R0.9000    
G1   X46.688       Y36.400    
G17 G3   X46.9015      Y36.4884      R0.9000    
G1   X46.504       Y36.259    
G17 G3   X46.6877      Y36.3998      R0.9000    
G1   X46.363       Y36.075    
G17 G3   X46.5042      Y36.2590      R0.9000    
G1   X46.275       Y35.862    
G17 G3   X46.3634      Y36.0755      R0.9000    
(Pass: 2)
G1   X46.245       Y35.632    
   Z4.300      F100 
G17 G3   X46.2748      Y35.8617      R0.9000     F400 
G1   Y35.403    
G17 G3   X46.2446      Y35.6324      R0.9000    
G1   X46.363       Y35.189    
G17 G3   X46.2748      Y35.4030      R0.9000    
G1   X46.504       Y35.006    
G17 G3   X46.3634      Y35.1893      R0.9000    
G1   X46.688       Y34.865    
G17 G3   X46.5042      Y35.0057      R0.9000    
G1   X46.901       Y34.776    
G17 G3   X46.6877      Y34.8649      R0.9000    
G1   X47.131       Y34.746    
G17 G3   X46.9015      Y34.7764      R0.9000    
G1   X47.360    
G17 G3   X47.1308      Y34.7462      R0.9000    
G1   X47.574       Y34.865    
G17 G3   X47.3602      Y34.7764      R0.9000    
G1   X47.757       Y35.006    
G17 G3   X47.5739      Y34.8649      R0.9000    
G1   X47.898       Y35.189    
G17 G3   X47.7575      Y35.0057      R0.9000    
G1   X47.987       Y35.403    
G17 G3   X47.8983      Y35.1893      R0.9000    
G1   X48.017       Y35.632    
G17 G3   X47.9868      Y35.4030      R0.9000    
G1   Y35.862    
G17 G3   X48.0170      Y35.6324      R0.9000    
G1   X47.898       Y36.075    
G17 G3   X47.9868      Y35.8617      R0.9000    
G1   X47.757       Y36.259    
G17 G3   X47.8983      Y36.0755      R0.9000    
G1   X47.574       Y36.400    
G17 G3   X47.7575      Y36.2590      R0.9000    
G1   X47.360       Y36.488    
G17 G3   X47.5739      Y36.3998      R0.9000    
G1   X47.131       Y36.519    
G17 G3   X47.3602      Y36.4884      R0.9000    
G1   X46.901    
G17 G3   X47.1308      Y36.5185      R0.9000    
G1   X46.688       Y36.400    
G17 G3   X46.9015      Y36.4884      R0.9000    
G1   X46.504       Y36.259    
G17 G3   X46.6877      Y36.3998      R0.9000    
G1   X46.363       Y36.075    
G17 G3   X46.5042      Y36.2590      R0.9000    
G1   X46.275       Y35.862    
G17 G3   X46.3634      Y36.0755      R0.9000    
(Pass: 3)
G1   X46.245       Y35.632    
   Z3.300      F100 
G17 G3   X46.2748      Y35.8617      R0.9000     F400 
G1   Y35.403    
G17 G3   X46.2446      Y35.6324      R0.9000    
G1   X46.363       Y35.189    
G17 G3   X46.2748      Y35.4030      R0.9000    
G1   X46.504       Y35.006    
G17 G3   X46.3634      Y35.1893      R0.9000    
G1   X46.688       Y34.865    
G17 G3   X46.5042      Y35.0057      R0.9000    
G1   X46.901       Y34.776    
G17 G3   X46.6877      Y34.8649      R0.9000    
G1   X47.131       Y34.746    
G17 G3   X46.9015      Y34.7764      R0.9000    
G1   X47.360    
G17 G3   X47.1308      Y34.7462      R0.9000    
G1   X47.574       Y34.865    
G17 G3   X47.3602      Y34.7764      R0.9000    
G1   X47.757       Y35.006    
G17 G3   X47.5739      Y34.8649      R0.9000    
G1   X47.898       Y35.189    
G17 G3   X47.7575      Y35.0057      R0.9000    
G1   X47.987       Y35.403    
G17 G3   X47.8983      Y35.1893      R0.9000    
G1   X48.017       Y35.632    
G17 G3   X47.9868      Y35.4030      R0.9000    
G1   Y35.862    
G17 G3   X48.0170      Y35.6324      R0.9000    
G1   X47.898       Y36.075    
G17 G3   X47.9868      Y35.8617      R0.9000    
G1   X47.757       Y36.259    
G17 G3   X47.8983      Y36.0755      R0.9000    
G1   X47.574       Y36.400    
G17 G3   X47.7575      Y36.2590      R0.9000    
G1   X47.360       Y36.488    
G17 G3   X47.5739      Y36.3998      R0.9000    
G1   X47.131       Y36.519    
G17 G3   X47.3602      Y36.4884      R0.9000    
G1   X46.901    
G17 G3   X47.1308      Y36.5185      R0.9000    
G1   X46.688       Y36.400    
G17 G3   X46.9015      Y36.4884      R0.9000    
G1   X46.504       Y36.259    
G17 G3   X46.6877      Y36.3998      R0.9000    
G1   X46.363       Y36.075    
G17 G3   X46.5042      Y36.2590      R0.9000    
G1   X46.275       Y35.862    
G17 G3   X46.3634      Y36.0755      R0.9000    
(Pass: 4)
G1   X46.245       Y35.632    
   Z2.300      F100 
G17 G3   X46.2748      Y35.8617      R0.9000     F400 
G1   Y35.403    
G17 G3   X46.2446      Y35.6324      R0.9000    
G1   X46.363       Y35.189    
G17 G3   X46.2748      Y35.4030      R0.9000    
G1   X46.504       Y35.006    
G17 G3   X46.3634      Y35.1893      R0.9000    
G1   X46.688       Y34.865    
G17 G3   X46.5042      Y35.0057      R0.9000    
G1   X46.901       Y34.776    
G17 G3   X46.6877      Y34.8649      R0.9000    
G1   X47.131       Y34.746    
G17 G3   X46.9015      Y34.7764      R0.9000    
G1   X47.360    
G17 G3   X47.1308      Y34.7462      R0.9000    
G1   X47.574       Y34.865    
G17 G3   X47.3602      Y34.7764      R0.9000    
G1   X47.757       Y35.006    
G17 G3   X47.5739      Y34.8649      R0.9000    
G1   X47.898       Y35.189    
G17 G3   X47.7575      Y35.0057      R0.9000    
G1   X47.987       Y35.403    
G17 G3   X47.8983      Y35.1893      R0.9000    
G1   X48.017       Y35.632    
G17 G3   X47.9868      Y35.4030      R0.9000    
G1   Y35.862    
G17 G3   X48.0170      Y35.6324      R0.9000    
G1   X47.898       Y36.075    
G17 G3   X47.9868      Y35.8617      R0.9000    
G1   X47.757       Y36.259    
G17 G3   X47.8983      Y36.0755      R0.9000    
G1   X47.574       Y36.400    
G17 G3   X47.7575      Y36.2590      R0.9000    
G1   X47.360       Y36.488    
G17 G3   X47.5739      Y36.3998      R0.9000    
G1   X47.131       Y36.519    
G17 G3   X47.3602      Y36.4884      R0.9000    
G1   X46.901    
G17 G3   X47.1308      Y36.5185      R0.9000    
G1   X46.688       Y36.400    
G17 G3   X46.9015      Y36.4884      R0.9000    
G1   X46.504       Y36.259    
G17 G3   X46.6877      Y36.3998      R0.9000    
G1   X46.363       Y36.075    
G17 G3   X46.5042      Y36.2590      R0.9000    
G1   X46.275       Y35.862    
G17 G3   X46.3634      Y36.0755      R0.9000    
(Pass: 5)
G1   X46.245       Y35.632    
   Z1.300      F100 
G17 G3   X46.2748      Y35.8617      R0.9000     F400 
G1   Y35.403    
G17 G3   X46.2446      Y35.6324      R0.9000    
G1   X46.363       Y35.189    
G17 G3   X46.2748      Y35.4030      R0.9000    
G1   X46.504       Y35.006    
G17 G3   X46.3634      Y35.1893      R0.9000    
G1   X46.688       Y34.865    
G17 G3   X46.5042      Y35.0057      R0.9000    
G1   X46.901       Y34.776    
G17 G3   X46.6877      Y34.8649      R0.9000    
G1   X47.131       Y34.746    
G17 G3   X46.9015      Y34.7764      R0.9000    
G1   X47.360    
G17 G3   X47.1308      Y34.7462      R0.9000    
G1   X47.574       Y34.865    
G17 G3   X47.3602      Y34.7764      R0.9000    
G1   X47.757       Y35.006    
G17 G3   X47.5739      Y34.8649      R0.9000    
G1   X47.898       Y35.189    
G17 G3   X47.7575      Y35.0057      R0.9000    
G1   X47.987       Y35.403    
G17 G3   X47.8983      Y35.1893      R0.9000    
G1   X48.017       Y35.632    
G17 G3   X47.9868      Y35.4030      R0.9000    
G1   Y35.862    
G17 G3   X48.0170      Y35.6324      R0.9000    
G1   X47.898       Y36.075    
G17 G3   X47.9868      Y35.8617      R0.9000    
G1   X47.757       Y36.259    
G17 G3   X47.8983      Y36.0755      R0.9000    
G1   X47.574       Y36.400    
G17 G3   X47.7575      Y36.2590      R0.9000    
G1   X47.360       Y36.488    
G17 G3   X47.5739      Y36.3998      R0.9000    
G1   X47.131       Y36.519    
G17 G3   X47.3602      Y36.4884      R0.9000    
G1   X46.901    
G17 G3   X47.1308      Y36.5185      R0.9000    
G1   X46.688       Y36.400    
G17 G3   X46.9015      Y36.4884      R0.9000    
G1   X46.504       Y36.259    
G17 G3   X46.6877      Y36.3998      R0.9000    
G1   X46.363       Y36.075    
G17 G3   X46.5042      Y36.2590      R0.9000    
G1   X46.275       Y35.862    
G17 G3   X46.3634      Y36.0755      R0.9000    
(Pass: 6)
G1   X46.245       Y35.632    
   Z0.300      F100 
G17 G3   X46.2748      Y35.8617      R0.9000     F400 
G1   Y35.403    
G17 G3   X46.2446      Y35.6324      R0.9000    
G1   X46.363       Y35.189    
G17 G3   X46.2748      Y35.4030      R0.9000    
G1   X46.504       Y35.006    
G17 G3   X46.3634      Y35.1893      R0.9000    
G1   X46.688       Y34.865    
G17 G3   X46.5042      Y35.0057      R0.9000    
G1   X46.901       Y34.776    
G17 G3   X46.6877      Y34.8649      R0.9000    
G1   X47.131       Y34.746    
G17 G3   X46.9015      Y34.7764      R0.9000    
G1   X47.360    
G17 G3   X47.1308      Y34.7462      R0.9000    
G1   X47.574       Y34.865    
G17 G3   X47.3602      Y34.7764      R0.9000    
G1   X47.757       Y35.006    
G17 G3   X47.5739      Y34.8649      R0.9000    
G1   X47.898       Y35.189    
G17 G3   X47.7575      Y35.0057      R0.9000    
G1   X47.987       Y35.403    
G17 G3   X47.8983      Y35.1893      R0.9000    
G1   X48.017       Y35.632    
G17 G3   X47.9868      Y35.4030      R0.9000    
G1   Y35.862    
G17 G3   X48.0170      Y35.6324      R0.9000    
G1   X47.898       Y36.075    
G17 G3   X47.9868      Y35.8617      R0.9000    
G1   X47.757       Y36.259    
G17 G3   X47.8983      Y36.0755      R0.9000    
G1   X47.574       Y36.400    
G17 G3   X47.7575      Y36.2590      R0.9000    
G1   X47.360       Y36.488    
G17 G3   X47.5739      Y36.3998      R0.9000    
G1   X47.131       Y36.519    
G17 G3   X47.3602      Y36.4884      R0.9000    
G1   X46.901    
G17 G3   X47.1308      Y36.5185      R0.9000    
G1   X46.688       Y36.400    
G17 G3   X46.9015      Y36.4884      R0.9000    
G1   X46.504       Y36.259    
G17 G3   X46.6877      Y36.3998      R0.9000    
G1   X46.363       Y36.075    
G17 G3   X46.5042      Y36.2590      R0.9000    
G1   X46.275       Y35.862    
G17 G3   X46.3634      Y36.0755      R0.9000    
(Pass: 7)
G1   X46.245       Y35.632    
   Z0.000      F100 
G17 G3   X46.2748      Y35.8617      R0.9000     F400 
G1   Y35.403    
G17 G3   X46.2446      Y35.6324      R0.9000    
G1   X46.363       Y35.189    
G17 G3   X46.2748      Y35.4030      R0.9000    
G1   X46.504       Y35.006    
G17 G3   X46.3634      Y35.1893      R0.9000    
G1   X46.688       Y34.865    
G17 G3   X46.5042      Y35.0057      R0.9000    
G1   X46.901       Y34.776    
G17 G3   X46.6877      Y34.8649      R0.9000    
G1   X47.131       Y34.746    
G17 G3   X46.9015      Y34.7764      R0.9000    
G1   X47.360    
G17 G3   X47.1308      Y34.7462      R0.9000    
G1   X47.574       Y34.865    
G17 G3   X47.3602      Y34.7764      R0.9000    
G1   X47.757       Y35.006    
G17 G3   X47.5739      Y34.8649      R0.9000    
G1   X47.898       Y35.189    
G17 G3   X47.7575      Y35.0057      R0.9000    
G1   X47.987       Y35.403    
G17 G3   X47.8983      Y35.1893      R0.9000    
G1   X48.017       Y35.632    
G17 G3   X47.9868      Y35.4030      R0.9000    
G1   Y35.862    
G17 G3   X48.0170      Y35.6324      R0.9000    
G1   X47.898       Y36.075    
G17 G3   X47.9868      Y35.8617      R0.9000    
G1   X47.757       Y36.259    
G17 G3   X47.8983      Y36.0755      R0.9000    
G1   X47.574       Y36.400    
G17 G3   X47.7575      Y36.2590      R0.9000    
G1   X47.360       Y36.488    
G17 G3   X47.5739      Y36.3998      R0.9000    
G1   X47.131       Y36.519    
G17 G3   X47.3602      Y36.4884      R0.9000    
G1   X46.901    
G17 G3   X47.1308      Y36.5185      R0.9000    
G1   X46.688       Y36.400    
G17 G3   X46.9015      Y36.4884      R0.9000    
G1   X46.504       Y36.259    
G17 G3   X46.6877      Y36.3998      R0.9000    
G1   X46.363       Y36.075    
G17 G3   X46.5042      Y36.2590      R0.9000    
G1   X46.275       Y35.862    
G17 G3   X46.3634      Y36.0755      R0.9000    
G0   Z21.300    
(Pass: 1)
   X101.758      Y16.273    
G1   Z5.300      F100 
G17 G3   X102.0687     Y16.6775      R1.9685     F400 
G1   X101.563      Y15.801    
G17 G3   X101.7580     Y16.2727      R1.9685    
G1   X101.496      Y15.295    
G17 G3   X101.5627     Y15.8012      R1.9685    
G1   Y14.789    
G17 G3   X101.4961     Y15.2953      R1.9685    
G1   X101.758      Y14.318    
G17 G3   X101.5627     Y14.7894      R1.9685    
G1   X102.069      Y13.913    
G17 G3   X101.7580     Y14.3180      R1.9685    
G1   X102.473      Y13.602    
G17 G3   X102.0687     Y13.9131      R1.9685    
G1   X102.945      Y13.407    
G17 G3   X102.4735     Y13.6025      R1.9685    
G1   X103.451      Y13.341    
G17 G3   X102.9449     Y13.4072      R1.9685    
G1   X103.957   
G17 G3   X103.4508     Y13.3406      R1.9685    
G1   X104.428      Y13.602    
G17 G3   X103.9567     Y13.4072      R1.9685    
G1   X104.833      Y13.913    
G17 G3   X104.4282     Y13.6025      R1.9685    
G1   X105.144      Y14.318    
G17 G3   X104.8330     Y13.9131      R1.9685    
G1   X105.339      Y14.789    
G17 G3   X105.1437     Y14.3180      R1.9685    
G1   X105.406      Y15.295    
G17 G3   X105.3389     Y14.7894      R1.9685    
G1   Y15.801    
G17 G3   X105.4055     Y15.2953      R1.9685    
G1   X105.144      Y16.273    
G17 G3   X105.3389     Y15.8012      R1.9685    
G1   X104.833      Y16.677    
G17 G3   X105.1437     Y16.2727      R1.9685    
G1   X104.428      Y16.988    
G17 G3   X104.8330     Y16.6775      R1.9685    
G1   X103.957      Y17.183    
G17 G3   X104.4282     Y16.9881      R1.9685    
G1   X103.451      Y17.250    
G17 G3   X103.9567     Y17.1834      R1.9685    
G1   X102.945   
G17 G3   X103.4508     Y17.2500      R1.9685    
G1   X102.473      Y16.988    
G17 G3   X102.9449     Y17.1834      R1.9685    
G1   X102.069      Y16.677    
G17 G3   X102.4735     Y16.9881      R1.9685    
(Pass: 2)
G1   X101.758      Y16.273    
   Z4.300      F100 
G17 G3   X102.0687     Y16.6775      R1.9685     F400 
G1   X101.563      Y15.801    
G17 G3   X101.7580     Y16.2727      R1.9685    
G1   X101.496      Y15.295    
G17 G3   X101.5627     Y15.8012      R1.9685    
G1   Y14.789    
G17 G3   X101.4961     Y15.2953      R1.9685    
G1   X101.758      Y14.318    
G17 G3   X101.5627     Y14.7894      R1.9685    
G1   X102.069      Y13.913    
G17 G3   X101.7580     Y14.3180      R1.9685    
G1   X102.473      Y13.602    
G17 G3   X102.0687     Y13.9131      R1.9685    
G1   X102.945      Y13.407    
G17 G3   X102.4735     Y13.6025      R1.9685    
G1   X103.451      Y13.341    
G17 G3   X102.9449     Y13.4072      R1.9685    
G1   X103.957   
G17 G3   X103.4508     Y13.3406      R1.9685    
G1   X104.428      Y13.602    
G17 G3   X103.9567     Y13.4072      R1.9685    
G1   X104.833      Y13.913    
G17 G3   X104.4282     Y13.6025      R1.9685    
G1   X105.144      Y14.318    
G17 G3   X104.8330     Y13.9131      R1.9685    
G1   X105.339      Y14.789    
G17 G3   X105.1437     Y14.3180      R1.9685    
G1   X105.406      Y15.295    
G17 G3   X105.3389     Y14.7894      R1.9685    
G1   Y15.801    
G17 G3   X105.4055     Y15.2953      R1.9685    
G1   X105.144      Y16.273    
G17 G3   X105.3389     Y15.8012      R1.9685    
G1   X104.833      Y16.677    
G17 G3   X105.1437     Y16.2727      R1.9685    
G1   X104.428      Y16.988    
G17 G3   X104.8330     Y16.6775      R1.9685    
G1   X103.957      Y17.183    
G17 G3   X104.4282     Y16.9881      R1.9685    
G1   X103.451      Y17.250    
G17 G3   X103.9567     Y17.1834      R1.9685    
G1   X102.945   
G17 G3   X103.4508     Y17.2500      R1.9685    
G1   X102.473      Y16.988    
G17 G3   X102.9449     Y17.1834      R1.9685    
G1   X102.069      Y16.677    
G17 G3   X102.4735     Y16.9881      R1.9685    
(Pass: 3)
G1   X101.758      Y16.273    
   Z3.300      F100 
G17 G3   X102.0687     Y16.6775      R1.9685     F400 
G1   X101.563      Y15.801    
G17 G3   X101.7580     Y16.2727      R1.9685    
G1   X101.496      Y15.295    
G17 G3   X101.5627     Y15.8012      R1.9685    
G1   Y14.789    
G17 G3   X101.4961     Y15.2953      R1.9685    
G1   X101.758      Y14.318    
G17 G3   X101.5627     Y14.7894      R1.9685    
G1   X102.069      Y13.913    
G17 G3   X101.7580     Y14.3180      R1.9685    
G1   X102.473      Y13.602    
G17 G3   X102.0687     Y13.9131      R1.9685    
G1   X102.945      Y13.407    
G17 G3   X102.4735     Y13.6025      R1.9685    
G1   X103.451      Y13.341    
G17 G3   X102.9449     Y13.4072      R1.9685    
G1   X103.957   
G17 G3   X103.4508     Y13.3406      R1.9685    
G1   X104.428      Y13.602    
G17 G3   X103.9567     Y13.4072      R1.9685    
G1   X104.833      Y13.913    
G17 G3   X104.4282     Y13.6025      R1.9685    
G1   X105.144      Y14.318    
G17 G3   X104.8330     Y13.9131      R1.9685    
G1   X105.339      Y14.789    
G17 G3   X105.1437     Y14.3180      R1.9685    
G1   X105.406      Y15.295    
G17 G3   X105.3389     Y14.7894      R1.9685    
G1   Y15.801    
G17 G3   X105.4055     Y15.2953      R1.9685    
G1   X105.144      Y16.273    
G17 G3   X105.3389     Y15.8012      R1.9685    
G1   X104.833      Y16.677    
G17 G3   X105.1437     Y16.2727      R1.9685    
G1   X104.428      Y16.988    
G17 G3   X104.8330     Y16.6775      R1.9685    
G1   X103.957      Y17.183    
G17 G3   X104.4282     Y16.9881      R1.9685    
G1   X103.451      Y17.250    
G17 G3   X103.9567     Y17.1834      R1.9685    
G1   X102.945   
G17 G3   X103.4508     Y17.2500      R1.9685    
G1   X102.473      Y16.988    
G17 G3   X102.9449     Y17.1834      R1.9685    
G1   X102.069      Y16.677    
G17 G3   X102.4735     Y16.9881      R1.9685    
(Pass: 4)
G1   X101.758      Y16.273    
   Z2.300      F100 
G17 G3   X102.0687     Y16.6775      R1.9685     F400 
G1   X101.563      Y15.801    
G17 G3   X101.7580     Y16.2727      R1.9685    
G1   X101.496      Y15.295    
G17 G3   X101.5627     Y15.8012      R1.9685    
G1   Y14.789    
G17 G3   X101.4961     Y15.2953      R1.9685    
G1   X101.758      Y14.318    
G17 G3   X101.5627     Y14.7894      R1.9685    
G1   X102.069      Y13.913    
G17 G3   X101.7580     Y14.3180      R1.9685    
G1   X102.473      Y13.602    
G17 G3   X102.0687     Y13.9131      R1.9685    
G1   X102.945      Y13.407    
G17 G3   X102.4735     Y13.6025      R1.9685    
G1   X103.451      Y13.341    
G17 G3   X102.9449     Y13.4072      R1.9685    
G1   X103.957   
G17 G3   X103.4508     Y13.3406      R1.9685    
G1   X104.428      Y13.602    
G17 G3   X103.9567     Y13.4072      R1.9685    
G1   X104.833      Y13.913    
G17 G3   X104.4282     Y13.6025      R1.9685    
G1   X105.144      Y14.318    
G17 G3   X104.8330     Y13.9131      R1.9685    
G1   X105.339      Y14.789    
G17 G3   X105.1437     Y14.3180      R1.9685    
G1   X105.406      Y15.295    
G17 G3   X105.3389     Y14.7894      R1.9685    
G1   Y15.801    
G17 G3   X105.4055     Y15.2953      R1.9685    
G1   X105.144      Y16.273    
G17 G3   X105.3389     Y15.8012      R1.9685    
G1   X104.833      Y16.677    
G17 G3   X105.1437     Y16.2727      R1.9685    
G1   X104.428      Y16.988    
G17 G3   X104.8330     Y16.6775      R1.9685    
G1   X103.957      Y17.183    
G17 G3   X104.4282     Y16.9881      R1.9685    
G1   X103.451      Y17.250    
G17 G3   X103.9567     Y17.1834      R1.9685    
G1   X102.945   
G17 G3   X103.4508     Y17.2500      R1.9685    
G1   X102.473      Y16.988    
G17 G3   X102.9449     Y17.1834      R1.9685    
G1   X102.069      Y16.677    
G17 G3   X102.4735     Y16.9881      R1.9685    
(Pass: 5)
G1   X101.758      Y16.273    
   Z1.300      F100 
G17 G3   X102.0687     Y16.6775      R1.9685     F400 
G1   X101.563      Y15.801    
G17 G3   X101.7580     Y16.2727      R1.9685    
G1   X101.496      Y15.295    
G17 G3   X101.5627     Y15.8012      R1.9685    
G1   Y14.789    
G17 G3   X101.4961     Y15.2953      R1.9685    
G1   X101.758      Y14.318    
G17 G3   X101.5627     Y14.7894      R1.9685    
G1   X102.069      Y13.913    
G17 G3   X101.7580     Y14.3180      R1.9685    
G1   X102.473      Y13.602    
G17 G3   X102.0687     Y13.9131      R1.9685    
G1   X102.945      Y13.407    
G17 G3   X102.4735     Y13.6025      R1.9685    
G1   X103.451      Y13.341    
G17 G3   X102.9449     Y13.4072      R1.9685    
G1   X103.957   
G17 G3   X103.4508     Y13.3406      R1.9685    
G1   X104.428      Y13.602    
G17 G3   X103.9567     Y13.4072      R1.9685    
G1   X104.833      Y13.913    
G17 G3   X104.4282     Y13.6025      R1.9685    
G1   X105.144      Y14.318    
G17 G3   X104.8330     Y13.9131      R1.9685    
G1   X105.339      Y14.789    
G17 G3   X105.1437     Y14.3180      R1.9685    
G1   X105.406      Y15.295    
G17 G3   X105.3389     Y14.7894      R1.9685    
G1   Y15.801    
G17 G3   X105.4055     Y15.2953      R1.9685    
G1   X105.144      Y16.273    
G17 G3   X105.3389     Y15.8012      R1.9685    
G1   X104.833      Y16.677    
G17 G3   X105.1437     Y16.2727      R1.9685    
G1   X104.428      Y16.988    
G17 G3   X104.8330     Y16.6775      R1.9685    
G1   X103.957      Y17.183    
G17 G3   X104.4282     Y16.9881      R1.9685    
G1   X103.451      Y17.250    
G17 G3   X103.9567     Y17.1834      R1.9685    
G1   X102.945   
G17 G3   X103.4508     Y17.2500      R1.9685    
G1   X102.473      Y16.988    
G17 G3   X102.9449     Y17.1834      R1.9685    
G1   X102.069      Y16.677    
G17 G3   X102.4735     Y16.9881      R1.9685    
(Pass: 6)
G1   X101.758      Y16.273    
   Z0.300      F100 
G17 G3   X102.0687     Y16.6775      R1.9685     F400 
G1   X101.563      Y15.801    
G17 G3   X101.7580     Y16.2727      R1.9685    
G1   X101.496      Y15.295    
G17 G3   X101.5627     Y15.8012      R1.9685    
G1   Y14.789    
G17 G3   X101.4961     Y15.2953      R1.9685    
G1   X101.758      Y14.318    
G17 G3   X101.5627     Y14.7894      R1.9685    
G1   X102.069      Y13.913    
G17 G3   X101.7580     Y14.3180      R1.9685    
G1   X102.473      Y13.602    
G17 G3   X102.0687     Y13.9131      R1.9685    
G1   X102.945      Y13.407    
G17 G3   X102.4735     Y13.6025      R1.9685    
G1   X103.451      Y13.341    
G17 G3   X102.9449     Y13.4072      R1.9685    
G1   X103.957   
G17 G3   X103.4508     Y13.3406      R1.9685    
G1   X104.428      Y13.602    
G17 G3   X103.9567     Y13.4072      R1.9685    
G1   X104.833      Y13.913    
G17 G3   X104.4282     Y13.6025      R1.9685    
G1   X105.144      Y14.318    
G17 G3   X104.8330     Y13.9131      R1.9685    
G1   X105.339      Y14.789    
G17 G3   X105.1437     Y14.3180      R1.9685    
G1   X105.406      Y15.295    
G17 G3   X105.3389     Y14.7894      R1.9685    
G1   Y15.801    
G17 G3   X105.4055     Y15.2953      R1.9685    
G1   X105.144      Y16.273    
G17 G3   X105.3389     Y15.8012      R1.9685    
G1   X104.833      Y16.677    
G17 G3   X105.1437     Y16.2727      R1.9685    
G1   X104.428      Y16.988    
G17 G3   X104.8330     Y16.6775      R1.9685    
G1   X103.957      Y17.183    
G17 G3   X104.4282     Y16.9881      R1.9685    
G1   X103.451      Y17.250    
G17 G3   X103.9567     Y17.1834      R1.9685    
G1   X102.945   
G17 G3   X103.4508     Y17.2500      R1.9685    
G1   X102.473      Y16.988    
G17 G3   X102.9449     Y17.1834      R1.9685    
G1   X102.069      Y16.677    
G17 G3   X102.4735     Y16.9881      R1.9685    
(Pass: 7)
G1   X101.758      Y16.273    
   Z0.000      F100 
G17 G3   X102.0687     Y16.6775      R1.9685     F400 
G1   X101.563      Y15.801    
G17 G3   X101.7580     Y16.2727      R1.9685    
G1   X101.496      Y15.295    
G17 G3   X101.5627     Y15.8012      R1.9685    
G1   Y14.789    
G17 G3   X101.4961     Y15.2953      R1.9685    
G1   X101.758      Y14.318    
G17 G3   X101.5627     Y14.7894      R1.9685    
G1   X102.069      Y13.913    
G17 G3   X101.7580     Y14.3180      R1.9685    
G1   X102.473      Y13.602    
G17 G3   X102.0687     Y13.9131      R1.9685    
G1   X102.945      Y13.407    
G17 G3   X102.4735     Y13.6025      R1.9685    
G1   X103.451      Y13.341    
G17 G3   X102.9449     Y13.4072      R1.9685    
G1   X103.957   
G17 G3   X103.4508     Y13.3406      R1.9685    
G1   X104.428      Y13.602    
G17 G3   X103.9567     Y13.4072      R1.9685    
G1   X104.833      Y13.913    
G17 G3   X104.4282     Y13.6025      R1.9685    
G1   X105.144      Y14.318    
G17 G3   X104.8330     Y13.9131      R1.9685    
G1   X105.339      Y14.789    
G17 G3   X105.1437     Y14.3180      R1.9685    
G1   X105.406      Y15.295    
G17 G3   X105.3389     Y14.7894      R1.9685    
G1   Y15.801    
G17 G3   X105.4055     Y15.2953      R1.9685    
G1   X105.144      Y16.273    
G17 G3   X105.3389     Y15.8012      R1.9685    
G1   X104.833      Y16.677    
G17 G3   X105.1437     Y16.2727      R1.9685    
G1   X104.428      Y16.988    
G17 G3   X104.8330     Y16.6775      R1.9685    
G1   X103.957      Y17.183    
G17 G3   X104.4282     Y16.9881      R1.9685    
G1   X103.451      Y17.250    
G17 G3   X103.9567     Y17.1834      R1.9685    
G1   X102.945   
G17 G3   X103.4508     Y17.2500      R1.9685    
G1   X102.473      Y16.988    
G17 G3   X102.9449     Y17.1834      R1.9685    
G1   X102.069      Y16.677    
G17 G3   X102.4735     Y16.9881      R1.9685    
G0   Z21.300    
(Pass: 1)
   X176.816      Y15.295    
G1   Z5.300      F100 
G17 G3   X176.8827     Y15.8012      R1.9685     F400 
G1   Y14.789    
G17 G3   X176.8161     Y15.2953      R1.9685    
G1   X177.078      Y14.318    
G17 G3   X176.8827     Y14.7894      R1.9685    
G1   X177.389      Y13.913    
G17 G3   X177.0780     Y14.3180      R1.9685    
G1   X177.793      Y13.602    
G17 G3   X177.3887     Y13.9131      R1.9685    
G1   X178.265      Y13.407    
G17 G3   X177.7935     Y13.6025      R1.9685    
G1   X178.771      Y13.341    
G17 G3   X178.2649     Y13.4072      R1.9685    
G1   X179.277   
G17 G3   X178.7708     Y13.3406      R1.9685    
G1   X179.748      Y13.602    
G17 G3   X179.2767     Y13.4072      R1.9685    
G1   X180.153      Y13.913    
G17 G3   X179.7482     Y13.6025      R1.9685    
G1   X180.464      Y14.318    
G17 G3   X180.1530     Y13.9131      R1.9685    
G1   X180.659      Y14.789    
G17 G3   X180.4637     Y14.3180      R1.9685    
G1   X180.726      Y15.295    
G17 G3   X180.6589     Y14.7894      R1.9685    
G1   Y15.801    
G17 G3   X180.7255     Y15.2953      R1.9685    
G1   X180.464      Y16.273    
G17 G3   X180.6589     Y15.8012      R1.9685    
G1   X180.153      Y16.677    
G17 G3   X180.4637     Y16.2727      R1.9685    
G1   X179.748      Y16.988    
G17 G3   X180.1530     Y16.6775      R1.9685    
G1   X179.277      Y17.183    
G17 G3   X179.7482     Y16.9881      R1.9685    
G1   X178.771      Y17.250    
G17 G3   X179.2767     Y17.1834      R1.9685    
G1   X178.265   
G17 G3   X178.7708     Y17.2500      R1.9685    
G1   X177.793      Y16.988    
G17 G3   X178.2649     Y17.1834      R1.9685    
G1   X177.389      Y16.677    
G17 G3   X177.7935     Y16.9881      R1.9685    
G1   X177.078      Y16.273    
G17 G3   X177.3887     Y16.6775      R1.9685    
G1   X176.883      Y15.801    
G17 G3   X177.0780     Y16.2727      R1.9685    
(Pass: 2)
G1   X176.816      Y15.295    
   Z4.300      F100 
G17 G3   X176.8827     Y15.8012      R1.9685     F400 
G1   Y14.789    
G17 G3   X176.8161     Y15.2953      R1.9685    
G1   X177.078      Y14.318    
G17 G3   X176.8827     Y14.7894      R1.9685    
G1   X177.389      Y13.913    
G17 G3   X177.0780     Y14.3180      R1.9685    
G1   X177.793      Y13.602    
G17 G3   X177.3887     Y13.9131      R1.9685    
G1   X178.265      Y13.407    
G17 G3   X177.7935     Y13.6025      R1.9685    
G1   X178.771      Y13.341    
G17 G3   X178.2649     Y13.4072      R1.9685    
G1   X179.277   
G17 G3   X178.7708     Y13.3406      R1.9685    
G1   X179.748      Y13.602    
G17 G3   X179.2767     Y13.4072      R1.9685    
G1   X180.153      Y13.913    
G17 G3   X179.7482     Y13.6025      R1.9685    
G1   X180.464      Y14.318    
G17 G3   X180.1530     Y13.9131      R1.9685    
G1   X180.659      Y14.789    
G17 G3   X180.4637     Y14.3180      R1.9685    
G1   X180.726      Y15.295    
G17 G3   X180.6589     Y14.7894      R1.9685    
G1   Y15.801    
G17 G3   X180.7255     Y15.2953      R1.9685    
G1   X180.464      Y16.273    
G17 G3   X180.6589     Y15.8012      R1.9685    
G1   X180.153      Y16.677    
G17 G3   X180.4637     Y16.2727      R1.9685    
G1   X179.748      Y16.988    
G17 G3   X180.1530     Y16.6775      R1.9685    
G1   X179.277      Y17.183    
G17 G3   X179.7482     Y16.9881      R1.9685    
G1   X178.771      Y17.250    
G17 G3   X179.2767     Y17.1834      R1.9685    
G1   X178.265   
G17 G3   X178.7708     Y17.2500      R1.9685    
G1   X177.793      Y16.988    
G17 G3   X178.2649     Y17.1834      R1.9685    
G1   X177.389      Y16.677    
G17 G3   X177.7935     Y16.9881      R1.9685    
G1   X177.078      Y16.273    
G17 G3   X177.3887     Y16.6775      R1.9685    
G1   X176.883      Y15.801    
G17 G3   X177.0780     Y16.2727      R1.9685    
(Pass: 3)
G1   X176.816      Y15.295    
   Z3.300      F100 
G17 G3   X176.8827     Y15.8012      R1.9685     F400 
G1   Y14.789    
G17 G3   X176.8161     Y15.2953      R1.9685    
G1   X177.078      Y14.318    
G17 G3   X176.8827     Y14.7894      R1.9685    
G1   X177.389      Y13.913    
G17 G3   X177.0780     Y14.3180      R1.9685    
G1   X177.793      Y13.602    
G17 G3   X177.3887     Y13.9131      R1.9685    
G1   X178.265      Y13.407    
G17 G3   X177.7935     Y13.6025      R1.9685    
G1   X178.771      Y13.341    
G17 G3   X178.2649     Y13.4072      R1.9685    
G1   X179.277   
G17 G3   X178.7708     Y13.3406      R1.9685    
G1   X179.748      Y13.602    
G17 G3   X179.2767     Y13.4072      R1.9685    
G1   X180.153      Y13.913    
G17 G3   X179.7482     Y13.6025      R1.9685    
G1   X180.464      Y14.318    
G17 G3   X180.1530     Y13.9131      R1.9685    
G1   X180.659      Y14.789    
G17 G3   X180.4637     Y14.3180      R1.9685    
G1   X180.726      Y15.295    
G17 G3   X180.6589     Y14.7894      R1.9685    
G1   Y15.801    
G17 G3   X180.7255     Y15.2953      R1.9685    
G1   X180.464      Y16.273    
G17 G3   X180.6589     Y15.8012      R1.9685    
G1   X180.153      Y16.677    
G17 G3   X180.4637     Y16.2727      R1.9685    
G1   X179.748      Y16.988    
G17 G3   X180.1530     Y16.6775      R1.9685    
G1   X179.277      Y17.183    
G17 G3   X179.7482     Y16.9881      R1.9685    
G1   X178.771      Y17.250    
G17 G3   X179.2767     Y17.1834      R1.9685    
G1   X178.265   
G17 G3   X178.7708     Y17.2500      R1.9685    
G1   X177.793      Y16.988    
G17 G3   X178.2649     Y17.1834      R1.9685    
G1   X177.389      Y16.677    
G17 G3   X177.7935     Y16.9881      R1.9685    
G1   X177.078      Y16.273    
G17 G3   X177.3887     Y16.6775      R1.9685    
G1   X176.883      Y15.801    
G17 G3   X177.0780     Y16.2727      R1.9685    
(Pass: 4)
G1   X176.816      Y15.295    
   Z2.300      F100 
G17 G3   X176.8827     Y15.8012      R1.9685     F400 
G1   Y14.789    
G17 G3   X176.8161     Y15.2953      R1.9685    
G1   X177.078      Y14.318    
G17 G3   X176.8827     Y14.7894      R1.9685    
G1   X177.389      Y13.913    
G17 G3   X177.0780     Y14.3180      R1.9685    
G1   X177.793      Y13.602    
G17 G3   X177.3887     Y13.9131      R1.9685    
G1   X178.265      Y13.407    
G17 G3   X177.7935     Y13.6025      R1.9685    
G1   X178.771      Y13.341    
G17 G3   X178.2649     Y13.4072      R1.9685    
G1   X179.277   
G17 G3   X178.7708     Y13.3406      R1.9685    
G1   X179.748      Y13.602    
G17 G3   X179.2767     Y13.4072      R1.9685    
G1   X180.153      Y13.913    
G17 G3   X179.7482     Y13.6025      R1.9685    
G1   X180.464      Y14.318    
G17 G3   X180.1530     Y13.9131      R1.9685    
G1   X180.659      Y14.789    
G17 G3   X180.4637     Y14.3180      R1.9685    
G1   X180.726      Y15.295    
G17 G3   X180.6589     Y14.7894      R1.9685    
G1   Y15.801    
G17 G3   X180.7255     Y15.2953      R1.9685    
G1   X180.464      Y16.273    
G17 G3   X180.6589     Y15.8012      R1.9685    
G1   X180.153      Y16.677    
G17 G3   X180.4637     Y16.2727      R1.9685    
G1   X179.748      Y16.988    
G17 G3   X180.1530     Y16.6775      R1.9685    
G1   X179.277      Y17.183    
G17 G3   X179.7482     Y16.9881      R1.9685    
G1   X178.771      Y17.250    
G17 G3   X179.2767     Y17.1834      R1.9685    
G1   X178.265   
G17 G3   X178.7708     Y17.2500      R1.9685    
G1   X177.793      Y16.988    
G17 G3   X178.2649     Y17.1834      R1.9685    
G1   X177.389      Y16.677    
G17 G3   X177.7935     Y16.9881      R1.9685    
G1   X177.078      Y16.273    
G17 G3   X177.3887     Y16.6775      R1.9685    
G1   X176.883      Y15.801    
G17 G3   X177.0780     Y16.2727      R1.9685    
(Pass: 5)
G1   X176.816      Y15.295    
   Z1.300      F100 
G17 G3   X176.8827     Y15.8012      R1.9685     F400 
G1   Y14.789    
G17 G3   X176.8161     Y15.2953      R1.9685    
G1   X177.078      Y14.318    
G17 G3   X176.8827     Y14.7894      R1.9685    
G1   X177.389      Y13.913    
G17 G3   X177.0780     Y14.3180      R1.9685    
G1   X177.793      Y13.602    
G17 G3   X177.3887     Y13.9131      R1.9685    
G1   X178.265      Y13.407    
G17 G3   X177.7935     Y13.6025      R1.9685    
G1   X178.771      Y13.341    
G17 G3   X178.2649     Y13.4072      R1.9685    
G1   X179.277   
G17 G3   X178.7708     Y13.3406      R1.9685    
G1   X179.748      Y13.602    
G17 G3   X179.2767     Y13.4072      R1.9685    
G1   X180.153      Y13.913    
G17 G3   X179.7482     Y13.6025      R1.9685    
G1   X180.464      Y14.318    
G17 G3   X180.1530     Y13.9131      R1.9685    
G1   X180.659      Y14.789    
G17 G3   X180.4637     Y14.3180      R1.9685    
G1   X180.726      Y15.295    
G17 G3   X180.6589     Y14.7894      R1.9685    
G1   Y15.801    
G17 G3   X180.7255     Y15.2953      R1.9685    
G1   X180.464      Y16.273    
G17 G3   X180.6589     Y15.8012      R1.9685    
G1   X180.153      Y16.677    
G17 G3   X180.4637     Y16.2727      R1.9685    
G1   X179.748      Y16.988    
G17 G3   X180.1530     Y16.6775      R1.9685    
G1   X179.277      Y17.183    
G17 G3   X179.7482     Y16.9881      R1.9685    
G1   X178.771      Y17.250    
G17 G3   X179.2767     Y17.1834      R1.9685    
G1   X178.265   
G17 G3   X178.7708     Y17.2500      R1.9685    
G1   X177.793      Y16.988    
G17 G3   X178.2649     Y17.1834      R1.9685    
G1   X177.389      Y16.677    
G17 G3   X177.7935     Y16.9881      R1.9685    
G1   X177.078      Y16.273    
G17 G3   X177.3887     Y16.6775      R1.9685    
G1   X176.883      Y15.801    
G17 G3   X177.0780     Y16.2727      R1.9685    
(Pass: 6)
G1   X176.816      Y15.295    
   Z0.300      F100 
G17 G3   X176.8827     Y15.8012      R1.9685     F400 
G1   Y14.789    
G17 G3   X176.8161     Y15.2953      R1.9685    
G1   X177.078      Y14.318    
G17 G3   X176.8827     Y14.7894      R1.9685    
G1   X177.389      Y13.913    
G17 G3   X177.0780     Y14.3180      R1.9685    
G1   X177.793      Y13.602    
G17 G3   X177.3887     Y13.9131      R1.9685    
G1   X178.265      Y13.407    
G17 G3   X177.7935     Y13.6025      R1.9685    
G1   X178.771      Y13.341    
G17 G3   X178.2649     Y13.4072      R1.9685    
G1   X179.277   
G17 G3   X178.7708     Y13.3406      R1.9685    
G1   X179.748      Y13.602    
G17 G3   X179.2767     Y13.4072      R1.9685    
G1   X180.153      Y13.913    
G17 G3   X179.7482     Y13.6025      R1.9685    
G1   X180.464      Y14.318    
G17 G3   X180.1530     Y13.9131      R1.9685    
G1   X180.659      Y14.789    
G17 G3   X180.4637     Y14.3180      R1.9685    
G1   X180.726      Y15.295    
G17 G3   X180.6589     Y14.7894      R1.9685    
G1   Y15.801    
G17 G3   X180.7255     Y15.2953      R1.9685    
G1   X180.464      Y16.273    
G17 G3   X180.6589     Y15.8012      R1.9685    
G1   X180.153      Y16.677    
G17 G3   X180.4637     Y16.2727      R1.9685    
G1   X179.748      Y16.988    
G17 G3   X180.1530     Y16.6775      R1.9685    
G1   X179.277      Y17.183    
G17 G3   X179.7482     Y16.9881      R1.9685    
G1   X178.771      Y17.250    
G17 G3   X179.2767     Y17.1834      R1.9685    
G1   X178.265   
G17 G3   X178.7708     Y17.2500      R1.9685    
G1   X177.793      Y16.988    
G17 G3   X178.2649     Y17.1834      R1.9685    
G1   X177.389      Y16.677    
G17 G3   X177.7935     Y16.9881      R1.9685    
G1   X177.078      Y16.273    
G17 G3   X177.3887     Y16.6775      R1.9685    
G1   X176.883      Y15.801    
G17 G3   X177.0780     Y16.2727      R1.9685    
(Pass: 7)
G1   X176.816      Y15.295    
   Z0.000      F100 
G17 G3   X176.8827     Y15.8012      R1.9685     F400 
G1   Y14.789    
G17 G3   X176.8161     Y15.2953      R1.9685    
G1   X177.078      Y14.318    
G17 G3   X176.8827     Y14.7894      R1.9685    
G1   X177.389      Y13.913    
G17 G3   X177.0780     Y14.3180      R1.9685    
G1   X177.793      Y13.602    
G17 G3   X177.3887     Y13.9131      R1.9685    
G1   X178.265      Y13.407    
G17 G3   X177.7935     Y13.6025      R1.9685    
G1   X178.771      Y13.341    
G17 G3   X178.2649     Y13.4072      R1.9685    
G1   X179.277   
G17 G3   X178.7708     Y13.3406      R1.9685    
G1   X179.748      Y13.602    
G17 G3   X179.2767     Y13.4072      R1.9685    
G1   X180.153      Y13.913    
G17 G3   X179.7482     Y13.6025      R1.9685    
G1   X180.464      Y14.318    
G17 G3   X180.1530     Y13.9131      R1.9685    
G1   X180.659      Y14.789    
G17 G3   X180.4637     Y14.3180      R1.9685    
G1   X180.726      Y15.295    
G17 G3   X180.6589     Y14.7894      R1.9685    
G1   Y15.801    
G17 G3   X180.7255     Y15.2953      R1.9685    
G1   X180.464      Y16.273    
G17 G3   X180.6589     Y15.8012      R1.9685    
G1   X180.153      Y16.677    
G17 G3   X180.4637     Y16.2727      R1.9685    
G1   X179.748      Y16.988    
G17 G3   X180.1530     Y16.6775      R1.9685    
G1   X179.277      Y17.183    
G17 G3   X179.7482     Y16.9881      R1.9685    
G1   X178.771      Y17.250    
G17 G3   X179.2767     Y17.1834      R1.9685    
G1   X178.265   
G17 G3   X178.7708     Y17.2500      R1.9685    
G1   X177.793      Y16.988    
G17 G3   X178.2649     Y17.1834      R1.9685    
G1   X177.389      Y16.677    
G17 G3   X177.7935     Y16.9881      R1.9685    
G1   X177.078      Y16.273    
G17 G3   X177.3887     Y16.6775      R1.9685    
G1   X176.883      Y15.801    
G17 G3   X177.0780     Y16.2727      R1.9685    
G0   Z21.300    
(Pass: 1)
   X187.680      Y25.199    
G1   Z5.300      F100 
G17 G3   X187.6036     Y25.4177      R0.9000     F400 
G1   X187.811      Y25.008    
G17 G3   X187.6803     Y25.1994      R0.9000    
G1   X187.987      Y24.858    
G17 G3   X187.8110     Y25.0085      R0.9000    
G1   X188.195      Y24.758    
G17 G3   X187.9865     Y24.8578      R0.9000    
G1   X188.422      Y24.715    
G17 G3   X188.1951     Y24.7578      R0.9000    
G1   X188.653   
G17 G3   X188.4225     Y24.7151      R0.9000    
G1   X188.871      Y24.810    
G17 G3   X188.6532     Y24.7328      R0.9000    
G1   X189.062      Y24.940    
G17 G3   X188.8714     Y24.8095      R0.9000    
G1   X189.213      Y25.116    
G17 G3   X189.0624     Y24.9401      R0.9000    
G1   X189.313      Y25.324    
G17 G3   X189.2130     Y25.1157      R0.9000    
G1   X189.356      Y25.552    
G17 G3   X189.3130     Y25.3243      R0.9000    
G1   Y25.782    
G17 G3   X189.3557     Y25.5517      R0.9000    
G1   X189.261      Y26.001    
G17 G3   X189.3381     Y25.7823      R0.9000    
G1   X189.131      Y26.192    
G17 G3   X189.2613     Y26.0006      R0.9000    
G1   X188.955      Y26.342    
G17 G3   X189.1307     Y26.1915      R0.9000    
G1   X188.747      Y26.442    
G17 G3   X188.9551     Y26.3422      R0.9000    
G1   X188.519      Y26.485    
G17 G3   X188.7466     Y26.4422      R0.9000    
G1   X188.456      Y26.480    
G17 G3   X188.5192     Y26.4849      R0.9000    
G1   X188.289   
G17 G3   X188.4565     Y26.4801      R0.9000    
G1   X188.070      Y26.390    
G17 G3   X188.2885     Y26.4672      R0.9000    
G1   X187.879      Y26.260    
G17 G3   X188.0703     Y26.3905      R0.9000    
G1   X187.729      Y26.084    
G17 G3   X187.8793     Y26.2599      R0.9000    
G1   X187.629      Y25.876    
G17 G3   X187.7287     Y26.0843      R0.9000    
G1   X187.586      Y25.648    
G17 G3   X187.6286     Y25.8757      R0.9000    
G1   Y25.418    
G17 G3   X187.5860     Y25.6483      R0.9000    
(Pass: 2)
G1   X187.680      Y25.199    
   Z4.300      F100 
G17 G3   X187.6036     Y25.4177      R0.9000     F400 
G1   X187.811      Y25.008    
G17 G3   X187.6803     Y25.1994      R0.9000    
G1   X187.987      Y24.858    
G17 G3   X187.8110     Y25.0085      R0.9000    
G1   X188.195      Y24.758    
G17 G3   X187.9865     Y24.8578      R0.9000    
G1   X188.422      Y24.715    
G17 G3   X188.1951     Y24.7578      R0.9000    
G1   X188.653   
G17 G3   X188.4225     Y24.7151      R0.9000    
G1   X188.871      Y24.810    
G17 G3   X188.6532     Y24.7328      R0.9000    
G1   X189.062      Y24.940    
G17 G3   X188.8714     Y24.8095      R0.9000    
G1   X189.213      Y25.116    
G17 G3   X189.0624     Y24.9401      R0.9000    
G1   X189.313      Y25.324    
G17 G3   X189.2130     Y25.1157      R0.9000    
G1   X189.356      Y25.552    
G17 G3   X189.3130     Y25.3243      R0.9000    
G1   Y25.782    
G17 G3   X189.3557     Y25.5517      R0.9000    
G1   X189.261      Y26.001    
G17 G3   X189.3381     Y25.7823      R0.9000    
G1   X189.131      Y26.192    
G17 G3   X189.2613     Y26.0006      R0.9000    
G1   X188.955      Y26.342    
G17 G3   X189.1307     Y26.1915      R0.9000    
G1   X188.747      Y26.442    
G17 G3   X188.9551     Y26.3422      R0.9000    
G1   X188.519      Y26.485    
G17 G3   X188.7466     Y26.4422      R0.9000    
G1   X188.456      Y26.480    
G17 G3   X188.5192     Y26.4849      R0.9000    
G1   X188.289   
G17 G3   X188.4565     Y26.4801      R0.9000    
G1   X188.070      Y26.390    
G17 G3   X188.2885     Y26.4672      R0.9000    
G1   X187.879      Y26.260    
G17 G3   X188.0703     Y26.3905      R0.9000    
G1   X187.729      Y26.084    
G17 G3   X187.8793     Y26.2599      R0.9000    
G1   X187.629      Y25.876    
G17 G3   X187.7287     Y26.0843      R0.9000    
G1   X187.586      Y25.648    
G17 G3   X187.6286     Y25.8757      R0.9000    
G1   Y25.418    
G17 G3   X187.5860     Y25.6483      R0.9000    
(Pass: 3)
G1   X187.680      Y25.199    
   Z3.300      F100 
G17 G3   X187.6036     Y25.4177      R0.9000     F400 
G1   X187.811      Y25.008    
G17 G3   X187.6803     Y25.1994      R0.9000    
G1   X187.987      Y24.858    
G17 G3   X187.8110     Y25.0085      R0.9000    
G1   X188.195      Y24.758    
G17 G3   X187.9865     Y24.8578      R0.9000    
G1   X188.422      Y24.715    
G17 G3   X188.1951     Y24.7578      R0.9000    
G1   X188.653   
G17 G3   X188.4225     Y24.7151      R0.9000    
G1   X188.871      Y24.810    
G17 G3   X188.6532     Y24.7328      R0.9000    
G1   X189.062      Y24.940    
G17 G3   X188.8714     Y24.8095      R0.9000    
G1   X189.213      Y25.116    
G17 G3   X189.0624     Y24.9401      R0.9000    
G1   X189.313      Y25.324    
G17 G3   X189.2130     Y25.1157      R0.9000    
G1   X189.356      Y25.552    
G17 G3   X189.3130     Y25.3243      R0.9000    
G1   Y25.782    
G17 G3   X189.3557     Y25.5517      R0.9000    
G1   X189.261      Y26.001    
G17 G3   X189.3381     Y25.7823      R0.9000    
G1   X189.131      Y26.192    
G17 G3   X189.2613     Y26.0006      R0.9000    
G1   X188.955      Y26.342    
G17 G3   X189.1307     Y26.1915      R0.9000    
G1   X188.747      Y26.442    
G17 G3   X188.9551     Y26.3422      R0.9000    
G1   X188.519      Y26.485    
G17 G3   X188.7466     Y26.4422      R0.9000    
G1   X188.456      Y26.480    
G17 G3   X188.5192     Y26.4849      R0.9000    
G1   X188.289   
G17 G3   X188.4565     Y26.4801      R0.9000    
G1   X188.070      Y26.390    
G17 G3   X188.2885     Y26.4672      R0.9000    
G1   X187.879      Y26.260    
G17 G3   X188.0703     Y26.3905      R0.9000    
G1   X187.729      Y26.084    
G17 G3   X187.8793     Y26.2599      R0.9000    
G1   X187.629      Y25.876    
G17 G3   X187.7287     Y26.0843      R0.9000    
G1   X187.586      Y25.648    
G17 G3   X187.6286     Y25.8757      R0.9000    
G1   Y25.418    
G17 G3   X187.5860     Y25.6483      R0.9000    
(Pass: 4)
G1   X187.680      Y25.199    
   Z2.300      F100 
G17 G3   X187.6036     Y25.4177      R0.9000     F400 
G1   X187.811      Y25.008    
G17 G3   X187.6803     Y25.1994      R0.9000    
G1   X187.987      Y24.858    
G17 G3   X187.8110     Y25.0085      R0.9000    
G1   X188.195      Y24.758    
G17 G3   X187.9865     Y24.8578      R0.9000    
G1   X188.422      Y24.715    
G17 G3   X188.1951     Y24.7578      R0.9000    
G1   X188.653   
G17 G3   X188.4225     Y24.7151      R0.9000    
G1   X188.871      Y24.810    
G17 G3   X188.6532     Y24.7328      R0.9000    
G1   X189.062      Y24.940    
G17 G3   X188.8714     Y24.8095      R0.9000    
G1   X189.213      Y25.116    
G17 G3   X189.0624     Y24.9401      R0.9000    
G1   X189.313      Y25.324    
G17 G3   X189.2130     Y25.1157      R0.9000    
G1   X189.356      Y25.552    
G17 G3   X189.3130     Y25.3243      R0.9000    
G1   Y25.782    
G17 G3   X189.3557     Y25.5517      R0.9000    
G1   X189.261      Y26.001    
G17 G3   X189.3381     Y25.7823      R0.9000    
G1   X189.131      Y26.192    
G17 G3   X189.2613     Y26.0006      R0.9000    
G1   X188.955      Y26.342    
G17 G3   X189.1307     Y26.1915      R0.9000    
G1   X188.747      Y26.442    
G17 G3   X188.9551     Y26.3422      R0.9000    
G1   X188.519      Y26.485    
G17 G3   X188.7466     Y26.4422      R0.9000    
G1   X188.456      Y26.480    
G17 G3   X188.5192     Y26.4849      R0.9000    
G1   X188.289   
G17 G3   X188.4565     Y26.4801      R0.9000    
G1   X188.070      Y26.390    
G17 G3   X188.2885     Y26.4672      R0.9000    
G1   X187.879      Y26.260    
G17 G3   X188.0703     Y26.3905      R0.9000    
G1   X187.729      Y26.084    
G17 G3   X187.8793     Y26.2599      R0.9000    
G1   X187.629      Y25.876    
G17 G3   X187.7287     Y26.0843      R0.9000    
G1   X187.586      Y25.648    
G17 G3   X187.6286     Y25.8757      R0.9000    
G1   Y25.418    
G17 G3   X187.5860     Y25.6483      R0.9000    
(Pass: 5)
G1   X187.680      Y25.199    
   Z1.300      F100 
G17 G3   X187.6036     Y25.4177      R0.9000     F400 
G1   X187.811      Y25.008    
G17 G3   X187.6803     Y25.1994      R0.9000    
G1   X187.987      Y24.858    
G17 G3   X187.8110     Y25.0085      R0.9000    
G1   X188.195      Y24.758    
G17 G3   X187.9865     Y24.8578      R0.9000    
G1   X188.422      Y24.715    
G17 G3   X188.1951     Y24.7578      R0.9000    
G1   X188.653   
G17 G3   X188.4225     Y24.7151      R0.9000    
G1   X188.871      Y24.810    
G17 G3   X188.6532     Y24.7328      R0.9000    
G1   X189.062      Y24.940    
G17 G3   X188.8714     Y24.8095      R0.9000    
G1   X189.213      Y25.116    
G17 G3   X189.0624     Y24.9401      R0.9000    
G1   X189.313      Y25.324    
G17 G3   X189.2130     Y25.1157      R0.9000    
G1   X189.356      Y25.552    
G17 G3   X189.3130     Y25.3243      R0.9000    
G1   Y25.782    
G17 G3   X189.3557     Y25.5517      R0.9000    
G1   X189.261      Y26.001    
G17 G3   X189.3381     Y25.7823      R0.9000    
G1   X189.131      Y26.192    
G17 G3   X189.2613     Y26.0006      R0.9000    
G1   X188.955      Y26.342    
G17 G3   X189.1307     Y26.1915      R0.9000    
G1   X188.747      Y26.442    
G17 G3   X188.9551     Y26.3422      R0.9000    
G1   X188.519      Y26.485    
G17 G3   X188.7466     Y26.4422      R0.9000    
G1   X188.456      Y26.480    
G17 G3   X188.5192     Y26.4849      R0.9000    
G1   X188.289   
G17 G3   X188.4565     Y26.4801      R0.9000    
G1   X188.070      Y26.390    
G17 G3   X188.2885     Y26.4672      R0.9000    
G1   X187.879      Y26.260    
G17 G3   X188.0703     Y26.3905      R0.9000    
G1   X187.729      Y26.084    
G17 G3   X187.8793     Y26.2599      R0.9000    
G1   X187.629      Y25.876    
G17 G3   X187.7287     Y26.0843      R0.9000    
G1   X187.586      Y25.648    
G17 G3   X187.6286     Y25.8757      R0.9000    
G1   Y25.418    
G17 G3   X187.5860     Y25.6483      R0.9000    
(Pass: 6)
G1   X187.680      Y25.199    
   Z0.300      F100 
G17 G3   X187.6036     Y25.4177      R0.9000     F400 
G1   X187.811      Y25.008    
G17 G3   X187.6803     Y25.1994      R0.9000    
G1   X187.987      Y24.858    
G17 G3   X187.8110     Y25.0085      R0.9000    
G1   X188.195      Y24.758    
G17 G3   X187.9865     Y24.8578      R0.9000    
G1   X188.422      Y24.715    
G17 G3   X188.1951     Y24.7578      R0.9000    
G1   X188.653   
G17 G3   X188.4225     Y24.7151      R0.9000    
G1   X188.871      Y24.810    
G17 G3   X188.6532     Y24.7328      R0.9000    
G1   X189.062      Y24.940    
G17 G3   X188.8714     Y24.8095      R0.9000    
G1   X189.213      Y25.116    
G17 G3   X189.0624     Y24.9401      R0.9000    
G1   X189.313      Y25.324    
G17 G3   X189.2130     Y25.1157      R0.9000    
G1   X189.356      Y25.552    
G17 G3   X189.3130     Y25.3243      R0.9000    
G1   Y25.782    
G17 G3   X189.3557     Y25.5517      R0.9000    
G1   X189.261      Y26.001    
G17 G3   X189.3381     Y25.7823      R0.9000    
G1   X189.131      Y26.192    
G17 G3   X189.2613     Y26.0006      R0.9000    
G1   X188.955      Y26.342    
G17 G3   X189.1307     Y26.1915      R0.9000    
G1   X188.747      Y26.442    
G17 G3   X188.9551     Y26.3422      R0.9000    
G1   X188.519      Y26.485    
G17 G3   X188.7466     Y26.4422      R0.9000    
G1   X188.456      Y26.480    
G17 G3   X188.5192     Y26.4849      R0.9000    
G1   X188.289   
G17 G3   X188.4565     Y26.4801      R0.9000    
G1   X188.070      Y26.390    
G17 G3   X188.2885     Y26.4672      R0.9000    
G1   X187.879      Y26.260    
G17 G3   X188.0703     Y26.3905      R0.9000    
G1   X187.729      Y26.084    
G17 G3   X187.8793     Y26.2599      R0.9000    
G1   X187.629      Y25.876    
G17 G3   X187.7287     Y26.0843      R0.9000    
G1   X187.586      Y25.648    
G17 G3   X187.6286     Y25.8757      R0.9000    
G1   Y25.418    
G17 G3   X187.5860     Y25.6483      R0.9000    
(Pass: 7)
G1   X187.680      Y25.199    
   Z0.000      F100 
G17 G3   X187.6036     Y25.4177      R0.9000     F400 
G1   X187.811      Y25.008    
G17 G3   X187.6803     Y25.1994      R0.9000    
G1   X187.987      Y24.858    
G17 G3   X187.8110     Y25.0085      R0.9000    
G1   X188.195      Y24.758    
G17 G3   X187.9865     Y24.8578      R0.9000    
G1   X188.422      Y24.715    
G17 G3   X188.1951     Y24.7578      R0.9000    
G1   X188.653   
G17 G3   X188.4225     Y24.7151      R0.9000    
G1   X188.871      Y24.810    
G17 G3   X188.6532     Y24.7328      R0.9000    
G1   X189.062      Y24.940    
G17 G3   X188.8714     Y24.8095      R0.9000    
G1   X189.213      Y25.116    
G17 G3   X189.0624     Y24.9401      R0.9000    
G1   X189.313      Y25.324    
G17 G3   X189.2130     Y25.1157      R0.9000    
G1   X189.356      Y25.552    
G17 G3   X189.3130     Y25.3243      R0.9000    
G1   Y25.782    
G17 G3   X189.3557     Y25.5517      R0.9000    
G1   X189.261      Y26.001    
G17 G3   X189.3381     Y25.7823      R0.9000    
G1   X189.131      Y26.192    
G17 G3   X189.2613     Y26.0006      R0.9000    
G1   X188.955      Y26.342    
G17 G3   X189.1307     Y26.1915      R0.9000    
G1   X188.747      Y26.442    
G17 G3   X188.9551     Y26.3422      R0.9000    
G1   X188.519      Y26.485    
G17 G3   X188.7466     Y26.4422      R0.9000    
G1   X188.456      Y26.480    
G17 G3   X188.5192     Y26.4849      R0.9000    
G1   X188.289   
G17 G3   X188.4565     Y26.4801      R0.9000    
G1   X188.070      Y26.390    
G17 G3   X188.2885     Y26.4672      R0.9000    
G1   X187.879      Y26.260    
G17 G3   X188.0703     Y26.3905      R0.9000    
G1   X187.729      Y26.084    
G17 G3   X187.8793     Y26.2599      R0.9000    
G1   X187.629      Y25.876    
G17 G3   X187.7287     Y26.0843      R0.9000    
G1   X187.586      Y25.648    
G17 G3   X187.6286     Y25.8757      R0.9000    
G1   Y25.418    
G17 G3   X187.5860     Y25.6483      R0.9000    
G0   Z21.300    
(Pass: 1)
   X188.395      Y34.749    
G1   Z5.300      F100 
G17 G3   X188.1692     Y34.7991      R0.9000     F400 
G1   X188.626      Y34.760    
G17 G3   X188.3952     Y34.7494      R0.9000    
G1   X188.847      Y34.830    
G17 G3   X188.6263     Y34.7599      R0.9000    
G1   X189.042      Y34.955    
G17 G3   X188.8468     Y34.8299      R0.9000    
G1   X189.198      Y35.125    
G17 G3   X189.0417     Y34.9545      R0.9000    
G1   X189.304      Y35.331    
G17 G3   X189.1977     Y35.1253      R0.9000    
G1   X189.354      Y35.557    
G17 G3   X189.3041     Y35.3307      R0.9000    
G1   X189.343      Y35.788    
G17 G3   X189.3538     Y35.5567      R0.9000    
G1   X189.273      Y36.008    
G17 G3   X189.3433     Y35.7878      R0.9000    
G1   X189.149      Y36.203    
G17 G3   X189.2733     Y36.0083      R0.9000    
G1   X188.978      Y36.359    
G17 G3   X189.1487     Y36.2032      R0.9000    
G1   X188.772      Y36.466    
G17 G3   X188.9779     Y36.3592      R0.9000    
G1   X188.511      Y36.523    
G17 G3   X188.7725     Y36.4656      R0.9000    
G1   X188.413      Y36.523    
G17 G3   X188.5105     Y36.5232      R0.9000    
G1   X188.356   
G17 G3   X188.4127     Y36.5232      R0.9000    
G1   X188.095      Y36.435    
G17 G3   X188.3559     Y36.5176      R0.9000    
G1   X187.900      Y36.310    
G17 G3   X188.0949     Y36.4349      R0.9000    
G1   X187.744      Y36.139    
G17 G3   X187.9000     Y36.3102      R0.9000    
G1   X187.638      Y35.934    
G17 G3   X187.7440     Y36.1394      R0.9000    
G1   X187.588      Y35.708    
G17 G3   X187.6376     Y35.9340      R0.9000    
G1   X187.598      Y35.477    
G17 G3   X187.5879     Y35.7080      R0.9000    
G1   X187.668      Y35.256    
G17 G3   X187.5984     Y35.4769      R0.9000    
G1   X187.793      Y35.062    
G17 G3   X187.6683     Y35.2564      R0.9000    
G1   X187.964      Y34.906    
G17 G3   X187.7930     Y35.0615      R0.9000    
G1   X188.169      Y34.799    
G17 G3   X187.9638     Y34.9055      R0.9000    
(Pass: 2)
G1   X188.395      Y34.749    
   Z4.300      F100 
G17 G3   X188.1692     Y34.7991      R0.9000     F400 
G1   X188.626      Y34.760    
G17 G3   X188.3952     Y34.7494      R0.9000    
G1   X188.847      Y34.830    
G17 G3   X188.6263     Y34.7599      R0.9000    
G1   X189.042      Y34.955    
G17 G3   X188.8468     Y34.8299      R0.9000    
G1   X189.198      Y35.125    
G17 G3   X189.0417     Y34.9545      R0.9000    
G1   X189.304      Y35.331    
G17 G3   X189.1977     Y35.1253      R0.9000    
G1   X189.354      Y35.557    
G17 G3   X189.3041     Y35.3307      R0.9000    
G1   X189.343      Y35.788    
G17 G3   X189.3538     Y35.5567      R0.9000    
G1   X189.273      Y36.008    
G17 G3   X189.3433     Y35.7878      R0.9000    
G1   X189.149      Y36.203    
G17 G3   X189.2733     Y36.0083      R0.9000    
G1   X188.978      Y36.359    
G17 G3   X189.1487     Y36.2032      R0.9000    
G1   X188.772      Y36.466    
G17 G3   X188.9779     Y36.3592      R0.9000    
G1   X188.511      Y36.523    
G17 G3   X188.7725     Y36.4656      R0.9000    
G1   X188.413      Y36.523    
G17 G3   X188.5105     Y36.5232      R0.9000    
G1   X188.356   
G17 G3   X188.4127     Y36.5232      R0.9000    
G1   X188.095      Y36.435    
G17 G3   X188.3559     Y36.5176      R0.9000    
G1   X187.900      Y36.310    
G17 G3   X188.0949     Y36.4349      R0.9000    
G1   X187.744      Y36.139    
G17 G3   X187.9000     Y36.3102      R0.9000    
G1   X187.638      Y35.934    
G17 G3   X187.7440     Y36.1394      R0.9000    
G1   X187.588      Y35.708    
G17 G3   X187.6376     Y35.9340      R0.9000    
G1   X187.598      Y35.477    
G17 G3   X187.5879     Y35.7080      R0.9000    
G1   X187.668      Y35.256    
G17 G3   X187.5984     Y35.4769      R0.9000    
G1   X187.793      Y35.062    
G17 G3   X187.6683     Y35.2564      R0.9000    
G1   X187.964      Y34.906    
G17 G3   X187.7930     Y35.0615      R0.9000    
G1   X188.169      Y34.799    
G17 G3   X187.9638     Y34.9055      R0.9000    
(Pass: 3)
G1   X188.395      Y34.749    
   Z3.300      F100 
G17 G3   X188.1692     Y34.7991      R0.9000     F400 
G1   X188.626      Y34.760    
G17 G3   X188.3952     Y34.7494      R0.9000    
G1   X188.847      Y34.830    
G17 G3   X188.6263     Y34.7599      R0.9000    
G1   X189.042      Y34.955    
G17 G3   X188.8468     Y34.8299      R0.9000    
G1   X189.198      Y35.125    
G17 G3   X189.0417     Y34.9545      R0.9000    
G1   X189.304      Y35.331    
G17 G3   X189.1977     Y35.1253      R0.9000    
G1   X189.354      Y35.557    
G17 G3   X189.3041     Y35.3307      R0.9000    
G1   X189.343      Y35.788    
G17 G3   X189.3538     Y35.5567      R0.9000    
G1   X189.273      Y36.008    
G17 G3   X189.3433     Y35.7878      R0.9000    
G1   X189.149      Y36.203    
G17 G3   X189.2733     Y36.0083      R0.9000    
G1   X188.978      Y36.359    
G17 G3   X189.1487     Y36.2032      R0.9000    
G1   X188.772      Y36.466    
G17 G3   X188.9779     Y36.3592      R0.9000    
G1   X188.511      Y36.523    
G17 G3   X188.7725     Y36.4656      R0.9000    
G1   X188.413      Y36.523    
G17 G3   X188.5105     Y36.5232      R0.9000    
G1   X188.356   
G17 G3   X188.4127     Y36.5232      R0.9000    
G1   X188.095      Y36.435    
G17 G3   X188.3559     Y36.5176      R0.9000    
G1   X187.900      Y36.310    
G17 G3   X188.0949     Y36.4349      R0.9000    
G1   X187.744      Y36.139    
G17 G3   X187.9000     Y36.3102      R0.9000    
G1   X187.638      Y35.934    
G17 G3   X187.7440     Y36.1394      R0.9000    
G1   X187.588      Y35.708    
G17 G3   X187.6376     Y35.9340      R0.9000    
G1   X187.598      Y35.477    
G17 G3   X187.5879     Y35.7080      R0.9000    
