%
(Generated by SketchUcam {1.2a})
(File: ControlBoxTopHoles.skp)
(Bit diameter: 2.5mm)
(Feed rate: 300.0mm/min)
(Material Thickness: 4.0mm)
(Material length: 558.8mm X width: 1066.8mm)
(Overhead Gantry: true)
(Retract feed rate NOT limited to plunge feed rate)
(Optimization is ON)
(www.PhlatBoyz.com)
G90 G21 G49 
M3 S15000
G0   Z6.000     
   X45.162       Y197.643   
G1   Z-4.000     F300 
G17 G2   X42.5776      Y198.7302     R10.7500   
   X40.3632      Y200.4495     R10.7500   
   X38.6692      Y202.6833     R10.7500   
   X37.6111      Y205.2795     R10.7500   
   X37.2610      Y208.0610     R10.7500   
   X37.6427      Y210.8384     R10.7500   
   X38.7302      Y213.4224     R10.7500   
   X40.4495      Y215.6368     R10.7500   
   X42.6833      Y217.3308     R10.7500   
   X45.2795      Y218.3889     R10.7500   
   X48.0610      Y218.7390     R10.7500   
   X50.8384      Y218.3573     R10.7500   
   X53.4224      Y217.2698     R10.7500   
   X55.6368      Y215.5505     R10.7500   
   X57.3308      Y213.3167     R10.7500   
   X58.3889      Y210.7205     R10.7500   
   X58.7390      Y207.9390     R10.7500   
   X58.3573      Y205.1616     R10.7500   
   X57.2698      Y202.5776     R10.7500   
   X55.5505      Y200.3632     R10.7500   
   X53.3167      Y198.6692     R10.7500   
   X50.7205      Y197.6111     R10.7500   
   X47.9390      Y197.2610     R10.7500   
   X45.1616      Y197.6427     R10.7500   
G0   Z6.000     
   X82.327       Y206.812   
G1   Z-4.000     F300 
G17 G2   X82.3829      Y209.6152     R10.7500   
   X83.1627      Y212.3080     R10.7500   
   X84.6129      Y214.7073     R10.7500   
   X86.6347      Y216.6495     R10.7500   
   X89.0902      Y218.0022     R10.7500   
   X91.8122      Y218.6733     R10.7500   
   X94.6152      Y218.6171     R10.7500   
   X97.3080      Y217.8373     R10.7500   
   X99.7073      Y216.3871     R10.7500   
   X101.6495     Y214.3653     R10.7500   
   X103.0022     Y211.9098     R10.7500   
   X103.6733     Y209.1878     R10.7500   
   X103.6171     Y206.3848     R10.7500   
   X102.8373     Y203.6920     R10.7500   
   X101.3871     Y201.2927     R10.7500   
   X99.3653      Y199.3505     R10.7500   
   X96.9098      Y197.9978     R10.7500   
   X94.1878      Y197.3267     R10.7500   
   X91.3848      Y197.3829     R10.7500   
   X88.6920      Y198.1627     R10.7500   
   X86.2927      Y199.6129     R10.7500   
   X84.3505      Y201.6347     R10.7500   
   X82.9978      Y204.0902     R10.7500   
   X82.3267      Y206.8122     R10.7500   
G0   Z6.000     
G0 X0 Y0 (home)
M05
M30
%
